/* XPM */
static char *ce488319d65b47b0bd71fd7e031a5228dLZXEkPM018dLh54[] = {
/* columns rows colors chars-per-pixel */
"350 350 256 2 ",
"   c #47704C",
".  c #81793F",
"X  c #363426",
"o  c None",
"O  c #575432",
"+  c #6B6662",
"@  c #77765E",
"#  c #3D6022",
"$  c #37541D",
"%  c #907916",
"&  c #DBD4C1",
"*  c #C09357",
"=  c #2C4817",
"-  c #4E5D1B",
";  c #7A8E46",
":  c #3A5819",
">  c #5A8230",
",  c #4A4D30",
"<  c #806417",
"1  c #232E0F",
"2  c #36302B",
"3  c #54752F",
"4  c #5B6129",
"5  c #654816",
"6  c #6E613B",
"7  c #9380B7",
"8  c #56591F",
"9  c #4F5821",
"0  c #1A1108",
"q  c #241F11",
"w  c #292719",
"e  c #20170D",
"r  c #854524",
"t  c #150904",
"y  c #5E516E",
"u  c #110402",
"i  c #345518",
"p  c #27230E",
"a  c #837210",
"s  c #487626",
"d  c #426E28",
"f  c #9D813E",
"g  c #C3973F",
"h  c #6A8742",
"j  c #272911",
"k  c #B38534",
"l  c #C3B991",
"z  c #D9D5C3",
"x  c #D8D2C1",
"c  c #110602",
"v  c #160F06",
"b  c #120B04",
"n  c #181307",
"m  c #1D190B",
"M  c #0C0200",
"N  c #170702",
"B  c #1D0B03",
"V  c #191608",
"C  c #2E1D0B",
"Z  c #373815",
"A  c #272110",
"S  c #240E04",
"D  c #1F1409",
"F  c #2F3212",
"G  c #39270E",
"H  c #2A2C10",
"J  c #1E1F0B",
"K  c #32220D",
"L  c #241B09",
"P  c #412C12",
"I  c #3E3D16",
"U  c #43441B",
"Y  c #2B2610",
"T  c #241D0F",
"R  c #242910",
"E  c #FDFDED",
"W  c #443210",
"Q  c #494A1C",
"!  c #2B1206",
"~  c #4C3616",
"^  c #4D4F1E",
"/  c #3D3423",
"(  c #21240E",
")  c #47250C",
"_  c #FFFFFB",
"`  c #2E2719",
"'  c #332D1C",
"]  c #28170B",
"[  c #593F17",
"{  c #775E40",
"}  c #FEFCE1",
"|  c #76581C",
" . c #4F3C12",
".. c #634C32",
"X. c #CF982B",
"o. c #644A14",
"O. c #53541D",
"+. c #706A25",
"@. c #FAF7D8",
"#. c #956B22",
"$. c #9A7321",
"%. c #573114",
"&. c #C19128",
"*. c #BAB198",
"=. c #856B48",
"-. c #103009",
";. c #62421B",
":. c #4F2B10",
">. c #8E7351",
",. c #372F0F",
"<. c #6E5538",
"1. c #585B22",
"2. c #31411A",
"3. c #E2DCC0",
"4. c #F1E9D3",
"5. c #F5F0DB",
"6. c #3E1C0B",
"7. c #977D57",
"8. c #B2A890",
"9. c #E9E2CC",
"0. c #64652A",
"q. c #AA9070",
"w. c #503B27",
"e. c #AE9879",
"r. c #163F0B",
"t. c #AFA186",
"y. c #DEA12C",
"u. c #897B2D",
"i. c #584514",
"p. c #646023",
"a. c #74722C",
"s. c #AD8626",
"d. c #59432B",
"f. c #FAF7E5",
"g. c #8C6323",
"h. c #13370A",
"j. c #6E5015",
"k. c #438824",
"l. c #EAD28C",
"z. c #0E2208",
"x. c #413D2B",
"c. c #397B20",
"v. c #BB8826",
"b. c #848449",
"n. c #286116",
"m. c #10290A",
"M. c #A58026",
"N. c #C2B89E",
"B. c #C9C1A8",
"V. c #978D75",
"C. c #D7D0AE",
"Z. c #E6E4B9",
"A. c #7A611B",
"S. c #BF9937",
"D. c #61551B",
"F. c #225413",
"G. c #85691E",
"H. c #797C3B",
"J. c #8A7229",
"K. c #F1DBBA",
"L. c #306E1A",
"P. c #AE8C2C",
"I. c #361408",
"U. c #0E1B08",
"Y. c #CEB36C",
"T. c #D8B98E",
"R. c #E9D4B0",
"E. c #835B30",
"W. c #9A7B27",
"Q. c #1B480E",
"!. c #A67820",
"~. c #6E6C3B",
"^. c #314A1B",
"/. c #AA8761",
"(. c #D7B146",
"). c #F1DB92",
"_. c #CCAA55",
"`. c #D7FC5B",
"'. c #A7CB3E",
"]. c #EDEFC9",
"[. c #C6F055",
"{. c #DABA63",
"}. c #865C19",
"|. c #613918",
" X c #9B8631",
".X c #FCF8C5",
"XX c #CAB08F",
"oX c #B5913D",
"OX c #C7A33E",
"+X c #4F9729",
"@X c #B08246",
"#X c #F8ECB2",
"$X c #E5C7A2",
"%X c #53532E",
"&X c #273916",
"*X c #998C4F",
"=X c #958667",
"-X c #4C4731",
";X c #D6B522",
":X c #73674D",
">X c #5D5E38",
",X c #79511C",
"<X c #AA9553",
"1X c #5DA32E",
"2X c #6BAF36",
"3X c #B9E54D",
"4X c #C99D6A",
"5X c #A87A3C",
"6X c #BFA689",
"7X c #F5E39E",
"8X c #719A3E",
"9X c #5A523E",
"0X c #7A7458",
"qX c #B9A159",
"wX c #5E8E2F",
"eX c #7BBB39",
"rX c #CDDD99",
"tX c #486B27",
"yX c #D0A677",
"uX c #6C4826",
"iX c #9B966E",
"pX c #88C940",
"aX c #B2DB44",
"sX c #783519",
"dX c #DDC34B",
"fX c #E3C881",
"gX c #87A648",
"hX c #E6C76B",
"jX c #F0DC65",
"kX c #DEBF99",
"lX c #92AC63",
"zX c #A9B975",
"xX c #96BF3A",
"cX c #CCA71F",
"vX c #EDAF32",
"bX c #8A9B55",
"nX c #9F9A7F",
"mX c #645C49",
"MX c #FDFBAE",
"NX c #9ED547",
"BX c #B5AA76",
"VX c #D2C696",
"CX c #B4C484",
"ZX c #B57D23",
"AX c #857E64",
"SX c #F5E673",
"DX c #BCD45D",
"FX c #C5D28F",
"GX c #E6D25A",
"HX c #A4B753",
"JX c #EFBA3B",
"KX c #FBF49C",
"LX c #5F2110",
"PX c #F9F278",
"IX c #F3EC93",
"UX c #F7C748",
/* pixels */
"                                                                                                                                                                                                                                                                                                                                                                                                                                                                                                                                                                                                                                                                                                                            ",
"                                                                                                                                                                                                                                                                                                                                                                                                                                                                                                                                                                                                                                                                                                                            ",
"                                                                                                                                                                                                                                                                                                                                                                                                                                                                                                                                                                                                                                                                                                                            ",
"                                                                                                                                                                                                                                                                                                                                                                                                                                                                                                                                                                                                                                                                                                                            ",
"                                                                                                                                                                                                                                                                                                                                                                                                                                                                                                                                                                                                                                                                                                                            ",
"                                                                                                                                                                                                                                                                                                                                                                                                                                                                                                                                                                                                                                                                                                                            ",
"                                                                                                                                                                                                                                                                                                                                                                                                                                                                                                                                                                                                                                                                                                                            ",
"                                                                                                                                                                                                                                                                                                                                                                                                                                                                                                                                                                                                                                                                                                                            ",
"                                                                                                                                                                                                                                                                                                                                                                                                                                                                                                                                                                                                                                                                                                                            ",
"                                                                                                                                                                                                                                                                                                                                                                                                                                                                                                                                                                                                                                                                                                                            ",
"                                                                                                                                                                                                                                                                                                                                                                                                                                                                                                                                                                                                                                                                                                                            ",
"                                                                                                                                                                                                                                                                                                                                                                                                                                                                                                                                                                                                                                                                                                                            ",
"                                                                                                                                                                                                                                                                                                                                                                                                                                                                                                                                                                                                                                                                                                                            ",
"                                                                                                                                                                                                                                                                                                                                                                                                                                                                                                                                                                                                                                                                                                                            ",
"                                                                                                                                                                                                                                                                                                                                                                                                                                                                                                                                                                                                                                                                                                                            ",
"                                                                                                                                                                                                                                                                                                                                                                                                                                                                                                                                                                                                                                                                                                                            ",
"                                                                                                                                                                                                                                                                                                                                                                                                                                                                                                                                                                                                                                                                                                                            ",
"                                                                                                                                                                                                                                                                                                                                                                                                                                                                                                                                                                                                                                                                                                                            ",
"                                                                                                                                                                                                                                                                                                                                                                                                                                                                                                                                                                                                                                                                                                                            ",
"                                                                                                                                                                                                                                                                                                                                                                                                                                                                                                                                                                                                                                                                                                                            ",
"                                                                                                                                                                                                                                                                                                                                                                                                                                                                                                                                                                                                                                                                                                                            ",
"                                                                                                                                                                                                                                                                                                                                                                                                                                                                                                                                                                                                                                                                                                                            ",
"                                                                                                                                                                                                                                                                                                                                                                                                                                                                                                                                                                                                                                                                                                                            ",
"                                                                                                                                                                                                                                                                                                                                          7 y + @ @ 6 6 6 6 6 6 6 6 6 6 6 @ @ @ @ + y 7                                                                                                                                                                                                                                                                                                                                     ",
"                                                                                                                                                                                                                                                                                                                          7 + 6 O . 4 9 f f f k k g g g g g g g g g g g k k k k f f f 8 8 9 4 . , @ 7                                                                                                                                                                                                                                                                                                                       ",
"                                                                                                                                                                                                                                                                                                                      X . 9 f k g * X.OX_.(.{.{.fXfXfXl.l.l.l.l.l.l.fXfXfX{.Y._.qXoX@X5X$.#.g.< < - 8 4 6 7                                                                                                                                                                                                                                                                                                                 ",
"                                                                                                                                                                                                                                                                                                                  2 4 : % v.X.(.{.hXhXhXhXl.l.l.l.).l.fXY.Y.Y.Y.Y.qXqXqXqXqX* oXoXoX@X5XW.$.#.#.g.g.g.< - 4 @                                                                                                                                                                                                                                                                                                               ",
"                                                                                                                                                                                                                                                                                                                6 e 5 ZX&.(.* hX).#X).hXhX#Xl._._.{.{._.oXoXoXoXs.#.#.5XM.5X#.}.$.$.#.#.#.#.g.g.g.#.M.qX_.* f ,                                                                                                                                                                                                                                                                                                             ",
"                                                                                                                                                                                                                                                                                                              7 q r #.ZXy.{.5Xl.7X#X7XhXhX].fXoXv.S.OXoX#.$.W.5X$.| }.#.$.#.| j.g.#.g.}.}.g.g.}.g.$.P.T.].#XY.f +                                                                                                                                                                                                                                                                                                           ",
"                                                                                                                                                                                                                                                                                                              , 5 #.#.ZX(.* }.{.hX{.X.&.X.l.4XZX!.v.v.#.,Xg.g.#.}.;.,X}.#.}.j.;.g.g.,X,X}.>.,X,X}.#.@X_.).#Xl.g .                                                                                                                                                                                                                                                                                                           ",
"                                                                                                                                                                                                                                                                                                              9 E.@X}.ZX{.g.sXv.y.!.}.#.ZXY.}.}.}.!.ZX;.|.,Xg.qX,X%.;.E./.;.|.%./.{ %.|.>.e.|.;.g.7.}.$.4XY.S.* 8                                                                                                                                                                                                                                                                                                           ",
"                                                                                                                                                                                                                                                                                                            + 0 >.>.sX#.Y.%.) r {.E.6.%.E.yXP 6.6.,XyXK ! C <.C.w.B ! ..e.C ! C q.{ B S { e.C C { e.) :.5X<X[ oXk X                                                                                                                                                                                                                                                                                                         ",
"                                                                                                                                                                                                                                                                                                            , p /...! =.t.] S ~ VXd.S I.<.BX] B B ..XXC N B w.VX~ N N d.BX] N B 7.{ b v ..e.] B ..t.C S <.e.C =./.O                                                                                                                                                                                                                                                                                                         ",
"                                                                                                                                                                                                                                                                                                            q %.q.%.6.<X=XI.) E.VX%.I.) =.t.] ] I.{ 4XC ! ] [ Y.P B ] ;.BXK ! ] >.{ D ] d.e.K ! w.6XP C ;.XXw.uX* 4                                                                                                                                                                                                                                                                                                         ",
"                                                                                                                                                                                                                                                                                                            e w./.:.%.Y.=.) sX5XXX:.:.sX@Xq.6.%.%.#.* C K ) ;.<XG ] ) [ /.K I.6.=.{ ] 6.|.q.P 6.%.t.[ ) |.BX<.%.oX8                                                                                                                                                                                                                                                                                                         ",
"                                                                                                                                                                                                                                                                                                          @ 0 uX5X%.r Y.,X%.sXg.>.:.j.E.7.:Xw...i.<.<.,.Z Z W -XA ( ( Y / J L L / / V L Y 9XA m K =.w.G :.>.E.6.$.f 2                                                                                                                                                                                                                                                                                                       ",
"                                                                                                                                                                                                                                                                                                          X 1 ,X,X6.%.<.G C ] ' -X%X>X9X%X%X%X-X-XQ U U 2.Z F H R ( ( z.U.z.U.U.U.U.U.U.U.U.U.U.U.J U.U.V Y ` v [ - X                                                                                                                                                                                                                                                                                                       ",
"                                                                                                                                                                                                                                                                                                          + e P n m n v v v m -X>X<.>X<.>X%X%X%X%X-X-XU x.2.&XF R m.( z.z.J z.U.U.U.U.U.U.U.U.U.U.U.U.U.U.n m t t 8 +                                                                                                                                                                                                                                                                                                       ",
"                                                                                                                                                                                                                                                                                                            6 q e 1 ` ' n v ` >X>X{ 0.{ 0.p.>X>X%X%X-XQ U 2.&X&XH R m.m.( z.z.z.U.z.U.U.U.U.U.U.U.U.U.z.-.1 q w w X                                                                                                                                                                                                                                                                                                         ",
"                                                                                                                                                                                                                                                                                                                7 w j -Xv n 2.H.*X<X<XS.oX Xu.a.0.1.%X^ Q ^.2.&X&X-.-.m.m.m.m.m.R z.U.U.U.U.z.R &X^.F z.h.= 2                                                                                                                                                                                                                                                                                                               ",
"                                                                                                                                                                                                                                                                                                                  q ' m v V >XqX{.dX{.(.OXoX Xu.a.0.0.1.$ $ ^.2.&Xh.h.-.-.m.-.m.m.z.U.U.z.z.-.^.tX; tXz.-.i O                                                                                                                                                                                                                                                                                                               ",
"                                                                                                                                                                                                                                                                                                                2 = mXm v R ; {.dXhXdX{._.S.<X*Xb.H.3 tXtX# $ ^.Q.r.h.h.-.-.&X-.m.z.z.z.U.z.m.^.3 ; ; -.m.2.9                                                                                                                                                                                                                                                                                                               ",
"                                                                                                                                                                                                                                                                                                                O j :Xm v 2.lXhXGXGXhXhX{._._.gXbX; ; > 3 tX# $ F.Q.r.&Xh.-.-.m.m.z.z.z.z.z.m.2.tX; lX$ z.r.: +                                                                                                                                                                                                                                                                                                             ",
"                                                                                                                                                                                                                                                                                                              7 q F ` n V # zX7X#X.X#X#XhXdXdXHXHXgXgX8XwX> tX# $ F.Q.r.r.h.-.-.m.z.z.z.z.z.z.&X# ; lX3 z.h.i ,                                                                                                                                                                                                                                                                                                             ",
"                                                                                                                                                                                                                                                                                                              + 0 R n v ( > rX.X} } } .XjXjXGXdXdXHXHXgXgXwX> tX# $ F.Q.r.r.^.&Xm.m.z.z.z.z.z.h.$ H.lXbX-.m.^.4                                                                                                                                                                                                                                                                                                             ",
"                                                                                                                                                                                                                                                                                                              O j ( n v F bX#X@.} } } #XPXSXjXjXGXDX'.HXHXgXwXc.tXn.F.^.Q.r.r.h.m.m.z.z.z.z.z.-.^.3 bXlX^.z.2.e 7                                                                                                                                                                                                                                                                                                           ",
"                                                                                                                                                                                                                                                                                                              q F J ` m 2.zX.X} E E } MXKXPXSXSXjXHXDX'.xXHX8Xk.c.L.n.F.Q.Q.r.h.m.m.m.z.z.z.z.m.^.tXbXzX>Xz.&X= 6                                                                                                                                                                                                                                                                                                           ",
"                                                                                                                                                                                                                                                                                                            @ 0 H V n n $ FX} E E E } MXMXPXPXPXSXGXDXDXxXeX1XwXc.L.n.# # Q.r.h.-.m.m.z.z.z.z.m.2.tX; zXb.z.h.i w                                                                                                                                                                                                                                                                                                           ",
"                                                                                                                                                                                                                                                                                                            O j R V n v tXZ.E E _ E } MXMXPXPXPX`.[.DXDXxXeX1Xk.c.L.n.L.n.Q.r.$ %Xm.m.m.z.z.z.z.2.tX; zXbXm.-.$ e                                                                                                                                                                                                                                                                                                           ",
"                                                                                                                                                                                                                                                                                                            q ( R V / V 3 ].f.E E E .XKXPXPXPXPXSX3XDX'.xXHX8XwXc.c.tXn.F.F.$ Q.^.-.-.m.z.z.z.m.&XtX; CXlXm.m.$ = 2                                                                                                                                                                                                                                                                                                         ",
"                                                                                                                                                                                                                                                                                                            e J ( V V V ~.rX].].4.4.Z.rXDXDX'.'.'.xXeX2X2X8XwXk.c.L.L.n.F.F.# ^.h.-.-.&X-.z.z.z.&XtXgXFXlXz.m.$ 1 X                                                                                                                                                                                                                                                                                                         ",
"                                                                                                                                                                                                                                                                                                            e J J n n n Z lXrXC.C.C.FXFXHXeX2X2X2X1X1X+X+XwXk.c.L.L.n.n.F.F.Q.^.h.-.-.2.R z.z.m.^.> CXrX0XU.m.^.0 +                                                                                                                                                                                                                                                                                                         ",
"                                                                                                                                                                                                                                                                                                            w j J n v v v 2.iXzXzXzXzXlXgX+Xk.k.k.k.c.c.c.c.L.n.n.F.F.F.Q.Q.h.h.-.m.z.z.z.z.R m.2.3 bX; F U.h.i w                                                                                                                                                                                                                                                                                                           ",
"                                                                                                                                                                                                                                                                                                            + q A J ` v ` m ` x.x.x.x./ F R m.m.m.m.m.m.m.m.m.m.m.m.z.z.z.z.z.U.U.U.U.U.U.x.V.R U.V U.U.U.U.-X8 +                                                                                                                                                                                                                                                                                                           ",
"                                                                                                                                                                                                                                                                                                              2 e ` ( n 9X` n V n n v b b b b v U.U.U.z.z.z.z.z.m.z.z.z.z.z.U.U.z.H U.U.U.2.:XR F 2.^.H U.J 8 @                                                                                                                                                                                                                                                                                                             ",
"                                                                                                                                                                                                                                                                                                              7 X 1 n n Y F 2.0.~.~.~.0.# # # tXL.L.L.n.n.n.F.F.F.Q.Q.r.r.r.h.-.-.&Xz.U.z.z.m.2.tX; bX2.z.j O                                                                                                                                                                                                                                                                                                               ",
"                                                                                                                                                                                                                                                                                                                  e m n v H tXlXzXzXzXzXgXwXwXwXk.k.c.c.L.L.n.n.F.F.Q.Q.r.r.r.h.-.m.m.m.H z.m.$ 3 bXbXR &X1 X                                                                                                                                                                                                                                                                                                               ",
"                                                                                                                                                                                                                                                                                                                  q J n v R tXlXzXzXzXzXzX8Xk.k.k.k.gXgXk.L.L.n.F.F.Q.Q.Q.r.r.2.-.-.-.&Xm.z.-.$ 3 bX; m.2.: +                                                                                                                                                                                                                                                                                                               ",
"                                                                                                                                                                                                                                                                                                                  q T v v -.tXlXCXCXCXzXzXgXwXk.k.8XlX1Xk.k.> n.n.F.F.Q.Q.r.r.r.-.-.-.&Xm.-.m.$ 3 bXb.z.2.: +                                                                                                                                                                                                                                                                                                               ",
"                                                                                                                                                                                                                                                                                                                  q m v v F c.lXFX].].FXzXlXwXwX+X+X+X+XwXk.c.L.n.F.F.F.# Q.r.h.h.-.m.m.m.m.m.^.3 bX; m.r.= 2                                                                                                                                                                                                                                                                                                               ",
"                                                                                                                                                                                                                                                                                                                  e ' n v 2.> zXrX@.E ].CXHX8X+X+X1X1X1XwXk.c.L.n.n.n.F.F.Q.r.r.h.-.-.m.m.m.m.^.3 gXlXR r.= X                                                                                                                                                                                                                                                                                                               ",
"                                                                                                                                                                                                                                                                                                                + e 0XA v ^.wXCXZ.@.E } rXHX8X1X2X1X1X1X+X+Xk.c.L.n.n.n.F.F.Q.r.h.h.-.m.m.z.m.2.3 bXzX2.h.i ,                                                                                                                                                                                                                                                                                                               ",
"                                                                                                                                                                                                                                                                                                                + 0 %XV n $ 8XFX].E E } rXHX1X1X2X2X2X2X1X+Xk.k.c.L.L.n.n.n.F.Q.r.h.-.h.2.m.-.r.3 bXCX$ -.i O                                                                                                                                                                                                                                                                                                               ",
"                                                                                                                                                                                                                                                                                                                X 1 J b V # 8XrX].E E } rXHXgXeXeXxXxXeX2X1X+Xk.k.c.L.L.n.tXtXQ.r.h.h.&X2.&Xm.h.tXbXCXtXm.i w                                                                                                                                                                                                                                                                                                               ",
"                                                                                                                                                                                                                                                                                                                , p v b m tXlXZ.@.E _ f.rXHXgXeXxX'.'.xXeX2X1X+X+X8Xc.L.L.L.n.F.Q.r.h.-.-.m.m.-.tX8XCXb.m.# 4                                                                                                                                                                                                                                                                                                               ",
"                                                                                                                                                                                                                                                                                                                O j m c J tXzX].f._ E f.rXHXeXxX'.NXaXNX'.xX2X1X1X+Xk.c.L.L.n.F.Q.r.h.-.-.-.m.-.# 8XCXbXm.$ 9                                                                                                                                                                                                                                                                                                               ",
"                                                                                                                                                                                                                                                                                                                w j V c H 3 CX].E _ _ @.rX'.xX'.NXaXaXaXaX'.xX2X1X+Xk.k.c.L.L.n.F.r.h.-.-.-.m.-.# ; CXzX-.F.8                                                                                                                                                                                                                                                                                                               ",
"                                                                                                                                                                                                                                                                                                                9 :X/ c &X> FX].E _ _ 5.rX'.xX'.aX3X3X3XaXaXpXeX2X1X+Xk.k.c.c.n.F.Q.r.h.-.-.-.m.$ wXzXCX&XQ.d y                                                                                                                                                                                                                                                                                                             ",
"                                                                                                                                                                                                                                                                                                                8 b.9Xc ^.8XrX@._ _ _ ].rX'.'.aX3X[.[.3X3XaXNXeX2X1X+X+Xk.k.lXL.F.Q.r.h.-.-.-.m.F.wXzXFX^.r.- 2                                                                                                                                                                                                                                                                                                             ",
"                                                                                                                                                                                                                                                                                                                : &Xv b $ gXZ.f._ _ _ ].rX'.'.aX[.`.`.[.3XaXNXpXeX2X1X+X+Xk.k.L.n.F.Q.r.h.h.-.-.Q.> lXFX>X-.s ,                                                                                                                                                                                                                                                                                                             ",
"                                                                                                                                                                                                                                                                                                              2 = &Xc V 3 lX].E E _ _ ].rX'.'.DXIXKXIXDX[.3XaXpXeX2X1X1X+Xk.c.L.n.F.Q.r.h.-.-.-.r.> lXrX0Xm.i O                                                                                                                                                                                                                                                                                                             ",
"                                                                                                                                                                                                                                                                                                              6 = F c ' bXCX@.E _ _ E ].FX'.aXHXHXDXgX'.[.[.aXNXpXeX2X1X+Xk.c.L.n.F.Q.r.h.-.-.-.r.3 gXFXiX-.tX4                                                                                                                                                                                                                                                                                                             ",
"                                                                                                                                                            7 7                                                                                                                                               O i ( b I lXFXE E _ _ _ Z.DX'.aX'.xXDX[.`.`.[.aXNXpXeX2X1X+Xk.k.c.L.n.F.r.h.h.-.-.h.tXgXFXBXR # 9                                                                                                                                                                                                                                                                                                             ",
"                                                                                                                                                            X O +                                                                                                                                             w i m c F ; CXE _ _ _ E Z.DX'.gXaX`.`.`.`.`.[.3XNXpXeX2X1X1X+Xk.c.L.n.F.Q.h.h.-.-.h.tX8XCXCX&X$ 8                                                                                                                                                                                                                                                                                                             ",
"                                                                                                                                                            , 9 2                                                                                                                                             9 ^.V b %X8XFXE _ _ _ E rXDX'.xXaX`.`.`.`.`.[.3XNXpXeXeX2X1X+Xk.c.L.n.F.Q.r.h.-.-.h.tX8XCXFX^.F.d y                                                                                                                                                                                                                                                                                                           ",
"                                                                                                                                                          + w w                                                                                                                                             7 q 2.v n 1.8XrXf.E _ _ f.rXDX'.aX3X`.`.`.`.`.[.3XNXpXpXeX2X1X+Xk.c.L.n.n.# ^.h.-.-.-.$ 8XzXrX>XQ.- X                                                                                                                                                                                                                                                                                                           ",
"                                                                                                                                                          y , 2                                                                                                                                             y : &Xb m 3 gXrX@.E _ _ f.rXDX'.aX3X`.`.`.`.`.[.3XNXpXpXeX2X1X+Xk.k.c.L.n.# $ h.-.-.-.F.wXHXrX0Xr.s ,                                                                                                                                                                                                                                                                                                           ",
"                                                                                                                                                                                                                                                                                                            + = F v J 3 gXZ.@._ _ _ @.rXDX'.aX3X[.`.`.`.`.3X3XNXpXpXeXeX2X+Xk.k.c.zXlXF.r.h.-.-.-.^.> lXrXiXh.i O                                                                                                                                                                                                                                                                                                           ",
"                                                                                                                                                                                                                                                                                                            , = R V F > lX].E _ _ _ 5.rX'.'.aX3X[.`.`.`.`.aXgXxXpXpXeXeX2X+X+Xk.> H.bX$ r.h.-.-.-.Q.> gXFX8.h.tX4                                                                                                                                                                                                                                                                                                           ",
"                                                                                                                                                                                                                                                                                                          7 O i J b F ; HX5._ _ _ _ ].rXDX'.aX3X[.`.`.`.`.aX> eXpXpXeX2X2X1X+Xk.k.tXF.Q.r.h.-.-.-.r.3 gXFXB.&X# 9                                                                                                                                                                                                                                                                                                           ",
"                                                                                                                                                                                                                                                                                                            w ^.V b Q lXCXZ.E _ _ _ ].rX'.'.aX3X[.`.`.`.`.[.aXNXpXpXeX2X2X+X+Xk.k.c.n.Q.r.h.h.-.-.h.tXbXCXC.2.n.d 7                                                                                                                                                                                                                                                                                                         ",
"                                                                                                                                                                                                                                                                                                          + q ^.v m ~.lXCXf.E _ _ _ ].rX'.'.aXaX[.`.`.`.`.[.3XNXpXpXeX2X1X1X+X+XlXwXF.Q.r.h.h.-.-.h.tXbXzX3.>XF.d 2                                                                                                                                                                                                                                                                                                         ",
"                                                                                                                                                                                                                                                                                                            8 2.n L 0.gXFXE _ _ _ _ Z.FX'.'.aX'.3X[.`.`.`.[.3XNXpXpXeX2X1X1X+Xk.k.L.n.Q.r.h.h.-.-.h.# 8XzXZ.0Xr.s ,                                                                                                                                                                                                                                                                                                         ",
"                                                                                                                                                                                                                                                                                                          X : 2.-XU 0.gXrXE _ _ _ E Z.DX'.'.aX3X[.`.`.`.`.[.3XNXpXeXeX2X1X1X+Xk.c.L.n.Q.r.h.h.-.-.-.$ ; HXrXV.&Xs O                                                                                                                                                                                                                                                                                                         ",
"                                                                                                                                                                                                                                                                                                          , = R n F > gX3.E _ _ _ E Z.DX'.xX'.3X[.`.`.`.`.[.3XNXpXeXeX2X1X1X+Xk.c.L.n.F.Q.h.h.-.-.h.F.wXlXrX8.&X3 4                                                                                                                                                                                                                                                                                                         ",
"                                                                                                                                                                                                                                                                                                        y O i J b F > gXZ.E _ _ _ E rXDX'.'.'.3X'.gX3X`.[.[.aXNXpXeXeX2X1X+X+Xk.c.L.n.F.Q.r.h.-.-.-.^.> lXFXB.Z tX9                                                                                                                                                                                                                                                                                                         ",
"                                                                                                                                                                                                                                                                                                          4 $ V v 2.wXlX].E _ _ _ f.rXDX'.'.'.3XxX0.HX`.`.[.3XNXpXeXeX2X1X+X+Xk.c.L.n.F.Q.r.h.-.-.h.Q.> lXFXC.x.# d 7                                                                                                                                                                                                                                                                                                       ",
"                                                                                                                                                                                                                                                                                                        y q ^.v n ^.8XlX5.E _ _ _ f.rX'.xX'.aX3X3XaX[.`.[.3X3XNXpXpXxX2X1X+Xk.k.c.L.n.F.Q.r.h.-.-.h.r.> gXCX3.9XF.- 2                                                                                                                                                                                                                                                                                                       ",
"                                                                                                                                                                                                                                                                                                        7 : 2.b V $ 8XzX5.E _ _ _ 5.rX'.eXDX3XaX3X[.`.`.[.3X3XNXpXpXpX'.2X+Xk.k.c.L.n.F.Q.r.h.-.-.h.r.3 gXCXZ.:XQ.s ,                                                                                                                                                                                                                                                                                                       ",
"                                                                                                                                                                                                                                                                                                        + = &XA ( # 8XzXZ.f._ _ _ ].rXxXxXDXHXxX[.[.`.`.[.3XaXNXpXeXeXbX3 k.k.k.c.L.L.F.Q.r.h.&X2.h.r.tXgXCXZ.AX&Xs O                                                                                                                                                                                                                                                                                                       ",
"                                                                                                                                                                                                                                                                                                        , = H m H 3 8XCXf.E _ _ _ ].rX'.8X0.8XaX3X[.`.`.[.3XNXNXpXeX2X# $ k.k.k.c.L.; # Q.r.h.r.2.h.r.tXgXzXZ.nX&X3 4                                                                                                                                                                                                                                                                                                       ",
"                                                                                                                                                                                                                                                                                                        O i ( b H > gXFXE E _ _ _ Z.rXxXxXwXxXaX3X[.`.`.[.3XNXpXpXeX2X1X+X+Xk.c.c.L.Q.Q.Q.r.h.h.h.r.r.# 8XHXrX*.&X3 9                                                                                                                                                                                                                                                                                                       ",
"                                                                                                                                                                                                                                                                                                        w $ U.b &XwXgXrX} f._ _ _ Z.FXxX'.'.aXaX3X[.`.[.[.3XNXpXpXeX2X2X1X+Xk.c.c.L.n.F.Q.r.h.h.h.r.r.# 8XHXrXo 2.tXd y                                                                                                                                                                                                                                                                                                     ",
"                                                                                                                                                                                                                                                                                                      7 q $ n b 2.wXgX3.@.E _ _ E Z.DXxXxX'.xXHXxX[.`.[.3XaXNXpXpXeX2X1X1X+Xk.c.c.n.n.F.Q.r.h.h.h.r.r.n.8XHXrX& -XtX- X                                                                                                                                                                                                                                                                                                     ",
"                                                                                                                                                                                                                                                                                                        8 ^.b b ^.8XlXZ.].E _ _ E Z.DXxXxX'.xXgX8X3X[.[.3XaXNXpXeXeX2X2X8X+Xk.c.L.L.n.F.Q.r.h.h.h.r.Q.n.8XHXFXZ.>X# s ,                                                                                                                                                                                                                                                                                                     ",
"                                                                                                                                                                                                                                                                                                      y : 2.b v $ 8XlXZ.Z._ _ _ E rXDXxXxX'.NXaXaXaX[.[.3XaXNXpXeX2X2X1X1X+Xk.c.L.n.n.F.Q.r.h.r.h.r.Q.F.; HXFX].0X# s O                                                                                                                                                                                                                                                                                                     ",
"                                                                                                                                                                                                                                                                                                      X = &XA / # 8XzX].5._ _ _ f.rX'.xXxX'.NXaX3X3X[.[.3XaXNXpXeX2X2X1X+Xk.k.c.L.n.n.F.Q.r.r.r.r.r.Q.F.wXHXFX].V.# > 4                                                                                                                                                                                                                                                                                                     ",
"                                                                                                                                                                                                                                                                                                      , i R m H tXgXzXf.E _ _ _ 5.rX'.xXxX'.NXaX3X[.[.[.3XaXNXpXeX2X1X1X+XwXk.c.L.n.n.F.Q.r.h.r.r.Q.Q.F.wXHXFX].8.# > 9                                                                                                                                                                                                                                                                                                     ",
"                                                                                                                                                                                                                                                                                                      O i ( V J 3 gXCXE _ _ _ _ 5.rX'.xXxX'.NXaX3X[.[.[.3XNXpXeXeX2X1X1X+Xk.k.c.L.n.n.F.Q.Q.r.r.r.r.F.n.wXHXFX].B.tXk.8                                                                                                                                                                                                                                                                                                     ",
"                                                                                                                                                                                                                                                                                                      4 # J T F > gXCXE _ _ _ _ ].rXxXxXxX'.NXaX3X[.[.[.3XNXpXeX2X2X1X1X+Xk.c.c.L.n.n.F.F.Q.r.r.r.Q.F.n.wXHXFX].C.3 wXd +                                                                                                                                                                                                                                                                                                   ",
"                                                                                                                                                                                                                                                                                                      9 # U./ 2.wXgXFX_ _ _ _ _ ].rXxXeXxX'.DXDX3X[.[.3X3XNXpXeX2X2X1X1XwXk.c.c.L.n.L.n.n.Q.r.r.Q.Q.F.L.wXHXFX].9.> 8X- X                                                                                                                                                                                                                                                                                                   ",
"                                                                                                                                                                                                                                                                                                    7 8 # ( x.>XlXlX3._ _ _ _ _ ].rXDXFXZ.].@.@.].IX[.[.3XDXNXpXeX2X1X+X+Xk.c.c.> lXCXo B.8.b.# F.F.F.L.8XHXFX].4.bX2Xs ,                                                                                                                                                                                                                                                                                                   ",
"                                                                                                                                                                                                                                                                                                    y f N.*.o 9.5.5.f.E _ _ _ _ E @.f.E E E E E E } .X].].@.@.].Z.CXlX2X1X8XlXCX3.5.5.5.5.5.9.o nX3 L.c.8XzXZ.@.f.lX2Xh ,                                                                                                                                                                                                                                                                                                   ",
"                                                                                                                                                                                                                                                                                                    @ x f.4.9.4.5.f.E E _ _ _ _ _ E f.f.f.E E E E E E E E E E f.E f.5.9.Z.9.5.5.5.5.4.4.4.4.9.4.9.& N.lXCX9.f.E E 3.& o l                                                                                                                                                                                                                                                                                                   ",
"                                                                                                                                                                                                                                                                                                    @ o 5.9.9.4.5.f.E E _ _ _ _ E f.f.f.f.f.f.E f.E E E E f.f.f.f.f.5.f.5.5.5.5.4.4.4.9.9.9.9.9.3.3.9.3.9.4.f.f.E f.4.& z                                                                                                                                                                                                                                                                                                   ",
"                                                                                                                                                                                                                                                                                                    7 & 4.3.3.4.4.f.E E _ _ _ _ E f.5.5.f.f.f.f.f.f.f.f.f.f.f.f.5.5.5.5.5.4.4.4.4.9.9.9.9.3.3.& 3.& & & 9.4.5.f.E f.4.& z                                                                                                                                                                                                                                                                                                   ",
"                                                                                                                                                                                                                                                                                                    l 3.9.& & 9.4.5.E E _ _ _ _ f.5.5.5.5.5.f.5.f.f.f.f.5.5.5.5.5.4.4.4.4.9.9.9.9.9.3.3.3.& & & & & & & 3.9.5.f.E f.4.3.z                                                                                                                                                                                                                                                                                                   ",
"                                                                                                                                                                                                                                                                                                    z 9.& o & 9.9.5.f.f.E _ _ _ f.4.4.4.4.5.5.5.5.5.5.5.5.5.4.4.4.4.9.9.9.9.9.3.3.& & & & & & & & o o & & 9.4.5.E f.9.3.x                                                                                                                                                                                                                                                                                                   ",
"                                                                                                                                                                                                                                                                                                    z 9.o B.o 3.9.5.f.f._ _ _ f.5.4.9.4.4.4.5.5.5.4.4.4.4.4.4.9.9.9.9.9.3.& & & & & & & o o o o o o B.o o & 9.5.f.f.9.3.x 7                                                                                                                                                                                                                                                                                                 ",
"                                                                                                                                                                                                                                                                                                    x & *.*.N.o & 4.5.f.E _ _ f.4.9.3.9.9.9.9.4.9.9.9.9.9.9.9.3.& & & & o o o o B.B.B.B.B.B.N.N.*.*.N.N.N.o & 9.5.f.3.& x +                                                                                                                                                                                                                                                                                                 ",
"                                                                                                                                                                                                                                                                                                  y f iX:XmX0XV.8.9.4.5.E E f.9.o B.B.o o & & C.& C.o o B.B.N.N.N.8.8.8.8.8.t.t.t.nXnXV.V.V.=X=X=X0X0X0XAXq.t.N.3.5.t.=Xh 6                                                                                                                                                                                                                                                                                                 ",
"                                                                                                                                                                                                                                                                                                  + : Q T L x...AX& 9.4.E f.5.3.N.t.XXN.6X6X6Xt.e.=Xe.e.AXAX0X=.=X0X9X:X:X<...9X<.....d.d.w.d.~ w.w.w.d.....=.e.R.5.=.o.5 ,                                                                                                                                                                                                                                                                                                 ",
"                                                                                                                                                                                                                                                                                                  X - Q ,.m / <.V.3.9.5.E E f.4.$XVXC.K.C.VXT.BXBX/.7.7.=.<.uX<.>.=.w.W ~ ~ P G ~ ~ K P w.P ..W K ~ ..;.;.%.#.qXR.5.0X[ 5 O                                                                                                                                                                                                                                                                                                 ",
"                                                                                                                                                                                                                                                                                                  , - U ,.m U ~.t.9.4.5.E E } 5.Z.7XZ.R.R.Z.Z.K.VXl.qX@X@X5Xg.,XuX| ;.%...<.~ W ~ [ P W ~ w.=.W P d.d.|.%.%.#._.K.f.=X;.5 .                                                                                                                                                                                                                                                                                                 ",
"                                                                                                                                                                                                                                                                                                  , i Z J A p.~.t.3.4.@.E E E @.#X#X.X].#X.X.X#X).l.{.S.M.oX$.#.g.g.}.| | ..;.[ ;.[ ~ ~ P G / P G G P :.%.|.!._.R.f.q.j.| 4                                                                                                                                                                                                                                                                                                 ",
"                                                                                                                                                                                                                                                                                                  O i F m Y H.b.iX9.4.f.E E } ].R.7X#X.X#X#X.X7X7X).hX(.OXoXM.s.#.| }.}.,Xo.o.o.}.}.;. .W P G W G G ) :.%.;.$._.l.f.t.o.}.4                                                                                                                                                                                                                                                                                                 ",
"                                                                                                                                                                                                                                                                                                  O i H J ' H.b.t.9.4.5.E E E @.Z.7X7X.X.X.X#X7X7X).hX{.(.OXoXoX@X| #.g.}.}.j.o.o.j.;. .~ W P G ) G G :.%.|.#._.l.@.t.o.}.9                                                                                                                                                                                                                                                                                                 ",
"                                                                                                                                                                                                                                                                                                  4 i H ' I H.b.*.9.4.5.E E } @.#X7X#X#X#X#X#XIX).).hX{.(.OXS.S.P.M.!.$.#.g.}.,Xo.;.[  .W P P G G G G P %.[ #._.l.5.*.;.}.9                                                                                                                                                                                                                                                                                                 ",
"                                                                                                                                                                                                                                                                                                  4 ^ H H U *X*X*.9.4.5.E E f.5.#X#X#X#X#X7X7X).).GXhX{.(.OXOX&.v.s.!.$.#.g.}.,Xo.;.[  .W P G G G K K P %.,X5X_.l.5.B.|.,X8                                                                                                                                                                                                                                                                                                 ",
"                                                                                                                                                                                                                                                                                                  4 $ H ( %XiXiX*.9.4.5.} E @.].#X7X7X#X7X7X7X).l.hXhXdX(.(.(.S.&.oXs.!.#.g.}.| j.i.[  .W P G G G K K ) ~ uX#._.l.5.B.|.j.8                                                                                                                                                                                                                                                                                                 ",
"                                                                                                                                                                                                                                                                                                  9 $ H ( %Xb.b.N.3.9.5.f.} @.4.7X).).7X7X7X7X).).fXl.l.{.hX{.S.S.5X$.!.$.#.}.,Xj.i. .~ W ,.G W P K K G ~ uX>._.l.4.o ;.j.8 y                                                                                                                                                                                                                                                                                               ",
"                                                                                                                                                                                                                                                                                                  9 $ H ( 1.b.b.*.3.9.4.f.} 5.Z.7Xl.).7X).).).7X#XfXfXhX_.(.OXS.P.#.$.W.$.5XG.j.j.[  .~ W ,.W AXnXw.K G ~ ..>.yXl.4.o ;.j.: +                                                                                                                                                                                                                                                                                               ",
"                                                                                                                                                                                                                                                                                                  9 $ H R >Xb.b.*.& 3.4.f.f.].Z.).l.l.).).).7X).fX{.hXfXOXS.S.oXP.s.W.G.g.J.g.j.o.[  .W W ,.P [ :Xd.C G W ..>.yXl.4.C.;.j.- 2                                                                                                                                                                                                                                                                                               ",
"                                                                                                                                                                                                                                                                                                  9 $ H R >Xb.b.N.& 3.4.@.@.4.Z.l.fXfXfXfXl.l.l.l.{.fXl._.S.oXP.s.M.W.$.G.A.| j.o.[  .W ,.G G G G K K K W ..>.yXl.4.C.;.j.- X                                                                                                                                                                                                                                                                                               ",
"                                                                                                                                                                                                                                                                                                  9 # F H 0.iXb.*.& 3.4.@.f.Z.3.l.{.{.fXfX).Z.l.hX{._.OXOXoXoXP.M.W.$.G.G.A.| j.i. .~ W ,.G K K C C C C P d.>.yXl.4.o ;.j.- X                                                                                                                                                                                                                                                                                               ",
"                                                                                                                                                                                                                                                                                                  9 3 >XF 0.*Xb.*.C.& 9.5.5.Z.R.VXY.Y.Y.{.R.l.{.Y._._.OXqXOXP.s.W.$.J.G.A.| D.| i. .~ ,.G G K K C C C C P d.=.4X* R.o |.j.- X                                                                                                                                                                                                                                                                                               ",
"                                                                                                                                                                                                                                                                                                  9 > $ H 0.b.b.*.o & 9.4.9.3.C.VXY.Y.Y.Y.Y._._._.qXqXS.S.qXqXW.W.J.J.A.A.| D.o.i. .W ,.G Y K C C L L C G d.=.4Xq.kXo |.j.- X                                                                                                                                                                                                                                                                                               ",
"                                                                                                                                                                                                                                                                                                7 4 ; ^.&X=XiXb.8.o & 9.4.9.R.C.T.BXqXqXqXqXqXqXqX<XoX<XP.oX<Xu.J.G.+.A.| ~.^ ^ :XI ,.,.G Y ,.x.C L L L G w.:XkXK.kXN.|.,X- X                                                                                                                                                                                                                                                                                               ",
"                                                                                                                                                                                                                                                                                                  4 H.2.9Xt.t.b.8.o & 4.4.3.C.VXT.qXqXqXqXqX<X<X<XP. X X X X*Xu.+.A.p.D.D.D.Q U U Z ,.H Y K x.0XY L L L K w.{ XXXX6XXX|.| - X                                                                                                                                                                                                                                                                                               ",
"                                                                                                                                                                                                                                                                                                  4 3 ^.mXAX*XH.8.B.o 3.9.3.C.VXXX<X<XqX<X<X<X*X X*X Xu.u.J.+.A.p.D.D.^ Q U I I Z ,.H Y Y A Y ` T L L L K / <./.<.XX6X%.j.- X                                                                                                                                                                                                                                                                                               ",
"                                                                                                                                                                                                                                                                                                  . 3 ^.2.>Xb.H.t.B.B.C.& 3.o N.BX*X*X*X*XbX*Xb.b.iX*Xa.a.+.p.p.D.O.^ Q U I I Z ,.,.Y Y A A T L L L L A ' / <.=./.R.6X:.j.- 2                                                                                                                                                                                                                                                                                               ",
"                                                                                                                                                                                                                                                                                                  . i $ H >Xb.H.iXN.N.B.C.C.o B.BXb.b.H.b.b.u.H.a.b.H.+.+.p.1.D.O.^ Q U I Z Z Z :XmXH A A T T L L L L K ' P ..=.yXK.t.:.j.: +                                                                                                                                                                                                                                                                                               ",
"                                                                                                                                                                                                                                                                                                  O s 3 &XAXiXH.b.8.*.B.C.o B.N.*.b.a.a.b.H.a.+.+.+.0.0.p.1.O.O.^ Q Q I Z Z F ,.:XV./ A A T T L L L L L A P d.7.T.K.q.) j.8 7                                                                                                                                                                                                                                                                                               ",
"                                                                                                                                                                                                                                                                                                  6 s tX&X>XH.H.b.8.*.B.o o N.*.*.H.~.0.~.~.0.0.p.p.0.1.O.O.^ %XQ U Q Z F F H Y A ` Y Y A ' Y L L L L L C P d./.T.R.>.) | 8                                                                                                                                                                                                                                                                                                 ",
"                                                                                                                                                                                                                                                                                                  , s > 2.&X>Xb.H.nX*.B.B.B.*.8.nXH.0.p.0.H.0.1.1.O.1.^ ^ %X^ U I Z Z F H H Y Y A T A mX' A T m L L T L C G d./.T.$X<.:.A.8                                                                                                                                                                                                                                                                                                 ",
"                                                                                                                                                                                                                                                                                                + . s wX^.&X%XAX~.nXB.*.*.*.8.t.nX0X1.1.1.>XO.^ ^ ^ Q Q U Q U Z Z F F H H Y Y A T J T ' A L L ' ` L L L T G d.7.T.T.w.~ G.8                                                                                                                                                                                                                                                                                                 ",
"                                                                                                                                                                                                                                                                                                  8 > 8X$ &XU >X~.iX& 8.t.t.t.nXnX=X%X^ ^ Q Q Q Q U U Q I Z Z F F F H Y Y A A J T L m m m m m ` Y m m L T G d.7.T.4XP [ $.: +                                                                                                                                                                                                                                                                                               ",
"                                                                                                                                                                                                                                                                                                O s wXwX$ Z ^ >X~.=X*.nXnXnXnXnXiXnX>XQ U U U %XQ I U %XZ F F F U F Y ( A J J J m m m m m V m m m m m L L G d.7.T.7.G [ s.< O                                                                                                                                                                                                                                                                                               ",
"                                                                                                                                                                                                                                                                                              , h ; 8Xc.^.2.>X~.b.0X8.t.nXnXV.iXV.V.:XI U Q %XU I I Z F F H H / AX-XJ J J J L m Y ` m V V V V m m m m Y ' G d.>.yX>.G P s.W.8 +                                                                                                                                                                                                                                                                                             ",
"                                                                                                                                                                                                                                                                                          7 6 d bXgX8XtX2.2.%X~.0X~.N.N.t.iXV.V.nX0Xx.Z x.U mXx.F ' H H Y Y Y ' I ` T L m m m m -X0X' n V m L V m V m ` / G w.>.yX7.G 6.j.S.a 9 +                                                                                                                                                                                                                                                                                           ",
"                                                                                                                                                                                                                                                                                          , d > 8X8XtX^.Z ^ AXAX~.=XN.*.t.8.V.AXAXmX/ ' ' ' ' H Y Y Y Y Y Y A Y Y L m m m V V m L x.` n n ` / V m A m n D K P { q.q.%.6.) #.P.a 8 @                                                                                                                                                                                                                                                                                         ",
"                                                                                                                                                                                                                                                                                        O h > wXwXtX^.Z U ^ >X>X~.=XiXiXV.nXAXAX:Xx.' ` ` Y Y Y Y A A A A A T ` / m m V V V V m m m n n n m L m m L D D L C G ../.4X=.6.6.) $.P.+.8 6                                                                                                                                                                                                                                                                                       ",
"                                                                                                                                                                                                                                                                                      . h wXwXwXtX^.2.-X%X>X1.p.~.t.*.V.=XAXiX=X9X/ x./ Y ' ' Y A / ` A ` A T Y ` m m m T V n T A n n n n V V m m m L C / :X{ d.=.q.e.uX6.6.:.!.P.+.8 6                                                                                                                                                                                                                                                                                     ",
"                                                                                                                                                                                                                                                                                  y . s wXwX8X3 ^.I Q %X>X0X0.0.nXB.N.V.V.V.V.0Xx./ -Xx.` ` ' Y Y ' Y A A T ` ` L T m A / V V V V V D n n m L D m L L / 8.o 6X=.<.7.6Xq.%.6.6.:.M.P.A.8 @                                                                                                                                                                                                                                                                                   ",
"                                                                                                                                                                                                                                                                                  . h wXwX> # ^.I U %X~.0.0.~.iXB.o 8.V.8.nXAX9X/ ' ' ' ` Y ` Y Y Y A Y ' A / -XA T L m A ` V V n / 9XV n T T D m L L / 9X{ { q...=.q.XX/.:.6.6.|.v.P.+.8 +                                                                                                                                                                                                                                                                                 ",
"                                                                                                                                                                                                                                                                                O h zXgX> $ 2.%X0X^ 1.0XH.+.iXN.N.*.t.t.N.nX:Xx./ / ' ' ' H / ' Y Y Y Y ' Y -XV.-Xm L m A ' V V V ` / V n n V ` Y L C ] ] G 7.e.w.<.>.6XkX7.) ) ) o.X.s.< 9                                                                                                                                                                                                                                                                                 ",
"                                                                                                                                                                                                                                                                              @ f bXlXwX# 2.2.AXnX1.1.a.a.iXB.B.N.*.8.t.N.N.mXI I Z Z Z Z ,.,.' H Y Y Y Y Y Y d./ T T L ` A V V V L L n n n m 0X0X] L L K >.N.{ ~ uX{ /.XXkX>.) ) ) g.cXW.5 O                                                                                                                                                                                                                                                                               ",
"                                                                                                                                                                                                                                                                            7 4 > lXCXtX2.2.U %X0.0.~.a.iXo o o N.N.8.t.t.AX-XU I I Q =Xt.%X,.,.,.,.,./ ' H Y Y A A T T A T m V m Y ` n n n n ` ' L L C C w.w.) :.[ <.>.e.kXkX{ ) ) :.s.cXJ.: 6                                                                                                                                                                                                                                                                             ",
"                                                                                                                                                                                                                                                                            , h 8X8X; ^.2.2.Q 1.0.H.*XiXC.3.& o B.N.*.8.nX{ O.Q i.Q ~.XXVX~.Z Z Z Z Z -XZ H H Y Y A A A T T A ` / ` T n n n n n n D ] C C C K G P ~ uX{ /.XX$XT.uX) ) ;.cXS.A.9 7                                                                                                                                                                                                                                                                           ",
"                                                                                                                                                                                                                                                                        7 + 8 > 1XwX$ 2.2.U 1.a.H.iXiXC.9.3.& & o B.N.*.=Xp.p.D.D.D.G.J.J.G.i.I I I I I Z ,.,.H ' Y Y A A T ` x.A T m n n n n n n m ] C C K 6.G ) :.[ <.>.q.T.$Xt.%.) ) #.;XM.5 .                                                                                                                                                                                                                                                                           ",
"                                                                                                                                                                                                                                                                          4 s wXwX# 2.2.2.^ 0.a.H.iXC.4.9.9.3.& & o B.N.b.G.+.A.u.J.J.@XqXT.7.D.i.Q U I I Z ,.Z I H H H ' A A A L m m V V n ' m m ` D ] C C K G ) :.%.uX{ 7.yXkX$X>.) ) |.X.cXG.: @                                                                                                                                                                                                                                                                         ",
"                                                                                                                                                                                                                                                                        + h gX+X> >X2.2.Q 1.0.H.*XVX5.4.9.4.9.3.3.& C.XX*X*X XW. X XM.Y.T._.<X*XA.p.o.Q U I I Z Z ,.,.,./ Y A A T L m m V V x.A n D D ] C C 6.G ) :.:.;.<.>.q.T.$X$X..) ) }.JX&.| 9                                                                                                                                                                                                                                                                         ",
"                                                                                                                                                                                                                                                                        4 lXlXk.> AX2.^.O.0.H.bXCX4.5.5.4.4.4.9.9.3.$X_.OX_.qXP.oXqXoX{.fXs.W.<Xu.| D.o.Q U U I I Z ,.,.H Y Y Y ` T m m V m m D v v ] K G K K G ) :.:.%.uX=.7.yXR.4.6X%.) %.&.JX$.- 6                                                                                                                                                                                                                                                                       ",
"                                                                                                                                                                                                                                                                    7 @ f gX8X3 ~.Q U ^ 1.a.; zXZ.f.5.5.5.5.5.4.4.Z.fX{.(.{._.OX_.OXS.{.l.oXM.W.G.A.| D.D.o.i.U  .I Z Z ,.H Y Y Y A x.A m m D v T -X<.:X0X=XmXG ) ) :.%.;.E.>.q.kX$XR.>.:.:.,XdXcXA.9                                                                                                                                                                                                                                                                       ",
"                                                                                                                                                                                                                                                                      4 ; 8XwX; iX^ Q 1.a.b.CX3.Z.f.5.].5.@.@.5.5.#X).l.hXdX{.(.(.(.OX_._.S.s.W.$.G.A.A.| D.D.0.<. . .I W ,.H Y Y Y ' T m Y mX:XmX..P A ' :X*.9XG ) :.%.|.,X=./.* T.K.kXuX:.%.P.UXs.- 6                                                                                                                                                                                                                                                                     ",
"                                                                                                                                                                                                                                                                    + h 8XeX; *.& ~.O.a.bXbXC.f.5.5.f.f.@.@.E f.@.KXIXIXjXGXdXdX(.(.(.(.OX&.P.M.W.$.J.G.A.A.| 7.*Xi.i. .~ ,.,.G Y Y A T L A :XnX' T / ' G ~ q.t.G ) ) :.%.uX=./.4XkXR.K./.%.:.,XdX;Xa 9                                                                                                                                                                                                                                                                     ",
"                                                                                                                                                                                                                                                                    4 ; 8X8X>XmX0XO.0.bXFXzXZ.E E } E E E E E E } MXKXPXSXSXjXl.hX{.(.(.OXS.&.P.s.M.W.$.#.g.#.#.A.j.i.i. .~ W ,.Y Y A A T T -X=Xw.K d.=.{ ..>.nXG 6.) :.;.uXE.7.4XT.R.K.$XuX%.%.P.UXs.- X                                                                                                                                                                                                                                                                   ",
"                                                                                                                                                                                                                                                                    d k.+XtXZ I ^ 1.b.C.zXCX@.E E E E E f.} E E } .XMXMXKXIX).).l.{.dX(.(.cXS.&.P.s.M.s.!.$.#.J.| j.o.i.i. .~ W ,.Y Y A A A / AX{ w.P { >.d.=XmXD C 6.:.;.;.,X>.* T.R.K.4./.%.%.,XdXcXa 4                                                                                                                                                                                                                                                                   ",
"                                                                                                                                                                                                                                                                  , s +X> 2.F Z Q 0.; CXzXFX} E E E E f.].].E E } } .X.X.XKXl.hX_.OXdXdX(.(.(.(.&.P.s.s.M.@X<X5XA.| j.o.i.[  .W W ,.H Y A A A 9X{ d./ K / G w.T D ] C ) |.|.uX=./.XX$XK.4.o uX%.%.S.dXW.8 y                                                                                                                                                                                                                                                                 ",
"                                                                                                                                                                                                                                                                + 4 > 2X# F &X2.O.+.H.bXzX].E E E 5.@.f.f.} E E } } .X} } .X7X{.OXOX(.(.(.;X(.cXS.S.P.P.oX{.(.!.A.A.| j.o.i. .I W ,.,.-X:X/ T Y ' G K D D D n -X/ n C ) :.%.;.E.@XXX$XK.9.4.>.%.%.g.GX&.< ,                                                                                                                                                                                                                                                                 ",
"                                                                                                                                                                                                                                                                + d k.+X^.F &X%X~.b.H.; zX@.E E ].3.3.5.E E } } } } .X.X.X.X7X).hX{.l.hX(.dXdX(.OXS.S.&.(.7XhXM.g.A.| j.D.o.i. .~ W W :Xt.mXT L m m D n v v v A m v ] 6.) %.|.E.5X4XkXR.K.4.XX|.%.|.(.;XG.4                                                                                                                                                                                                                                                                 ",
"                                                                                                                                                                                                                                                                , s +Xc.&XF 2.~.H.nX; bXFXf.E E f.f.f.E E E } } } #X#X.X.X).7XKXIX#X#XGXdXGXdX(.(.OXS.S.OXhXoX}.G.G.A.| j.D.i. .I ~ W K K Y A T L m D n v n v b v v D C ) :.<./.5X* T.R.K.4.3.<.%.|.P.dX$.8 y                                                                                                                                                                                                                                                               ",
"                                                                                                                                                                                                                                                                4 3 +X# F &X2.1.b.N.BXbXZ.E E E E E E E } } } } } IXl.IXMXIXIXMXMXMXIXdXGXGXdX(.(.cXOXS.oXM.,X| $.G.A.| j.o.i.[  .~ W G A G K A L L m Y D D n b v v n ] G :.{ >.#.* yX$XK.9.4.7.%.|.#.JXs.- 6                                                                                                                                                                                                                                                               ",
"                                                                                                                                                                                                                                                                8 c.k.^.2.&X2.O.iXBXBXN.Z.E E } } E E E E } } } } MXl.l.MXMXKXMXMXMXSXGXjXGXdXdX(.(.OXOXoXs.M.W.$.#.G.A.| j.o.i. . .W ,.,.P K C L L L ` L v v v v v n ] K :.|.|.g.@X4XT.R.K.4.6X%.:.|.cXS.< .                                                                                                                                                                                                                                                               ",
"                                                                                                                                                                                                                                                              2 : k.> 2.F &X2.0.*.BXBXC.].E E @.@.E } } E } } } .XKX7X#X.X.XMXMXMXMXjXjXSXjXdXdX(.(.OXOXS.P.s.M.W.J.G.A.| | >.A. . .W W ,.G K A T L L T A n v v v v v D C |.uX|.E.5X* XX$XK.4.C.uX:.:.s.cXG.9                                                                                                                                                                                                                                                               ",
"                                                                                                                                                                                                                                                              , s 8X> $ F &XU ~.*.C.VXC.@.} } ].rX@.E E } } } } .XKXIX7X.XMXKXMXMXMXjXjXjXGXGXdXdX(.OXOXS.S.S.P.W.$.J.G.| A.7.A.i.[  .W ,.,.K K C L L m D n A n v v ` D ] G ~ uX,X$./.yXkXR.9.9.{ %.:.g.;X$.8 7                                                                                                                                                                                                                                                             ",
"                                                                                                                                                                                                                                                              . s wX# 2.H &X^ b.b.iXzXC.].f.} Z.Z.} } @.} } } @.IX).l.{.)..XMXMXMXMXKXPXjXGXGXdXdX(.OXOXOXY.l.fXP.$.W.G.A.| j.o.| iX{ W  .:XW K C L ] D D D T n v v V n ] K :.;.uXg.@X4XT.R.$X& 7.:.) uX;XM.- @                                                                                                                                                                                                                                                             ",
"                                                                                                                                                                                                                                                              4 3 k.2.( R &X^ H.b.b.bX3.@.} E } E E } Z.@.@.@..XIXIX).l.l..X.XMXMXMXKXPXSXjXGXGXdXdXOXOXS.E.}.!.M.$.W.J.A.| j.o.D.>.{ ~ ~ :Xd.K C L L D D n v v v b b v ] K ) %.;.E.5X* T.$X$XK.e.:.) |.cXs.< 6                                                                                                                                                                                                                                                             ",
"                                                                                                                                                                                                                                                              9 > 8X&X( R &X^ 0.H.b.bX3.} f.} E } } } @.f.} @.#XKXKXKXKXKX.XMXKXKXPXPXPXSXjXGXGXdXdXOXOXS.G.%.;.J.$.W.J.A.| j.o.[ G P ~ W W G K K C L m D n n v v v b A T C G :.|.,X$.4XR.R.K.9.6X:.) :.&.&.< O                                                                                                                                                                                                                                                             ",
"                                                                                                                                                                                                                                                            7 8 wX> R ( H 2.O.0.H.; bX3.} E } } E } } } } @.Z.FX).KXIXSXIX.XMXIXKXSXSXSXSXjXGXGXGX)._.OXS.oX XW.W.$.J.G.A.| j.o.i. . .~ W ,.G G K C L L m V n v v v b n D C ) P %.{ /.5X5XT.R.K.XX%.) ) s.cX< w                                                                                                                                                                                                                                                             ",
"                                                                                                                                                                                                                                                            7 d gXtXR ( H 2.O.a.H.; bXC.} f.} } } } } } @.#X].#XIXSXPXKXMX.XMXKXIXGXSXSXjXjXGXdXGXdXOXOXS.oXP.M.W.$.J.G.A.| j.o.i.i. .~ W ,.G G K C L L m V n v v v b b v C ) P %.;.E.g.5XT.R.K.N.%.) ) !.cXG.4                                                                                                                                                                                                                                                             ",
"                                                                                                                                                                                                                                                              d gX# ( m.H 2.1.*XlX; bXZ.f.f.} } } } } } .X7X]..XIXSXSXSXKX.X.XIXSXdXjXSXjXGXGXdXdX(.OXOXS.oXP.M.W.$.#.G.A.| j.o.i.i. . .W ,.G G K K K L m D n n v v v v v C G P :.|.uXg.* XX$XK.N.%.) ) #.cXG.4                                                                                                                                                                                                                                                             ",
"                                                                                                                                                                                                                                                            + : c.$ ( ( U Q 1.b.bX; bXZ.f.5.5.} } } } .X.Xl.7X#X).SXhXjXKXMX.XjXSXjXSXSXjXGXGXdXdX(.(._.{.OXs.M.W.$.#.G.A.| j.o.i.i. . .W W G G K P 0X/ D Y -XL v v T A v C G P :.|.;.g.* yX$XK.T.%.) ) g.cXa 4                                                                                                                                                                                                                                                             ",
"                                                                                                                                                                                                                                                            y : c.$ J ( F U 1.b.BXbXbX9.@.C.C.} } } } .X.X7Xl.Z.7X#X{.hXKXMXMXSXSXPXSXjXjXGXdXdXOXOX(.W.S.S.s.M.W.$.#.G.A.| j.o.o.i.[  .W W ,.G K G ../ D 9XN./ v v v v v C ) P W ~ ;.g.* yXkXK.T.|.) ) }.cXa 4                                                                                                                                                                                                                                                             ",
"                                                                                                                                                                                                                                                            + : c.# R J H U 1.H.; ; bX3.f.VXVX} } @.@..X.X.X.X.XjX7X_.hXKXKXKXPXSXSXjXjXGXUXdXdXS.#.S.!.oXoXM.M.W.$.#.G.A.| j.o.o.i.[  .<.i. .W G K K w.C / mXT v v v b v C ) P W ~ ;.g.* yXkXK.T.uX) ) }.cXa 4                                                                                                                                                                                                                                                             ",
"                                                                                                                                                                                                                                                            + : c.# R J Z >X1.H.H.b.bX3.@.VX3.@.} @.@.#X7X.X.X.XhXhX(.GXSXSXSXSXSXjXjXjXjXdXdXJX(.S.&.S.&.P.s.M.W.$.#.G.A.| j.o.o.i.[ i.{  .W P G K P ..C m D n n v v v v C P P %.~ ;.g.4XyXkXR.XX..:.) }.cXa 4                                                                                                                                                                                                                                                             ",
"                                                                                                                                                                                                                                                            + : c.$ J J x.>X0.H.H.; ; 3.f.4.].@.} } @.Z.Y.7X.X.X{.oX(.jXGXGXjXjXjXjXjXjXjXdXJX(.(.(.OX&.&.P.s.M.W.$.#.G.A.| j.o.o.i.[ [  .W P G G K K K L m D n n v v v v C P P W ~ ;.E.* yXkXR.XX{ %.) }.cXa 4                                                                                                                                                                                                                                                             ",
"                                                                                                                                                                                                                                                            + : c.# R J Z Q 1.a.H.b.; 3.f.@.@.} } @.VXVXY.7X.X#X(.y.UXUXUXUXUXjXJX{.SXjXGXdXJX(.(._.S.&.&.P.s.M.W.$.#.G.A.| j.o.o.i.[  . .W P G G K K C L m D n n v v v v C P P ~ ;.uXg.@XyXkXR.XX:.) ) }.cXa 4                                                                                                                                                                                                                                                             ",
"                                                                                                                                                                                                                                                            + d k.> V./ H I O.H.H.H.; 3.@.} } } } 5.VXl.).#X#X#XUXUXUXUXUXUXUXIXhXX.R.).dXJXOX&.v.&.&.&.P.P.s.M.W.$.#.G.| uXg.#.j.i.[  .~ W P G G K K C L m D n n v v v v C P P ~ uXuXg.@X4XkXR.XX;.) ) }.cXa 4                                                                                                                                                                                                                                                             ",
"                                                                                                                                                                                                                                                            + : k.# mX' ( F 0.iXbXH.; 3.5.} } @.} } .X.Xl.l.#X7XJXJXJXJXUXUXUX).hX{.S.{.UXcX}.,X,X,Xv.&.&.v.s.M.W.$.$.#.| 5XfXfXA.i.[  .~ W P G G K K C L m D n n n n v v C P W ~ [ ;.g.@X4XT.R.XX<.) ) }.cXa .                                                                                                                                                                                                                                                             ",
"                                                                                                                                                                                                                                                            + : c.$ J J ( I 1.b.; H.; 3.5.f.} } } @..X#Xl.fX#X7XJXUXJXJXJXJXJXJX_.7X(.y.JXZX#.OXS.}.#.&.P.v.s.M.!.$.$.#.| J.T.T.| i.[  . .W P P G G K K C C L D n n ' T v C P W ~ [ ;.g.@X4XT.R.XX<.%.) g.cXa .                                                                                                                                                                                                                                                             ",
"                                                                                                                                                                                                                                                              d c.$ J J F >X1.a.H.H.b.3.5.f.} @.@.Z..X7X7X7X#X7XUXl.JXJXJXJXJXJXJX{.(.vXJX!.Y..X).!.,XM.&.v.s.M.!.$.$.#.g.j.,X| o.i.[  . . .i.W G G K K d.t.0XL n n m n v C P W ~ [ ;.E.@X4XT.R.XX..~ ) g.cXa .                                                                                                                                                                                                                                                             ",
"                                                                                                                                                                                                                                                            y d c.$ m J R I 1.a.H.H.; 3.5.@.} } @.].#XfXl.7X#X).vXOXvXvXvXJXJXJXJXvXvXJXvX!._.#XfX}.%.!.&.v.s.M.!.!.$.#.g.}.,Xj.o.o.i.[  .{ 6X..G G K K w.7.=X` n n v v n C P W ~  .;.E.@X4XT.R.XX%.) [ #.cXa .                                                                                                                                                                                                                                                             ",
"                                                                                                                                                                                                                                                            + : c.$ m m ( Z 1.a.a.H.b.3.5.@.@.@.@.@.#Xl.).7X7X).vX(.X.vXvXvXvXvXvXJXvXvXvXZX}.=.,X:.;.&.&.v.s.s.M.!.$.#.g.}.| j.o.o.i.o.*XJ.E.[ P G K K D D L D n n n v v C P W ~  .;.E.@X4XT.R.XX%.) %.#.cXa .                                                                                                                                                                                                                                                             ",
"                                                                                                                                                                                                                                                            + : c.$ m ' R Z 1.a.3 a.; 3.5.@.@.} @.@.#X7X).7X7X).vXvXvXvXvXvXvXvXvXvXvXvXy.X.}.%.[ }.&.X.&.v.v.s.M.!.$.#.g.}.| j.o.o.o.>.3.T. .<.<.G K K C D D D n n n v v C P W ~  .;.E.@X4XT.R.XX%.) ) g.cXa .                                                                                                                                                                                                                                                             ",
"                                                                                                                                                                                                                                                            + : k.# J 9Xx.^ 0XH.a.+.H.3.5.@.@.@.@.@.#X).).).7Xl.vXy.y.y.hX).vXvXvXvXvXy.vXy.y.X.X.y.y.X.X.&.v.s.M.!.$.#.g.}.| j.j.o.o.| 7.J.~ [  .G K K C L m D D n n A n C P W ~  .;.E.@X4XT.R.XX%.) ) G.cXa .                                                                                                                                                                                                                                                             ",
"                                                                                                                                                                                                                                                            + : c.# m T ( Q ~.a.a.....e.5.@.@.@.@.@.#X).).).).l.y.y.y.vXl.{.&.y.vXvX(.y.y.y.y.y.y.y.y.y.&.&.v.s.ZX!.$.#.g.}.| j.j.o.o.o.;. .W P G G K K C L L D D n n m n C P W ~  .;.E.@X4XT.R.XX%.) ) G.cXa .                                                                                                                                                                                                                                                             ",
"                                                                                                                                                                                                                                                            + : k.3 ' x.' I p.0.=.q.=X=.9.@.@.@.@.@.#X).).).).l.y.y.y.y.X.$.&.y.y.y.y.y.y.y.y.(.y.y.y.X.X.&.v.s.ZX!.$.#.g.}.| j.j.o.o.=.>. .W P P G K K C L L m D n n n n C P W ~  .;.E.@X4XT.R.XX%.) ) G.cXa .                                                                                                                                                                                                                                                             ",
"                                                                                                                                                                                                                                                            + d lX# ' nXV.U 1.p.*X5.B.>.3.@.@.@..X@.#X).l.).).l.y.(.(.y.y.X.y.y.y.y.y.y.y.y.y._.y.y.y.X.X.&.v.v.ZX!.$.#.g.}.| ,Xj.o.o.j.j. .W P G G K K C L L m D n n n n C P W ~  .;.E.@X4XT.R.XX%.) ) G.;X*X.                                                                                                                                                                                                                                                             ",
"                                                                                                                                                                                                                                                            @ : wX^.V x.9XU 1.p.~.6X/.7.9.5.Z.].@.@.#Xl.l.l.).hXy.(.vXy.y.y.y.y.y.y.y.y._.y.y.y.y.y.y.X.X.&.v.OXoX!.$.#.g.}.| ,Xj.o.;.;.[  .W P P G K K C L L m D n n v v C P W ~  .[ E.@X4XT.R.XX%.) ) #.cX% .                                                                                                                                                                                                                                                             ",
"                                                                                                                                                                                                                                                            + : c.^.V m ( Z 1.0.O.d...iX5.@.Z.Z..X.X#Xl.l.l.l.hXy._.y.y.X.y.X.y.X.y.X.X.v.X.y.X.y.X.y.X.X.&.v.s.s.!.!.#.g.}.| ,Xj.o.o.[ [ ~ W W P G K K C L L D n n n v v C P W ~  .[ E.@X4XT.R.XX%.) ) #.cXa .                                                                                                                                                                                                                                                             ",
"                                                                                                                                                                                                                                                            @ : c.^.V J ( Z O.+.b.~.0.C.@.f.@.@.@.5.#Xl.l.l.l.hXy.y.vX{.X.X.X.X.y.X.y.X.v.&.X.X.y.X.y.X.&.&.v.v.$.#.!.#.g.}.}.,Xj.o.o.;.[  .~ W P G G K C L L D D n n v v C  . .~  .[ E.@X4XT.R.XX>.;.) #.cX% .                                                                                                                                                                                                                                                             ",
"                                                                                                                                                                                                                                                            + : c.^.V J R I O.+.H.H.H.3.@.@.@.@..X.X#Xl.l.l.).hXy.X.Y.fXX.X.X.X.X.X.v.(.)._.X.X.X.y.X.X.&.&.v.v.,XP }.$.g.}.}.,Xj.o.o.[ [ | :XW P G K K C L L m D n T D v ,.8.*... .[ E.@X4XT.R.T.=.|.) #.;X% .                                                                                                                                                                                                                                                             ",
"                                                                                                                                                                                                                                                            @ : c.^.F R ( Z O.+.a.H.H.3.@.f.@..X@.].#Xl.l.fXfXhXy.@X{ d.#.X.X.X.X.X.ZX5XY.v.&.X.y.cXy.X.&.&.v.v.M.J.5X$.#.g.}.,Xj.o.o.i.[ o.o.W P G K K C C L m D V ` m v K mXAX{  .[ E.5X4XT.R.XX|.:.:.#.;X% .                                                                                                                                                                                                                                                             ",
"                                                                                                                                                                                                                                                            @ : c.^.-Xx.H Z O.+.a.a.b.VXC.5.@.5..X.X#Xl.l.fXfX{.y.X.5X#.v.y.X.X.y.{.qX,X}.!.X.X.(._.OXX.&.v.v.ZXv.4XoX#.#.5X@X}.j.o.o.;.[  .~ W P G K K C C L m m D n n n D v D ~  .[ | 5X4X$XK.XX{ %.:.$.;X% .                                                                                                                                                                                                                                                             ",
"                                                                                                                                                                                                                                                            X : c.^.m ( R Z O.+.H.+.b.CXzXZ.@.].R.Z.#XfXl.fXfX{.X.y.X.X.y.X.X.X.&.oXOX&.&.X.X.X.X.&.&.X.&.v.v.#.g.g.,X#.g.J.VX/.j.o.o.i.[  .~ W P G G K C C L m m D n n n L G P ~  .[ | 5X* kXK.XX;.:.) $.;X% .                                                                                                                                                                                                                                                             ",
"                                                                                                                                                                                                                                                            @ - L.^.m m ( Z O.+.a.+.b.BXBX9.5.3.VXVX7X{.fXfXfX{.y.fXX.5X@X&.X.X.&.$.S.X.X.X.X.X.S.X.S.X.&.v.v.!.}.,Xg.#.g.j.J.J.j.o.o.i.[  .~ W P G G K C C L m m T T n n C P W ~ ~ [ | 5X* T.R.XX%.) %.W.;X% .                                                                                                                                                                                                                                                             ",
"                                                                                                                                                                                                                                                            + - c.# J / ' Z O.~.a.a.a.t.& @.Z.C.VXC.).{.{.fXfX{.X._.ZX}.#.X.y.X.X.* &.X.X.X.S.X.X.S.X.S.&.v.v.s.!.!.$.#.}.G C G ;.o.o.i.[  .~ W P G G K C C L L m T L n n C P W ;.{ ;.| 5X* T.R.XX%.) ) $.;X% .                                                                                                                                                                                                                                                             ",
"                                                                                                                                                                                                                                                            @ - c.$ m ` H Z 1.+.a.a.H.3.@.@.Z.VXVXC.)._.Y.{.fX{.&.&.&.X.X.X.X.y._.X.&.X.&.X.S.X.OXX.X.S.&.v.s.s.M.!.$.#.}.;.W W o.j.o.;.[  .~ W [ P G K K C L L m V V n n A P W ;.>.;.| 5X* T.R.XX;.:.) $.;X% .                                                                                                                                                                                                                                                             ",
"                                                                                                                                                                                                                                                            @ - L.^.` A A 9X~.+.+.a.H.C.5.@.].C.R.Z.)._. XoXfXY.&.&.&.X.X.X.X.Y.fXOXS.&.OXX.S.X.X.OX{.OX&.P.s.M.M.!.$.$.$.g.}.,Xj.o.o.i.i. .~ ~ W P W ,.K C L L m T m n n C P W ~ [ ;.| 5X* T.R.XX%.|.%.$.;X% .                                                                                                                                                                                                                                                             ",
"                                                                                                                                                                                                                                                            @ - L.2.` Y H U p.+.+.a.H.C.Z.Z.].4.4.].K.{.<XqXfX_.v.X.OXX.&.X.X.X.OXdX).OXoXX._.{.OXOXY.S.&.S.s.M.M.s.$.$.@XT.qX| j.o.o.i.i. .~ ~ W P P G K A T L m ' T n n A P W ~  .[ ,X5X* T.R.XX%.:.:.$.;X% .                                                                                                                                                                                                                                                             ",
"                                                                                                                                                                                                                                                            @ - L.2.V mXnXU O.0.+.+.H.C.3.R.3.9.4.4.K.hXfXfXfX_.v.* yXv.&.&.&.v.ZX{.7XoX!.X.Y.fXOXP.#.s.&.P.s.s.s.s.W.#.W.C.VXG.j.o.o.i.i. . .W i.0X .G K A T L L m V V n A P W ~  .[ | 5X* T.R.XXuX%.) $.;X% .                                                                                                                                                                                                                                                             ",
"                                                                                                                                                                                                                                                            @ - L.2.V :XnXU O.0.+.+.H.C.4.4.4.#X4.#X).fXK.fX{._.v.ZX$.!.&.v.&.v.ZX@X* 5X&.&.S.OXS.S.S.&.P.P.s.s.s.s.$.$.}.o.j.| j.o.o.i.i. . .~ d.:X~ G K A T L L m V V n A P W ~  .[ | 5X* T.R.XX<.|.:.$.;X% .                                                                                                                                                                                                                                                             ",
"                                                                                                                                                                                                                                                            @ - L.2.m A / I O.p.+.a.b.C.9.4.4.4.Z.4.l.Y.Y.Y.{._.v.v.ZXv.v.v.v.v.&.v.v.&.&.&.&.&.S.&.S.S.P.P.s.M.M.W.$.J.G.[ W j.D.o.o.i.i. . .I W W ,.W G A T L L m V V V A P W ~ o.<.| 5X* T.R.XX%.;.%.!.;X% .                                                                                                                                                                                                                                                             ",
"                                                                                                                                                                                                                                                            @ - L.2.J m ( I O.p.+.a.b.C.9.4.4.Z.Z.9.R.{.Y.{.Y._.&.ZXZXv.ZXv.v.v.v.v.&.v.&.&.oX&.S.S.S.S.P.P.s.M.W.W.$.#.G.A.| | j.o.o.i.i. . .~ W W ,.G K A T L m m V V V A P W ~ >.7.| 5X* T.R.6X|.%.|.!.;X% .                                                                                                                                                                                                                                                             ",
"                                                                                                                                                                                                                                                            2 - L.# mX` F I O.p.+.a.H.o 9.9.4.Z.9.Z.l.{.Y.Y.Y.{.Y.v.ZXZXZXZXv.v.v.v.v.v.P.&.P.&.oXOX{._.S.P.s.M.W.W.J.J.G.A.A.D.j.o.o.i.i. . .Z W ,.G G Y A ' ` m m V V V C P W ~ d.[ | 5X* T.R.6X;.[ uXM.;X% .                                                                                                                                                                                                                                                             ",
"                                                                                                                                                                                                                                                            @ - L.$ mX-Xx.I O.p.+.a.H.o 9.9.9.Z.Z.9.l.Y.Y.Y.Y._.S.v.ZXM.ZX&.Y._.oXoXv.P.v.P.P.P.P.oXOXS.oXP.P.M.W.W.J.G.G.A.A.| D.D.o.i.i.U  .W W ,.G G Y A ' ` L m V n V A P W ~ [ [ | 5X* T.R.6X:.) ) W.;X% .                                                                                                                                                                                                                                                             ",
"                                                                                                                                                                                                                                                            + - c.^.x.-X' I O.~.t.H.H.o 3.Z.9.9.K.Z.l.Y.Y.Y.Y.S.!.!.!.!.ZX_.qX<X#.$.oXv.P.P.P.P.P.P.oXoXP.P. XM.W.W.J.G.G.A.| D.j.D.o.i.i. . .I W ,.G G Y A A T L L ` ` V A P W ~ [ ;.| 5X* T.R.6X:.) ) $.;X% .                                                                                                                                                                                                                                                             ",
"                                                                                                                                                                                                                                                            @ : c.^.m / x.I O.+.b.a.H.B.3.9.9.Z.Z.3.$XY.Y.Y.Y.S.!.!.!.ZX!.oXY.Z.Y.v.oXP.s.P.P.P.P.P.P.P.P. X X XW.u.J.G.G.A.| | D.D.p.D.i. .I ~ W W 9XmX,.A A T L A AXAXT A P W ~ [ [ ,X5X* T.R.6X:.) ) $.;X% .                                                                                                                                                                                                                                                             ",
"                                                                                                                                                                                                                                                            @ : c.^.m J H I O.p.+.a.H.B.3.3.9.K.Z.3.l.T.Y.Y.Y.oX!.!.!.!.!.v.R.Z.Y.S.S.s.s.s.s.P.P.P. XP. X X X X Xu.J.G. Xu.| D.D.j.+.~.i. . .I W Q N.o mXA A L L L / / m A P W ~ [ ;.,X5X* T.R.6X:.) ) $.;X% .                                                                                                                                                                                                                                                             ",
"                                                                                                                                                                                                                                                            + : k.$ :XmXZ I O.p.+.a.H.B.3.3.9.3.3.K.VXY._.Y.Y.oX!.$.!.!.!.ZXoXoXS.#.#.M.s.s.qXoXP.P.P. X X X X X XJ.J.G.J.J.+.u.p.D.D.^ i.U  .I Q :X-X%Xx.A A L L m m V V A P W ~ [ [ | 5X* T.R.6X:.) ) $.;X% .                                                                                                                                                                                                                                                             ",
"                                                                                                                                                                                                                                                            + : wX^.9X0XmXI O.0.+.a.H.B.3.3.Z.3.3.R.VXY._._._.oX!.oXoX!.!.$.#.!.@Xg.g.s.M.oXY.oXP. XP. X X XW. X Xu.J.G.G.A.b.C.*XD.O.^ i.U I  .O.D.A L A Y A T L m m V V A P W ~ [ [ | 5X* T.R.6X:.:.) W.;X% .                                                                                                                                                                                                                                                             ",
"                                                                                                                                                                                                                                                            + : c.^.V J F Q 1.0.+.a.H.B.3.3.3.K.3.3.fX_.Y.Y._.oX@XqXM.$.$.$.}.,X,X}.W.M.P.M.| J. XP. X X X Xu.u.u.J.u.a.+.+.J.<XJ.D.D.i.Q i.U I I W ,.Y Z / A T L L m T T A P W  .;.;.| 5X* T.R.6X%.%.) !.;X% .                                                                                                                                                                                                                                                             ",
"                                                                                                                                                                                                                                                            + : c.^.m m ' :X~.0.*XH.a.B.3.3.Z.3.3.R.VX_._.Y.Y.oX!.$.#.#.$.!.$.!.M.M.M.M.oXP.W.M. X X X X X X Xu.u.u.BXu.+.A.a.<Xu.p.D.0.Q Q ^ U Z Z ,.,.,.H A T L L m x.x.A P [ q.7.=.E.5X* T.K.6X|.%.|.!.;X% .                                                                                                                                                                                                                                                             ",
"                                                                                                                                                                                                                                                            + : k.^.' F Y U 1.0.nXb.b.VXC.3.3.R.R.R.T.Y._.BXqXP.$.$.$.P.M.$.$.oXqXM.M.M. XOXoXW. X X X XP.qX Xu.u.u.*XJ.+.+.p.p.+.D.D.p.^ Q Q I I W Z -X,.Y A T T L A / T A P ..V.uX=.g.5X* T.K.6X%.<.=Xs.;X% .                                                                                                                                                                                                                                                             ",
"                                                                                                                                                                                                                                                          7 + : 8X^.' 9X-XQ O.p.a.a.H.BXVXC.3.3.R.C.T.qXqXqXqX* $.#.W.6X@X#.#.$. XW.W.W.oX_.M.W. X X X X<XBX Xu.u.u.u.u.u.G.p.i.O.D.O.^ Q i.U I I Z Z U ,.Y A T T Y ` / m A P W [ [ ;.| 5X* T.K.6X%.<.<.s.;X% .                                                                                                                                                                                                                                                             ",
"                                                                                                                                                                                                                                                            + : k.$ ` -Xx.U O.p.+.+.a.BXN.VX3.R.C.C.Y.qXqXqXqX<X@XW.}.;.j.#.#.$.$.$.$.W.M.M.W.W.W. X<XY. Xu.u.u. Xu.a.a.a.a.+.D.D.D.O.^ Q Q U I I Z ,.,.H Y A T ` mXx.-Xm A P P ~ [ ;.| 5X4XkXK.6X|.uX%.&.;X% .                                                                                                                                                                                                                                                             ",
"                                                                                                                                                                                                                                                          7 + : +X3 T Y H U O.p.a.+.a.*.C.C.& C.C.C.XXqXqXqX<XoXBXW.g.| A.G.G.G.#.J.J.J.J.A.#.W.u.W. X*X Xu.u.u.J.a.a.+.a.BXBXp.D.O.O.^ ^ Q U I I Z F ,.H Y Y A Y x.T T m A P P [ =X=Xg.@XkX$XK.6X|.%.%.!.;X% .                                                                                                                                                                                                                                                             ",
"                                                                                                                                                                                                                                                            + : wX$ m ` x.U ^ p.a.+.a.*.C.C.& C.C.C.Y.qX<X<X<X@XG.A.g.g.G.G.G.G.G.J.J.$.J.J. XW.u. Xu.u.u. X Xu.a.J.+.+.a.b.*X+.D.O.O.^ ^ p.AX>XU Z F ,.H H Y A J L m m m A P ~  .{ =Xg.@X4XkXK.6X|.;.%.$.;X% O                                                                                                                                                                                                                                                             ",
"                                                                                                                                                                                                                                                            + d k.&XV m ' U ^ 1.0.+.~.*.o C.R.C.C.C.BX<X<X<X<X5XA.}.A.A.}.A.G.G.G.G.J.J.J.W.*XW.u.u.u.u.u.u.*Xb.u.*X+.+.+.+.0.+.+.D.O.^ O.b.BXt.0XI Q I H Z AX0XH m m m m A 9Xt.d.~  .| @X4X$XK.6X|.%.%.!.;X% l                                                                                                                                                                                                                                                             ",
"                                                                                                                                                                                                                                                            + d k.2.A / x.U ^ 1.0.0.~.*.o C.C.C.C.VXBX<X<X<X<X5X}.| A.}.A.A.A.G.G.G.J.G.J.J.u.u.u.u. Xu.u.u.a.u.u.b.+.+.+.+.p.+.+.O.O.^ O.p.p.+.~.I ~.>XH %XV.mX' m m m m T w.{  . .[ | @XT.$XK.6X|.|.%.!.;X% .                                                                                                                                                                                                                                                             ",
"                                                                                                                                                                                                                                                            @ d lX2.T ' ' I ^ 1.0.0.~.*.o C.& C.C.o BX<X<X<X<Xu.| | | | | A.}.*X<XG.G.J.J.J.J.u.u.u.u.u.u.a.u.a.a.a.a.+.+.+.0.p.p.O.O.^ ^ ^ O.p.^ Z %X%XH Z Y n m m m m V T G P ~  .[ | @X4XkXK.6X|.=.|.!.;X% .                                                                                                                                                                                                                                                             ",
"                                                                                                                                                                                                                                                            @ - 8X2.V m Y 9XO.p.0.0.~.*.B.B.N.N.o VXBX<X<X/.<X>.| }.| | | | | J.u.A.G.G.G.u.u. X<Xu.u.u.a.u.a.a.u.BX*.b.+.p.p.1.1.O.O.^ ^ Q Q O.U Z Z F H R ( J J m m V V A W W ~ [ ;.| @X4XkXK.t.|.<.uXM.;X% .                                                                                                                                                                                                                                                             ",
"                                                                                                                                                                                                                                                          7 @ - L.&Xm m A I Q ~.0.0.~.8.B.VXN.BXB.VXBX<X<X*X/.u.g.qX@X*X7.| | | A.A.A.G.J.qX<Xu.u.J.u.J.u.<X<Xa.*XnXB.& iX0.p.1.1.O.O.^ Q Q U I I Z F F H R ( A J m m V V ` mX~ ~ [ ;.| @X4XkXR.t.%.%.<.P.;X% .                                                                                                                                                                                                                                                             ",
"                                                                                                                                                                                                                                                            @ - c.$ m m ' I Q 1.p.p.0.8.C.4.5.3.VXN.BXe.<X*X*XJ.G.e.=.6XVXG.| | | A.A.A.+.G.J.u.J.a.u.*X<X*.u.u.u.u.qXqXBXb.p.~.1.O.^ ^ Q Q U I I Z F F H R ( J J m m V V A W W ~ [ ;.| @X4XkXR.t.%.:.:.M.;X% .                                                                                                                                                                                                                                                             ",
"                                                                                                                                                                                                                                                          7 @ - c.3 J T / U U O.1.p.0.8.o N.qX<X*X*.BXe.<X*X*X>.,Xo.o.| J.g.j.| | | A.A.A.+.G.a.a.a.u.*X*Xa.a. Xa.BXK.*Xa.+.p.+.1.p.1.^ Q Q U U Q I F F H Y ( J J m m V V T G W ~ [ ;.| @X4XkXR.e.%.:.:.M.;X% .                                                                                                                                                                                                                                                             ",
"                                                                                                                                                                                                                                                            @ - > tXT ' x.Z U ^ p.p.0.t.B.t.7.*X8.B.BX<X*X/.*XJ.j.o.| #.5XA.j.j.D.| | p.A.A.+.G.+.G.+.+.+.+.+.+.+.<XXXH.0.H.b.0.1.p.1.^ Q Q U U U I F F H R ( ( J J m V V T G P ~ [ ;.| @X4XkXR.e.%.:.|.S.;X% .                                                                                                                                                                                                                                                             ",
"                                                                                                                                                                                                                                                            @ - > # x./ Y ,.I %X=X~.p.t.o o B.B.B.N.t./.*X*X7.=.j.o.o.g.oXG.o.j.j.A.A.| A.A.+.+.+.+.a.+.+.0.O.D.p.0.b.+.*X*XBXiX1.O.O.^ Q Q U 2.I Z F F H R ( ( J J m V V L K P ~ [ ;.| @X4XkXR.e.%.:.|.S.;X% .                                                                                                                                                                                                                                                             ",
"                                                                                                                                                                                                                                                            @ - L.^./ -XJ H I ^ ~.0.p.t.o o o o B.N.e.*Xq.7.*X=.j.o.o.o.uXo.o.o.j.J.u.| b.<X+.A.+.+.+.+.+.+.1.^ ^ 1.p.p.a.+.b.iX1.O.^ ^ Q Q U U I Z Z F H R ( ( J J m m V L K P ~ [ ;.E.@X4XkXK.e.%.:.:.W.;X% .                                                                                                                                                                                                                                                             ",
"                                                                                                                                                                                                                                                            @ - L.^.V T J H I Q O.1.1.nXo B.o B.B.N.e.*X7.7.7.=.j.o.;.;.;.o.o.o.o.D.A.| u.u.+.+.+.u.b.a.+.+.0.1.O.^ O.a.+.a.*XH.O.p.1.^ Q Q U Q U Z Z F H R ( ( J J m V V L K ~ <.;.;.| @X4XkXK.e.%.:.:.M.;X% .                                                                                                                                                                                                                                                             ",
"                                                                                                                                                                                                                                                            @ = L.2.V m Y 9XI %X0X1.1.iXN.B.o B.B.N.e.=X7.7.7.u.q.>.;.i.;.i.o.o.o.D.j.D.A.A.A.p.A.H.BXBXa.0.0.p.p.O.O.0.p.a.b.0.O.1.O.^ O.1.Q %XQ Z Z F F R ( ( J J x.' V m K ..7.e.{ E.@X4XkXK.e.|.;.:.M.;X% .                                                                                                                                                                                                                                                             ",
"                                                                                                                                                                                                                                                          7 + = L.2.V m / 9XZ ^ =XAX1.nXN.B.B.B.N.*.q.7.7.7.7.=.7.=.[ i.[ i.i.o.o.o.o.D.| u.+.p.p.A.a.*X+.0.a.b.0.1.1.1.1.1.p.1.O.O.O.^ 0.nX0.U I Z Z Z Z R ( ( J J / ' V m A W [ q.7.E.@X4XkXK.e.|.;.:.M.;X% .                                                                                                                                                                                                                                                             ",
"                                                                                                                                                                                                                                                            @ = L.2.V V A ` Z U >X~.1.nXN.B.B.B.N.*.q.7.7.7.7.A.[ [ [ [ [ i.;.i.o.o.O.o.D.G.+.D.p.D.p.+.0.0.b.*.~.1.1.1.1.p.b.p.O.O.^ ^ O.0.^ U I Z Z F Z Z ( ( J J m m m m A P w.;.uXE.@X4X$XK.e.%.:.:.M.;X% .                                                                                                                                                                                                                                                             ",
"                                                                                                                                                                                                                                                            @ = n.2.V V m Y Z U ^ ^ %XnXN.B.B.B.N.*.q.7.7.>.7.{ [ [  .[ [ [ [ i.i.i.o.O.o.D.p.D.D.D.p.p.p.+.0.0.1.1.1.0.~.p.~.1.O.1.^ ^ Q Q U 2.I Z Z F F F ( ( J J m m m m A P ~ [ ;.E.@XyXR.K.e.%.:.:.M.;X% .                                                                                                                                                                                                                                                             ",
"                                                                                                                                                                                                                                                            @ = n.2.V m T Y Z U Q Q %XiXN.N.B.B.N.*.q.7.7.>.>.{ [ [  . .[ [ [ [ i.i.i.o.o.D.D.D.D.1.1.p.0.0.1.p.1.p.1.1.a.0.O.O.O.O.^ Q Q Q U U >XU F F H R ( ( J J / J V m A P ~ [ uXE.5X* $X9.e.%.:.:.M.;X% .                                                                                                                                                                                                                                                             ",
"                                                                                                                                                                                                                                                            @ = n.^.V V m ` I U Q Q %XV.8.*.B.B.N.8.q.7.>.>.>.{ [ [ uX{ [ [ [ i.i.i.i.i.^ D.D.D.D.D.1.+.b.1.1.1.1.0.p.1.1.1.O.O.^ ^ ^ ^ Q Q %XU >XQ F F H R ( ( J x.:XA V m A P ~ [ =.7.5XE.>.R.e.:.:.:.P.;X% .                                                                                                                                                                                                                                                             ",
"                                                                                                                                                                                                                                                            @ = L.# m x./ ` / I Q %X>X=Xt.N.B.N.N.8.q.7.>.>.>.{ ;.E.>.XXE. . .j.<.i.i.{ >.iX7.D.D.p.1.p.+.1.0.1.1.O.1.O.O.O.O.O.^ ^ ^ Q ^.U U U I Z F F H R ( ( J H ` V V m A G ~ [ uXg.@X* e.R.e.:.:.[ oX;X% .                                                                                                                                                                                                                                                             ",
"                                                                                                                                                                                                                                                            @ = L.^.T nX0XY / I %X>X0.iX*.B.B.B.*.8.V.7.>.>.>.{ [ j.[ J.g. .~ [ i. .i.{ | <XB.~.D.+.O.O.O.1.0.1.O.O.O.O.O.O.1.O.^ ^ Q Q Q U 2.I Z Z F F H H ( J J J m m V m A G ~ [ uXE.@XyX$XK.q.:.:.:.s.;X% .                                                                                                                                                                                                                                                             ",
"                                                                                                                                                                                                                                                            @ = tX^.m 0X9XY F I >X%X%XV.N.B.B.N.*.8.=X7.>.>.>.<. . .j.* /. .~ ~  . . .| G.| ~.b.D.p.O.O.O.1.p.1.O.O.%XO.^ 1.0XO.^ %XQ Q ^.U U I Z Z F H H H ( J J m m V V m T G ~ [ ;.E.@XyX$XK.q.:.:.) s.;X< .                                                                                                                                                                                                                                                             ",
"                                                                                                                                                                                                                                                            @ = tX%Xv V m Y F Z -XQ %XiXN.B.B.N.*.8.=X7.>.>.=.<.~ ~ ;.E.;.W ~ ~ ~  . .i.| | | G.^ ^ ^ ^ ^ ^ %X1.O.O.^ O.^ O.1.^ ^ Q ^.Q U U 2.I Z Z I F H R ( J ( -X( V V m T G ~ ..<.E./.Y.$XK.q.:.:.) s.;X< O                                                                                                                                                                                                                                                             ",
"                                                                                                                                                                                                                                                            @ = n.&Xn V m Y ' Z U Q ^ V.*.N.N.N.*.t.=X>.>.>.=.<.~ W P P W W ~ ~ ~  . . .[ D.D...Q Q Q Q ^ ^ ^ ^ ^ ^ ^ ^ ^ ^ ^ ^ Q Q Q ^.U 2.U I U Z Z F R R ( J J -X( V V m T G ~ d.d.E.@XyX$XK.q.:.:.) s.;X< O                                                                                                                                                                                                                                                             ",
"                                                                                                                                                                                                                                                            @ = n.&Xn V m Y ' Z U Q ^ V.*.*.N.*.*.t.=X>.>.=.=.<.~ P P P P W W ~ ~ ~  . .U [  .i.Q Q Q Q Q Q ^ ^ ^ ^ ^ ^ ^ O.^ ^ Q Q Q U U U 2.Q :XZ F H R R ' J J m V V V m L G W w.;.E.@XyX$XK.q.:.:.:.s.;X< .                                                                                                                                                                                                                                                             ",
"                                                                                                                                                                                                                                                            @ = n.&Xv n m Y ' / 9X^ -XnX*.*.N.*.*.t.=X>.>.=.=.<.~ P P P P P W W W ~ ~  . .w.U U Q U i.Q Q Q Q ^ ^ ^ ^ ^ ^ ^ ^ Q Q Q ^.U U 2.2.U U F F H R ( ( J J m V V V V L K W w.;.E.@XyX$XK.e.:.:.%.s.;X< O                                                                                                                                                                                                                                                             ",
"                                                                                                                                                                                                                                                            @ = tX%Xm m / ` ' / -XU ^ V.*.*.*.*.*.t.=X>.>.=.=...~ P ) P P P P W W W W ~  . .U  .U Q U Q Q Q Q %X0.1.^ Q ^ >X~.1.Q ^ Q U U 2.I I Z F H H R ( J J J m V V V V L K W w.;.E.@XyX$XK.q.:.;.{ P.;X< .                                                                                                                                                                                                                                                             ",
"                                                                                                                                                                                                                                                            @ = # ^.n m x.` ' / U U -XV.*.*.*.*.*.e.=X>.=.=.=...W P P G P P P P W W ~ Z ~  . .U  .U U U U %XAX8.C.B.~.O.0X=X~.V.~.Q U U U >XU Z Z F H R R ( J J J U.V V V V L K W w.;.E.@XyX$XK.q.:.:.%.s.;X< .                                                                                                                                                                                                                                                             ",
"                                                                                                                                                                                                                                                            @ = n.&Xv n V A ` ' I x.9XnX*.*.*.*.*.e.=X>.=.=.=.>.d.P G G G P P P W W W  .d. .I I U U U U >X=Xb.H.H.=XH.~.~.^ D.=XiX~.^ U U >X^ Z F F H R ( ( J J m m V V V V L K P ~ [ E.@XyX$XK.q.:.) ) s.;X< .                                                                                                                                                                                                                                                             ",
"                                                                                                                                                                                                                                                            @ = n.$ A n V A ` ' I -X-XV.*.*.*.*.*.e.7.>.=.=.>.q.:XP G G P G P P P W W ~ d.I  .I  .U I %Xb.+.O.Q I Z I U I Z I ^ 1.b.0.Q U I I Z F F H F 9X%XmXH m V V V V V L K P ~ ;.E.@XyX$XK.q.) ) ) s.cX< .                                                                                                                                                                                                                                                             ",
"                                                                                                                                                                                                                                                            @ = n.# 9Xm V T ` ' I U -XV.*.*.*.*.N.*.7.=.=.=.>.=.|.P G G G G P ..=...W W W I I I I I U ~.a.u.+.D.Q I I U ^ O.I U O.>X^ ^ U I I Z F F H %X0XI =X9XV V V n ' x.L K P ~ <.t.4XyX$XK.q.) ) ) P.cX< .                                                                                                                                                                                                                                                             ",
"                                                                                                                                                                                                                                                            @ = n.2.-XT V A ` ' / x.U V.8.*.*.*.N.N.7.=.=.=.q.t.;.) G G G G ..8.8.:XW W ~ ~ Z I I I ^ ~.+.u.a.a.0.Q Q 0.u.0.U ^ ^ Q >X>XU U Q Z F F F AX=X0X0X' V V V n m ` L K P ~ ;./.4XyX$XK.q.) ) ) s.;X< O                                                                                                                                                                                                                                                             ",
"                                                                                                                                                                                                                                                            @ = n.&Xb v V x./ / / I U V.8.*.*.*.*.e.7.=.=.:X7.q.uXP :Xd.G G E.<.G K [  . .~ Z W I I i.a.p.a.+.0.+.p.p.u.qX0.U ^ Q ~.b.iXAXQ >XZ F H >X:X0.t.8./ V V n n n n m C P ~ [ E.@XyX$XK.q.) ) ) s.;X< O                                                                                                                                                                                                                                                             ",
"                                                                                                                                                                                                                                                            @ = n.&Xv v n ' :Xx./ I U V.8.*.*.*.8.e.7.=.=.=.=.<.W G <.w.K G ;.K C ~ /.=.P W W Z Z I Q ~.D.p.p.p.a.+.a.+.H.~.U U U ~.p.1.8.%XZ Z F F %XO.*X*XN.:Xn n n n v n m C P w...7.* yX$XK.q.) ) ) s.;X% ,                                                                                                                                                                                                                                                             ",
"                                                                                                                                                                                                                                                            @ = n.&Xv v V T / / -X9X%XV.8.*.8.*.8.e.7.=.:X=.{ ..P K K K K K G K [ E./.<.P ,.,.W Z ~ I Q p.D.D.a.D.Q O.Q ^ O.U U U ^ D.Q =X>XF F F H U Q 0.O.b.9Xn n U.v T V D C w.{ >.=.* yX$XK.q.) ) ) s.;Xg l                                                                                                                                                                                                                                                             ",
"                                                                                                                                                                                                                                                            @ = n.&Xv T V T A mX0X-X-XV.8.*.*.*.8.q.7.=.=.:X{ ..P C C C C C C K P ~ w.P ,.,.,.W W Z I U D.^ Q >XU U U U U Q U Q 1.Q U I U I F F H H F U U Q %XA V n n ` x.n D L P ..{ E./.yX$XK.q.) 6.) s.cX% l                                                                                                                                                                                                                                                             ",
"                                                                                                                                                                                                                                                            @ = 3 2.v m V T A x.x.' x.V.8.*.N.*.8.q.7.=.=.:X{ ..G C C C C C C K P ~ G P  .W ,.,.Z I  .I Q U U I U U U U U U I Q 1.I Z Z Z Z F F H H R H I U Y V V n n T ' v D L P w.[ E./.yX$XK.q.%.) ) s.(.< O                                                                                                                                                                                                                                                             ",
"                                                                                                                                                                                                                                                            @ = # &Xv v n m A ` ' ' x.V.8.*.N.*.8.iX>.=.:X{ { ..G C C C C K C C G ~ G G w.W ,.,.-X0XD.%X>XQ I I U U >X^ I I I U U Z Z Z Z Z F F H R R ( ( J m V V n n v v v D L G ~ [ E./.yX$XK.e.>.%.) s.JX% O                                                                                                                                                                                                                                                             ",
"                                                                                                                                                                                                                                                            X = $ &Xv v n m A ` ' / -XV.8.o & *.8.q.=X>.:X{ { ..G C C C C C C C C K K G G G ,.,.I -XI Q %XU I I I ~.N.AXI I Q %XI Z Z Z Z F F F H R R ( J J m V V n v v v v D L d.<.d.E./.yX$XK.q.%.) ) M.;X% .                                                                                                                                                                                                                                                             ",
"                                                                                                                                                                                                                                                            @ = $ F v v n m A ` ' x.:XV.8.N.B.*.8.q.7.=.{ { { d.G C C C C C C C K K K ~ W G ,.,.,.W Z W Z I I I I %X0.^ I I I U Z Z Z Z >X0XU F H R R ( J J m V V V n v v v n K :XV.{ E./.yX$XK.q.6.%.) M.cX< O                                                                                                                                                                                                                                                             ",
"                                                                                                                                                                                                                                                            X = tX2.b v n A mX/ ' ' x.V.8.8.*.*.8.q.>.:X{ { { ..G C C C C C C C K K K K Y G ,.,.,.,.Z Z Z I I I I I U I I I I 2.Z Z &XZ ^ =XiXZ H R ( ( J J m A V ` / v v v n L W ..d.E./.yX$XK.q.6.6.6.M.cX< O                                                                                                                                                                                                                                                             ",
"                                                                                                                                                                                                                                                            X = bX%Xb v V A -X/ ' ' / V.8.8.*.8.8.V.>.{ { { <.d.G C C C C C C C C K K G G ,.G ,.,.Z Z I U I I I Q ^ U I I I I Z Z 2.Z Z U 1.*XI R R ( ( J J J ' m V m v v v D L G ~ w.{ /.yX$XK./.6.6.6.M.cX< .                                                                                                                                                                                                                                                             ",
"                                                                                                                                                                                                                                                            2 = # H b v m x.` ` ' ' / V.8.8.*.8.8.V.=.{ { { { ..G C C C C C C C P W G ~ G ~ ,.,.,.,.,.Q :XI I I 0XiXQ I I U I Z Z Z &XZ I Q p.Z H R ( ( J J m m A V v v v v D L G W w.{ /.yX$XK./.6.6.6.M.cX< .                                                                                                                                                                                                                                                             ",
"                                                                                                                                                                                                                                                            X = $ H v v n T ` ` ' ' / V.8.8.*.8.8.V.=.{ { { 0Xq.w.] C ] C C C K w.P K K K ,.,.,.,.Z Z I Q Z Z I p.0.U Q Q Q ^ Z Z &XZ Z U Q Z H R R ( ( J J m m T V v n T A m L K P w.<./.yX$XK.=X6.6.6.M.cX< .                                                                                                                                                                                                                                                             ",
"                                                                                                                                                                                                                                                            X = $ %Xx.n n m A ` ' ' / V.8.8.8.*.8.V.=.{ { { { <.G ] ] ] ] C C C C C K K W ..,.,.,.U Z Z Z Z Z I I I I U I U U Z Z Z Z F >X>XH H R ( ( ( J J m V n v v v v m D ] K P ~ { /.yX$XK.=X6.6.6.M.cX< .                                                                                                                                                                                                                                                             ",
"                                                                                                                                                                                                                                                            X = $ 2.A n n m A Y ' ' / V.8.8.8.8.8.V.=.{ { <.<.d.K ] ] K C ] C C C C K K G d.W ,.,.,./ Z Z Z Z Z Z I I I Z I Z Z &XZ F &XZ Z H H R ( ( ( J J m m n m V b b v n ] K P ~ { /.yX$XK.7.6.6.6.M.cX< .                                                                                                                                                                                                                                                             ",
"                                                                                                                                                                                                                                                            X 1 $ H b v n m T ' / ' / V.8.8.*.8.8.q.=.{ <.<.<.d.C ] ] G C ] C C C C C C P ..W ,.,.F F Z F Z Z Z Z Z Z Z Z Z Z Z Z Z F F F F H H R ( ( ( R ( m m n / x.b b b n D K P ~ { /.yX$XK.7.6.6.6.W.cX< .                                                                                                                                                                                                                                                             ",
"                                                                                                                                                                                                                                                            X 1 $ H v v n m A x.x.' / V.8.8.8.8.8.V.=.{ <.<.<.d.C ] ] ] ] ] C ] C C C C K G G H ,.,.F F Z Z Z Z I Z I Z Z Z &XZ F &XF F F F H H R ( ( ( Y J m m V m m v b b v D C 9X{ { * yXkXK.>.6.6.6.!.cX< .                                                                                                                                                                                                                                                             ",
"                                                                                                                                                                                                                                                            @ 1 $ H v v n T ` ` ` ' / V.t.8.8.8.t.V.=.{ <.<.<.w.C ] ] ] ] L ] C K / K C K Y G H ,.F F F Z Z Z Z Z Z U :X0X^ Z Z I Z F F F F H H R ( ( ( J J R x.T v v b b b v D C ..:X{ q.yXkXK.>.6.6.6.$.cX< .                                                                                                                                                                                                                                                             ",
"                                                                                                                                                                                                                                                            X 1 $ H v n n m T A ` ' x.V.t.8.8.8.t.=X:X{ <.{ { w.C ] ] ] ] L L L G w.K w./ Y H H H ,.F F Z I >X>XI Z Q %X:XV.Q I U F Z :X:XF H H R ( ( J J J J A n v v b b b v D C P ~ { /.yXkXK.>.6.6.|.s.X.< .                                                                                                                                                                                                                                                             ",
"                                                                                                                                                                                                                                                            @ 1 $ H v ' m m T A ` ' -XV.t.8.8.8.8.=X:X{ :X8.t.d.C ] ] ] L ] L L C C K =.:XY Y H H F F F F %Xa.nX~.I U 1.U 0X>XF Z F -X:XV.I H R R ( ( J J m V V n v b b b b v D C P w.{ /.yXkXK.>.I.6.{ oXX.< .                                                                                                                                                                                                                                                             ",
"                                                                                                                                                                                                                                                            X 1 $ H b n n m T A ` ` / V.t.8.8.8.t.=X:X{ <.=.=.w.C D K G ] L L L C K K ~ ~ Y Y H H F F Z Z Q D.*XAXI Q BX=X%XU F F F Z Z Z F H R R ( ( J J m V n n v b b b b v D C d.d.<./.yXkXK.>.I.6.d.P.X.< .                                                                                                                                                                                                                                                             ",
"                                                                                                                                                                                                                                                            X 1 ^.H b n T m T ` ' ' / V.t.t.8.8.t.=X:X{ <.<.<.d.G ' :X{ G ] L L L ` A A Y Y Y H H F F %XU U 1.0.O.U Q ~.~.Z F F F F F F H H H R R ( ( J J m V n n v b b b b n D C P ~ <./.4XkXR.=.I.6.I.$.S.< .                                                                                                                                                                                                                                                             ",
"                                                                                                                                                                                                                                                            X 1 ^.H b -X0XA / 0XnXV.9XV.t.t.8.8.t.=X:X<.<.<...w.C ' <.=.~ ] L L L T A A A Y Y H H F F I I %X~.Q U Q U I Z F F F F F F mX%XR R R ( ( J J m m V n n v b b b b ' A T G / <./.4XkX$X{ I.P ) $.&.< .                                                                                                                                                                                                                                                             ",
"                                                                                                                                                                                                                                                            X 1 ^.R b T ` m ` x.9XmX-XV.t.t.t.8.t.=X{ <.{ { ..w.] ] C ~ K ] ] L L T A A A Y Y Y H F F I Z Q >XQ U O.^ I F F F F F F F x.x.R R R ( ( J J m m V n v v b b b b n D C G / <./.4XkX$X{ 6.:X:X$.&.< .                                                                                                                                                                                                                                                             ",
"                                                                                                                                                                                                                                                            X 1 ^.R c b v V m T A A / V.t.t.8.t.t.=X{ <.<.....w.] D D ] D ] m L L T A A A Y Y Y H H F F Z Z U I I U ^ I Z I F F Z F H H H H R R ( ( J J m m V n v v v ` v c b n T G / <./.4XkX$X<.I.) P $.&.< .                                                                                                                                                                                                                                                             ",
"                                                                                                                                                                                                                                                            X 1 ^.R c b v V m T ` ` / V.t.t.t.8.t.=X{ <.<.....~ ] D D D D D ] L L L T A A Y Y Y H H F F I Z Z Z Z U Q I I -XF F 9XF H H H R R R ( ( J J m V V n v b b v b c b n L ' / <./.4XkX$X<.! I.I.$.&.< .                                                                                                                                                                                                                                                             ",
"                                                                                                                                                                                                                                                            X 1 $ R c b v V m T A ` / V.t.t.t.8.t.=X{ <.......~ ] D D D D D D L L L T A A Y Y Y Y H F F x.Z Z Z I ^ I F F F F F F H H H R R R R ( ( J J Y J V n v v b b c c b D L w.w.<./.4XkX$X..! I.I.$.&.5 .                                                                                                                                                                                                                                                             ",
"                                                                                                                                                                                                                                                            X 1 # R c b v V m T A A / V.t.t.t.t.t.=X{ <.......~ ] D D D D ] D m L L T T A A Y Y Y H H F F F F F F Z F F F F H H H H H H R R R ( ( J J 9X0X9X` n v b b b c c v D w.d./ <./.4XT.$X..! ! C oXS.5 .                                                                                                                                                                                                                                                             ",
"                                                                                                                                                                                                                                                            X 1 $ H b b v V m T A ` x.V.e.t.t.*.o t.{ <......./ D D D D D D D m L L T T A A Y Y Y H H F F F F F F F F F F H F H H H H R R R R ( ( J ' mXw...x.v v b b b c b v D ' / / ..7.4XT.kX..! ! ] oX&.5 .                                                                                                                                                                                                                                                             ",
"                                                                                                                                                                                                                                                            X 1 # H b b v V m T A ' x.V.e.t.8.B.3.o >........./ D D D D D D ] ` L L L T A A Y Y Y Y H F F F F F F F F F F H H H H R R R R R ( ( ( J ' d.o.A.W v v b b V b b v n ] G / ..7.e.T.kXd.! ! C W.(.< .                                                                                                                                                                                                                                                             ",
"                                                                                                                                                                                                                                                            X 1 # H b b v m T T A A / V.e.e.8.N.XXq.>.......d./ D n D A D D L / A L L T A A Y Y Y Y H x.Z F F F F 9XI F Z H H H R R R R R ( ( ( ( J A d.[ ~ Y v b b n 9X9Xv v n ] ` P ..7.e.T.T.d.! ! ! ,X<X< .                                                                                                                                                                                                                                                             ",
"                                                                                                                                                                                                                                                            X 1 # R b b / ' m T A ` / V.e.e.t.N.N./.:X......d.P D v n D D D K K ' ` ` A Y A Y Y Y Y H H F F F F F -Xx.F U H H R R R R R R Y R ( J J m A Y A n b b b c ` -Xv v n ] ` P ..7.e.XXT.d.! ! ! g.$.5 .                                                                                                                                                                                                                                                             ",
"                                                                                                                                                                                                                                                            X 1 ~.Z b b ` ` m T A A / V.e.nXt.8.XX=X<.......d.P D v v n D D D m A K ` ` / A Y Y Y Y R H H H F H H H H F Z H R R R R R Y ( Y / ( J J m m m ` n b b b b c c b v v ] K P ..7.e.XXT.d.! ! ! $.&.5 .                                                                                                                                                                                                                                                             ",
"                                                                                                                                                                                                                                                            X 1 ; -Xc b v n m T A ` / V.e.e.e.t.e.7.<.....d.d.P D v v n D n D D D m m L T A A Y Y Y R H H H H H H H H H H H R R R R R ( Y ( ( ( J J ` T m / T b b b c c c b b v ] ` / ..7.e.XXXXw.! ! ! $.&.5 .                                                                                                                                                                                                                                                             ",
"                                                                                                                                                                                                                                                            X 1 ^ ' b b b n m ` ` A / =Xe.nXt.e.e.7.<.....d.d.P D ] n v n n n D D m m L Y ` A A Y Y Y R H H H H H H x.U F H R R R R ( ' x.A ( J J J / T m / m b b b c c c c b v D ` / ..7.e.XXXXw.! ] ~ !.&.5 O                                                                                                                                                                                                                                                             ",
"                                                                                                                                                                                                                                                            X 1 &XJ b b b n m ' ` A / =Xe.e.e.t.e.7.<.....d.d.P ] w.] v n n n D D m m m T A A A A Y Y F F H H H R x.V.0X%Xx./ R Y Y ( Y Y A A ' A m m V V n v v b A v c c c b v ] -Xw...7.e.XXXXw.S ! C $.&.5 O                                                                                                                                                                                                                                                             ",
"                                                                                                                                                                                                                                                            X 1 2.( b b b n m T A A / =Xe.nXe.e.e.AX{ ....d.d.G D ] D v v n n D D L / T m L T A A A Y -X-XF x.' R Z -XH ' / H Y Y Y ( A J J J ` T m V V n v v b m AXx.M c c b v D / <.<.>.e.XXXXw.S ! ! $.&.5 O                                                                                                                                                                                                                                                             ",
"                                                                                                                                                                                                                                                            X 1 2.( b V V A m T A A / =Xe.e.e.e.e.7.{ <...d.w.G ] ' D v v n n n D T d.A m L L T A A A Y / 9X-X/ R H Y Y Y Y Y ( ` ' A J J J J L m m V V n v v b v ' ` c c c v v D ` w.<.>.q.XXXXw.S ! ! $.&.5 O                                                                                                                                                                                                                                                             ",
"                                                                                                                                                                                                                                                            X 1 2.( v mXx.x.T T T T ' =Xe.nXe.e.e.AX{ <...d.w.G w.0X/ v v n n n D m L m m ` 9XY J A A A Y ' Y ( ( H Y A A A ( ( ( ( J J J J A m m V V V m v v b b b b c c c v n ] K / ..>.q.XX6X~ S ! ! $.&.5 O                                                                                                                                                                                                                                                             ",
"                                                                                                                                                                                                                                                            X 1 2.( b Y T D m T A T ' =Xe.e.e.e.q.7.{ ....d.w.G ] / ` v v v n n n V V m V A mX' J J A A A ( Y / Y ( A A A A A J J J J J J Y mX` V V n m ' v b b b c c c c b v v D G / ..>.q.XX6X/ S ! ! $.&.5 O                                                                                                                                                                                                                                                             ",
"                                                                                                                                                                                                                                                            X 1 2.( c c b n m m T A ` AXe.e.e.e.e.7.{ ..d.d.w.K B v v D v n n n n n V V V m T L L J J J A A A ` A A A J J A Y J J J J Y J Y x.A V V n n n v v b b c c c n ` b v D w.:X>.7.q.XX6X/ ! ! S $.&.5 O                                                                                                                                                                                                                                                             ",
"                                                                                                                                                                                                                                                            X 1 2.( c b v n V A ` T ` 0Xe.nXq.e.q.7.{ ..d.w.~ K B B D ] v v n n n n V V V m m m m L J J J J J J J J J J J R mX' m ' Y ` T m m m V n n n v v b b b c c c b v b v ] ` w.>.=Xq.XX6X/ ! ! S #.v.5 O                                                                                                                                                                                                                                                             ",
"                                                                                                                                                                                                                                                            X 1 2.( c b v v n ' / T A :Xe.q.e.q.q.7.{ mXd.w./ C B B B B v v v n n n n V V m m m m m m m J J J J J J J J J A x.' m ' ` m m V V V n n n v v b b b b c M c M c b n ] ` / <.7.q.6XXXw.S ! S #.v.5 O                                                                                                                                                                                                                                                             ",
"                                                                                                                                                                                                                                                            X 1 2.( b m v v n m T T A mXq.q.e.q.q.AX{ ..d.w./ K T B B B B v v v v D V n n D V V m m m m m m m m m J J m m m m m m m m V V V V n n n n v v v b b b A T M c b b v ` w.~ <.7.q.6Xt.P S ! S #.v.5 O                                                                                                                                                                                                                                                             ",
"                                                                                                                                                                                                                                                            X 1 ^.R v ' v v n D m T T 9Xq.e.q.q.q.>.{ mXd.~ P K T B N N b v v v v / -X/ A n V V V V V m m m m m m Y A m m m m m V V V V V n V T V n v v v b b b b m D M M n v v / mXd.<.7.q.6Xe.P S S S #.v.5 O                                                                                                                                                                                                                                                             ",
"                                                                                                                                                                                                                                                            X 1 2.( c b b v n n / -XT x.q.q.q.q.q.>.{ 0X../ G C v N N N b b b b b ' =X:XT n n n V V V V V V V V V m m V V V V V V V T n n n n A V n v v v b b b c M c c M c b v D / ..<.>.q.6Xe.P S S S $.v.5 O                                                                                                                                                                                                                                                             ",
"                                                                                                                                                                                                                                                            X p &XJ M c b ` m n / -XT / =Xq.q.q.q.>.<...d.P G ] B b b b b b b b b w.>./ v n n n n n n n V V V V V V V V V n n V n V ` V v n n v A mX` b b b b c c c c M c b b v D ` w.<.>.q.6Xt.P S S S #.v.5 O                                                                                                                                                                                                                                                             ",
"                                                                                                                                                                                                                                                            X p &XJ M c c A D n D T T ` >.q.q.q./.>.<.d.~ P -XK b b c c c b b b b S ] B v v v v v v n n n n n n n n n n m / / m v v v v v v v v D / T b b b b c c c b m b b D T C / w...>.q.6Xt.P B S ] W.v.5 O                                                                                                                                                                                                                                                             ",
"                                                                                                                                                                                                                                                            X p &XJ M c c b v n D m m T :Xq.q.q.=X=...d./ w.0X` v ` D c v v c b b b b b b b v v v v v v v v v v v v v v x.AX:Xw.x.9X' v v v v b b b b b b b n v c c T <.D b D T K / w...>.V.6X6XP B S ] 5Xv.5 O                                                                                                                                                                                                                                                             ",
"                                                                                                                                                                                                                                                            6 p &XJ M c c b v v n D m m 9Xq.e.q./.=...w./ / w.] D ' ] c D T c c c c c b b b b b v v v v v v v v v v v v T C K { :X=XAX/ b b b b b b b b b b x.x.c c b C K ' D ] K / w...>.V.6X6X/ B S B #.v.5 O                                                                                                                                                                                                                                                             ",
"                                                                                                                                                                                                                                                            6 p F J M c M b b v n D m D w././.q./.=...w.P G C D D D N N N N c c c c c c b b b b b b b b b b b v v b b b b v D ' ] C P -Xv b b b b b b b c c D m c c c N K w.] C G ~ w...=.q.6X6Xw.S ] ] #.v.5 O                                                                                                                                                                                                                                                             ",
"                                                                                                                                                                                                                                                            6 p H m M T x.b b v v n D D ` 7./././.=.<.../ K C C ] N N N c c c c c c v A n b b b b b b b b b b b b b b b b b b N v K C T D v b m A b b b c c c c c c c D D D ] C G w.w...>.q.6X6Xw.S ] D #.v.5 O                                                                                                                                                                                                                                                             ",
"                                                                                                                                                                                                                                                            6 p H m M ` 9Xn b b v v n D T =./.=X7.=.>.t.=XP ] w.w.D c c c c c c c c A 9X9Xv c c b b b b b b b ` m b b b b c c c c v v b v v b ` mXm b b c c c c c c b ' ` ] C C G w.d...q.6X6XXXw.C G B #.v.5 O                                                                                                                                                                                                                                                             ",
"                                                                                                                                                                                                                                                            6 p H m M c v b b b v v n D D <.7.7.7.=.=.{ :X/ ] D ] D N D v c c c B T B B ' D c c c c c c c c v 9X/ b b b b c c c c c c c c b b v ' b ` 9Xb c c c c c N N v ] C C P w.d...e.6X6XXXd.B S B #.s.5 O                                                                                                                                                                                                                                                             ",
"                                                                                                                                                                                                                                                            6 p H m M M c v v b b v v n D w.7.7.7.=...~ G C ! S B N B T B c c c N B c N ] b D b c c c c c c c v b b D b c c c c c c c c b b b n c c D 9Xv c c c c c c b D C C K W d.d...{ =.e.XX..B S B #.s.5 O                                                                                                                                                                                                                                                             ",
"                                                                                                                                                                                                                                                            , p H V M M c n c c b v v v S G =.7.>.{ uX~ P P S B B N N D K N c c c c c c B B D N c c c c c b v c c c v c c c c c c c c c A / v ' b c c B N c c N N N N v ] C K G ~ d...<.<.e.XXe.d.B S B #.s.5 O                                                                                                                                                                                                                                                             ",
"                                                                                                                                                                                                                                                            6 p R V M M M c c c D v T m S ] { >.>.E.<.~ G K S B A / N B ' S N N N N v N c B ] N v c c c c b v c c c c c c c c c c D T N D K v N c c c N N N N N N N N D C K K G ~ ..=.=.{ XXkX/.W B S S #.s.5 O                                                                                                                                                                                                                                                             ",
"                                                                                                                                                                                                                                                            6 p R m ` ` M c c c N B ] D S S d.=.>.=.<.P C ! S B D ` N N S B N N N N D B N N N N B N B N c N N N N N N N N N N N N T / D B C v / ] N N N N N N N B B B ] G K K P w.uX{ =.{ /.7.7.:.B S S #.ZX5 O                                                                                                                                                                                                                                                             ",
"                                                                                                                                                                                                                                                            X p R m A ` c c c c N B ] B B S P { =.{ [ 6.C ! S B B B N N N N N N N N B B N N N N N B w.x.N N N N N N N N N N N N N S C S B C D / ` N N N N B B B B B ] K G K K P [ ..<.=.>...d.7.P B S S #.ZX5 ,                                                                                                                                                                                                                                                             ",
"                                                                                                                                                                                                                                                            X p R V M M M c c c N N B ] C B ] d.uX..w.6.] ! S S B D S B B B B B B B B B B B B B N B ] ] N N N N B N B B B B ] B B B B B B B S S B B B B B B B B B B w...C K G :.;.<.{ =.=.<.=.e.K S S S g.ZX5 ,                                                                                                                                                                                                                                                             ",
"                                                                                                                                                                                                                                                            X p Y V M M M c c c N N B ] G S S P |.%.) C ] ! S S B S S B B B B B B B B B B B B K mXK B B B B B B B B B B B S ' ] B B B B B B S ] B B B B B S S S S ! 6.w.6.G ) %.uXE.q.7.d.=.t.t.C S S S #.ZX5 ,                                                                                                                                                                                                                                                             ",
"                                                                                                                                                                                                                                                            X 1 Y m M M M c c N / K B B ] ] B ] :.) 6.] ! S S S S S S S B B B B S S S S S B B S 9Xd.B B B B B B B B B B B S S S S S S S S S S S S S S S S S S ! ! ! I.6.6.) ;.uX,XE.=.>.>.q.T.q.K ! S S $.!.p ,                                                                                                                                                                                                                                                             ",
"                                                                                                                                                                                                                                                            2 0 ( L M M M c c b -X/ B B ! K ! S 6.6.I.! ! ! S S S S S S S S S S S S S ] ! S B B B S S B B S S ] S S S S S S S S S ! G C S S S S S ! ! ! ! ! ! ! I.I.I.6.6.>.*.q.E.,Xg.7./.4XT.>.S S S I.s.#.p 6                                                                                                                                                                                                                                                             ",
"                                                                                                                                                                                                                                                              0 A A M M M c c N N ! ] B B B P ] S ! ] ] ! ! S S S S S S S S S S S S ! ! ! ! S S S S S S S S C 9XP S S S ! ! ! ! ! ! I.! ! ! ! ! ! ! ! ! ! I.K 6.I.I.6.6.:.=.E.g.g.E.=.>./.4XT.<.B S S ) &.,X0 2                                                                                                                                                                                                                                                             ",
"                                                                                                                                                                                                                                                              q T Y c M v D B N N ] G B B B S B B S ! ] ! S ! ! S ! ! S S S S S ! ! ! ! ! ! S S S S S S S S G P C ! I.! ] ! K w.! ! ! ! ! ! ! ! ! ! ! I.I.I.6.6.I.6.6.6.) %.|.sXE.E.E.5X/.yX6XP S S S |.&.|.e 7                                                                                                                                                                                                                                                             ",
"                                                                                                                                                                                                                                                            2 w t Y n M c v ` N N N N N N N N B B B B S ! S ! ! S ! C S S S S S ] ! S S ! 6.! ! C C S S S S w.P ! ! I.! 6.C ! C ! ! ! I.! ! ! ! I.! I.! I.I.I.I.I.6.6.) ) LX|.sX,X,XE.>.e.kX7.S S S S g.ZX:.q                                                                                                                                                                                                                                                               ",
"                                                                                                                                                                                                                                                              , u A A M M M N N N N N N N N B B N B B B S S B B B B B B B B B B S S S S S ! S ] P C S S S S C 6.! ! ! ! ! ! ! ! ! I.! ! ! ! ! ! ! ! ! ! I.! I.I.6.6.:.~ ) :.%.|.;.uXE.=.q.T.w.! P B 6.v.,Xj O                                                                                                                                                                                                                                                               ",
"                                                                                                                                                                                                                                                              2 e D G v M M c c ] B N N B N K S N N N N B B N N N N B B N N N N B B B B S B B S S ] ! S S C ! S S S S S S S S S S S S S S S S S ! ! ! ! ! I.I.I.w.:.6.) ) :.uX|.|.;.,XE.=.{ B ] K N uXZX%.0 2                                                                                                                                                                                                                                                               ",
"                                                                                                                                                                                                                                                                w t C K M M c c N N B ] B N B N N N N N N N N N N N N N N N N B D B S B B B B B B ] ] S B K ] B S B B B B B B B B B B B B B S S S S S S S K G ! C I.I.I.6.) %.%.|.;.uX=.{ ] M N P ) 5X}.6.q                                                                                                                                                                                                                                                                 ",
"                                                                                                                                                                                                                                                                2 0 n G L M c c c c v S c N ' N c c N N N N N B D N N N N N N N N B B N N N N N N ] D N N B S B B B B B B B B B B B B B B B B D ] B B B B B S S S S S S ! I.6.) :.|.uXw.` c c c 6.g.!.:.p ,                                                                                                                                                                                                                                                                 ",
"                                                                                                                                                                                                                                                                  w t ] P D M c c c N N c N ` N M c c c c c c c B c c c c N N N N N N N N N N N N ] B N N N B S N N B N N N N N N N N N N N N C x.N N N N N N B B B B S S ! I.6.) ) C N ` B c c |.ZXsX6.q                                                                                                                                                                                                                                                                   ",
"                                                                                                                                                                                                                                                                  + e D ] P ] c c c c D c M M c c c c ] N M M M M M M v N c c c c c c c c c c c c N c c c c c N c B B c c c c c c c c c c c c N B N c c c N w.d.B B B B S S S S S N M M c c N %.ZXr I.0 X                                                                                                                                                                                                                                                                   ",
"                                                                                                                                                                                                                                                                    , 0 b C ~ / v M c b M M M M M M M b c M M M M M M ` ] M M ` v M M c c c c M M M M M M M c v N b N M M M M M M b ` c M M M c c v c M M c ..|.S N c c c c M M M M M M M B uX5Xr 6.j w                                                                                                                                                                                                                                                                     ",
"                                                                                                                                                                                                                                                                      w u N ] [ [ ] c M M M M M m v M M M M M N T c M c M M M v N M M M M M M M M M M M M M c b N M M M M M M M M c ] c M M M M c D c M M M c ! B M M M M M M M M M M c P g.5X|.] t q 7                                                                                                                                                                                                                                                                     ",
"                                                                                                                                                                                                                                                                        w u c B ) ;.,X~ D M M M v v M c c M M c D N M M M M M M M c c M M M M M M M T T M M M M M M M c b M b A v M M M M M M M M M M M M M M M M M M M M M M M M S ) E.#.r ) S t e +                                                                                                                                                                                                                                                                       ",
"                                                                                                                                                                                                                                                                          w u c c B ) r g.,X%.6.S N c M M M M b M M M M M M M M M M M M M M M M M D 0Xx.M M M M M M M v m M ` mX-XM M M M M M M M M M M M M M M M M M N N S I.LXsXr r |.6.B N t e 2                                                                                                                                                                                                                                                                         ",
"                                                                                                                                                                                                                                                                            O 0 B M M N ! :.|.sXsXLXLXLX6.6.! S B N N c c M M M M M M M M M M M M v ] v T c M M M M M M M M N B D N c c c N N N N B B S S ! I.I.6.6.LXLXLXLXLXLX6.! B c c N t q +                                                                                                                                                                                                                                                                           ",
"                                                                                                                                                                                                                                                                              2 q u N M M M M N B S I.I.6.6.6.LXLXLXLXLX6.6.6.I.I.I.I.I.I.I.I.I.I.I.I.I.6.I.I.I.I.I.I.I.I.I.I.6.6.I.6.6.6.6.LX6.LXLXLXLXLXLXLXLXLXLX6.I.! B N c c c c c t 0 w y                                                                                                                                                                                                                                                                             ",
"                                                                                                                                                                                                                                                                                y , e u B M M M M N c N N B S ! I.%.r r r r sXsXsXsXsXsXsXsXsXsXsXsXsXsXsXsXsXsXsXsXsXsXsXsXsXsXsXr sXr r r sXsXsXLXLXLX6.I.! S N N N N M N c c c N t 0 w 2                                                                                                                                                                                                                                                                                 ",
"                                                                                                                                                                                                                                                                                      , q 0 u u t t B c M M M M M N B S ! C 6.) :.%.|.sXsXsXsXsXsXsXsXsXsXr r r r r r r E.E.E.E.r r uX|.%.) 6.I.S B N N N c c c N N N B S t t u 0 e O 2                                                                                                                                                                                                                                                                                     ",
"                                                                                                                                                                                                                                                                                            2 6 O w q e 0 0 u u t t S N N N c c c c M M M c c N N N B B B B N N B B B B N N N M c c c N N N N B S t t t t t u u 0 0 e q w w , 6 2 7                                                                                                                                                                                                                                                                                         ",
"                                                                                                                                                                                                                                                                                                          2 X , O w w q q q e e e e e 0 0 0 0 0 u u u u u 0 u u u u u 0 0 0 0 0 0 e e e q q q q w w w w O , , X 2 7     7                                                                                                                                                                                                                                                                                                   ",
"                                                                                                                                                                                                                                                                                                                    y             7 y   y + 2 2 2 X X 2 2 2 2 X X X 2 2 + y y 7                   y                                                                                                                                                                                                                                                                                                                         ",
"                                                                                                                                                                                                                                                                                                                                                                                                                                                                                                                                                                                                                                                                                                                            ",
"                                                                                                                                                                                                                                                                                                                                                                                                                                                                                                                                                                                                                                                                                                                            ",
"                                                                                                                                                                                                                                                                                                                                                                                                                                                                                                                                                                                                                                                                                                                            ",
"                                                                                                                                                                                                                                                                                                                                                                                                                                                                                                                                                                                                                                                                                                                            ",
"                                                                                                                                                                                                                                                                                                                                                                                                                                                                                                                                                                                                                                                                                                                            ",
"                                                                                                                                                                                                                                                                                                                                                                                                                                                                                                                                                                                                                                                                                                                            ",
"                                                                                                                                                                                                                                                                                                                                                                                                                                                                                                                                                                                                                                                                                                                            ",
"                                                                                                                                                                                                                                                                                                                                                                                                                                                                                                                                                                                                                                                                                                                            ",
"                                                                                                                                                                                                                                                                                                                                                                                                                                                                                                                                                                                                                                                                                                                            ",
"                                                                                                                                                                                                                                                                                                                                                                                                                                                                                                                                                                                                                                                                                                                            ",
"                                                                                                                                                                                                                                                                                                                                                                                                                                                                                                                                                                                                                                                                                                                            ",
"                                                                                                                                                                                                                                                                                                                                                                                                                                                                                                                                                                                                                                                                                                                            ",
"                                                                                                                                                                                                                                                                                                                                                                                                                                                                                                                                                                                                                                                                                                                            ",
"                                                                                                                                                                                                                                                                                                                                                                                                                                                                                                                                                                                                                                                                                                                            ",
"                                                                                                                                                                                                                                                                                                                                                                                                                                                                                                                                                                                                                                                                                                                            ",
"                                                                                                                                                                                                                                                                                                                                                                                                                                                                                                                                                                                                                                                                                                                            ",
"                                                                                                                                                                                                                                                                                                                                                                                                                                                                                                                                                                                                                                                                                                                            ",
"                                                                                                                                                                                                                                                                                                                                                                                                                                                                                                                                                                                                                                                                                                                            ",
"                                                                                                                                                                                                                                                                                                                                                                                                                                                                                                                                                                                                                                                                                                                            "
};
