/* XPM */
static char *_fa219fac470418ddece45e88844c87aHWg14ho5OJBuziem[] = {
/* columns rows colors chars-per-pixel */
"360 546 256 2 ",
"   c None",
".  c #040404",
"X  c #0B0503",
"o  c #050B02",
"O  c #0A0C04",
"+  c #090C09",
"@  c #130A04",
"#  c #0C1302",
"$  c #0D1C02",
"%  c #0A1306",
"&  c #121403",
"*  c #121C03",
"=  c #131C0B",
"-  c #191808",
";  c #191C12",
":  c #0B0F12",
">  c #241B09",
",  c #27170E",
"<  c #0E2201",
"1  c #0B2801",
"2  c #122403",
"3  c #1C2403",
"4  c #162A02",
"5  c #1A2D02",
"6  c #19250B",
"7  c #1C3303",
"8  c #1D3705",
"9  c #1C2413",
"0  c #1D3211",
"q  c #242B03",
"w  c #2B2C05",
"e  c #272708",
"r  c #342C09",
"t  c #223504",
"y  c #243C04",
"u  c #2A3608",
"i  c #33340C",
"p  c #35390A",
"a  c #272916",
"s  c #342A18",
"d  c #293518",
"f  c #383816",
"g  c #2C3423",
"h  c #373925",
"j  c #312F26",
"k  c #443A1B",
"l  c #4E2F17",
"z  c #463B26",
"x  c #51392A",
"c  c #59321A",
"v  c #264203",
"b  c #2B4403",
"n  c #2D4A03",
"m  c #2B460A",
"M  c #324C04",
"N  c #364808",
"B  c #355204",
"V  c #3A5405",
"C  c #3C5A05",
"Z  c #3B5709",
"A  c #3A4516",
"S  c #345015",
"D  c #3D620A",
"F  c #394628",
"G  c #3B4C2D",
"H  c #1C4304",
"J  c #425C0A",
"K  c #445B06",
"L  c #44471A",
"P  c #475818",
"I  c #505309",
"U  c #4A6506",
"Y  c #45630A",
"T  c #4B650A",
"R  c #4C6A0B",
"E  c #486506",
"W  c #536B05",
"Q  c #536C0B",
"!  c #57690A",
"~  c #55720B",
"^  c #5B740B",
"/  c #59770A",
"(  c #4B6814",
")  c #5B6C14",
"_  c #596B18",
"`  c #5A7616",
"'  c #4D730E",
"]  c #637B0C",
"[  c #65790A",
"{  c #627415",
"}  c #647A1B",
"|  c #667A17",
" . c #6E710E",
".. c #494727",
"X. c #4A5627",
"o. c #54582A",
"O. c #475638",
"+. c #575836",
"@. c #4F4932",
"#. c #6D5032",
"$. c #5A6637",
"%. c #566B28",
"&. c #677A26",
"*. c #697234",
"=. c #695716",
"-. c #535847",
";. c #59694E",
":. c #677659",
">. c #6E704D",
",. c #6F7766",
"<. c #6B5846",
"1. c #886C30",
"2. c #90714F",
"3. c #94775E",
"4. c #5D8413",
"5. c #5C830D",
"6. c #698509",
"7. c #768909",
"8. c #688717",
"9. c #768A18",
"0. c #6B9419",
"q. c #78951B",
"w. c #78930C",
"e. c #79A61B",
"r. c #6A8624",
"t. c #768827",
"y. c #799826",
"u. c #768738",
"i. c #799834",
"p. c #6D8C2D",
"a. c #7CA427",
"s. c #7EA434",
"d. c #57832A",
"f. c #798B4B",
"g. c #768769",
"h. c #798C70",
"j. c #7DA24A",
"k. c #878A0A",
"l. c #879719",
"z. c #909410",
"x. c #97A51A",
"c. c #8CAE19",
"v. c #B6B919",
"b. c #A8AC16",
"n. c #869927",
"m. c #879A34",
"M. c #8F952C",
"N. c #86A62B",
"B. c #98A728",
"V. c #88B728",
"C. c #88A835",
"Z. c #97A936",
"A. c #8CB436",
"S. c #96B73A",
"D. c #96B72A",
"F. c #A9B427",
"G. c #B5BB2A",
"H. c #A8B639",
"J. c #A8B131",
"K. c #A59928",
"L. c #98C53A",
"P. c #99C72B",
"I. c #A6C83A",
"U. c #A8D539",
"Y. c #B4C933",
"T. c #BBD02C",
"R. c #C7C925",
"E. c #C5CA34",
"W. c #D0D337",
"Q. c #C1C61E",
"!. c #899956",
"~. c #889251",
"^. c #99BA43",
"/. c #90AC53",
"(. c #A7BA45",
"). c #B1BB47",
"_. c #879779",
"`. c #8E916D",
"'. c #AF916D",
"]. c #98A867",
"[. c #9BA677",
"{. c #96B170",
"}. c #A8B679",
"|. c #A6AD76",
" X c #AA8C56",
".X c #C9A376",
"XX c #9CC647",
"oX c #9BC255",
"OX c #A6C84A",
"+X c #B9C549",
"@X c #A9D64A",
"#X c #B4DB45",
"$X c #AACB52",
"%X c #BDCA54",
"&X c #BDCD5A",
"*X c #B6C954",
"=X c #ACD653",
"-X c #B5D359",
";X c #BCD15C",
":X c #B4D858",
">X c #BBE647",
",X c #B9E758",
"<X c #B7E853",
"1X c #AFD06B",
"2X c #BDE663",
"3X c #9EC166",
"4X c #C4CD4F",
"5X c #C4EC53",
"6X c #C3EA68",
"7X c #C7F668",
"8X c #CEF773",
"9X c #D8E259",
"0X c #C2BC2E",
"qX c #909885",
"wX c #97A888",
"eX c #99AE8D",
"rX c #AAB687",
"tX c #B3BA89",
"yX c #A8B799",
"uX c #B6B997",
"iX c #AAAA8D",
"pX c #B1B9A6",
"aX c #AA9D88",
"sX c #CEB28F",
"dX c #D1BBA3",
"fX c #B7C48A",
"gX c #BBC596",
"hX c #AFC792",
"jX c #B8C6A8",
"kX c #B8CBB4",
"lX c #B6CCAF",
"zX c #C3CB9A",
"xX c #C8D09B",
"cX c #C5CAA7",
"vX c #CBD5A7",
"bX c #D4DBAC",
"nX c #D1D7A8",
"mX c #CAD6B8",
"MX c #D4DDB3",
"NX c #D5DABA",
"BX c #CCCBB2",
"VX c #ECD3B1",
"CX c #D5E3AD",
"ZX c #D6E3B5",
"AX c #CBE3BB",
"SX c #ECD0A5",
"DX c #C8DBC4",
"FX c #D6DBC4",
"GX c #CECDC9",
"HX c #E8DCC9",
"JX c #D8E5C9",
"KX c #D5E8D1",
"LX c #E6EAD4",
"PX c #F0EAD0",
"IX c #FBF6E7",
"UX c #BDD2C0",
/* pixels */
"                                                                                                                                                                                                                                                                                                    . . . . . . . . . . . . . . . . . . . . . . . . . . . . . . . . . . . . . . . . . . . . . . . . . . . . . . . . . . . . . . . . . . . . . . . . . . . . . . . . . . . . . . . . . . . . . . . . . . . . . . . . . . . . . . . . . . . . . . . . . . . . . . . . . . . . . . . . . . . . . . . . . . . . . . .                                                                                                                               ",
"                                                                                                                                                                                                                                                                                            . . . . . . . . . . . . . . . . . . . . . . . . . . . . . . . . . . . . . . . . . . . . . . . . . . . . . . . . . . . . . . . . . . . . . . . . . . . . . . . . . . . . . . . . . . . . . . . . . . . . . . . . . . . . . . . . . . . . . . . . . . . . . . . . . . . . . . . . . . . . . . . . . . . . . . . . . . .                                                                                                                               ",
"                                                                                                                                                                                                                                                                                    . . . . . . . . . . . . . . . . . . . . . . . . . . . . . . . . . . . . . . . . . . . . . . . . . . . . . . . . . . . . . . . . . . . . . . . . . . . . . . . . . . . . . . . . . . . . . . . . . . . . . . . . . . . . . . . . . . . . . . . . . . . . . . . . . . . . . . . . . . . . . . . . . . . . . . . . . . . . . . . .                                                                                                                             ",
"                                                                                                                                                                                                                                                                            . . . . . . . . . . . . . . . . . . . . . . . . . . . . . . . . . . . . . . . . . . . . . . . . . . . . . . . . . . . . . . . . . . . . . . . . . . . . . . . . . . . . . . . . . . . . . . . . . . . . . . . . . . . . . . . . . . . . . . . . . . . . . . . . . . . . . . . . . . . . . . . . . . . . . . . . . . . . . . . . . . . .                                                                                                                             ",
"                                                                                                                                                                                                                                                                    . . . . . . . . . . . . . . . . . . . . . . . . . . . . . . . . . . . . . . . . . . . . . . . . . . . . . . . . . . . . . . . . . . . . . . . . . . . . . . . . . . . . . . . . . . . . . . . . . . . . . . . . . . . . . . . . . . . . . . . . . . . . . . . . . . . . . . . . . . . . . . . . . . . . . . . . . . . . . . . . . . . . . . . .                                                                                                                             ",
"                                                                                                                                                                                                                                                            . . . . . . . . . . . . . . . . . . . . . . . . . . . . . . . . . . . . . . . . . . . . . . . . . . . . . . . . . . . . . . . . . . . . . . . . . . . . . . . . . . . . . . . . . . . . . . . . . . . . . . . . . . . . . . . . . . . . . . . . . . . . . . . . . . . . . . . . . . . . . . . . . . . . . . . . . . . . . . . . . . . . . . . . . . . .                                                                                                                             ",
"                                                                                                                                                                                                                                                    . . . . . . . . . . . . . . . . . . . . . . . . . . . . . . . . . . . . . . . . . . . . . . . . . . . . . . . . . . . . . . . . . . . . . . . . . . . . . . . . . . . . . . . . . . . . . . . . . . . . . . . . . . . . . . . . . . . . . . . . . . . . . . . . . . . . . . . . . . . . . . . . . . . . . . . . . . . . . . . . . . . . . . . . . . . . . . . . .                                                                                                                           ",
"                                                                                                                                                                                                                                            . . . . . . . . . . . . . . . . . . . . . . . . . . . . . . . . . . . . . . . . . . . . . . . . . . . . . . . . . . . . . . . . . . . . . . . . . . . . . . . . . . . . . . . . . . . . . . . . . . . . . . . . . . . . . . . . . . . . . . . . . . . . . . . . . . . . . . . . . . . . . . . . . . . . . . . . . . . . . . . . . . . . . . . . . . . . . . . . . . . . .                                                                                                                           ",
"                                                                                                                                                                                                                                    . . . . . . . . . . . . . . . . . . . . . . . . . . . . . . . . . . . . . . . . . . . . . . . . . . . . . . . . . . . . . . . . . . . . . . . . . . . . . . . . . . . . . . . . . . . . . . . . . . . . . . . . . . . . . . . . . . . . . . . . . . . . . . . . . . . . . . . . . . . . . . . . . . . . . . . . . . . . . . . . . . . . . . . . . . . . . . . . . . . . . . . . .                                                                                                                           ",
"                                                                                                                                                                                                                            . . . . . . . . . . . . . . . . . . . . . . . . . . . . . . . . . . . . . . . . . . . . . . . . . . . . . . . . . . . . . . . . . . . . . . . . . . . . . . . . . . . . . . . . . . . . . . . . . . . . . . . . . . . . . . . . . . . . . . . . . . . . . . . . . . . . . . . . . . . . . . . . . . . . . . . . . . . . . . . . . . . . . . . . . . . . . . . . . . . . . . . . . . . . .                                                                                                                           ",
"                                                                                                                                                                                                                    . . . . . . . . . . . . . . . . . . . . . . . . . . . . . . . . . . . . . . . . . . . . . . . . . . . . . . . . . . . . . . . . . . . . . . . . . . . . . . . . . . . . . . . . . . . . . . . . . . . . . . . . . . . . . . . . . . . . . . . . . . . . . . . . . . . . . . . . . . . . . . . . . . . . . . . . . . . . . . . . . . . . . . . . . . . . . . . . . . . . . . . . . . . . . . . . . .                                                                                                                         ",
"                                                                                                                                                                                                            . . . . . . . . . . . . . . . . . . . . . . . . . . . . . . . . . . . . . . . . . . . . . . . . . . . . . . . . . . . . . . . . . . . . . . . . . . . . . . . . . . . . . . . . . . . . . . . . . . . . . . . . . . . . . . . . . . . . . . . . . . . . . . . . . . . . . . . . . . . . . . . . . . . . . . . . . . . . . . . . . . . . . . . . . . . . . . . . . . . . . . . . . . . . . . . . . . . . . .                                                                                                                         ",
"                                                                                                                                                                                                    . . . . . . . . . . . . . . . . . . . . . . . . . . . . . . . . . . . . . . . . . . . . . . . . . . . . . . . . . . . . . . . . . . . . . . . . . . . . . . . . . . . . . . . . . . . . . . . . . . . . . . . . . . . . . . . . . . . . . . . . . . . . . . . . . . . . . . . . . . . . . . . . . . . . . . . . . . . . . . . . . . . . . . . . . . . . . . . . . . . . . . . . . . . . . . . . . . . . . . . . . .                                                                                                                         ",
"                                                                                                                                                                                            . . . . . . . . . . . . . . . . . . . . . . . . . . . . . . . . . . . . . . . . . . . . . . . . . . . . . . . . . . . . . . . . . . . . . . . . . . . . . . . . . . . . . . . . . . . . . . . . . . . . . . . . . . . . . . . . . . . . . . . . . . . . . . . . . . . . . . . . . . . . . . . . . . . . . . . . . . . . . . . . . . . . . . . . . . . . . . . . . . . . . . . . . . . . . . . . . . . . . . . . . . . . . .                                                                                                                         ",
"                                                                                                                                                                                    . . . . . . . . . . . . . . . . . . . . . . . . . . . . . . . . . . . . . . . . . . . . . . . . . . . . . . . . . . . . . . . . . . . . . . . . . . . . . . . . . . . . . . . . . . . . . . . . . . . . . . . . . . . . . . . . . . . . . . . . . . . . . . . . . . . . . . . . . . . . . . . . . . . . . . . . . . . . . . . . . . . . . . . . . . . . . . . . . . . . . . . . . . . . . . . . . . . . . . . . . . . . . . . . . . .                                                                                                                       ",
"                                                                                                                                                                            . . . . . . . . . . . . . . . . . . . . . . . . . . . . . . . . . . . . . . . . . . . . . . . . . . . . . . . . . . . . . . . . . . . . . . . . . . . . . . . . . . . . . . . . . . . . . . . . . . . . . . . . . . . . . . . . . . . . . . . . . . . . . . . . . . . . . . . . . . . . . . . . . . . . . . . . . . . . . . . . . . . . . . . . . . . . . . . . . . . . . . . . . . . . . . . . . . . . . . . . . . . . . . . . . . . . . . .                                                                                                                       ",
"                                                                                                                                                                    . . . . . . . . . . . . . . . . . . . . . . . . . . . . . . . . . . . . . . . . . . . . . . . . . . . . . . . . . . . . . . . . . . . . . . . . . . . . . . . . . . . . . . . . . . . . . . . . . . . . . . . . . . . . . . . . . . . . . . . . . . . . . . . . . . . . . . . . . . . . . . . . . . . . . . . . . . . . . . . . . . . . . . . . . . . . . . . . . . . . . . . . . . . . . . . . . . . . . . . . . . . . . . . . . . . . . . . . . . .                                                                                                                       ",
"                                                                                                                                                            . . . . . . . . . . . . . . . . . . . . . . . . . . . . . . . . . . . . . . . . . . . . . . . . . . . . . . . . . . . . . . . . . . . . . . . . . . . . . . . . . . . . . . . . . . . . . . . . . . . . . . . . . . . . . . . . . . . . . . . . . . . . . . . . . . . . . . . . . . . . . . . . . . . . . . . . . . . . . . . . . . . . . . . . . . . . . . . . . . . . . . . . . . . . . . . . . . . . . . . . . . . . . . . . . . . . . . . . . . . . . . .                                                                                                                       ",
"                                                                                                                                                    . . . . . . . . . . . . . . . . . . . . . . . . . . . . . . . . . . . . . . . . . . . . . . . . . . . . . . . . . . . . . . . . . . . . . . . . . . . . . . . . . . . . . . . . . . . . . . . . . . . . . . . . . . . . . . . . . . . . . . . . . . . . . . . . . . . . . . . . . . . . . . . . . . . . . . . . . . . . . . . . . . . . . . . . . . . . . . . . . . . . . . . . . . . . . . . . . . . . . . . . . . . . . . . . . . . . . . . . . . . . . . . . . . . .                                                                                                                     ",
"                                                                                                                                            . . . . . . . . . . . . . . . . . . . . . . . . . . . . . . . . . . . . . . . . . . . . . . . . . . . . . . . . . . . . . . . . . . . . . . . . . . . . . . . . . . . . . . . . . . . . . . . . . . . . . . . . . . . . . . . . . . . . . . . . . . . . . . . . . . . . . . . . . . . . . . . . . . . . . . . . . . . . . . . . . . . . . . . . . . . . . . . . . . . . . . . . . . . . . . . . . . . . . . . . . . . . . . . . . . . . . . . . . . . . . . . . . . . . . . . .                                                                                                                     ",
"                                                                                                                                    . . . . . . . . . . . . . . . . . . . . . . . . . . . . . . . . . . . . . . . . . . . . . . . . . . . . . . . . . . . . . . . . . . . . . . . . . . . . . . . . . . . . . . . . . . . . . . . . . . . . . . . . . . . . . . . . . . . . . . . . . . . . . . . . . . . . . . . . . . . . . . . . . . . . . . . . . . . . . . . . . . . . . . . . . . . . . . . . . . . . . . . . . . . . . . . . . . . . . . . . . . . . . . . . . . . . . . . . . . . . . . . . . . . . . . . . . . . .                                                                                                                     ",
"                                                                                                                            . . . . . . . . . . . . . . . . . . . . . . . . . . . . . . . . . . . . . . . . . . . . . . . . . . . . . . . . . . . . . . . . . . . . . . . . . . . . . . . . . . . . . . . . . . . . . . . . . . . . . . . . . . . . . . . . . . . . . . . . . . . . . . . . . . . . . . . . . . . . . . . . . . . . . . . . . . . . . . . . . . . . . . . . . . . . . . . . . . . . . . . . . . . . . . . . . . . . . . . . . . . . . . . . . . . . . . . . . . . . . . . . . . . . . . . . . . . . . . . .                                                                                                                     ",
"                                                                                                                    . . . . . . . . . . . . . . . . . . . . . . . . . . . . . . . . . . . . . . . . . . . . . . . . . . . . . . . . . . . . . . . . . . . . . . . . . . . . . . . . . . . . . . . . . . . . . . . . . . . . . . . . . . . . . . . . . . . . . . . . . . . . . . . . . . . . . . . . . . . . . . . . . . . . . . . . . . . . . . . . . . . . . . . . . . . . . . . . . . . . . . . . . . . . . . . . . . . . . . . . . . . . . . . . . . . . . . . . . . . . . . . . . . . . . . . . . . . . . . . . . . . . .                                                                                                                   ",
"                                                                                                              . . . . . . . . . . . . . . . . . . . . . . . . . . . . . . . . . . . . . . . . . . . . . . . . . . . . . . . . . . . . . . . . . . . . . . . . . . . . . . . . . . . . . . . . . . . . . . . . . . . . . . . . . . . . . . . . . . . . . . . . . . . . . . . . . . . . . . . . . . . . . . . . . . . . . . . . . . . . . . . . . . . . . . . . . . . . . . . . . . . . . . . . . . . . . . . . . . . . . . . . . . . . . . . . . . . . . . . . . . . . . . . . . . . . . . . . . . . . . . . . . . . . . . . .                                                                                                                   ",
"                                                                                                      . . . . . . . . . . . . . . . . . . . . . . . . . . . . . . . . . . . . . . . . . . . . . . . . . . . . . . . . . . . . . . . . . . . . . . . . . . . . . . . . . . . . . . . . . . . . . . . . . . . . . . . . . . . . . . . . . . . . . . . . . . . . . . . . . . . . . . . . . . . . . . . . . . . . . . . . . . . . . . . . . . . . . . . . . . . . . . . . . . . . . . . . . . . . . . . . . . . . . . . . . . . . . . . . . . . . . . . . . . . . . . . . . . . . . . . . . . . . . . . . . . . . . . . . . . . .                                                                                                                   ",
"                                                                                              . . . . . . . . . . . . . . . . . . . . . . . . . . . . . . . . . . . . . . . . . . . . . . . . . . . . . . . . . . . . . . . . . . . . . . . . . . . . . . . . . . . . . . . . . . . . . . . . . . . . . . . . . . . . . . . . . . . . . . . . . . . . . . . . . . . . . . . . . . . . . . . . . . . . . . . . . . . . . . . . . . . . . . . . . . . . . . . . . . . . . . . . . . . . . . . . . . . . . . . . . . . . . . . . . . . . . . . . . . . . . . . . . . . . . . . . . . . . . . . . . . . . . . . . . . . . . . . .                                                                                                                   ",
"                                                                                      . . . . . . . . . . . . . . . . . . . . . . . . . . . . . . . . . . . . . . . . . . . . . . . . . . . . . . . . . . . . . . . . . . . . . . . . . . . . . . . . . . . . . . . . . . . . . . . . . . . . . . . . . . . . . . . . . . . . . . . . . . . . . . . . . . . . . . . . . . . . . . . . . . . . . . . . . . . . . . . . . . . . . . . . . . . . . . . . . . . . . . . . . . . . . . . . . . . . . . . . . . . . . . . . . . . . . . . . . . . . . . . . . . . . . . . . . . . . . . . . . . . . . . . . . . . . . . . . . . . . .                                                                                                                 ",
"                                                                              . . . . . . . . . . . . . . . . . . . . . . . . . . . . . . . . . . . . . . . . . . . . . . . . . . . . . . . . . . . . . . . . . . . . . . . . . . . . . . . . . . . . . . . . . . . . . . . . . . . . . . . . . . . . . . . . . . . . . . . . . . . . . . . . . . . . . . . . . . . . . . . . . . . . . . . . . . . . . . . . . . . . . . . . . . . . . . . . . . . . . . . . . . . . . . . . . . . . . . . . . . . . . . . . . . . . . . . . . . . . . . . . . . . . . . . . . . . . . . . . . . . . . . . . . . . . . . . . . . . . . . . . .                                                                                                                 ",
"                                                                      . . . . . . . . . . . . . . . . . . . . . . . . . . . . . . . . . . . . . . . . . . . . . . . . . . . . . . . . . . . . . . . . . . . . . . . . . . . . . . . . . . . . . . . . . . . . . . . . . . . . . . . . . . . . . . . . . . . . . . . . . . . . . . . . . . . . . . . . . . . . . . . . . . . . . . . . . . . . . . . . . . . . . . . . . . . . . . . . . . . . . . . . . . . . . . . . . . . . . . . . . . . . . . . . . . . . . . . . . . . . . . . . . . . . . . . . . . . . . . . . . . . . . . . . . . . . . . . . . . . . . . . . . . . . .                                                                                                                 ",
"                                                              . . . . . . . . . . . . . . . . . . . . . . . . . . . . . . . . . . . . . . . . . . . . . . . . . . . . . . . . . . . . . . . . . . . . . . . . . . . . . . . . . . . . . . . . . . . . . . . . . . . . . . . . . . . . . . . . . . . . . . . . . . . . . . . . . . . . . . . . . . . . . . . . . . . . . . . . . . . . . . . . . . . . . . . . . . . . . . . . . . . . . . . . . . . . . . . . . . . . . . . . . . . . . . . . . . . . . . . . . . . . . . . . . . . . . . . . . . . . . . . . . . . . . . . . . . . . . . . . . . . . . . . . . . . . . . . . .                                                                                                                 ",
"                                                      . . . . . . . . . . . . . . . . . . . . . . . . . . . . . . . . . . . . . . . . . . . . . . . . . . . . . . . . . . . . . . . . . . . . . . . . . . . . . . . . . . . . . . . . . . . . . . . . . . . . . . . . . . . . . . . . . . . . . . . . . . . . . . . . . . . . . . . . . . . . . . . . . . . . . . . . . . . . . . . . . . . . . . . . . . . . . . . . . . . . . . . . . . . . . . . . . . . . . . . . . . . . . . . . . . . . . . . . . . . . . . . . . . . . . . . . . . . . . . . . . . . . . . . . . . . . . . . . . . . . . . . . . . . . . . . . . . . . . .                                                                                                               ",
"                                              . . . . . . . . . . . . . . . . . . . . . . . . . . . . . . . . . . . . . . . . . . . . . . . . . . . . . . . . . . . . . . . . . . . . . . . . . . . . . . . . . . . . . . . . . . . . . . . . . . . . . . . . . . . . . . . . . . . . . . . . . . . . . . . . . . . . . . . . . . . . . . . . . . . . . . . . . . . . . . . . . . . . . . . . . . . . . . . . . . . . . . . . . . . . . . . . . . . . . . . . . . . . . . . . . . . . . . . . . . . . . . . . . . . . . . . . . . . . . . . . . . . . . . . . . . . . . . . . . . . . . . . . . . . . . . . . . . . . . . . . . .                                                                                                               ",
"                                      . . . . . . . . . . . . . . . . . . . . . . . . . . . . . . . . . . . . . . . . . . . . . . . . . . . . . . . . . . . . . . . . . . . . . . . . . . . . . . . . . . . . . . . . . . . . . . . . . . . . . . . . . . . . . . . . . . . . . . . . . . . . . . . . . . . . . . . . . . . . . . . . . . . . . . . . . . . . . . . . . . . . . . . . . . . . . . . . . . . . . . . . . . . . . . . . . . . . . . . . . . . . . . . . . . . . . . . . . . . . . . . . . . . . . . . . . . . . . . . . . . . . . . . . . . . . . . . . . . . . . . . . . . . . . . . . . . . . . . . . . . . . . .                                                                                                               ",
"                              . . . . . . . . . . . . . . . . . . . . . . . . . . . . . . . . . . . . . . . . . . . . . . . . . . . . . . . . . . . . . . . . . . . . . . . . . . . . . . . . . . . . . . . . . . . . . . . . . . . . . . . . . . . . . . . . . . . . . . . . . . . . . X X . . . . . . . . . . . . . . . . . . . . . . . . . . . . . . . . . . . . . . . . . . . . . . . . . . . . . . . . . . . . . . . . . . . . . . . . . . . . . . . . . . . . . . . . . . . . . . . . . . . . . . . . . . . . . . . . . . . . . . . . . . . . . . . . . . . . . . . . . . . . . . . . . . . . . . . . . . . . . . . . . . .                                                                                                               ",
"                      . . . . . . . . . . . . . . . . . . . . . . . . . . . . . . . . . . . . . . . . . . . . . . . . . . . . . . . . . . . . . . . . . . . . . . . . . . . . . . . . . . . . . . . . . . . . . . . . . . . . . . . . . . . . . . . . . . . . . . . . . . . . . . . . . X . . . . . . . . . . . . . . . . . . . . . . . . . . . . . . . . . . . . . . . . . . . . . . . . . . . . . . . . . . . . . . . . . . . . . . . . . . . . . . . . . . . . . . . . . . . . . . . . . . . . . . . . . . . . . . . . . . . . . . . . . . . . . . . . . . . . . . . . . . . . . . . . . . . . . . . . . . . . . . . . . . . . .                                                                                                             ",
"              . . . . . . . . . . . . . . . . . . . . . . . . . . . . . . . . . . . . . . . . . . . . . . . . . . . . . . . . . . . . . . . . . . . . . . . . . . . . . . . . . . . . . . . . . . . . . . . . . . . . . . . . . . . . . . . . . . . . . . . . . . . . . . . . . . . . . X @ - @ X @ X X . . . . . . . . . . . . . . . . . . . . . . . . . . . . . . . . . . . . . . . . . . . . . . . . . . . . . . . . . . . . . . . . . . . . . . . . . . . . . . . . . . . . . . . . . . . . . . . . . . . . . . . . . . . . . . . . . . . . . . . . . . . . . . . . . . . . . . . . . . . . . . . . . . . . . . . . . . . . . .                                                                                                             ",
"      . . . . . . . . . . . . . . . . . . . . . . . . . . . . . . . . . . . . . . . . . . . . . . . . . . . . . . . . . . . . . . . . . . . . . . . . . . . . . . . . . . . . . . . . . . . . . . . . . . . . . . . . . . . . . . . . . . . . . . . . . . . . . . . . . . @ @ , , s l l c c x @.x z j s @ X . . . . . . . . . . . . . . . . . . . . . . . . . . . . . . . . . . . . . . . . . . . . . . . . . . . . . . . . . . . . . . . . . . . . . . . . . . . . . . . . . . . . . . . . . . . . . . . . . . . . . . . . . . . . . . . . . . . . . . . . . . . . . . . . . . . . . . . . . . . . . . . . . . . . . . . . . . . .                                                                                                             ",
". . . . . . . . . . . . . . . . . . . . . . . . . . . . . . . . . . . . . . . . . . . . . . . . . . . . . . . . . . . . . . . . . . . . . . . . . . . . . . . . . . . . . . . . . . . . . . . . . . . . . . . . . . . . . . . . . . . . . . . . . . . . . . . . X , s l k @.<.2.3.'.'.'.'.3.3.<.<.<.#.x x a X . . . . . . . . . . . . . . . . . . . . . . . . . . . . . . . . . . . . . . . . . . . . . . . . . . . . . . . . . . . . . . . . . . . . . . . . . . . . . . . . . . . . . . . . . . . . . . . . . . . . . . . . . . . . . . . . . . . . . . . . . . . . . . . . . . . . . . . . . . . . . . . . . . . . . . . . . . .                                                                                                             ",
". . . . . . . . . . . . . . . . . . . . . . . . . . . . . . . . . . . . . . . . . . . . . . . . . . . . . . . . . . . . . . . . . . . . . . . . . . . . . . . . . . . . . . . . . . . . . . . . . . . . . . . . . . . . . . . . . . . . . . . . . . . . X , s x #.2.3.'.sXdXBXVXHXVXdXsX'.'.3.<.#.x @.x x j , X . . . . . . . . . . . . . . . . . . . . . . . . . . . . . . . . . . . . . . . . . . . . . . . . . . . . . . . . . . . . . . . . . . . . . . . . . . . . . . . . . . . . . . . . . . . . . . . . . . . . . . . . . . . . . . . . . . . . . . . . . . . . . . . . . . . . . . . . . . . . . . . . . . . . . . . . . . .                                                                                                           ",
". . . . . . . . . . . . . . . . . . . . . . . . . . . . . . . . . . . . . . . . . . . . . . . . . . . . . . . . . . . . . . . . . . . . . . . . . . . . . . . . . . . . . . . . . . . . . . . . . . . . . . . . . . . . . . . . . . . . . . . . X ; s x #.2.'.sXSXVXVXPXIXIXIXPXHXVXdXaX'.3.3.2.#.c x x x z s , X . . . . . . . . . . . . . . . . . . . . . . . . . . . . . . . . . . . . . . . . . . . . . . . . . . . . . . . . . . . . . . . . . . . . . . . . . . . . . . . . . . . . . . . . . . . . . . . . . . . . . . . . . . . . . . . . . . . . . . . . . . . . . . . . . . . . . . . . . . . . . . . . . . . . . . . . . .                                                                                                           ",
". . . . . . . . . . . . . . . . . . . . . . . . . . . . . . . . . . . . . . . . . . . . . . . . . . . . . . . . . . . . . . . . . . . . . . . . . . . . . . . . . . . . . . . . . . . . . . . . . . . . . . . . . . . . . . . . . . . . X , s x #.2.'.dXVXPXPXPXIXIXIXIXIXPXPXVXsX.X'.'.2.1.2.2.#.x x z x x s , - X . . . . . . . . . . . . . . . . . . . . . . . . . . . . . . . . . . . . . . . . . . . . . . . . . . . . . . . . . . . . . . . . . . . . . . . . . . . . . . . . . . . . . . . . . . . . . . . . . . . . . . . . . . . . . . . . . . . . . . . . . . . . . . . . . . . . . . . . . . . . . . . . . . . . . . . . .                                                                                                           ",
". . . . . . . . . . . . . . . . . . . . . . . . . . . . . . . . . . . . . . . . . . . . . . . . . . . . . . . . . . . . . . . . . . . . . . . . . . . . . . . . . . . . . . . . . . . . . . . . . . . . . . . . . . . . . . . . X , s x #.2.'.sXVXPXPXIXIXIXIXIXIXIXPXPXHXVXSXSX'.2.2.2.2.#.#.2.1.x l s z #.x , , X . . . . . . . . . . . . . . . . . . . . . . . . . . . . . . . . . . . . . . . . . . . . . . . . . . . . . . . . . . . . . . . . . . . . . . . . . . . . . . . . . . . . . . . . . . . . . . . . . . . . . . . . . . . . . . . . . . . . . . . . . . . . . . . . . . . . . . . . . . . . . . . . . . . . . . . . .                                                                                                           ",
". . . . . . . . . . . . . . . . . . . . . . . . . . . . . . . . . . . . . . . . . . . . . . . . . . . . . . . . . . . . . . . . . . . . . . . . . . . . . . . . . . . . . . . . . . . . . . . . . . . . . . . . . . . . X - s x #.2.'.sXVXVXPXIXIXIXIXIXIXPXPXPXPXVXVXdXaX'.'.VXdX#.#.#.#.c l 2.2.r @ > , <.x , s > X . . . . . . . . . . . . . . . . . . . . . . . . . . . . . . . . . . . . . . . . . . . . . . . . . . . . . . . . . . . . . . . . . . . . . . . . . . . . . . . . . . . . . . . . . . . . . . . . . . . . . . . . . . . . . . . . . . . . . . . . . . . . . . . . . . . . . . . . . . . . . . . . . . . . . . . . .                                                                                                         ",
". . . . . . . . . . . . . . . . . . . . . . . . . . . . . . . . . . . . . . . . . . . . . . . . . . . . . . . . . . . . . . . . . . . . . . . . . . . . . . . . . . . . . . . . . . . . . . . . . . . . . . . . . X @ , l #.2.'.sXSXVXPXPXIXIXIXIXPXVXVXSXSXVXSX'.'.sXsX3.#.<.sXSX@.l x x x , #.3.r X @ , x x , , @ @ . . . . . . . . . . . . . . . . . . . . . . . . . . . . . . . . . . . . . . . . . . . . . . . . . . . . . . . . . . . . . . . . . . . . . . . . . . . . . . . . . . . . . . . . . . . . . . . . . . . . . . . . . . . . . . . . . . . . . . . . . . . . . . . . . . . . . . . . . . . . . . . . . . . . . . . . .                                                                                                         ",
". . . . . . . . . . . . . . . . . . . . . . . . . . . . . . . . . . . . . . . . . . . . . . . . . . . . . . . . . . . . . . . . . . . . . . . . . . . . . . . . . . . . . . . . . . . . . . . . . . . . . . X @ > l #.2.'..XsXSXVXHXHXHXHXVXVXSXsXsXsX.X X'.VXSX2.#.2.3.#.l , '.dXl r s l l @ l 3.+.> @ @ x <.x z 3.x X . . . . . . . . . . . . . . . . . . . . . . . . . . . . . . . . . . . . . . . . . . . . . . . . . . . . . . . . . . . . . . . . . . . . . . . . . . . . . . . . . . . . . . . . . . . . . . . . . . . . . . . . . . . . . . . . . . . . . . . . . . . . . . . . . . . . . . . . . . . . . . . . . . . . . . . .                                                                                                         ",
". . . . . . . . . . . . . . . . . . . . . . . . . . . . . . . . . . . . . . . . . . . . . . . . . . . . . . . . . . . . . . . . . . . . . . . . . . . . . . . . . . . . . . . . . . . . . . . . . . . . . , l #.2. X.XsXSXVXVXVXVXVXSXdXsXsXsX.X.X X X'.#.#.VXSXc l c #.c l @ `.sXx @ @ @ @ X k `.3.s z 3.dXHX3.-.HX'.@ . . . . . . . . . . . . . . . . . . . . . . . . . . . . . . . . . . . . . . . . . . . . . . . . . . . . . . . . . . . . . . . . . . . . . . . . . . . . . . . . . . . . . . . . . . . . . . . . . . . . . . . . . . . . . . . . . . . . . . . . . . . . . . . . . . . . . . . . . . . . . . . . . . . . . . . .                                                                                                         ",
". . . . . . . . . . . . . . . . . . . . . . . . . . . . . . . . . . . . . . . . . . . . . . . . . . . . . . . . . . . . . . . . . . . . . . . . . . . . . . . . . . . . . . . . . . . . . . . . . . @ > c 1. X.XsXSXVXVXHXPXHXVXSXSXsX'..XVX'.'..X X3.3.c l dXdX#., s l l > @ >.BX3.@ , , @ s <.aXsX@.2.HXIXIXpX@.IXdXx X . . . . . . . . . . . . . . . . . . . . . . . . . . . . . . . . . . . . . . . . . . . . . . . . . . . . . . . . . . . . . . . . . . . . . . . . . . . . . . . . . . . . . . . . . . . . . . . . . . . . . . . . . . . . . . . . . . . . . . . . . . . . . . . . . . . . . . . . . . . . . . . . . . . . . . . .                                                                                                       ",
". . . . . . . . . . . . . . . . . . . . . . . . . . . . . . . . . . . . . . . . . . . . . . . . . . . . . . . . . . . . . . . . . . . . . . . . . . . . . . . . . . . . . . . . . . . . . . . . . @ s #.'..XsXSXVXVXPXPXIXIXPXSXSXSXsX'.VXPX3.2.3.1.1.1.c <.VXdX#.@ @ , @ @ , 3.VXiX, 3.pXdXVX'.BXdXs <.BXHXPXpX<.BXHX>.; . . . . . . . . . . . . . . . . . . . . . . . . . . . . . . . . . . . . . . . . . . . . . . . . . . . . . . . . . . . . . . . . . . . . . . . . . . . . . . . . . . . . . . . . . . . . . . . . . . . . . . . . . . . . . . . . . . . . . . . . . . . . . . . . . . . . . . . . . . . . . . . . . . . . . . . .                                                                                                       ",
". . . . . . . . . . . . . . . . . . . . . . . . . . . . . . . . . . . . . . . . . . . . . . . . . . . . . . . . . . . . . . . . . . . . . . . . . . . . . . . . . . . . . . . . . . . . . . . . @ l 1.'.sXdXVXVXPXPXPXIXIXPXHXVXSXSXsX'.VXVX3.#.#.l l c c 2.IXVX<.. , a z <.3.dXdXPX@.VXIXPXdX`.NXcX<.<.iXuXaX,.z <.`.-.- . . . . . . . . . . . . . . . . . . . . . . . . . . . . . . . . . . . . . . . . . . . . . . . . . . . . . . . . . . . . . . . . . . . . . . . . . . . . . . . . . . . . . . . . . . . . . . . . . . . . . . . . . . . . . . . . . . . . . . . . . . . . . . . . . . . . . . . . . . . . . . . . . . . . . . . .                                                                                                       ",
". . . . . . . . . . . . . . . . . . . . . . . . . . . . . . . . . . . . . . . . . . . . . . . . . . . . . . . . . . . . . . . . . . . . . . . . . . . . . . . . . . . . . . . . . . . . . . . X l 2..XsXSXSXVXPXPXPXPXPXPXuXsXVXdXsX'.3.dXHX3., l @ , r r 3.IXHX>.,.`.qXcXuXdXPXdXiX<.'.NXNX`.3.`.<.@.<.-.a X . X @ X X X . . . . . . . . . . . . . . . . . . . . . . . . . . . . . . . . . . . . . . . . . . . . . . . . . . . . . . . . . . . . . . . . . . . . . . . . . . . . . . . . . . . . . . . . . . . . . . . . . . . . . . . . . . . . . . . . . . . . . . . . . . . . . . . . . . . . . . . . . . . . . . . . . . . . . . . .                                                                                                       ",
". . . . . . . . . . . . . . . . . . . . . . . . . . . . . . . . . . . . . . . . . . . . . . . . . . . . . . . . . . . . . . . . . . . . . . . . . . . . . . . . . . . . . . . . . . . . . . . r 1.'.SXSXVXVXPXPXHXVXVXPXHX`.2.HX.X.X2.#.sXIX'.@ @ @ , l #.sXIXHX3.'.HXIXPX`.aXLXuX<., j <.-.@.@.s @ . X X . . . X X . . . . . . . . . . . . . . . . . . . . . . . . . . . . . . . . . . . . . . . . . . . . . . . . . . . . . . . . . . . . . . . . . . . . . . . . . . . . . . . . . . . . . . . . . . . . . . . . . . . . . . . . . . . . . . . . . . . . . . . . . . . . . . . . . . . . . . . . . . . . . . . . . . . . . . . . . . . .                                                                                                     ",
". . . . . . . . . . . . . . . . . . . . . . . . . . . . . . . . . . . . . . . . . . . . . . . . . . . . . . . . . . . . . . . . . . . . . . . . . . . . . . . . . . . . . . . . . . . . . . @ #.2..XSXVXSXHXPXVXPXVXVXPXPX2.x sX1..X1.l uXIXaXx , x 2.'..XSXPXPXaX#.3.BXdXaX3.qX-.- X X X @ . . . . . . . . . . + . . . . . . . . . . . . . . . . . . . . . . . . . . . . . . . . . . . . . . . . . . . . . . . . . . . . . . . . . . . . . . . . . . . . . . . . . . . . . . . . . . . . . . . . . . . . . . . . . . . . . . . . . . . . . . . . . . . . . . . . . . . . . . . . . . . . . . . . . . . . . . . . . . . . . . . . . . . . .                                                                                                     ",
". . . . . . . . . . . . . . . . . . . . . . . . . . . . . . . . . . . . . . . . . . . . . . . . . . . . . . . . . . . . . . . . . . . . . . . . . . . . . . . . . . . . . . . . . . . . . . , 1. X.XVXsXSXPXBXiXIXPXPXPXIX'.c c l 3.3.<.sXIXBX3.#.<.SXsX'.sXPXBX3.> ; -.-.a . . . X O X X . . o . . . . . . . . X . . . . . . . . . . . . . . . . . . . . . . . . . . . . . . . . . . . . . . . . . . . . . . . . . . . . . . . . . . . . . . . . . . . . . . . . . . . . . . . . . . . . . . . . . . . . . . . . . . . . . . . . . . . . . . . . . . . . . . . . . . . . . . . . . . . . . . . . . . . . . . . . . . . . . . . . . . . . .                                                                                                     ",
". . . . . . . . . . . . . . . . . . . . . . . . . . . . . . . . . . . . . . . . . . . . . . . . . . . . . . . . . . . . . . . . . . . . . . . . . . . . . . . . . . . . . . . . . . . . . . , '. XSXVXsXnXIX'.3.HXIXNXBXHX'.#.#.c 1.dXsXBXIXHXsX3.x SXsX3.'.`.@.a o o * * & # # # & & # O X o o o . . . . . o o + . . . . . . . . . . . . . . . . . . . . . . . . . . . . . . . . . . . . . . . . . . . . . . . . . . . . . . . . . . . . . . . . . . . . . . . . . . . . . . . . . . . . . . . . . . . . . . . . . . . . . . . . . . . . . . . . . . . . . . . . . . . . . . . . . . . . . . . . . . . . . . . . . . . . . . . . . . . . .                                                                                                     ",
". . . . . . . . . . . . . . . . . . . . . . . . . . . . . . . . . . . . . . . . . . . . . . . . . . . . . . . . . . . . . . . . . . . . . . . . . . . . . . . . . . . . . . . . . . . . . . h '.'.SXVXdXVXPX`.x 3.'.<.2.SXsX1. X#.c sX'.sXIXPXaX#.> [.3.@., X - d A A N u q 5 4 2 * & # # O o o o . . . . . . o + . . . . . . . . . . . . . . . . . . . . . . . . . . . . . . . . . . . . . . . . . . . . . . . . . . . . . . . . . . . . . . . . . . . . . . . . . . . . . . . . . . . . . . . . . . . . . . . . . . . . . . . . . . . . . . . . . . . . . . . . . . . . . . . . . . . . . . . . . . . . . . . . . . . . . . . . . . . . . .                                                                                                   ",
". . . . . . . . . . . . . . . . . . . . . . . . . . . . . . . . . . . . . . . . . . . . . . . . . . . . . . . . . . . . . . . . . . . . . . . . . . . . . . . . . . . . . . . . . . . . . . z '.sXVXPXxXnXPXaX@ , r c #.SXSX=. Xc , sX'.aXiX3.@.> # % = u A P P ( ( P N y t q 5 4 2 * # # O o o o . . . . . . O + . . . . . . . . . . . . . . . . . . . . . . . . . . . . . . . . . . . . . . . . . . . . . . . . . . . . . . . . . . . . . . . . . . . . . . . . . . . . . . . . . . . . . . . . . . . . . . . . . . . . . . . . . . . . . . . . . . . . . . . . . . . . . . . . . . . . . . . . . . . . . . . . . . . . . . . . . . . . . .                                                                                                   ",
". . . . . . . . . . . . . . . . . . . . . . . . . . . . . . . . . . . . . . . . . . . . . . . . . . . . . . . . . . . . . . . . . . . . . . . . . . . . . . . . . . . . . . . . . . . . . . j iXxXPXsX2.2.VXsX@ #.2.aX2.SXPX1.#.#.x aX`.@.a # * e A S P P ( ( ( J Z M n y y t t 5 4 2 $ # O o o o . . . . . . . o o . . . . . . . . . . . . . . . . . . . . . . . . . . . . . . . . . . . . . . . . . . . . . . . . . . . . . . . . . . . . . . . . . . . . . . . . . . . . . . . . . . . . . . . . . . . . . . . . . . . . . . . . . . . . . . . . . . . . . . . . . . . . . . . . . . . . . . . . . . . . . . . . . . . . . . . . . . . . .                                                                                                   ",
". . . . . . . . . . . . . . . . . . . . . . . . . . . . . . . . . . . . . . . . . . . . . . . . . . . . . . . . . . . . . . . . . . . . . . . . . . . . . . . . . . . . . . . . . . . . . . + `.xXPX~.I =.SXsXl <.aXVXaXBXHX3.x s @ X - > q N S P P %.X.P Z Z M M M n n n N N p t 5 2 * # # o o o . . . . . . . o o . . . . . . . . . . . . . . . . . . . . . . . . . . . . . . . . . . . . . . . . . . . . . . . . . . . . . . . . . . . . . . . . . . . . . . . . . . . . . . . . . . . . . . . . . . . . . . . . . . . . . . . . . . . . . . . . . . . . . . . . . . . . . . . . . . . . . . . . . . . . . . . . . . . . . . . . . . . . .                                                                                                   ",
". . . . . . . . . . . . . . . . . . . . . . . . . . . . . . . . . . . . . . . . . . . . . . . . . . . . . . . . . . . . . . . . . . . . . . . . . . . . . . . . . . . . . . . . . . . . . . . z iXPX'.1.1..XsX#.#.BXIXiX<.j @ , > - & q u A P Z Z Z N N M M M M V K J J J P P N p t 4 * $ # o o o . . . . . . . o X . . . . . . . . . . . . . . . . . . . . . . . . . . . . . . . . . . . . . . . . . . . . . . . . . . . . . . . . . . . . . . . . . . . . . . . . . . . . . . . . . . . . . . . . . . . . . . . . . . . . . . . . . . . . . . . . . . . . . . . . . . . . . . . . . . . . . . . . . . . . . . . . . . . . . . . . . . . . . .                                                                                                 ",
". . . . . . . . . . . . . . . . . . . . . . . . . . . . . . . . . . . . . . . . . . . . . . . . . . . . . . . . . . . . . . . . . . . . . . . . . . . . . . . . . . . . . . . . . . . . . . . a `.PXSX XzXVXSX2.s <.<.z @ - qX,.@.F f f A N n n M M M M V K T ~ ` } } ` _ ( P N p t 4 * $ # o o o . . . . . . . . X . . . . . . . . . . . . . . . . . . . . . . . . . . . . . . . . . . . . . . . . . . . . . . . . . . . . . . . . . . . . . . . . . . . . . . . . . . . . . . . . . . . . . . . . . . . . . . . . . . . . . . . . . . . . . . . . . . . . . . . . . . . . . . . . . . . . . . . . . . . . . . . . . . . . . . . . . . . . . .                                                                                                 ",
". . . . . . . . . . . . . . . . . . . . . . . . . . . . . . . . . . . . . . . . . . . . . . . . . . . . . . . . . . . . . . . . . . . . . . . . . . . . . . . . . . . . . . . . . . . . . . . ; ,.VXSX XVXVXsX@.X @ . ; h qXKXpX,.O.f p p b b n B J T Q ` 8.p.y.r.8.` Q T J V N y 7 4 2 $ # % o o . . . . . . . . . . . . . . . . . . . . . . . . . . . . . . . . . . . . . . . . . . . . . . . . . . . . . . . . . . . . . . . . . . . . . . . . . . . . . . . . . . . . . . . . . . . . . . . . . . . . . . . . . . . . . . . . . . . . . . . . . . . . . . . . . . . . . . . . . . . . . . . . . . . . . . . . . . . . . . . . . . . . . . .                                                                                                 ",
". . . . . . . . . . . . . . . . . . . . . . . . . . . . . . . . . . . . . . . . . . . . . . . . . . . . . . . . . . . . . . . . . . . . . . . . . . . . . . . . . . . . . . . . . . . . . . . : 3.VXsX<.>.j X X X , -.,.qXpXpXqX:.O.A f N N N J ( ` r.p.p.r.r.8.| / R E J V M b y 7 4 2 $ $ % o o . . . . . . . . . . . . . . . . . . . . . . . . . . . . . . . . . . . . . . . . . . . . . . . . . . . . . . . . . . . . . . . . . . . . . . . . . . . . . . . . . . . . . . . . . . . . . . . . . . . . . . . . . . . . . . . . . . . . . . . . . . . . . . . . . . . . . . . . . . . . . . . . . . . . . . . . . . . . . . . . . . . . . . .                                                                                                 ",
". . . . . . . . . . . . . . . . . . . . . . . . . . . . . . . . . . . . . . . . . . . . . . . . . . . . . . . . . . . . . . . . . . . . . . . . . . . . . . . . . . . . . . . . . . . . . . . h iXiXx @ X X X X X a ;.,.qXqXqX,.;.O.A A A S P ( _ &.r.r.8.| ` ~ W U E K C B n y y 5 2 2 $ $ # o o o . . . . . . . . . . . . . . . . . . . . . . . . . . . . . . . . . . . . . . . . . . . . . . . . . . . . . . . . . . . . . . . . . . . . . . . . . . . . . . . . . . . . . . . . . . . . . . . . . . . . . . . . . . . . . . . . . . . . . . . . . . . . . . . . . . . . . . . . . . . . . . . . . . . . . . . . . . . . . . . . . . . . . . .                                                                                               ",
". . . . . . . . . . . . . . . . . . . . . . . . . . . . . . . . . . . . . . . . . . . . . . . . . . . . . . . . . . . . . . . . . . . . . . . . . . . . . . . . . . . . . . . . . . . . . . X @.>.z X X X @ - - @ , @.-.;.,.,.,.;.O.F A A S P ( ( _ ) ~ ~ ~ W R U E K K C M n y t 5 4 2 $ $ # o o o . . . . . . . . . . . . . . . . . . . . . . . . . . . . . . . . . . . . . . . . . . . . . . . . . . . . . . . . . . . . . . . . . . . . . . . . . . . . . . . . . . . . . . . . . . . . . . . . . . . . . . . . . . . . . . . . . . . . . . . . . . . . . . . . . . . . . . . . . . . . . . . . . . . . . . . . . . . . . . . . . . . . . . .                                                                                               ",
". . . . . . . . . . . . . . . . . . . . . . . . . . . . . . . . . . . . . . . . . . . . . . . . . . . . . . . . . . . . . . . . . . . . . . . . . . . . . . . . . . . . . . . . . . . . . . . X @ @ X X X @ j 9 @ - @.-.-.;.:.:.;.O.F A A S Z Z J Y T T U U E E E E C C V M b y t 7 4 2 $ $ # % o o . . . . . . . . . . . . . . . . . . . . . . . . . . . . . . . . . . . . . . . . . . . . . . . . . . . . . . . . . . . . . . . . . . . . . . . . . . . . . . . . . . . . . . . . . . . . . . . . . . . . . . . . . . . . . . . . . . . . . . . . . . . . . . . . . . . . . . . . . . . . . . . . . . . . . . . . . . . . . . . . . . . . . . .                                                                                               ",
". . . . . . . . . . . . . . . . . . . . . . . . . . . . . . . . . . . . . . . . . . . . . . . . . . . . . . . . . . . . . . . . . . . . . . . . . . . . . . . . . . . . . . . . . . . . . . . . . . . . . X j a @ - h -.-.;.;.;.-.O.F A A N N Z Z Z J Y Y T Y Y Y J C V B M b y t 5 4 2 * $ # % o o o . . . . . . . . . . . . . . . . . . . . . . . . . . . . . . . . . . . . . . . . . . . . . . . . . . . . . . . . . . . . . . . . . . . . . . . . . . . . . . . . . . . . . . . . . . . . . . . . . . . . . . . . . . . . . . . . . . . . . . . . . . . . . . . . . . . . . . . . . . . . . . . . . . . . . . . . . . . . . . . . . . . . . .                                                                                               ",
". . . . . . . . . . . . . . . . . . . . . . . . . . . . . . . . . . . . . . . . . . . . . . . . . . . . . . . . . . . . . . . . . . . . . . . . . . . . . . . . . . . . . . . . . . . . . . . . . . . . . X a a @ - j -.-.-.;.;.-.-.G F A N N N B Z Z J J Y Y Y J J C V M M b y 7 5 2 2 $ $ $ % o o o . . . . . . . . . . . . . . . . . . . . . . . . . . . . . . . . . . . . . . . . . . . . . . . . . . . . . . . . . . . . . . . . . . . . . . . . . . . . . . . . . . . . . . . . . . . . . . . . . . . . . . . . . . . . . . . . . . . . . . . . . . . . . . . . . . . . . . . . . . . . . . . . . . . . . . . . . . . . . . . . . . . . . . .                                                                                             ",
". . . . . . . . . . . . . . . . . . . . . . . . . . . . . . . . . . . . . . . . . . . . . . . . . . . . . . . . . . . . . . . . . . . . . . . . . . . . . . . . . . . . . . . . . . . . . . . . . . . . . X 9 a @ @ j -.-.-.;.;.-.-.G F A N N n M N Z Z J J J J J Z V B M n y t 5 5 2 * $ $ $ # o o o . . . . . . . . . . . . . . . . . . . . . . . . . . . . . . . . . . . . . . . . . . . . . . . . . . . . . . . . . . . . . . . . . . . . . . . . . . . . . . . . . . . . . . . . . . . . . . . . . . . . . . . . . . . . . . . . . . . . . . . . . . . . . . . . . . . . . . . . . . . . . . . . . . . . . . . . . . . . . . . . . . . . . . .                                                                                             ",
". . . . . . . . . . . . . . . . . . . . . . . . . . . . . . . . . . . . . . . . . . . . . . . . . . . . . . . . . . . . . . . . . . . . . . . . . . . . . . . . . . . . . . . . . . . . . . . . . . . . . X a a @ X j -.-.-.;.;.;.-.O.F A m m m N N S Z Z Z Z Z Z V M n b b y 7 5 2 2 $ $ $ $ # % o o . . . . . . . . . . . . o . . . . . . . . . . . . . . . . . . . . . . . . . . . . . . . . . . . . . . . . . . . . . . . . . . . . . . . . . . . . . . . . . . . . . . . . . . . . . . . . . . . . . . . . . . . . . . . . . . . . . . . . . . . . . . . . . . . . . . . . . . . . . . . . . . . . . . . . . . . . . . . . . . . . . . . . . .                                                                                             ",
". . . . . . . . . . . . . . . . . . . . . . . . . . . . . . . . . . . . . . . . . . . . . . . . . . . . . . . . . . . . . . . . . . . . . . . . . . . . . . . . . . . . . . . . . . . . . . . . . . . . . X j a @ X j -.-.-.;.;.;.-.O.F d d m m m m N S Z Z Z B M M n b v v 8 5 2 2 * $ $ $ $ # % o o o . . . . . . . . . . . o . . . . . . . . . . . . . . . . . . . . . . . . . . . . . . . . . . . . . . . . . . . . . . . . . . . . . . . . . . . . . . . . . . . . . . . . . . . . . . . . . . . . . . . . . . . . . . . . . . . . . . . . . . . . . . . . . . . . . . . . . . . . . . . . . . . . . . . . . . . . . . . . . . . . . . . . . .                                                                                             ",
". . . . . . . . . . . . . . . . . . . . . . . . . . . . . . . . . . . . . . . . . . . . . . . . . . . . . . . . . . . . . . . . . . . . . . . . . . . . . . . . . . . . . . . . . . . . . . . . . . . . . X j a ; : a -.-.-.;.:.:.;.O.G d d d u m m m N N N N N b b v y y 8 5 2 < $ $ $ $ $ $ # o o o o . . . . . . . . . . o o o . . . . . . . . . . . . . . . . . . . . . . . . . . . . . . . . . . . . . . . . . . . . . . . . . . . . . . . . . . . . . . . . . . . . . . . . . . . . . . . . . . . . . . . . . . . . . . . . . . . . . . . . . . . . . . . . . . . . . . . . . . . . . . . . . . . . . . . . . . . . . . . . . . . . . . . . . .                                                                                           ",
". . . . . . . . . . . . . . . . . . . . . . . . . . . . . . . . . . . . . . . . . . . . . . . . . . . . . . . . . . . . . . . . . . . . . . . . . . . . . . . . . . . . . . . . . . . . . . . . . . . . . X a j - ; a -.-.;.;.,.:.;.-.G g d d u u y m m m m b y y y 8 7 7 4 2 < $ $ $ $ $ $ $ $ o o o o . . . . . . . . . . o o o . . . . . . . . . . . . . . . . . . . . . . . . . . . . . . . . . . . . . . . . . . . . . . . . . . . . . . . . . . . . . . . . . . . . . . . . . . . . . . . . . . . . . . . . . . . . . . . . . . . . . . . . . . . . . . . . . . . . . . . . . . . . . . . . . . . . . . . . . . . . . . . . . . . . . . . . . .                                                                                           ",
". . . . . . . . . . . . . . . . . . . . . . . . . . . . . . . . . . . . . . . . . . . . . . . . . . . . . . . . . . . . . . . . . . . . . . . . . . . . . . . . . . . . . . . . . . . . . . . . . . . . . X a j @ - a -.-.;.:.,.,.;.-.G F d d u u u y y y y 8 7 7 4 5 4 2 < < < < 1 2 4 4 2 $ o o o o . . . . . . . . . . o o o . . . . . . . . . . . . . . . . . . . . . . . . . . . . . . . . . . . . . . . . . . . . . . . . . . . . . . . . . . . . . . . . . . . . . . . . . . . . . . . . . . . . . . . . . . . . . . . . . . . . . . . . . . . . . . . . . . . . . . . . . . . . . . . . . . . . . . . . . . . . . . . . . . . . . . . . . . .                                                                                           ",
". . . . . . . . . . . . . . . . . . . . . . . . . . . . . . . . . . . . . . . . . . . . . . . . . . . . . . . . . . . . . . . . . . . . . . . . . . . . . . . . . . . . . . . . . . . . . . . . . . . . . X j j - - a -.-.;.,.,.,.:.-.O.F d d d d u t 7 7 5 4 2 < < < < < 1 4 8 H m m m d 0 $ o o o . . . . . . . . . . o + + . . . . . . . . . . . . . . . . . . . . . . . . . . . . . . . . . . . . . . . . . . . . . . . . . . . . . . . . . . . . . . . . . . . . . . . . . . . . . . . . . . . . . . . . . . . . . . . . . . . . . . . . . . . . . . . . . . . . . . . . . . . . . . . . . . . . . . . . . . . . . . . . . . . . . . . . . . . .                                                                                           ",
". . . . . . . . . . . . . . . . . . . . . . . . . . . . . . . . . . . . . . . . . . . . . . . . . . . . . . . . . . . . . . . . . . . . . . . . . . . . . . . . . . . . . . . . . . . . . . . . . . . . . X j s - - j -.;.:.,.,.,.,.;.O.g d d 0 0 0 6 2 2 $ < $ < 1 8 n n D %.d.f.$.A 2 % o o o o . . . . . . . . . . . o O + . . . . . . . . . . . . . . . . . . . . . . . . . . . . . . . . . . . . . . . . . . . . . . . . . . . . . . . . . . . . . . . . . . . . . . . . . . . . . . . . . . . . . . . . . . . . . . . . . . . . . . . . . . . . . . . . . . . . . . . . . . . . . . . . . . . . . . . . . . . . . . . . . . . . . . . . . . . . .                                                                                         ",
". . . . . . . . . . . . . . . . . . . . . . . . . . . . . . . . . . . . . . . . . . . . . . . . . . . . . . . . . . . . . . . . . . . . . . . . . . . . . . . . . . . . . . . . . . . . . . . . . . . . . X a s - - a -.;.,.,.,.h.,.;.-.g d 0 6 6 2 < $ $ 1 8 v B D d.i./.j.$.F 2 o o o o o + o o o o . . . . . . . . . o X X . . . . . . . . . . . . . . . . . . . . . . . . . . . . . . . . . . . . . . . . . . . . . . . . . . . . . . . . . . . . . . . . . . . . . . . . . . . . . . . . . . . . . . . . . . . . . . . . . . . . . . . . . . . . . . . . . . . . . . . . . . . . . . . . . . . . . . . . . . . . . . . . . . . . . . . . . . . . .                                                                                         ",
". . . . . . . . . . . . . . . . . . . . . . . . . . . . . . . . . . . . . . . . . . . . . . . . . . . . . . . . . . . . . . . . . . . . . . . . . . . . . . . . . . . . . . . . . . . . . . . . . . . . . X s s - @ a -.;.,.,.qXqX,.:.-.F g 0 < < 1 1 H n D d.i./.j.$.F 6 o o o . % 9 g F d 6 # # O X X X o o o o o o o o O X . . . . . . . . . . . . . . . . . . . . . . . . . . . . . . . . . . . . . . . . . . . . . . . . . . . . . . . . . . . . . . . . . . . . . . . . . . . . . . . . . . . . . . . . . . . . . . . . . . . . . . . . . . . . . . . . . . . . . . . . . . . . . . . . . . . . . . . . . . . . . . . . . . . . . . . . . . . . .                                                                                         ",
". . . . . . . . . . . . . . . . . . . . . . . . . . . . . . . . . . . . . . . . . . . . . . . . . . . . . . . . . . . . . . . . . . . . . . . . . . . . . . . . . . . . . . . . . . . . . . . . . . . . . . j a - @ j -.:.,.,.qXqXqX,.-.G d 6 1 1 H ( p.j.j.$.G 6 o % # # = g O.;.:.G g - # * * & * & & & # O o o o o o o O o . . . . . . . . . . . . . . . . . . . . . . . . . . . . . . . . . . . . . . . . . . . . . . . . . . . . . . . . . . . . . . . . . . . . . . . . . . . . . . . . . . . . . . . . . . . . . . . . . . . . . . . . . . . . . . . . . . . . . . . . . . . . . . . . . . . . . . . . . . . . . . . . . . . . . . . . . . . . .                                                                                         ",
". . . . . . . . . . . . . . . . . . . . . . . . . . . . . . . . . . . . . . . . . . . . . . . . . . . . . . . . . . . . . . . . . . . . . . . . . . . . . . . . . . . . . . . . . . . . . . . . . . . . . X j a - - j -.,.,.qXpXGXpXh.-.g 9 0 G $.u.$.F 6 o o o o 6 F ;.g._.:.G 9 o % # & - w p p i w e 3 & # O o o o O O O O . . . . . . . . . . . . . . . . . . . . . . . . . . . . . . . . . . . . . . . . . . . . . . . . . . . . . . . . . . . . . . . . . . . . . . . . . . . . . . . . . . . . . . . . . . . . . . . . . . . . . . . . . . . . . . . . . . . . . . . . . . . . . . . . . . . . . . . . . . . . . . . . . . . . . . . . . . . . . .                                                                                       ",
". . . . . . . . . . . . . . . . . . . . . . . . . . . . . . . . . . . . . . . . . . . . . . . . . . . . . . . . . . . . . . . . . . . . . . . . . . . . . . . . . . . . . . . . . . . . . . . . . . . . . X a s - - j :.qXpXGXLXIXpX-.a = 0 d d 2 o o . . + g O.:.g.;.O.a o # q p t p A P o.P I L p p q q * # # O O O O % % + o . . . . . . . . . . . . . . . . . . . . . . . . . . . . . . . . . . . . . . . . . . . . . . . . . . . . . . . . . . . . . . . . . . . . . . . . . . . . . . . . . . . . . . . . . . . . . . . . . . . . . . . . . . . . . . . . . . . . . . . . . . . . . . . . . . . . . . . . . . . . . . . . . . . . . . . . . . . . .                                                                                       ",
". . . . . . . . . . . . . . . . . . . . . . . . . . . . . . . . . . . . . . . . . . . . . . . . . . . . . . . . . . . . . . . . . . . . . . . . . . . . . . . . . . . . . . . . . . . . . . . . . . . . . X s j - - j qXLXLXGXqX-.; + X o # o o . . ; F $.f.f.$.0 o 6 A P p I _ &.*.&.&.{ { ! I I N p w q - & # O O O O + % % X . . . . . . . . . . . . . . . . . . . . . . . . . . . . . . . . . . . . . . . . . . . . . . . . . . . . . . . . . . . . . . . . . . . . . . . . . . . . . . . . . . . . . . . . . . . . . . . . . . . . . . . . . . . . . . . . . . . . . . . . . . . . . . . . . . . . . . . . . . . . . . . . . . . . . . . . . . . . .                                                                                       ",
". . . . . . . . . . . . . . . . . . . . . . . . . . . . . . . . . . . . . . . . . . . . . . . . . . . . . . . . . . . . . . . . . . . . . . . . . . . . . . . . . . . . . . . . . . . . . . . . . . . . . X j j , - j ;.,.;.-.j : . . . . o o = 9 g F g 0 < 4 2 % p &.M.M.).(.M. . . . . . .! I I N p w q - & & O + O O + O & O . . . . . . . . . . . . . . . . . . . . . . . . . . . . . . . . . . . . . . . . . . . . . . . . . . . . . . . . . . . . . . . . . . . . . . . . . . . . . . . . . . . . . . . . . . . . . . . . . . . . . . . . . . . . . . . . . . . . . . . . . . . . . . . . . . . . . . . . . . . . . . . . . . . . . . . . . . . . .                                                                                       ",
". . . . . . . . . . . . . . . . . . . . . . . . . . . . . . . . . . . . . . . . . . . . . . . . . . . . . . . . . . . . . . . . . . . . . . . . . . . . . . . . . . . . . . . . . . . . . . . . . . . . . X j j , - - ; : . . . . . . . . o % = $ o # $ * # * i $.~.M.M.M.l.M.l.k.k.k. . .! ! I I N p w q 3 & & # O O + + % = & . . . . . . . . . . . . . . . . . . . . . . . . . . . . . . . . . . . . . . . . . . . . . . . . . . . . . . . . . . . . . . . . . . . . . . . . . . . . . . . . . . . . . . . . . . . . . . . . . . . . . . . . . . . . . . . . . . . . . . . . . . . . . . . . . . . . . . . . . . . . . . . . . . . . . . . . . . . . . .                                                                                     ",
". . . . . . . . . . . . . . . . . . . . . . . . . . . . . . . . . . . . . . . . . . . . . . . . . . . . . . . . . . . . . . . . . . . . . . . . . . . . . . . . . . . . . . . . . . . . . . . . . . . . . X a j , - @ X X X . . + . : a a % # . # * u p L I _ &.M.M.k.k.z.z.M.l.k.7. . .[ ! ! I I K p p w q * & & # % % % % = % X . . . . . . . . . . . . . . . . . . . . . . . . . . . . . . . . . . . . . . . . . . . . . . . . . . . . . . . . . . . . . . . . . . . . . . . . . . . . . . . . . . . . . . . . . . . . . . . . . . . . . . . . . . . . . . . . . . . . . . . . . . . . . . . . . . . . . . . . . . . . . . . . . . . . . . . . . . . . .                                                                                     ",
". . . . . . . . . . . . . . . . . . . . . . . . . . . . . . . . . . . . . . . . . . . . . . . . . . . . . . . . . . . . . . . . . . . . . . . . . . . . . . . . . . . . . . . . . . . . . . . . . . . . . . : a , - - X X X X ; j h ,.iXiX,.h a f o.%.=._ &.l.l.k.k.k.k.k.k.z.k.k.7. . . .! ! I I I N p w q 3 & & # # % % % = = + o . . . . . . . . . . . . . . . . . . . . . . . . . . . . . . . . . . . . . . . . . . . . . . . . . . . . . . . . . . . . . . . . . . . . . . . . . . . . . . . . . . . . . . . . . . . . . . . . . . . . . . . . . . . . . . . . . . . . . . . . . . . . . . . . . . . . . . . . . . . . . . . . . . . . . . . . . . . .                                                                                     ",
". . . . . . . . . . . . . . . . . . . . . . . . . . . . . . . . . . . . . . . . . . . . . . . . . . . . . . . . . . . . . . . . . . . . . . . . . . . . . . . . . . . . . . . . . . . . . . . . . . . . . . . @ @ , - & @ X a ;.pXIXIXIXGXqX;.+.o.I =.=. .l.k.k.k.k.k.k.k.k.k.k.k.7. . . . .! ! I I N p w q q * & & # # % % & = % o . . . . . . . . . . . . . . . . . . . . . . . . . . . . . . . . . . . . . . . . . . . . . . . . . . . . . . . . . . . . . . . . . . . . . . . . . . . . . . . . . . . . . . . . . . . . . . . . . . . . . . . . . . . . . . . . . . . . . . . . . . . . . . . . . . . . . . . . . . . . . . . . . . . . . . . . . . . .                                                                                     ",
". . . . . . . . . . . . . . . . . . . . . . . . . . . . . . . . . . . . . . . . . . . . . . . . . . . . . . . . . . . . . . . . . . . . . . . . . . . . . . . . . . . . . . . . . . . . . . . . . . . . . . . . . X - > - & h _.pXKXLXLXBX_.>.+.o.I =.=. . . . .k.k.k.k.k.k.k.k.k.k. . . . . .! I I I p p w q - & & # # % % % - = X . . . . . . . . . . . . . . . . . . . . . . . . . . . . . . . . . . . . . . . . . . . . . . . . . . . . . . . . . . . . . . . . . . . . . . . . . . . . . . . . . . . . . . . . . . . . . . . . . . . . . . . . . . . . . . . . . . . . . . . . . . . . . . . . . . . . . . . . . . . . . . . . . . . . . . . . . . . . .                                                                                   ",
". . . . . . . . . . . . . . . . . . . . . . . . . . . . . . . . . . . . . . . . . . . . . . . . . . . . . . . . . . . . . . . . . . . . . . . . . . . . . . . . . . . . . . . . . . . . . . . . . . . . . . . . . . O a a & a ,.aXpXkXGXGXwX>.X.L I I =. . . . .k.k.k.k.k.k.z.k.k.k.7. . . . .! I I I p p u q q * & & % % % & = = + X . . . . . . . . . . . . . . . . . . . . . . . . . . . . . . . . . . . . . . . . . . . . . . . . . . . . . . . . . . . . . . . . . . . . . . . . . . . . . . . . . . . . . . . . . . . . . . . . . . . . . . . . . . . . . . . . . . . . . . . . . . . . . . . . . . . . . . . . . . . . . . . . . . . . . . . . . . . .                                                                                   ",
". . . . . . . . . . . . . . . . . . . . . . . . . . . . . . . . . . . . . . . . . . . . . . . . . . . . . . . . . . . . . . . . . . . . . . . . . . . . . . . . . . . . . . . . . . . . . . . . . . . . . . . . . . . , ..@ & -.qXyXpXGXGXiX,.o.I I I !  . . . .k.k.k.k.k.k.k.k.k.k.7. . .[  .! ! I I I p p w q - * & & & & & & & % + . . . . . . . . . . . . . . . . . . . . . . . . . . . . . . . . . . . . . . . . . . . . . . . . . . . . . . . . . . . . . . . . . . . . . . . . . . . . . . . . . . . . . . . . . . . . . . . . . . . . . . . . . . . . . . . . . . . . . . . . . . . . . . . . . . . . . . . . . . . . . . . . . . . . . . . . . . . .                                                                                   ",
". . . . . . . . . . . . . . . . . . . . . . . . . . . . . . . . . . . . . . . . . . . . . . . . . . . . . . . . . . . . . . . . . . . . . . . . . . . . . . . . . . . . . . . . . . . . . . . . . . . . . . . . . . . > @.- @ -.qXiXpXGXFXpX`.*.P I I I  . . .1.k.k.k.k.k.k.z.k.k.k.k.7. . . . .! I I I I p u q q * & & & & # & & % % + . . . . . . . . . . . . . . . . . . . . . . . . . . . . . . . . . . . . . . . . . . . . . . . . . . . . . . . . . . . . . . . . . . . . . . . . . . . . . . . . . . . . . . . . . . . . . . . . . . . . . . . . . . . . . . . . . . . . . . . . . . . . . . . . . . . . . . . . . . . . . . . . . . . . . . . . . . .                                                                                   ",
". . . . . . . . . . . . . . . . . . . . . . . . . . . . . . . . . . . . . . . . . . . . . . . . . . . . . . . . . . . . . . . . . . . . . . . . . . . . . . . . . . . . . . . . . . . . . . . . . . . . . . . . . . . , z s & h ,.iXpXGXFXBX[.>.o.I I !  . . .k.k.k.k.k.k.k.k.k.k.k.k.k.7. . . . .! I I I N p w q - & & & & & & & % % O . . . . . . . . . . . . . . . . . . . . . . . . . . . . . . . . . . . . . . . . . . . . . . . . . . . . . . . . . . . . . . . . . . . . . . . . . . . . . . . . . . . . . . . . . . . . . . . . . . . . . . . . . . . . . . . . . . . . . . . . . . . . . . . . . . . . . . . . . . . . . . . . . . . . . . . . . . . .                                                                                 ",
". . . . . . . . . . . . . . . . . . . . . . . . . . . . . . . . . . . . . . . . . . . . . . . . . . . . . . . . . . . . . . . . . . . . . . . . . . . . . . . . . . . . . . . . . . . . . . . . . . . . . . . . . . . - z h @ s ,.iXpXGXFXBXaX>.o.I I !  . . .1.k.k.k.k.k.k.z.z.k.k.k.k.k.7. . . .! ! I I I p w q > * & & & # & # # % O X . . . . . . . . . . . . . . . . . . . . . . . . . . . . . . . . . . . . . . . . . . . . . . . . . . . . . . . . . . . . . . . . . . . . . . . . . . . . . . . . . . . . . . . . . . . . . . . . . . . . . . . . . . . . . . . . . . . . . . . . . . . . . . . . . . . . . . . . . . . . . . . . . . . . . . . . . . .                                                                                 ",
". . . . . . . . . . . . . . . . . . . . . . . . . . . . . . . . . . . . . . . . . . . . . . . . . . . . . . . . . . . . . . . . . . . . . . . . . . . . . . . . . . . . . . . . . . . . . . . . . . . . . . . . . . . @ @.z @ , ,.aXpXGXFXFXuX3.$.=.I =. . . .k.k.k.k.z.z.z.z.z.z.z.z.k.k.k.7. . . . .! I I N u q q - & & & & & & & % % X . . . . . . . . . . . . . . . . . . . . . . . . . . . . . . . . . . . . . . . . . . . . . . . . . . . . . . . . . . . . . . . . . . . . . . . . . . . . . . . . . . . . . . . . . . . . . . . . . . . . . . . . . . . . . . . . . . . . . . . . . . . . . . . . . . . . . . . . . . . . . . . . . . . . . . . . . . .                                                                                 ",
". . . . . . . . . . . . . . . . . . . . . . . . . . . . . . . . . . . . . . . . . . . . . . . . . . . . . . . . . . . . . . . . . . . . . . . . . . . . . . . . . . . . . . . . . . . . . . . . . . . . . . . . . . . X @.z - , >.aXpXkXGXFXuX`.*.=.=.=. . . .k.k.k.z.z.z.z.z.z.z.z.z.z.k.k.k.7. . . . .! I I p w q 3 & & & & & & & & % O . . . . . . . . . . . . . . . . . . . . . . . . . . . . . . . . . . . . . . . . . . . . . . . . . . . . . . . . . . . . . . . . . . . . . . . . . . . . . . . . . . . . . . . . . . . . . . . . . . . . . . . . . . . . . . . . . . . . . . . . . . . . . . . . . . . . . . . . . . . . . . . . . . . . . . . . . . .                                                                                 ",
". . . . . . . . . . . . . . . . . . . . . . . . . . . . . . . . . . . . . . . . . . . . . . . . . . . . . . . . . . . . . . . . . . . . . . . . . . . . . . . . . . . . . . . . . . . . . . . . . . . . . . . . . . . X z @., , <.qXpXpXGXFXcX`.*.=.!  . . . .k.k.z.z.z.z.z.z.z.z.z.z.z.z.k.k.k.7. . . .! I I p u q 3 * & # & & & & & & % o . . . . . . . . . . . . . . . . . . . . . . . . . . . . . . . . . . . . . . . . . . . . . . . . . . . . . . . . . . . . . . . . . . . . . . . . . . . . . . . . . . . . . . . . . . . . . . . . . . . . . . . . . . . . . . . . . . . . . . . . . . . . . . . . . . . . . . . . . . . . . . . . . . . . . . . . . . .                                                                               ",
". . . . . . . . . . . . . . . . . . . . . . . . . . . . . . . . . . . . . . . . . . . . . . . . . . . . . . . . . . . . . . . . . . . . . . . . . . . . . . . . . . . . . . . . . . . . . . . . . . . . . . . . . . . X s @.s , -.qXpXpXGXFXBX[.*.=.!  . . . .k.k.z.z.z.z.z.z.z.z.x.x.x.z.z.z.k.k.7. . . .I I I p q q * * # & & & & & & % o . . . . . . . . . . . . . . . . . . . . . . . . . . . . . . . . . . . . . . . . . . . . . . . . . . . . . . . . . . . . . . . . . . . . . . . . . . . . . . . . . . . . . . . . . . . . . . . . . . . . . . . . . . . . . . . . . . . . . . . . . . . . . . . . . . . . . . . . . . . . . . . . . . . . . . . . . . .                                                                               ",
". . . . . . . . . . . . . . . . . . . . . . . . . . . . . . . . . . . . . . . . . . . . . . . . . . . . . . . . . . . . . . . . . . . . . . . . . . . . . . . . . . . . . . . . . . . . . . . . . . . . . . . . . . . . , <.s > @.qXiXpXGXFXNXiX2.=.=. . . .1.k.k.z.z.z.z.z.b.b.b.b.b.b.x.z.z.k.k.k.7. . .! I I p w q 3 & & & & % % & & & X . . . . . . . . . . . . . . . . . . . . . . . . . . . . . . . . . . . . . . . . . . . . . . . . . . . . . . . . . . . . . . . . . . . . . . . . . . . . . . . . . . . . . . . . . . . . . . . . . . . . . . . . . . . . . . . . . . . . . . . . . . . . . . . . . . . . . . . . . . . . . . . . . . . . . . . . . . .                                                                               ",
". . . . . . . . . . . . . . . . . . . . . . . . . . . . . . . . . . . . . . . . . . . . . . . . . . . . . . . . . . . . . . . . . . . . . . . . . . . . . . . . . . . . . . . . . . . . . . . . . . . . . . . . . . . . , +.s > ..`.iXpXBXFXNXuX~.*.=. . . .1.k.z.z.z.x.b.b.b.b.b.b.b.b.b.x.z.z.k.k.7.7. . .! I I u q 3 * * & & % & & = & % . . . . . . . . . . . . . . . . . . . . . . . . . . . . . . . . . . . . . . . . . . . . . . . . . . . . . . . . . . . . . . . . . . . . . . . . . . . . . . . . . . . . . . . . . . . . . . . . . . . . . . . . . . . . . . . . . . . . . . . . . . . . . . . . . . . . . . . . . . . . . . . . . . . . . . . . . . .                                                                               ",
". . . . . . . . . . . . . . . . . . . . . . . . . . . . . . . . . . . . . . . . . . . . . . . . . . . . . . . . . . . . . . . . . . . . . . . . . . . . . . . . . . . . . . . . . . . . . . . . . . . . . . . . . . . . , @.f > z 3.iXpXBXFXFXuX!.*. . . . .k.k.z.z.x.b.b.b.b.b.b.b.b.b.b.b.x.z.z.z.k.k. . .! I I p w q 3 * * & # % = & - - X . . . . . . . . . . . . . . . . . . . . . . . . . . . . . . . . . . . . . . . . . . . . . . . . . . . . . . . . . . . . . . . . . . . . . . . . . . . . . . . . . . . . . . . . . . . . . . . . . . . . . . . . . . . . . . . . . . . . . . . . . . . . . . . . . . . . . . . . . . . . . . . . . . . . . . . . . . .                                                                             ",
". . . . . . . . . . . . . . . . . . . . . . . . . . . . . . . . . . . . . . . . . . . . . . . . . . . . . . . . . . . . . . . . . . . . . . . . . . . . . . . . . . . . . . . . . . . . . . . . . . . . . . . . . . . . ; x z , s ,.iXpXBXFXFXcX`.*. . . .1.k.z.z.x.b.b.b.b.b.b.b.b.b.b.b.b.b.x.z.z.z.k.k. . .! I I p w q 3 * * & & & - - - O . . . . . . . . . . . . . . . . . . . . . . . . . . . . . . . . . . . . . . . . . . . . . . . . . . . . . . . . . . . . . . . . . . . . . . . . . . . . . . . . . . . . . . . . . . . . . . . . . . . . . . . . . . . . . . . . . . . . . . . . . . . . . . . . . . . . . . . . . . . . . . . . . . . . . . . . . . .                                                                             ",
". . . . . . . . . . . . . . . . . . . . . . . . . . . . . . . . . . . . . . . . . . . . . . . . . . . . . . . . . . . . . . . . . . . . . . . . . . . . . . . . . . . . . . . . . . . . . . . . . . . . . . . . . . . . @ x @., s ,.iXpXBXFXFXBX].1. . . .k.k.z.x.b.b.b.b.b.v.v.v.v.v.v.b.b.b.b.x.z.z.k.k.7. .! I I p w q 3 * & & & & - - - & o . . . . . . . . . . . . . . . . . . . . . . . . . . . . . . . . . . . . . . . . . . . . . . . . . . . . . . . . . . . . . . . . . . . . . . . . . . . . . . . . . . . . . . . . . . . . . . . . . . . . . . . . . . . . . . . . . . . . . . . . . . . . . . . . . . . . . . . . . . . . . . . . . . . . . . . . . .                                                                             ",
". . . . . . . . . . . . . . . . . . . . . . . . . . . . . . . . . . . . . . . . . . . . . . . . . . . . . . . . . . . . . . . . . . . . . . . . . . . . . . . . . . . . . . . . . . . . . . . . . . . . . . . . . . . . X x @.s s >.aXpXBXFXFXBX|.~.&. . .k.z.z.x.b.b.v.v.v.v.v.v.v.v.v.v.b.b.b.b.x.z.z.k.k. . .! I N p w q * & & & & - - ; - X . . . . . . . . . . . . . . . . . . . . . . . . . . . . . . . . . . . . . . . . . . . . . . . . . . . . . . . . . . . . . . . . . . . . . . . . . . . . . . . . . . . . . . . . . . . . . . . . . . . . . . . . . . . . . . . . . . . . . . . . . . . . . . . . . . . . . . . . . . . . . . . . . . . . . . . . . .                                                                             ",
". . . . . . . . . . . . . . . . . . . . . . . . . . . . . . . . . . . . . . . . . . . . . . . . . . . . . . . . . . . . . . . . . . . . . . . . . . . . . . . . . . . . . . . . . . . . . . . . . . . . . . . . . . . . X h x s s <.qXyXcXFXHXNXtX~.&. .1.k.z.z.x.b.v.v.v.v.v.v.v.Q.v.v.v.v.v.b.b.b.x.z.z.k.7. .! I I p w q 3 * & & & & - ; - % . . . . . . . . . . . . . . . . . . . . . . . . . . . . . . . . . . . . . . . . . . . . . . . . . . . . . . . . . . . . . . . . . . . . . . . . . . . . . . . . . . . . . . . . . . . . . . . . . . . . . . . . . . . . . . . . . . . . . . . . . . . . . . . . . . . . . . . . . . . . . . . . . . . . . . . . . . .                                                                           ",
". . . . . . . . . . . . . . . . . . . . . . . . . . . . . . . . . . . . . . . . . . . . . . . . . . . . . . . . . . . . . . . . . . . . . . . . . . . . . . . . . . . . . . . . . . . . . . . . . . . . . . . . . . . . X s @.s s -._.iXpXNXHXFXsX~.1.1.1.k.z.z.b.b.v.v.v.v.v.v.Q.Q.v.v.v.v.v.b.b.b.b.x.z.z.k. . .! I N p q 3 * & & & - - - - & o . . . . . . . . . . . . . . . . . . . . . . . . . . . . . . . . . . . . . . . . . . . . . . . . . . . . . . . . . . . . . . . . . . . . . . . . . . . . . . . . . . . . . . . . . . . . . . . . . . . . . . . . . . . . . . . . . . . . . . . . . . . . . . . . . . . . . . . . . . . . . . . . . . . . . . . . . .                                                                           ",
". . . . . . . . . . . . . . . . . . . . . . . . . . . . . . . . . . . . . . . . . . . . . . . . . . . . . . . . . . . . . . . . . . . . . . . . . . . . . . . . . . . . . . . . . . . . . . . . . . . . . . . . . . . . X , -.s , @.qXiXpXmXHXHXzX XM.1.k.k.z.z.b.b.v.v.v.v.v.v.v.Q.v.v.v.v.v.v.b.b.b.b.x.z.k.k. . .I I p u q 3 * * * * * - - - O . . . . . . . . . . . . . . . . . . . . . . . . . . . . . . . . . . . . . . . . . . . . . . . . . . . . . . . . . . . . . . . . . . . . . . . . . . . . . . . . . . . . . . . . . . . . . . . . . . . . . . . . . . . . . . . . . . . . . . . . . . . . . . . . . . . . . . . . . . . . . . . . . . . . . . . . . .                                                                           ",
". . . . . . . . . . . . . . . . . . . . . . . . . . . . . . . . . . . . . . . . . . . . . . . . . . . . . . . . . . . . . . . . . . . . . . . . . . . . . . . . . . . . . . . . . . . . . . . . . . . . . . . . . . . . . , -.s , @.`.iXpXBXHXHXBX'.M.1.k.z.z.x.b.b.v.v.v.v.v.v.Q.T.Q.v.v.v.v.v.v.b.b.b.x.x.z.k.7. .! I I p w q 3 * * * * - - - - . . . . . . . . . . . . . . . . . . . . . . . . . . . . . . . . . . . . . . . . . . . . . . . . . . . . . . . . . . . . . . . . . . . . . . . . . . . . . . . . . . . . . . . . . . . . . . . . . . . . . . . . . . . . . . . . . . . . . . . . . . . . . . . . . . . . . . . . . . . . . . . . . . . . . . . . . .                                                                           ",
". . . . . . . . . . . . . . . . . . . . . . . . . . . . . . . . . . . . . . . . . . . . . . . . . . . . . . . . . . . . . . . . . . . . . . . . . . . . . . . . . . . . . . . . . . . . . . . . . . . . . . . . . . . . . , @.z , z `.yXpXBXFXHXBX|.M.k.k.z.z.x.b.v.v.v.v.v.Q.Q.T.T.T.T.v.v.v.v.v.v.b.b.b.x.z.z.k. . .I I N i q q 3 - * - - - - ; X . . . . . . . . . . . . . . . . . . . . . . . . . . . . . . . . . . . . . . . . . . . . . . . . . . . . . . . . . . . . . . . . . . . . . . . . . . . . . . . . . . . . . . . . . . . . . . . . . . . . . . . . . . . . . . . . . . . . . . . . . . . . . . . . . . . . . . . . . . . . . . . . . . . . . . . . . .                                                                         ",
". . . . . . . . . . . . . . . . . . . . . . . . . . . . . . . . . . . . . . . . . . . . . . . . . . . . . . . . . . . . . . . . . . . . . . . . . . . . . . . . . . . . . . . . . . . . . . . . . . . . . . . . . . . . . ; x z , f ,.iXpXcXFXLXNX|.M.k.k.z.z.x.b.v.v.v.v.v.Q.R.R.R.R.R.Q.Q.v.v.v.v.b.b.b.b.x.z.z.k. .! I I p w q q 3 - - - - - ; & . . . . . . . . . . . . . . . . . . . . . . . . . . . . . . . . . . . . . . . . . . . . . . . . . . . . . . . . . . . . . . . . . . . . . . . . . . . . . . . . . . . . . . . . . . . . . . . . . . . . . . . . . . . . . . . . . . . . . . . . . . . . . . . . . . . . . . . . . . . . . . . . . . . . . . . . . .                                                                         ",
". . . . . . . . . . . . . . . . . . . . . . . . . . . . . . . . . . . . . . . . . . . . . . . . . . . . . . . . . . . . . . . . . . . . . . . . . . . . . . . . . . . . . . . . . . . . . . . . . . . . . . . . . . . . . @ @.@.s s ,.iXuXBXFXLXNXtX~.l.k.z.z.b.b.v.v.v.v.Q.R.R.R.R.R.R.R.Q.Q.v.v.v.v.b.b.b.b.x.z.k. . .I I N i w q q - - - - - > - X . . . . . . . . . . . . . . . . . . . . . . . . . . . . . . . . . . . . . . . . . . . . . . . . . . . . . . . . . . . . . . . . . . . . . . . . . . . . . . . . . . . . . . . . . . . . . . . . . . . . . . . . . . . . . . . . . . . . . . . . . . . . . . . . . . . . . . . . . . . . . . . . . . . . . . . . .                                                                         ",
". . . . . . . . . . . . . . . . . . . . . . . . . . . . . . . . . . . . . . . . . . . . . . . . . . . . . . . . . . . . . . . . . . . . . . . . . . . . . . . . . . . . . . . . . . . . . . . . . . . . . . . . . . . . . . @.@.s s >.aXuXBXFXLXHXsX XM.k.z.z.b.b.v.v.v.Q.Q.R.R.R.R.R.R.R.Q.Q.Q.v.v.v.v.b.b.b.x.z.z.k. .! I L p w q q - - - - - > > O . . . . . . . . . . . . . . . . . . . . . . . . . . . . . . . . . . . . . . . . . . . . . . . . . . . . . . . . . . . . . . . . . . . . . . . . . . . . . . . . . . . . . . . . . . . . . . . . . . . . . . . . . . . . . . . . . . . . . . . . . . . . . . . . . . . . . . . . . . . . . . . . . . . . . . . . .                                                                         ",
". . . . . . . . . . . . . . . . . . . . . . . . . . . . . . . . . . . . . . . . . . . . . . . . . . . . . . . . . . . . . . . . . . . . . . . . . . . . . . . . . . . . . . . . . . . . . . . . . . . . . . . . . . . . . X z @.s s <.aXuXcXFXHXHXzX XM.z.z.z.b.b.v.v.v.Q.Q.R.R.R.R.R.R.R.R.Q.Q.Q.Q.v.v.v.b.b.b.z.z.k. . .I I p u q q > - - > > > e - O . . . . . . . . . . . . . . . . . . . . . . . . . . . . . . . . . . . . . . . . . . . . . . . . . . . . . . . . . . . . . . . . . . . . . . . . . . . . . . . . . . . . . . . . . . . . . . . . . . . . . . . . . . . . . . . . . . . . . . . . . . . . . . . . . . . . . . . . . . . . . . . . . . . . . . . . .                                                                       ",
". . . . . . . . . . . . . . . . . . . . . . . . . . . . . . . . . . . . . . . . . . . . . . . . . . . . . . . . . . . . . . . . . . . . . . . . . . . . . . . . . . . . . . . . . . . . . . . . . . . . . . . . . . . . . X s @.s r +.aXuXcXNXHXHXcX'.M.z.z.x.b.b.v.v.v.Q.R.R.R.R.R.R.R.R.R.Q.Q.Q.Q.Q.v.v.b.b.b.x.z.k. . .! I L p w e > > > > > e r a - X . . . . . . . . . . . . . . . . . . . . . . . . . . . . . . . . . . . . . . . . . . . . . . . . . . . . . . . . . . . . . . . . . . . . . . . . . . . . . . . . . . . . . . . . . . . . . . . . . . . . . . . . . . . . . . . . . . . . . . . . . . . . . . . . . . . . . . . . . . . . . . . . . . . . . . . .                                                                       ",
". . . . . . . . . . . . . . . . . . . . . . . . . . . . . . . . . . . . . . . . . . . . . . . . . . . . . . . . . . . . . . . . . . . . . . . . . . . . . . . . . . . . . . . . . . . . . . . . . . . . . . . . . . . . . . , <.s , @.aXiXcXNXHXPXnX|.M.M.z.x.b.b.v.v.v.R.R.R.R.R.R.R.R.R.R.Q.Q.Q.Q.Q.v.v.v.b.b.b.x.z.k. .=.I I l r r l l r r r i k k a X . . . . . . . . . . . . . . . . . . . . . . . . . . . . . . . . . . . . . . . . . . . . . . . . . . . . . . . . . . . . . . . . . . . . . . . . . . . . . . . . . . . . . . . . . . . . . . . . . . . . . . . . . . . . . . . . . . . . . . . . . . . . . . . . . . . . . . . . . . . . . . . . . . . . . . . .                                                                       ",
". . . . . . . . . . . . . . . . . . . . . . . . . . . . . . . . . . . . . . . . . . . . . . . . . . . . . . . . . . . . . . . . . . . . . . . . . . . . . . . . . . . . . . . . . . . . . . . . . . . . . . . . . . . . . . , <.k e z `.iXcXNXLXPXNX|.~.M.z.x.b.b.v.v.Q.R.R.R.R.R.R.R.R.R.R.Q.Q.Q.Q.Q.Q.v.v.v.b.b.z.k.1.=.=.=.=.#.#.2.2.#.#.#.#.o.....s O X . . . . . . . . . . . . . . . . . . . . . . . . . . . . . . . . . . . . . . . . . . . . . . . . . . . . . . . . . . . . . . . . . . . . . . . . . . . . . . . . . . . . . . . . . . . . . . . . . . . . . . . . . . . . . . . . . . . . . . . . . . . . . . . . . . . . . . . . . . . . . . . . . . . . . . .                                                                       ",
". . . . . . . . . . . . . . . . . . . . . . . . . . . . . . . . . . . . . . . . . . . . . . . . . . . . . . . . . . . . . . . . . . . . . . . . . . . . . . . . . . . . . . . . . . . . . . . . . . . . . . . . . . . . . . > @.z r k 3.iXjXBXHXPXHXtX~.M.K.K.b.b.v.G.R.R.R.R.R.R.R.R.R.R.R.R.Q.Q.Q.R.G.G.F.K.K.M.1.1.1.1.2.1.1.2.2.2.2.2.1.2.#.#.o...z & X . . . . . . . . . . . . . . . . . . . . . . . . . . . . . . . . . . . . . . . . . . . . . . . . . . . . . . . . . . . . . . . . . . . . . . . . . . . . . . . . . . . . . . . . . . . . . . . . . . . . . . . . . . . . . . . . . . . . . . . . . . . . . . . . . . . . . . . . . . . . . . . . . . . . . . . .                                                                     ",
". . . . . . . . . . . . . . . . . . . . . . . . . . . . . . . . . . . . . . . . . . . . . . . . . . . . . . . . . . . . . . . . . . . . . . . . . . . . . . . . . . . . . . . . . . . . . . . . . . . . . . . . . . . . . . - @.@.r k >.iXuXBXHXPXHXsX XM.K.K.b.b.v.G.0XR.R.R.R.R.R.R.R.W.W.R.R.G.G.G.K.K.1.1..X X2.2. X X X1.2.1.2.1.2.2.#.#.#.o...k f > O . . . . . . . . . . . . . . . . . . . . . . . . . . . . . . . . . . . . . . . . . . . . . . . . . . . . . . . . . . . . . . . . . . . . . . . . . . . . . . . . . . . . . . . . . . . . . . . . . . . . . . . . . . . . . . . . . . . . . . . . . . . . . . . . . . . . . . . . . . . . . . . . . . . . . . . .                                                                     ",
". . . . . . . . . . . . . . . . . . . . . . . . . . . . . . . . . . . . . . . . . . . . . . . . . . . . . . . . . . . . . . . . . . . . . . . . . . . . . . . . . . . . . . . . . . . . . . . . . . . . . . . . . . . . . . @ @.@.r i >.iXuXBXHXLXPXdX XM.K.K.K.b.v.0X0XR.R.R.R.R.R.W.W.W.0XG.G.K.M.K. X1. X.XsX'.3.2. X2.2.'.3.1.#.c 1.#.c #...k k r e - O . . . . . . . . . . . . . . . . . . . . . . . . . . . . . . . . . . . . . . . . . . . . . . . . . . . . . . . . . . . . . . . . . . . . . . . . . . . . . . . . . . . . . . . . . . . . . . . . . . . . . . . . . . . . . . . . . . . . . . . . . . . . . . . . . . . . . . . . . . . . . . . . . . . . . . . .                                                                     ",
". . . . . . . . . . . . . . . . . . . . . . . . . . . . . . . . . . . . . . . . . . . . . . . . . . . . . . . . . . . . . . . . . . . . . . . . . . . . . . . . . . . . . . . . . . . . . . . . . . . . . . . . . . . . . . X @.@.r r <.aXuXBXHXLXPXcX'.M.K.K.b.b.v.v.0XR.R.R.W.W.9X4X0X).M.M. X X'..X X X'. X2.2.'..X3.2.2.2.2.2.1.1.#.l c x r r e > - - O . . . . . . . . . . . . . . . . . . . . . . . . . . . . . . . . . . . . . . . . . . . . . . . . . . . . . . . . . . . . . . . . . . . . . . . . . . . . . . . . . . . . . . . . . . . . . . . . . . . . . . . . . . . . . . . . . . . . . . . . . . . . . . . . . . . . . . . . . . . . . . . . . . . . . . . .                                                                     ",
". . . . . . . . . . . . . . . . . . . . . . . . . . . . . . . . . . . . . . . . . . . . . . . . . . . . . . . . . . . . . . . . . . . . . . . . . . . . . . . . . . . . . . . . . . . . . . . . . . . . . . . . . . . . . . X x +.k r #.[.uXBXFXLXPXnX|.~.K.K.b.b.v.v.0XE.W.4X0XJ.K.1.M. X1.1.2. X.X.X X'..X1.1.2.2.2.3.3.2.#.#.#.#.#.l x @.z > > - - & & # X . . . . . . . . . . . . . . . . . . . . . . . . . . . . . . . . . . . . . . . . . . . . . . . . . . . . . . . . . . . . . . . . . . . . . . . . . . . . . . . . . . . . . . . . . . . . . . . . . . . . . . . . . . . . . . . . . . . . . . . . . . . . . . . . . . . . . . . . . . . . . . . . . . . . . . . .                                                                   ",
". . . . . . . . . . . . . . . . . . . . . . . . . . . . . . . . . . . . . . . . . . . . . . . . . . . . . . . . . . . . . . . . . . . . . . . . . . . . . . . . . . . . . . . . . . . . . . . . . . . . . . . . . . . . . . X z #.k r +.`.sXBXNXHXPXNX|. XK.K.K.K.G.0XG.J.K.K.1.1.M. X X X'.sX'.'.'.1.2.'.3. XsX X3.2.#.#.l #.@.> l l #.+.a - - & @ O & & & O X . . . . . . . . . . . . . . . . . . . . . . . . . . . . . . . . . . . . . . . . . . . . . . . . . . . . . . . . . . . . . . . . . . . . . . . . . . . . . . . . . . . . . . . . . . . . . . . . . . . . . . . . . . . . . . . . . . . . . . . . . . . . . . . . . . . . . . . . . . . . . . . . . . . . . . .                                                                   ",
". . . . . . . . . . . . . . . . . . . . . . . . . . . . . . . . . . . . . . . . . . . . . . . . . . . . . . . . . . . . . . . . . . . . . . . . . . . . . . . . . . . . . . . . . . . . . . . . . . . . . . . . . . . . . . X s <.l r ..`.sXcXNXHXPXHX}. XK.K.K.K.K.K.M.1. X1.1.2.'.'.'.'.'.3.2. X.X1.'.'.#.#.#.#.>.#.#.r s >.f > > - - @ X X X O # & - & & & O . . . . . . . . . . . . . . . . . . . . . . . . . . . . . . . . . . . . . . . . . . . . . . . . . . . . . . . . . . . . . . . . . . . . . . . . . . . . . . . . . . . . . . . . . . . . . . . . . . . . . . . . . . . . . . . . . . . . . . . . . . . . . . . . . . . . . . . . . . . . . . . . . . . . . . .                                                                   ",
". . . . . . . . . . . . . . . . . . . . . . . . . . . . . . . . . . . . . . . . . . . . . . . . . . . . . . . . . . . . . . . . . . . . . . . . . . . . . . . . . . . . . . . . . . . . . . . . . . . . . . . . . . . . . . . > <.l l k `.uXcXNXHXPXHXsX XZ.(.K.1.=.*.1. X2. XdX.XdX'.3.'.3.sX2.3.sX2.'.2.1. X#.#.k f k e > - O & - O X X # - & & & & & * * & % . . . . . . . . . . . . . . . . . . . . . . . . . . . . . . . . . . . . . . . . . . . . . . . . . . . . . . . . . . . . . . . . . . . . . . . . . . . . . . . . . . . . . . . . . . . . . . . . . . . . . . . . . . . . . . . . . . . . . . . . . . . . . . . . . . . . . . . . . . . . . . . . . . . . . . .                                                                   ",
". . . . . . . . . . . . . . . . . . . . . . . . . . . . . . . . . . . . . . . . . . . . . . . . . . . . . . . . . . . . . . . . . . . . . . . . . . . . . . . . . . . . . . . . . . . . . . . . . . . . . . . . . . . . . . . , #.@.l x 3.uXcXNXHXPXPXzX X1.=.1.2. X'.1.sX2.'.sX'.2.#.sX'.2.'.2.2.2.#.#...<.+.r f , - - - & O e d d 3 3 * * 3 $ * * & * * * * % o . . . . . . . . . . . . . . . . . . . . . . . . . . . . . . . . . . . . . . . . . . . . . . . . . . . . . . . . . . . . . . . . . . . . . . . . . . . . . . . . . . . . . . . . . . . . . . . . . . . . . . . . . . . . . . . . . . . . . . . . . . . . . . . . . . . . . . . . . . . . . . . . . . . . . . .                                                                 ",
". . . . . . . . . . . . . . . . . . . . . . . . . . . . . . . . . . . . . . . . . . . . . . . . . . . . . . . . . . . . . . . . . . . . . . . . . . . . . . . . . . . . . . . . . . . . . . . . . . . . . . . . . . . . . . . , @.#.l x 2.uXcXNXHXPXPXBX'.~.=.'.'.2.sX#.'..X'.2.'.3.#.3.2.2.1.1.3.#.<.2...f > - > q q u A p q L P A u u u 5 5 6 6 2 * * * * = * o . . . . . . . . . . . . . . . . . . . . . . . . . . . . . . . . . . . . . . . . . . . . . . . . . . . . . . . . . . . . . . . . . . . . . . . . . . . . . . . . . . . . . . . . . . . . . . . . . . . . . . . . . . . . . . . . . . . . . . . . . . . . . . . . . . . . . . . . . . . . . . . . . . . . . . .                                                                 ",
". . . . . . . . . . . . . . . . . . . . . . . . . . . . . . . . . . . . . . . . . . . . . . . . . . . . . . . . . . . . . . . . . . . . . . . . . . . . . . . . . . . . . . . . . . . . . . . . . . . . . . . . . . . . . . . - @.#.l l 2.uXcXNXHXPXIXFXiX|.2.sX X3.sX2.#.'.3.c 2.3.'. X#.2.#.#.<.s , @ e i p p K K ! } p.&.&.&._ J Z N m y 7 5 6 2 2 * * = = = O . . . . . . . . . . . . . . . . . . . . . . . . . . . . . . . . . . . . . . . . . . . . . . . . . . . . . . . . . . . . . . . . . . . . . . . . . . . . . . . . . . . . . . . . . . . . . . . . . . . . . . . . . . . . . . . . . . . . . . . . . . . . . . . . . . . . . . . . . . . . . . . . . . . . . . .                                                                 ",
". . . . . . . . . . . . . . . . . . . . . . . . . . . . . . . . . . . . . . . . . . . . . . . . . . . . . . . . . . . . . . . . . . . . . . . . . . . . . . . . . . . . . . . . . . . . . . . . . . . . . . . . . . . . . . . X <.#.l l >.iXcXNXHXPXIXHXiXiX|.2.#.2.'.x l 2. X3.2...c #.r z , > e e 3 p %.&.! 8.y.N.Z.S.C.y.8.| ~ T C M n y 8 7 5 4 2 2 * * = = % . . . . . . . . . . . . . . . . . . . . . . . . . . . . . . . . . . . . . . . . . . . . . . . . . . . . . . . . . . . . . . . . . . . . . . . . . . . . . . . . . . . . . . . . . . . . . . . . . . . . . . . . . . . . . . . . . . . . . . . . . . . . . . . . . . . . . . . . . . . . . . . . . . . . . . .                                                                 ",
". . . . . . . . . . . . . . . . . . . . . . . . . . . . . . . . . . . . . . . . . . . . . . . . . . . . . . . . . . . . . . . . . . . . . . . . . . . . . . . . . . . . . . . . . . . . . . . . . . . . . . . . . . . . . . . . <.#.l l 3.dXBXNXHXPXPXHX|.3.|. X#.#.2.'.<.3.l x 3.> w > e f o.*.*.{ { y.Z.S.H.#XU.I.D.D.N.q.8.6./ R C Z M b 8 7 7 4 2 2 2 * * = 9 O . . . . . . . . . . . . . . . . . . . . . . . . . . . . . . . . . . . . . . . . . . . . . . . . . . . . . . . . . . . . . . . . . . . . . . . . . . . . . . . . . . . . . . . . . . . . . . . . . . . . . . . . . . . . . . . . . . . . . . . . . . . . . . . . . . . . . . . . . . . . . . . . . . . . . . .                                                               ",
". . . . . . . . . . . . . . . . . . . . . . . . . . . . . . . . . . . . . . . . . . . . . . . . . . . . . . . . . . . . . . . . . . . . . . . . . . . . . . . . . . . . . . . . . . . . . . . . . . . . . . . . . . . . . . . X @.3.<.2.'.VXHXHXHXHXPXPXiX`.2.@.`.3., > #.@.- - - > o.*.*.t./.(.(.OX+X5X5X#XU.U.P.P.P.c.c.e.0.8.` Q J V M b y 8 7 5 4 2 2 2 2 6 9 % o . . . . . . . . . . . . . . . . . . . . . . . . . . . . . . . . . . . . . . . . . . . . . . . . . . . . . . . . . . . . . . . . . . . . . . . . . . . . . . . . . . . . . . . . . . . . . . . . . . . . . . . . . . . . . . . . . . . . . . . . . . . . . . . . . . . . . . . . . . . . . . . . . . . . . .                                                               ",
". . . . . . . . . . . . . . . . . . . . . . . . . . . . . . . . . . . . . . . . . . . . . . . . . . . . . . . . . . . . . . . . . . . . . . . . . . . . . . . . . . . . . . . . . . . . . . . . . . . . . . . . . . . . . . . X z '.'.aX'.BXBXdXBXFXPXPX|.*.>., x >.s > > @ e X.L I ~.&X).*X4X9X9X5X5X5X>XU.U.U.P.P.P.c.c.e.w.6./ ~ Y C B n v 8 7 5 5 2 2 2 2 = 9 9 + . . . . . . . . . . . . . . . . . . . . . . . . . . . . . . . . . . . . . . . . . . . . . . . . . . . . . . . . . . . . . . . . . . . . . . . . . . . . . . . . . . . . . . . . . . . . . . . . . . . . . . . . . . . . . . . . . . . . . . . . . . . . . . . . . . . . . . . . . . . . . . . . . . . . . .                                                               ",
". . . . . . . . . . . . . . . . . . . . . . . . . . . . . . . . . . . . . . . . . . . . . . . . . . . . . . . . . . . . . . . . . . . . . . . . . . . . . . . . . . . . . . . . . . . . . . . . . . . . . . . . . . . . . . . . s '.>.'.2.aXdXuXpXNXPXPX[.k <.<.s s - > f A P !./.m.;X8X6X5X5X5X5X5X5X>X#XU.U.U.P.P.P.D.c.e.w.6.5.~ E C B n b y t 5 5 2 2 2 2 2 6 9 % . . . . . . . . . . . . . . . . . . . . . . . . . . . . . . . . . . . . . . . . . . . . . . . . . . . . . . . . . . . . . . . . . . . . . . . . . . . . . . . . . . . . . . . . . . . . . . . . . . . . . . . . . . . . . . . . . . . . . . . . . . . . . . . . . . . . . . . . . . . . . . . . . . . . . .                                                               ",
". . . . . . . . . . . . . . . . . . . . . . . . . . . . . . . . . . . . . . . . . . . . . . . . . . . . . . . . . . . . . . . . . . . . . . . . . . . . . . . . . . . . . . . . . . . . . . . . . . . . . . . . . . . . . . . . s 2.#.<.#.>.`.aXuXBXHXHXiX..> e e > p I &.m./.;X6X4X5X5X5X5X5X5X5X5X>X>X#XU.U.U.P.P.P.D.c.c.e.0.5./ R D V M n y t 7 5 4 2 2 2 2 6 9 = o . . . . . . . . . . . . . . . . . . . . . . . . . . . . . . . . . . . . . . . . . . . . . . . . . . . . . . . . . . . . . . . . . . . . . . . . . . . . . . . . . . . . . . . . . . . . . . . . . . . . . . . . . . . . . . . . . . . . . . . . . . . . . . . . . . . . . . . . . . . . . . . . . . . . . .                                                             ",
". . . . . . . . . . . . . . . . . . . . . . . . . . . . . . . . . . . . . . . . . . . . . . . . . . . . . . . . . . . . . . . . . . . . . . . . . . . . . . . . . . . . . . . . . . . . . . . . . . . . . . . . . . . . . . . . , <.#.r l @.`.aXiXBXHXLXjX>...L L p &.m.^.(.(.+X%X#X5X5X5X5X5X5X5X>X>X>X#XU.U.U.U.P.P.P.V.c.e.0.6./ ' E C B n v y t 5 5 2 2 2 2 2 6 = O . . . . . . . . . . . . . . . . . . . . . . . . . . . . . . . . . . . . . . . . . . . . . . . . . . . . . . . . . . . . . . . . . . . . . . . . . . . . . . . . . . . . . . . . . . . . . . . . . . . . . . . . . . . . . . . . . . . . . . . . . . . . . . . . . . . . . . . . . . . . . . . . . . . . . .                                                             ",
". . . . . . . . . . . . . . . . . . . . . . . . . . . . . . . . . . . . . . . . . . . . . . . . . . . . . . . . . . . . . . . . . . . . . . . . . . . . . . . . . . . . . . . . . . . . . . . . . . . . . . . . . . . . . . . . - @.+.> > z `.aXuXBXHXIXNX`.>.*.*._ n.M.Z.H.H.I.#X#X>X5X5X5X>X>X>X>X>X>X>X#XU.U.U.P.P.P.D.c.c.q.6./ ~ E C V M b y t 5 5 2 2 2 2 2 2 = % . . . . . . . . . . . . . . . . . . . . . . . . . . . . . . . . . . . . . . . . . . . . . . . . . . . . . . . . . . . . . . . . . . . . . . . . . . . . . . . . . . . . . . . . . . . . . . . . . . . . . . . . . . . . . . . . . . . . . . . . . . . . . . . . . . . . . . . . . . . . . . . . . . . . . .                                                             ",
". . . . . . . . . . . . . . . . . . . . . . . . . . . . . . . . . . . . . . . . . . . . . . . . . . . . . . . . . . . . . . . . . . . . . . . . . . . . . . . . . . . . . . . . . . . . . . . . . . . . . . . . . . . . . . . . X z +.e > z [.iXpXBXHXLXFXiXf.*.&.t.n.n.B.S.H.I.#X#X#X5X5X>X>X>X>X>X>X>X>X>XU.U.U.P.P.P.D.c.c.q.0.6./ U Y V M n y y 7 5 4 2 2 2 2 2 6 = . . . . . . . . . . . . . . . . . . . . . . . . . . . . . . . . . . . . . . . . . . . . . . . . . . . . . . . . . . . . . . . . . . . . . . . . . . . . . . . . . . . . . . . . . . . . . . . . . . . . . . . . . . . . . . . . . . . . . . . . . . . . . . . . . . . . . . . . . . . . . . . . . . . . . .                                                             ",
". . . . . . . . . . . . . . . . . . . . . . . . . . . . . . . . . . . . . . . . . . . . . . . . . . . . . . . . . . . . . . . . . . . . . . . . . . . . . . . . . . . . . . . . . . . . . . . . . . . . . . . . . . . . . . . . X s ..f e z `.iXpXNXFXLXHXuX~.*.&.t.n.n.B.Z.H.I.#X#X#X>X>X>X>X>X>X>X>X5X>X>XU.U.U.U.P.P.D.c.c.e.w.6./ R Y C B n b y 8 7 5 2 2 2 2 2 6 9 % . . . . . . . . . . . . . . . . . . . . . . . . . . . . . . . . . . . . . . . . . . . . . . . . . . . . . . . . . . . . . . . . . . . . . . . . . . . . . . . . . . . . . . . . . . . . . . . . . . . . . . . . . . . . . . . . . . . . . . . . . . . . . . . . . . . . . . . . . . . . . . . . . . . . . .                                                           ",
". . . . . . . . . . . . . . . . . . . . . . . . . . . . . . . . . . . . . . . . . . . . . . . . . . . . . . . . . . . . . . . . . . . . . . . . . . . . . . . . . . . . . . . . . . . . . . . . . . . . . . . . . . . . . . . . X a z k r z `.cXcXFXFXLXLXgX~.*.t.t.t.n.N.D.H.I.U.#X#X>X>X>X>X>X>X>X>X5X>X>XU.U.U.U.P.P.D.D.c.e.q.6./ ~ E C B M b y t 7 5 4 2 2 2 2 2 6 = X . . . . . . . . . . . . . . . . . . . . . . . . . . . . . . . . . . . . . . . . . . . . . . . . . . . . . . . . . . . . . . . . . . . . . . . . . . . . . . . . . . . . . . . . . . . . . . . . . . . . . . . . . . . . . . . . . . . . . . . . . . . . . . . . . . . . . . . . . . . . . . . . . . . . .                                                           ",
". . . . . . . . . . . . . . . . . . . . . . . . . . . . . . . . . . . . . . . . . . . . . . . . . . . . . . . . . . . . . . . . . . . . . . . . . . . . . . . . . . . . . . . . . . . . . . . . . . . . . . . . . . . . . . . . X - ..k f k `.cXcXNXFXLXLXcX!.u.t.t.t.l.N.D.D.I.U.U.#X>X5X5X5X5X>X>X>X>X>X>X>XU.U.U.P.P.P.V.c.c.w.0.5.~ U D V B n y y 8 7 4 2 2 2 * $ * 6 % . . . . . . . . . . . . . . . . . . . . . . . . . . . . . . . . . . . . . . . . . . . . . . . . . . . . . . . . . . . . . . . . . . . . . . . . . . . . . . . . . . . . . . . . . . . . . . . . . . . . . . . . . . . . . . . . . . . . . . . . . . . . . . . . . . . . . . . . . . . . . . . . . . . . .                                                           ",
". . . . . . . . . . . . . . . . . . . . . . . . . . . . . . . . . . . . . . . . . . . . . . . . . . . . . . . . . . . . . . . . . . . . . . . . . . . . . . . . . . . . . . . . . . . . . . . . . . . . . . . . . . . . . . . . X & @.k f f `.cXcXNXFXLXLXvX].u.t.9.9.l.N.B.D.I.U.U.#X#X5X5X5X5X5X>X>X>X>X>X>XU.U.U.P.P.P.D.c.c.e.0.6./ R E C B n v y 8 7 5 4 2 2 2 $ * 6 = o . . . . . . . . . . . . . . . . . . . . . . . . . . . . . . . . . . . . . . . . . . . . . . . . . . . . . . . . . . . . . . . . . . . . . . . . . . . . . . . . . . . . . . . . . . . . . . . . . . . . . . . . . . . . . . . . . . . . . . . . . . . . . . . . . . . . . . . . . . . . . . . . . . . .                                                           ",
". . . . . . . . . . . . . . . . . . . . . . . . . . . . . . . . . . . . . . . . . . . . . . . . . . . . . . . . . . . . . . . . . . . . . . . . . . . . . . . . . . . . . . . . . . . . . . . . . . . . . . . . . . . . . . . . . & @...f k 3.uXBXBXFXLXLXNX|.~.t.9.9.l.N.B.D.I.I.#X#X#X>X5X5X5X5X>X>X>X>X>X>XU.U.U.P.P.P.P.c.c.e.w.6./ ' E C B n b y y 8 7 4 2 2 2 * * 6 = O . . . . . . . . . . . . . . . . . . . . . . . . . . . . . . . . . . . . . . . . . . . . . . . . . . . . . . . . . . . . . . . . . . . . . . . . . . . . . . . . . . . . . . . . . . . . . . . . . . . . . . . . . . . . . . . . . . . . . . . . . . . . . . . . . . . . . . . . . . . . . . . . . . . . .                                                         ",
". . . . . . . . . . . . . . . . . . . . . . . . . . . . . . . . . . . . . . . . . . . . . . . . . . . . . . . . . . . . . . . . . . . . . . . . . . . . . . . . . . . . . . . . . . . . . . . . . . . . . . . . . . . . . . . . . & z @.k k >.uXBXBXFXLXLXHXtX~.t.t.q.l.N.B.D.I.I.#X#X#X>X5X5X5X5X5X>X>X>X>X>XU.U.U.U.P.P.P.c.c.e.w.6.5.~ E D C B n v y 8 7 4 2 2 2 2 * * 6 % . . . . . . . . . . . . . . . . . . . . . . . . . . . . . . . . . . . . . . . . . . . . . . . . . . . . . . . . . . . . . . . . . . . . . . . . . . . . . . . . . . . . . . . . . . . . . . . . . . . . . . . . . . . . . . . . . . . . . . . . . . . . . . . . . . . . . . . . . . . . . . . . . . . . .                                                         ",
". . . . . . . . . . . . . . . . . . . . . . . . . . . . . . . . . . . . . . . . . . . . . . . . . . . . . . . . . . . . . . . . . . . . . . . . . . . . . . . . . . . . . . . . . . . . . . . . . . . . . . . . . . . . . . . . . @ h +.k f +.uXBXBXFXLXLXLXgX!.u.t.t.l.n.B.D.I.I.U.U.U.>X>X>X5X5X5X>X>X>X>X>XU.U.U.U.P.P.P.c.c.c.w.0.5./ R E C B n b y y 8 7 4 2 2 2 * * 9 = o . . . . . . . . . . . . . . . . . . . . . . . . . . . . . . . . . . . . . . . . . . . . . . . . . . . . . . . . . . . . . . . . . . . . . . . . . . . . . . . . . . . . . . . . . . . . . . . . . . . . . . . . . . . . . . . . . . . . . . . . . . . . . . . . . . . . . . . . . . . . . . . . . . . .                                                         ",
". . . . . . . . . . . . . . . . . . . . . . . . . . . . . . . . . . . . . . . . . . . . . . . . . . . . . . . . . . . . . . . . . . . . . . . . . . . . . . . . . . . . . . . . . . . . . . . . . . . . . . . . . . . . . . . . . . f +.k f +.iXBXBXFXLXLXLXcX].~.t.t.l.n.B.D.H.I.U.U.U.>X>X>X>X5X5X>X>X>X>X>XU.U.U.U.P.P.P.D.c.c.e.0.6./ ' E D B M n b y 8 7 4 2 2 2 * * 6 9 o . . . . . . . . . . . . . . . . . . . . . . . . . . . . . . . . . . . . . . . . . . . . . . . . . . . . . . . . . . . . . . . . . . . . . . . . . . . . . . . . . . . . . . . . . . . . . . . . . . . . . . . . . . . . . . . . . . . . . . . . . . . . . . . . . . . . . . . . . . . . . . . . . . . .                                                         ",
". . . . . . . . . . . . . . . . . . . . . . . . . . . . . . . . . . . . . . . . . . . . . . . . . . . . . . . . . . . . . . . . . . . . . . . . . . . . . . . . . . . . . . . . . . . . . . . . . . . . . . . . . . . . . . . . . . s @.k k +.[.cXBXNXFXLXLXBX|.~.u.t.n.N.B.D.H.I.U.U.U.>X>X>X>X>X>X5X>X>X>X>X#XU.U.U.P.P.P.D.c.c.e.0.8.5.~ R E C B n b y y 7 5 2 2 2 2 * = 9 % . . . . . . . . . . . . . . . . . . . . . . . . . . . . . . . . . . . . . . . . . . . . . . . . . . . . . . . . . . . . . . . . . . . . . . . . . . . . . . . . . . . . . . . . . . . . . . . . . . . . . . . . . . . . . . . . . . . . . . . . . . . . . . . . . . . . . . . . . . . . . . . . . . . . .                                                       ",
". . . . . . . . . . . . . . . . . . . . . . . . . . . . . . . . . . . . . . . . . . . . . . . . . . . . . . . . . . . . . . . . . . . . . . . . . . . . . . . . . . . . . . . . . . . . . . . . . . . . . . . . . . . . . . . . . . a ....k @.`.uXBXNXFXLXLXNXrX!.u.y.n.n.B.D.H.I.U.U.U.>X>X>X>X5X5X5X>X>X>X>X#XU.U.U.U.P.P.P.c.c.e.q.0.8./ R E C B n b y y 8 5 5 2 2 2 * * 9 = o . . . . . . . . . . . . . . . . . . . . . . . . . . . . . . . . . . . . . . . . . . . . . . . . . . . . . . . . . . . . . . . . . . . . . . . . . . . . . . . . . . . . . . . . . . . . . . . . . . . . . . . . . . . . . . . . . . . . . . . . . . . . . . . . . . . . . . . . . . . . . . . . . . . .                                                       ",
". . . . . . . . . . . . . . . . . . . . . . . . . . . . . . . . . . . . . . . . . . . . . . . . . . . . . . . . . . . . . . . . . . . . . . . . . . . . . . . . . . . . . . . . . . . . . . . . . . . . . . . . . . . . . . . . . . - @...k @.`.uXcXNXFXLXLXJXtX!.m.y.n.n.N.D.D.I.I.U.U.U.>X5X5X5X5X>X>X>X>X>X#XU.U.U.U.P.P.P.c.c.c.e.0.8./ ~ E D B M n v y 8 7 5 2 2 2 * * = = + . . . . . . . . . . . . . . . . . . . . . . . . . . . . . . . . . . . . . . . . . . . . . . . . . . . . . . . . . . . . . . . . . . . . . . . . . . . . . . . . . . . . . . . . . . . . . . . . . . . . . . . . . . . . . . . . . . . . . . . . . . . . . . . . . . . . . . . . . . . . . . . . . . . .                                                       ",
". . . . . . . . . . . . . . . . . . . . . . . . . . . . . . . . . . . . . . . . . . . . . . . . . . . . . . . . . . . . . . . . . . . . . . . . . . . . . . . . . . . . . . . . . . . . . . . . . . . . . . . . . . . . . . . . . . @ @...k ..`.uXcXmXFXLXLXJXgX].~.n.n.n.N.B.D.I.I.U.U.U.>X5X5X5X5X>X>X>X>X>X#XU.U.U.U.U.P.P.D.c.c.e.0.0.4.~ R E C B n b y y 7 5 4 2 3 2 * * 9 % . . . . . . . . . . . . . . . . . . . . . . . . . . . . . . . . . . . . . . . . . . . . . . . . . . . . . . . . . . . . . . . . . . . . . . . . . . . . . . . . . . . . . . . . . . . . . . . . . . . . . . . . . . . . . . . . . . . . . . . . . . . . . . . . . . . . . . . . . . . . . . . . . . . .                                                       ",
". . . . . . . . . . . . . . . . . . . . . . . . . . . . . . . . . . . . . . . . . . . . . . . . . . . . . . . . . . . . . . . . . . . . . . . . . . . . . . . . . . . . . . . . . . . . . . . . . . . . . . . . . . . . . . . . . . & @...k ..,.uXcXmXFXLXLXJXzX].~.m.n.n.N.B.D.H.I.U.U.U.>X>X5X5X>X>X>X>X>X>X#X#XU.U.U.U.P.P.D.c.c.e.q.0.8.~ ' E C B M b v y 8 5 4 2 2 2 2 * 6 = o . . . . . . . . . . . . . . . . . . . . . . . . . . . . . . . . . . . . . . . . . . . . . . . . . . . . . . . . . . . . . . . . . . . . . . . . . . . . . . . . . . . . . . . . . . . . . . . . . . . . . . . . . . . . . . . . . . . . . . . . . . . . . . . . . . . . . . . . . . . . . . . . . . . .                                                     ",
". . . . . . . . . . . . . . . . . . . . . . . . . . . . . . . . . . . . . . . . . . . . . . . . . . . . . . . . . . . . . . . . . . . . . . . . . . . . . . . . . . . . . . . . . . . . . . . . . . . . . . . . . . . . . . . . . . - z @.k L >.iXcXBXFXLXLXLXnX|.~.m.n.n.N.N.D.S.I.U.#XU.#X>X5X>X>X>X>X>X>X>X#X#XU.U.U.U.P.P.P.c.c.c.q.0.0./ ~ U D C B n b y t 7 5 4 2 2 2 * 6 = % o . . . . . . . . . . . . . . . . . . . . . . . . . . . . . . . . . . . . . . . . . . . . . . . . . . . . . . . . . . . . . . . . . . . . . . . . . . . . . . . . . . . . . . . . . . . . . . . . . . . . . . . . . . . . . . . . . . . . . . . . . . . . . . . . . . . . . . . . . . . . . . . . . . .                                                     ",
". . . . . . . . . . . . . . . . . . . . . . . . . . . . . . . . . . . . . . . . . . . . . . . . . . . . . . . . . . . . . . . . . . . . . . . . . . . . . . . . . . . . . . . . . . . . . . . . . . . . . . . . . . . . . . . . . . @ z @.k k <.uXcXBXFXJXLXLXZX}.!.m.n.n.N.N.D.S.I.I.U.U.#X>X>X>X>X>X>X>X>X>X#XU.U.U.U.U.P.P.P.c.c.c.e.0.0.4.~ R E C B M b v y 8 5 4 4 2 2 2 2 = % O . . . . . . . . . . . . . . . . . . . . . . . . . . . . . . . . . . . . . . . . . . . . . . . . . . . . . . . . . . . . . . . . . . . . . . . . . . . . . . . . . . . . . . . . . . . . . . . . . . . . . . . . . . . . . . . . . . . . . . . . . . . . . . . . . . . . . . . . . . . . . . . . . . .                                                     ",
". . . . . . . . . . . . . . . . . . . . . . . . . . . . . . . . . . . . . . . . . . . . . . . . . . . . . . . . . . . . . . . . . . . . . . . . . . . . . . . . . . . . . . . . . . . . . . . . . . . . . . . . . . . . . . . . . . O ..@.L f +.iXcXBXNXJXLXLXZXtX/.m.n.n.N.N.D.D.I.I.U.U.U.>X>X>X>X>X>X>X>X>X#X#XU.U.U.U.P.P.P.D.c.c.e.0.0.8./ ' E Y C B n b y y 7 4 4 2 2 2 2 6 = % . . . . . . . . . . . . . . . . . . . . . . . . . . . . . . . . . . . . . . . . . . . . . . . . . . . . . . . . . . . . . . . . . . . . . . . . . . . . . . . . . . . . . . . . . . . . . . . . . . . . . . . . . . . . . . . . . . . . . . . . . . . . . . . . . . . . . . . . . . . . . . . . . . . .                                                   ",
". . . . . . . . . . . . . . . . . . . . . . . . . . . . . . . . . . . . . . . . . . . . . . . . . . . . . . . . . . . . . . . . . . . . . . . . . . . . . . . . . . . . . . . . . . . . . . . . . . . . . . . . . . . . . . . . . . . h ..L f +.[.cXBXNXJXLXLXZXfX].~.m.n.N.N.D.S.I.I.U.#X#X#X>X>X>X>X>X>X>X>X>X#XU.U.U.U.U.P.P.P.V.c.e.q.0.0.4.~ R E C B n b v y 8 7 4 4 2 2 2 2 = % o . . . . . . . . . . . . . . . . . . . . . . . . . . . . . . . . . . . . . . . . . . . . . . . . . . . . . . . . . . . . . . . . . . . . . . . . . . . . . . . . . . . . . . . . . . . . . . . . . . . . . . . . . . . . . . . . . . . . . . . . . . . . . . . . . . . . . . . . . . . . . . . . . . .                                                   ",
". . . . . . . . . . . . . . . . . . . . . . . . . . . . . . . . . . . . . . . . . . . . . . . . . . . . . . . . . . . . . . . . . . . . . . . . . . . . . . . . . . . . . . . . . . . . . . . . . . . . . . . . . . . . . . . . . . X s ..L f o.`.jXcXmXJXLXLXJXgX].~.m.n.n.N.B.D.H.I.U.#X#X#X>X>X>X>X>X>X>X>X>X>X#XU.U.U.U.P.P.P.V.V.c.e.0.0.4./ ' E D C B n v y y 8 7 4 4 2 2 2 6 = + . . . . . . . . . . . . . . . . . . . . . . . . . . . . . . . . . . . . . . . . . . . . . . . . . . . . . . . . . . . . . . . . . . . . . . . . . . . . . . . . . . . . . . . . . . . . . . . . . . . . . . . . . . . . . . . . . . . . . . . . . . . . . . . . . . . . . . . . . . . . . . . . . . .                                                   ",
". . . . . . . . . . . . . . . . . . . . . . . . . . . . . . . . . . . . . . . . . . . . . . . . . . . . . . . . . . . . . . . . . . . . . . . . . . . . . . . . . . . . . . . . . . . . . . . . . . . . . . . . . . . . . . . . . . X e ..L f ..`.cXcXmXJXLXLXJXvX|.!.m.m.N.N.B.D.S.I.U.#X#X#X>X>X>X>X>X>X>X>X>X>X#X#XU.U.U.L.P.P.V.c.c.e.0.0.8./ ' R D C B n n v y 8 7 4 4 2 2 2 = = % . . . . . . . . . . . . . . . . . . . . . . . . . . . . . . . . . . . . . . . . . . . . . . . . . . . . . . . . . . . . . . . . . . . . . . . . . . . . . . . . . . . . . . . . . . . . . . . . . . . . . . . . . . . . . . . . . . . . . . . . . . . . . . . . . . . . . . . . . . . . . . . . . . .                                                   ",
". . . . . . . . . . . . . . . . . . . . . . . . . . . . . . . . . . . . . . . . . . . . . . . . . . . . . . . . . . . . . . . . . . . . . . . . . . . . . . . . . . . . . . . . . . . . . . . . . . . . . . . . . . . . . . . . . . X - @.L f L g.uXcXBXFXLXLXJXvX}./.m.m.n.N.B.D.S.I.U.#X#X#X>X>X>X>X>X>X>X>X>X>X>X#XU.U.U.L.P.P.P.V.c.e.e.0.0.5.~ ' E D C B n b y y 8 7 4 4 2 2 2 9 & . . . . . . . . . . . . . . . . . . . . . . . . . . . . . . . . . . . . . . . . . . . . . . . . . . . . . . . . . . . . . . . . . . . . . . . . . . . . . . . . . . . . . . . . . . . . . . . . . . . . . . . . . . . . . . . . . . . . . . . . . . . . . . . . . . . . . . . . . . . . . . . . . . . .                                                 ",
". . . . . . . . . . . . . . . . . . . . . . . . . . . . . . . . . . . . . . . . . . . . . . . . . . . . . . . . . . . . . . . . . . . . . . . . . . . . . . . . . . . . . . . . . . . . . . . . . . . . . . . . . . . . . . . . . . . - ..L L L >.tXcXBXNXJXLXLXMXfX/.m.m.n.N.B.D.S.I.I.#X#X#X#X>X5X>X>X>X>X>X>X>X>X#XU.U.U.U.P.P.P.V.V.e.e.q.0.4./ ' E E C B n b v y 8 7 4 4 2 2 2 6 & . . . . . . . . . . . . . . . . . . . . . . . . . . . . . . . . . . . . . . . . . . . . . . . . . . . . . . . . . . . . . . . . . . . . . . . . . . . . . . . . . . . . . . . . . . . . . . . . . . . . . . . . . . . . . . . . . . . . . . . . . . . . . . . . . . . . . . . . . . . . . . . . . . . .                                                 ",
". . . . . . . . . . . . . . . . . . . . . . . . . . . . . . . . . . . . . . . . . . . . . . . . . . . . . . . . . . . . . . . . . . . . . . . . . . . . . . . . . . . . . . . . . . . . . . . . . . . . . . . . . . . . . . . . . . . - z ..L L >.iXcXBXNXJXLXLXZXgX].~.m.N.N.N.D.S.I.I.#X#X#X#X>X>X>X>X>X>X>X>X>X>X>X#XU.U.U.L.P.P.V.V.V.e.e.0.8.5.~ ' E D C B n b y t 7 4 4 4 2 2 6 = : : . . . . . . . . . . . . . . . . . . . . . . . . . . . . . . . . . . . . . . . . . . . . . . . . . . . . . . . . . . . . . . . . . . . . . . . . . . . . . . . . . . . . . . . . . . . . . . . . . . . . . . . . . . . . . . . . . . . . . . . . . . . . . . . . . . . . . . . . . . . . . . . . . .                                                 ",
". . . . . . . . . . . . . . . . . . . . . . . . . . . . . . . . . . . . . . . . . . . . . . . . . . . . . . . . . . . . . . . . . . . . . . . . . . . . . . . . . . . . . . . . . . . . . . . . . . . . . . . . . . . . . . . . . . . & f ..L L $.[.cXBXNXJXLXLXJXgX{.~.m.m.N.N.D.S.I.I.@X#X#X#X>X>X>X>X>X>X>X>X>X>X>X#XU.U.U.U.P.P.P.V.V.e.e.0.0.4./ ' E E C B M b v y 7 4 4 4 2 2 2 6 9 : . . . . . . . . . . . . . . . . . . . . . . . . . . . . . . . . . . . . . . . . . . . . . . . . . . . . . . . . . . . . . . . . . . . . . . . . . . . . . . . . . . . . . . . . . . . . . . . . . . . . . . . . . . . . . . . . . . . . . . . . . . . . . . . . . . . . . . . . . . . . . . . . . .                                                 ",
". . . . . . . . . . . . . . . . . . . . . . . . . . . . . . . . . . . . . . . . . . . . . . . . . . . . . . . . . . . . . . . . . . . . . . . . . . . . . . . . . . . . . . . . . . . . . . . . . . . . . . . . . . . . . . . . . . . X h ..L L +.[.zXBXNXFXLXLXJXvX}./.m.m.N.N.D.S.I.I.@X#X#X#X>X>X>X>X>X>X>X>X>X>X>X#X#XU.U.U.P.P.P.V.V.e.e.e.0.8.5.' R E C B M b v y 8 7 4 4 2 2 2 2 9 + . . . . . . . . . . . . . . . . . . . . . . . . . . . . . . . . . . . . . . . . . . . . . . . . . . . . . . . . . . . . . . . . . . . . . . . . . . . . . . . . . . . . . . . . . . . . . . . . . . . . . . . . . . . . . . . . . . . . . . . . . . . . . . . . . . . . . . . . . . . . . . . . . . .                                               ",
". . . . . . . . . . . . . . . . . . . . . . . . . . . . . . . . . . . . . . . . . . . . . . . . . . . . . . . . . . . . . . . . . . . . . . . . . . . . . . . . . . . . . . . . . . . . . . . . . . . . . . . . . . . . . . . . . . . . h ..L L +.`.gXBXNXFXJXLXJXvXrX/.m.m.N.N.B.D.I.I.@X#X#X#X>X>X>X>X>X>X>X>X>X>X>X>X#XU.U.U.L.P.P.P.V.V.e.e.0.0.5./ ' E D B M n b y 8 7 5 4 4 2 2 2 9 * o . . . . . . . . . . . . . . . . . . . . . . . . . . . . . . . . . . . . . . . . . . . . . . . . . . . . . . . . . . . . . . . . . . . . . . . . . . . . . . . . . . . . . . . . . . . . . . . . . . . . . . . . . . . . . . . . . . . . . . . . . . . . . . . . . . . . . . . . . . . . . . . . . .                                               ",
". . . . . . . . . . . . . . . . . . . . . . . . . . . . . . . . . . . . . . . . . . . . . . . . . . . . . . . . . . . . . . . . . . . . . . . . . . . . . . . . . . . . . . . . . . . . . . . . . . . . . . . . . . . . . . . . . . . X s ..L A o.`.uXBXmXFXJXLXLXMXfX/.m.m.N.N.B.D.H.I.I.@X#X#X#X>X>X>X>X>X>X>X>X>X>X>X#XU.U.U.U.P.P.P.V.V.e.e.0.0.4.5.~ ' E C B n b y y 8 5 4 4 2 2 2 6 6 + . . . . . . . . . . . . . . . . . . . . . . . . . . . . . . . . . . . . . . . . . . . . . . . . . . . . . . . . . . . . . . . . . . . . . . . . . . . . . . . . . . . . . . . . . . . . . . . . . . . . . . . . . . . . . . . . . . . . . . . . . . . . . . . . . . . . . . . . . . . . . . . . . .                                               ",
". . . . . . . . . . . . . . . . . . . . . . . . . . . . . . . . . . . . . . . . . . . . . . . . . . . . . . . . . . . . . . . . . . . . . . . . . . . . . . . . . . . . . . . . . . . . . . . . . . . . . . . . . . . . . . . . . . . X a ..k f X.~.uXcXmXFXJXLXLXZXfX].~.m.N.N.B.D.S.I.I.@X#X#X>X>X<X>X>X>X>X>X<X>X>X>X#X#XU.U.U.P.P.P.V.V.e.e.e.0.0.4.5.~ R D B M b v y 8 7 4 4 2 2 2 2 6 & . . . . . . . . . . . . . . . . . . . . . . . . . . . . . . . . . . . . . . . . . . . . . . . . . . . . . . . . . . . . . . . . . . . . . . . . . . . . . . . . . . . . . . . . . . . . . . . . . . . . . . . . . . . . . . . . . . . . . . . . . . . . . . . . . . . . . . . . . . . . . . . . . .                                               ",
". . . . . . . . . . . . . . . . . . . . . . . . . . . . . . . . . . . . . . . . . . . . . . . . . . . . . . . . . . . . . . . . . . . . . . . . . . . . . . . . . . . . . . . . . . . . . . . . . . . . . . . . . . . . . . . . . . . . > @...f L >.uXcXBXNXJXLXLXZXgX|./.m.m.N.B.D.S.I.I.@X#X#X>X>X>X>X<X<X<X>X<X<X<X>X>X#XU.U.U.U.P.P.P.V.V.e.e.e.0.0.4./ ' Y C B n v y 8 7 5 4 4 2 2 2 5 * . . . . . . . . . . . . . . . . . . . . . . . . . . . . . . . . . . . . . . . . . . . . . . . . . . . . . . . . . . . . . . . . . . . . . . . . . . . . . . . . . . . . . . . . . . . . . . . . . . . . . . . . . . . . . . . . . . . . . . . . . . . . . . . . . . . . . . . . . . . . . . . . . . .                                             ",
". . . . . . . . . . . . . . . . . . . . . . . . . . . . . . . . . . . . . . . . . . . . . . . . . . . . . . . . . . . . . . . . . . . . . . . . . . . . . . . . . . . . . . . . . . . . . . . . . . . . . . . . . . . . . . . . . . . . > @...L L >.iXcXBXNXJXLXLXZXxX}./.m.n.N.B.D.D.I.I.U.@X#X>X>X>X>X<X<X<X<X<X<X<X<X>X#X#XU.U.U.U.P.P.P.V.V.a.a.q.0.4./ ' E C Z M m y y 8 7 5 5 4 2 2 5 2 O . . . . . . . . . . . . . . . . . . . . . . . . . . . . . . . . . . . . . . . . . . . . . . . . . . . . . . . . . . . . . . . . . . . . . . . . . . . . . . . . . . . . . . . . . . . . . . . . . . . . . . . . . . . . . . . . . . . . . . . . . . . . . . . . . . . . . . . . . . . . . . . . . .                                             ",
". . . . . . . . . . . . . . . . . . . . . . . . . . . . . . . . . . . . . . . . . . . . . . . . . . . . . . . . . . . . . . . . . . . . . . . . . . . . . . . . . . . . . . . . . . . . . . . . . . . . . . . . . . . . . . . . . . . . , ....L L >.wXcXBXNXJXLXLXJXvX}./.m.m.N.N.D.D.L.I.I.@X#X#X>X>X<X<X<X<X<X<X<X<X<X>X#X#X#XU.U.U.U.P.P.P.V.V.a.q.0.8.4./ R Y Z S n b y 8 7 5 5 4 2 2 3 3 # o . . . . . . . . . . . . . . . . . . . . . . . . . . . . . . . . . . . . . . . . . . . . . . . . . . . . . . . . . . . . . . . . . . . . . . . . . . . . . . . . . . . . . . . . . . . . . . . . . . . . . . . . . . . . . . . . . . . . . . . . . . . . . . . . . . . . . . . . . . . . . . . . .                                             ",
". . . . . . . . . . . . . . . . . . . . . . . . . . . . . . . . . . . . . . . . . . . . . . . . . . . . . . . . . . . . . . . . . . . . . . . . . . . . . . . . . . . . . . . . . . . . . . . . . . . . . . . . . . . . . . . . . . . . - ..o.L L +.[.cXBXNXJXLXLXLXnX}./.m.m.N.N.B.D.L.I.I.@X#X#X>X>X<X<X<X<X<X<X<X<X<X>X>X>X#X#XU.U.U.L.P.P.V.V.a.a.0.0.4.5.' Y J Z N m y 8 7 5 4 5 2 2 2 6 2 o . . . . . . . . . . . . . . . . . . . . . . . . . . . . . . . . . . . . . . . . . . . . . . . . . . . . . . . . . . . . . . . . . . . . . . . . . . . . . . . . . . . . . . . . . . . . . . . . . . . . . . . . . . . . . . . . . . . . . . . . . . . . . . . . . . . . . . . . . . . . . . . . .                                             ",
". . . . . . . . . . . . . . . . . . . . . . . . . . . . . . . . . . . . . . . . . . . . . . . . . . . . . . . . . . . . . . . . . . . . . . . . . . . . . . . . . . . . . . . . . . . . . . . . . . . . . . . . . . . . . . . . . . . . @ ..+.k L o.[.cXBXNXNXJXLXLXbXtX/.C.m.N.N.N.D.S.I.I.@X#X#X>X>X>X<X<X<X<X<X<X<X<X>X>X<X#X#X@XU.U.U.L.P.V.V.V.a.q.0.8.4.~ R Y Z S b y y 8 7 5 5 4 2 2 2 6 % . . . . . . . . . . . . . . . . . . . . . . . . . . . . . . . . . . . . . . . . . . . . . . . . . . . . . . . . . . . . . . . . . . . . . . . . . . . . . . . . . . . . . . . . . . . . . . . . . . . . . . . . . . . . . . . . . . . . . . . . . . . . . . . . . . . . . . . . . . . . . . . . . .                                           ",
". . . . . . . . . . . . . . . . . . . . . . . . . . . . . . . . . . . . . . . . . . . . . . . . . . . . . . . . . . . . . . . . . . . . . . . . . . . . . . . . . . . . . . . . . . . . . . . . . . . . . . . . . . . . . . . . . . . . X z @.L L +.`.jXBXNXFXJXLXLXMXfX]./.m.N.C.N.D.S.I.I.@X#X#X#X>X<X<X<X5X5X5X5X<X<X<X<X>X>X<X#X#X@XU.L.L.P.V.V.a.e.0.0.4./ ' Y Z B n v y 8 7 5 5 5 4 2 2 9 = o . . . . . . . . . . . . . . . . . . . . . . . . . . . . . . . . . . . . . . . . . . . . . . . . . . . . . . . . . . . . . . . . . . . . . . . . . . . . . . . . . . . . . . . . . . . . . . . . . . . . . . . . . . . . . . . . . . . . . . . . . . . . . . . . . . . . . . . . . . . . . . . . .                                           ",
". . . . . . . . . . . . . . . . . . . . . . . . . . . . . . . . . . . . . . . . . . . . . . . . . . . . . . . . . . . . . . . . . . . . . . . . . . . . . . . . . . . . . . . . . . . . . . . . . . . . . . . . . . . . . . . . . . . . X j @...L +.`.uXBXmXFXJXLXLXZXgX]./.m.N.N.N.D.S.L.I.@X#X#X#X>X<X<X5X5X5X5X5X<X<X<X<X<X<X<X<X#X@XU.U.L.L.V.V.V.a.0.0.8./ ' E C Z M v y 8 7 5 5 5 4 2 2 6 9 + . . . . . . . . . . . . . . . . . . . . . . . . . . . . . . . . . . . . . . . . . . . . . . . . . . . . . . . . . . . . . . . . . . . . . . . . . . . . . . . . . . . . . . . . . . . . . . . . . . . . . . . . . . . . . . . . . . . . . . . . . . . . . . . . . . . . . . . . . . . . . . . . .                                           ",
". . . . . . . . . . . . . . . . . . . . . . . . . . . . . . . . . . . . . . . . . . . . . . . . . . . . . . . . . . . . . . . . . . . . . . . . . . . . . . . . . . . . . . . . . . . . . . . . . . . . . . . . . . . . . . . . . . . . . a +...L o.,.uXBXmXFXJXLXLXJXzX]./.m.n.N.C.D.S.L.I.OX@X#X#X<X<X,X5X5X5X5X5X5X,X,X,X,X<X<X<X#X@X@XU.U.L.P.V.V.a.q.0.8.4.~ R Y Z S n v y 8 7 5 4 2 2 2 6 a % . . . . . . . . . . . . . . . . . . . . . . . . . . . . . . . . . . . . . . . . . . . . . . . . . . . . . . . . . . . . . . . . . . . . . . . . . . . . . . . . . . . . . . . . . . . . . . . . . . . . . . . . . . . . . . . . . . . . . . . . . . . . . . . . . . . . . . . . . . . . . . . . .                                           ",
". . . . . . . . . . . . . . . . . . . . . . . . . . . . . . . . . . . . . . . . . . . . . . . . . . . . . . . . . . . . . . . . . . . . . . . . . . . . . . . . . . . . . . . . . . . . . . . . . . . . . . . . . . . . . . . . . . . . . - +.@.L ..>.uXcXmXFXJXLXLXJXvX}./.m.n.N.N.A.D.S.I.I.@X#X#X<X<X,X5X5X7X5X5X5X5X7X7X,X,X<X<X<X@X@XU.U.L.L.V.V.a.a.0.0.4./ ' Y Z Z n v y 8 7 5 5 4 4 2 2 a = o . . . . . . . . . . . . . . . . . . . . . . . . . . . . . . . . . . . . . . . . . . . . . . . . . . . . . . . . . . . . . . . . . . . . . . . . . . . . . . . . . . . . . . . . . . . . . . . . . . . . . . . . . . . . . . . . . . . . . . . . . . . . . . . . . . . . . . . . . . . . . . . . .                                         ",
". . . . . . . . . . . . . . . . . . . . . . . . . . . . . . . . . . . . . . . . . . . . . . . . . . . . . . . . . . . . . . . . . . . . . . . . . . . . . . . . . . . . . . . . . . . . . . . . . . . . . . . . . . . . . . . . . . . . . - @...L L >.uXBXmXNXJXJXLXJXnX}./.m.i.N.N.A.D.S.I.I.@X=X#X<X<X,X5X7X5X5X5X7X7X7X7X7X7X,X<X<X<X@X@XU.L.L.L.V.V.a.q.0.8.4.' ' D Z M b y 8 7 7 5 4 4 2 2 9 = X . . . . . . . . . . . . . . . . . . . . . . . . . . . . . . . . . . . . . . . . . . . . . . . . . . . . . . . . . . . . . . . . . . . . . . . . . . . . . . . . . . . . . . . . . . . . . . . . . . . . . . . . . . . . . . . . . . . . . . . . . . . . . . . . . . . . . . . . . . . . . . . . .                                         ",
". . . . . . . . . . . . . . . . . . . . . . . . . . . . . . . . . . . . . . . . . . . . . . . . . . . . . . . . . . . . . . . . . . . . . . . . . . . . . . . . . . . . . . . . . . . . . . . . . . . . . . . . . . . . . . . . . . . . . - z @.L L >.iXBXmXNXJXJXLXLXMXfX/.m.i.n.N.A.S.S.L.OX@X@X#X<X<X<X,X7X7X7X7X7X7X7X7X7X7X,X,X<X<X#X@X@XU.L.L.A.V.a.a.0.0.4./ ' Y Z B m y y 8 7 5 5 5 4 2 6 9 + . . . . . . . . . . . . . . . . . . . . . . . . . . . . . . . . . . . . . . . . . . . . . . . . . . . . . . . . . . . . . . . . . . . . . . . . . . . . . . . . . . . . . . . . . . . . . . . . . . . . . . . . . . . . . . . . . . . . . . . . . . . . . . . . . . . . . . . . . . . . . . . . .                                         ",
". . . . . . . . . . . . . . . . . . . . . . . . . . . . . . . . . . . . . . . . . . . . . . . . . . . . . . . . . . . . . . . . . . . . . . . . . . . . . . . . . . . . . . . . . . . . . . . . . . . . . . . . . . . . . . . . . . . . . & f @...L $.aXBXmXNXJXJXLXLXZXfX].~.i.m.N.C.D.S.L.OXOX@X#X>X<X<X,X7X7X7X7X7X7X7X7X7X7X7X,X,X<X<X#X@X@XL.L.L.V.N.a.0.0.4./ ' Y Z B m v y 8 7 5 5 5 4 4 6 a % . . . . . . . . . . . . . . . . . . . . . . . . . . . . . . . . . . . . . . . . . . . . . . . . . . . . . . . . . . . . . . . . . . . . . . . . . . . . . . . . . . . . . . . . . . . . . . . . . . . . . . . . . . . . . . . . . . . . . . . . . . . . . . . . . . . . . . . . . . . . . . . . .                                         ",
". . . . . . . . . . . . . . . . . . . . . . . . . . . . . . . . . . . . . . . . . . . . . . . . . . . . . . . . . . . . . . . . . . . . . . . . . . . . . . . . . . . . . . . . . . . . . . . . . . . . . . . . . . . . . . . . . . . . . @ f @...L +.[.cXmXNXFXJXLXLXZXgX].~.i.m.N.C.D.S.L.OXOX@X#X<X<X,X,X7X7X7X7X7X7X7X7X7X7X7X7X,X<X<X#X@X@XU.L.L.V.V.a.0.0.4.5.' Y Z Z n v y 8 7 7 5 5 5 4 2 a & o . . . . . . . . . . . . . . . . . . . . . . . . . . . . . . . . . . . . . . . . . . . . . . . . . . . . . . . . . . . . . . . . . . . . . . . . . . . . . . . . . . . . . . . . . . . . . . . . . . . . . . . . . . . . . . . . . . . . . . . . . . . . . . . . . . . . . . . . . . . . . . . . .                                       ",
". . . . . . . . . . . . . . . . . . . . . . . . . . . . . . . . . . . . . . . . . . . . . . . . . . . . . . . . . . . . . . . . . . . . . . . . . . . . . . . . . . . . . . . . . . . . . . . . . . . . . . . . . . . . . . . . . . . . . X f @.L L +.`.cXBXNXFXJXLXLXJXxX{.!.m.m.N.C.A.S.L.I.OX@X=X<X<X,X,X7X7X7X7X7X7X7X7X7X7X7X7X,X,X<X<X@X@XU.L.L.A.V.a.q.0.8.5.' R D Z n b y 8 8 7 5 4 4 4 2 9 = X . . . . . . . . . . . . . . . . . . . . . . . . . . . . . . . . . . . . . . . . . . . . . . . . . . . . . . . . . . . . . . . . . . . . . . . . . . . . . . . . . . . . . . . . . . . . . . . . . . . . . . . . . . . . . . . . . . . . . . . . . . . . . . . . . . . . . . . . . . . . . . . . .                                       ",
". . . . . . . . . . . . . . . . . . . . . . . . . . . . . . . . . . . . . . . . . . . . . . . . . . . . . . . . . . . . . . . . . . . . . . . . . . . . . . . . . . . . . . . . . . . . . . . . . . . . . . . . . . . . . . . . . . . . . X s ..L L +.`.jXBXmXFXJXLXLXJXvX}.!.i.i.N.C.A.S.S.L.OX@X=X<X<X,X,X7X7X7X7X7X7X7X7X7X7X7X7X,X,X<X<X#X@X@XL.L.A.V.a.e.0.8.5.' ' D C M b v y 8 7 5 4 2 2 2 6 9 + . . . . . . . . . . . . . . . . . . . . . . . . . . . . . . . . . . . . . . . . . . . . . . . . . . . . . . . . . . . . . . . . . . . . . . . . . . . . . . . . . . . . . . . . . . . . . . . . . . . . . . . . . . . . . . . . . . . . . . . . . . . . . . . . . . . . . . . . . . . . . . . . .                                       ",
". . . . . . . . . . . . . . . . . . . . . . . . . . . . . . . . . . . . . . . . . . . . . . . . . . . . . . . . . . . . . . . . . . . . . . . . . . . . . . . . . . . . . . . . . . . . . . . . . . . . . . . . . . . . . . . . . . . . . X a @...L o.`.uXBXBXFXJXLXLXLXMX}./.i.i.C.C.A.A.S.L.OX@X@X=X<X,X,X7X7X7X7X7X7X7X7X7X7X7X7X,X,X<X<X#X@X@XL.L.P.V.a.a.0.0.4./ ' Y Z Z n v y 8 7 5 4 4 2 2 6 a % . . . . . . . . . . . . . . . . . . . . . . . . . . . . . . . . . . . . . . . . . . . . . . . . . . . . . . . . . . . . . . . . . . . . . . . . . . . . . . . . . . . . . . . . . . . . . . . . . . . . . . . . . . . . . . . . . . . . . . . . . . . . . . . . . . . . . . . . . . . . . . . . .                                       ",
". . . . . . . . . . . . . . . . . . . . . . . . . . . . . . . . . . . . . . . . . . . . . . . . . . . . . . . . . . . . . . . . . . . . . . . . . . . . . . . . . . . . . . . . . . . . . . . . . . . . . . . . . . . . . . . . . . . . . . > @...L ..,.uXBXBXFXJXLXLXLXZXfX/.m.i.m.C.C.A.S.L.OX@X@X=X<X,X,X7X7X7X7X7X7X7X7X7X7X7X7X7X,X<X<X@X@X@XL.L.L.V.V.a.0.0.4./ ' Y Z Z n v y 8 7 7 4 4 2 2 3 a = o . . . . . . . . . . . . . . . . . . . . . . . . . . . . . . . . . . . . . . . . . . . . . . . . . . . . . . . . . . . . . . . . . . . . . . . . . . . . . . . . . . . . . . . . . . . . . . . . . . . . . . . . . . . . . . . . . . . . . . . . . . . . . . . . . . . . . . . . . . . . . . . . .                                     ",
". . . . . . . . . . . . . . . . . . . . . . . . . . . . . . . . . . . . . . . . . . . . . . . . . . . . . . . . . . . . . . . . . . . . . . . . . . . . . . . . . . . . . . . . . . . . . . . . . . . . . . . . . . . . . . . . . . . . . . - @...L L >.uXBXBXNXJXKXLXLXZXfX].m.i.i.C.C.A.S.L.OX@X@X=X,X,X,X6X7X7X7X7X7X7X7X7X7X7X7X7X,X<X<X<X@X@XU.L.L.V.V.a.0.0.4.5.' Y C Z n v y 8 7 7 4 4 2 2 2 9 = + . . . . . . . . . . . . . . . . . . . . . . . . . . . . . . . . . . . . . . . . . . . . . . . . . . . . . . . . . . . . . . . . . . . . . . . . . . . . . . . . . . . . . . . . . . . . . . . . . . . . . . . . . . . . . . . . . . . . . . . . . . . . . . . . . . . . . . . . . . . . . . . . .                                     ",
". . . . . . . . . . . . . . . . . . . . . . . . . . . . . . . . . . . . . . . . . . . . . . . . . . . . . . . . . . . . . . . . . . . . . . . . . . . . . . . . . . . . . . . . . . . . . . . . . . . . . . . . . . . . . . . . . . . . . . - z @.L L >.iXBXBXmXFXJXLXLXZXgX{.~.i.i.C.C.A.S.S.OXOX@X=X,X,X,X6X7X7X7X7X7X7X7X7X7X7X7X7X,X<X<X<X@X@XU.L.L.A.V.a.0.0.4.5.' E D Z n v y 8 7 7 4 2 2 2 2 6 9 % . . . . . . . . . . . . . . . . . . . . . . . . . . . . . . . . . . . . . . . . . . . . . . . . . . . . . . . . . . . . . . . . . . . . . . . . . . . . . . . . . . . . . . . . . . . . . . . . . . . . . . . . . . . . . . . . . . . . . . . . . . . . . . . . . . . . . . . . . . . . . . . . .                                     ",
". . . . . . . . . . . . . . . . . . . . . . . . . . . . . . . . . . . . . . . . . . . . . . . . . . . . . . . . . . . . . . . . . . . . . . . . . . . . . . . . . . . . . . . . . . . . . . . . . . . . . . . . . . . . . . . . . . . . . X - f @.L L $.aXcXBXNXFXJXLXLXJXvX}.!.i.i.m.C.A.S.S.XXOX@X=X:X,X,X6X7X7X7X7X7X7X7X7X7X7X7X7X,X,X<X<X@X@XU.L.L.A.V.a.0.0.4.5.' E D V n v y y 8 7 4 2 2 2 2 6 9 = . . . . . . . . . . . . . . . . . . . . . . . . . . . . . . . . . . . . . . . . . . . . . . . . . . . . . . . . . . . . . . . . . . . . . . . . . . . . . . . . . . . . . . . . . . . . . . . . . . . . . . . . . . . . . . . . . . . . . . . . . . . . . . . . . . . . . . . . . . . . . . . . .                                     ",
". . . . . . . . . . . . . . . . . . . . . . . . . . . . . . . . . . . . . . . . . . . . . . . . . . . . . . . . . . . . . . . . . . . . . . . . . . . . . . . . . . . . . . . . . . . . . . . . . . . . . . . . . . . . . . . . . . . . . . @ f @...k +.[.cXmXNXNXJXLXLXJXvX}./.m.i.m.C.A.S.S.XXOX@X=X:X,X,X2X7X7X7X7X7X7X7X8X8X7X7X7X7X,X<X<X@X@XU.L.L.V.V.a.q.0.4.5.' E D B n v y y 7 7 5 4 2 2 2 2 9 ; O . . . . . . . . . . . . . . . . . . . . . . . . . . . . . . . . . . . . . . . . . . . . . . . . . . . . . . . . . . . . . . . . . . . . . . . . . . . . . . . . . . . . . . . . . . . . . . . . . . . . . . . . . . . . . . . . . . . . . . . . . . . . . . . . . . . . . . . . . . . . . . . . .                                   ",
". . . . . . . . . . . . . . . . . . . . . . . . . . . . . . . . . . . . . . . . . . . . . . . . . . . . . . . . . . . . . . . . . . . . . . . . . . . . . . . . . . . . . . . . . . . . . . . . . . . . . . . . . . . . . . . . . . . . . . X s @...k o.`.uXBXNXFXJXLXLXJXbXfX/.m.i.i.C.C.A.S.XXOX@X=X:X,X,X,X6X7X7X7X7X7X8X8X8X7X7X7X7X,X<X<X@X@XXXL.L.V.V.a.a.0.8.4.' E D B B b y y 8 7 4 4 2 2 2 2 6 9 % . . . . . . . . . . . . . . . . . . . . . . . . . . . . . . . . . . . . . . . . . . . . . . . . . . . . . . . . . . . . . . . . . . . . . . . . . . . . . . . . . . . . . . . . . . . . . . . . . . . . . . . . . . . . . . . . . . . . . . . . . . . . . . . . . . . . . . . . . . . . . . . . .                                   ",
". . . . . . . . . . . . . . . . . . . . . . . . . . . . . . . . . . . . . . . . . . . . . . . . . . . . . . . . . . . . . . . . . . . . . . . . . . . . . . . . . . . . . . . . . . . . . . . . . . . . . . . . . . . . . . . . . . . . . . X s ....k @.`.uXBXNXNXJXKXLXLXZXgX].~.i.i.C.C.A.S.XXOXOX@X=X,X,X2X6X7X7X7X7X8X8X7X7X7X7X7X2X,X<X<X@X@XL.L.L.V.V.a.a.0.8.5.' E D V B b v y 8 7 5 4 2 2 < < 6 9 = . . . . . . . . . . . . . . . . . . . . . . . . . . . . . . . . . . . . . . . . . . . . . . . . . . . . . . . . . . . . . . . . . . . . . . . . . . . . . . . . . . . . . . . . . . . . . . . . . . . . . . . . . . . . . . . . . . . . . . . . . . . . . . . . . . . . . . . . . . . . . . . . .                                   ",
". . . . . . . . . . . . . . . . . . . . . . . . . . . . . . . . . . . . . . . . . . . . . . . . . . . . . . . . . . . . . . . . . . . . . . . . . . . . . . . . . . . . . . . . . . . . . . . . . . . . . . . . . . . . . . . . . . . . . . X , ....k ..>.uXBXmXFXJXLXLXLXZXxX{.~.i.i.m.C.A.S.S.OXOX@X=X:X,X,X2X6X7X7X7X7X7X7X7X7X7X7X,X,X<X=X@X@XL.L.L.V.V.a.e.0.4.5.' E C B B n v y 8 7 5 4 2 2 2 < 6 9 9 . . . . . . . . . . . . . . . . . . . . . . . . . . . . . . . . . . . . . . . . . . . . . . . . . . . . . . . . . . . . . . . . . . . . . . . . . . . . . . . . . . . . . . . . . . . . . . . . . . . . . . . . . . . . . . . . . . . . . . . . . . . . . . . . . . . . . . . . . . . . . . . . .                                   ",
". . . . . . . . . . . . . . . . . . . . . . . . . . . . . . . . . . . . . . . . . . . . . . . . . . . . . . . . . . . . . . . . . . . . . . . . . . . . . . . . . . . . . . . . . . . . . . . . . . . . . . . . . . . . . . . . . . . . . . . @ ..@.f k >.iXcXmXNXJXJXLXLXJXvX}.!.i.i.i.C.A.S.S.XXOX@X=X:X,X,X,X2X6X6X7X7X7X7X7X7X7X7X,X,X<X=X@X@XL.L.L.V.a.a.q.0.4./ ' E D V B n v y 8 7 4 4 2 2 2 < * 9 9 : . . . . . . . . . . . . . . . . . . . . . . . . . . . . . . . . . . . . . . . . . . . . . . . . . . . . . . . . . . . . . . . . . . . . . . . . . . . . . . . . . . . . . . . . . . . . . . . . . . . . . . . . . . . . . . . . . . . . . . . . . . . . . . . . . . . . . . . . . . . . . . . . .                                 ",
". . . . . . . . . . . . . . . . . . . . . . . . . . . . . . . . . . . . . . . . . . . . . . . . . . . . . . . . . . . . . . . . . . . . . . . . . . . . . . . . . . . . . . . . . . . . . . . . . . . . . . . . . . . . . . . . . . . . . . . X z ..f f <.wXcXBXNXFXJXLXLXJXvX}.!.i.i.i.C.C.A.S.XXOXOX@X:X:X,X,X,X2X6X6X7X7X7X7X7X7X,X,X<X=X@X@XXXL.L.V.V.a.e.0.0.4./ ' E D C B n v y 8 7 4 4 2 2 2 < $ 9 9 : . . . . . . . . . . . . . . . . . . . . . . . . . . . . . . . . . . . . . . . . . . . . . . . . . . . . . . . . . . . . . . . . . . . . . . . . . . . . . . . . . . . . . . . . . . . . . . . . . . . . . . . . . . . . . . . . . . . . . . . . . . . . . . . . . . . . . . . . . . . . . . . . .                                 ",
". . . . . . . . . . . . . . . . . . . . . . . . . . . . . . . . . . . . . . . . . . . . . . . . . . . . . . . . . . . . . . . . . . . . . . . . . . . . . . . . . . . . . . . . . . . . . . . . . . . . . . . . . . . . . . . . . . . . . . . X s ..k f +.`.pXBXmXFXJXKXLXJXnXfX/.u.p.i.C.C.A.S.S.OXOXOX=X=X:X:X,X,X2X2X7X7X7X7X7X2X,X,X<X=X@X@XL.L.P.V.V.e.e.0.0.4.5.' E D C B n v y y 8 7 4 4 2 2 < < 6 9 ; + . . . . . . . . . . . . . . . . . . . . . . . . . . . . . . . . . . . . . . . . . . . . . . . . . . . . . . . . . . . . . . . . . . . . . . . . . . . . . . . . . . . . . . . . . . . . . . . . . . . . . . . . . . . . . . . . . . . . . . . . . . . . . . . . . . . . . . . . . . . . . . . .                                 ",
". . . . . . . . . . . . . . . . . . . . . . . . . . . . . . . . . . . . . . . . . . . . . . . . . . . . . . . . . . . . . . . . . . . . . . . . . . . . . . . . . . . . . . . . . . . . . . . . . . . . . . . . . . . . . . . . . . . . . . . X a ..k f ..`.uXcXBXNXJXKXLXLXZXfX].u.p.t.m.C.S.A.S.S.XXOX$X=X=X:X:X,X,X,X2X7X7X2X2X,X,X<X<X@X@XXXL.L.V.V.V.e.e.0.0.4./ ' E D V B n b y 8 8 7 4 4 2 2 < $ 2 6 9 % . . . . . . . . . . . . . . . . . . . . . . . . . . . . . . . . . . . . . . . . . . . . . . . . . . . . . . . . . . . . . . . . . . . . . . . . . . . . . . . . . . . . . . . . . . . . . . . . . . . . . . . . . . . . . . . . . . . . . . . . . . . . . . . . . . . . . . . . . . . . . . . .                                 ",
". . . . . . . . . . . . . . . . . . . . . . . . . . . . . . . . . . . . . . . . . . . . . . . . . . . . . . . . . . . . . . . . . . . . . . . . . . . . . . . . . . . . . . . . . . . . . . . . . . . . . . . . . . . . . . . . . . . . . . . X - ....f k >.iXpXcXmXJXJXLXKXZXgX].f.p.p.i.m.C.A.A.S.L.XXOX$X=X=X=X:X,X,X,X2X2X2X,X,X,X<X@X@XXXL.L.A.V.V.a.e.0.0.8.5./ ' E D C B M b y y 8 7 4 4 2 < < $ < 6 9 $ o . . . . . . . . . . . . . . . . . . . . . . . . . . . . . . . . . . . . . . . . . . . . . . . . . . . . . . . . . . . . . . . . . . . . . . . . . . . . . . . . . . . . . . . . . . . . . . . . . . . . . . . . . . . . . . . . . . . . . . . . . . . . . . . . . . . . . . . . . . . . . . . .                               ",
". . . . . . . . . . . . . . . . . . . . . . . . . . . . . . . . . . . . . . . . . . . . . . . . . . . . . . . . . . . . . . . . . . . . . . . . . . . . . . . . . . . . . . . . . . . . . . . . . . . . . . . . . . . . . . . . . . . . . . . . X z ..f f >.wXuXjXmXFXJXLXKXJXvX|.f.p.r.p.i.C.C.A.A.S.XXOXOX$X@X@X=X:X,X,X,X,X,X,X,X<X=X@X@XXXL.L.V.V.V.e.e.0.0.5.5./ ' E D C B M n y 8 8 7 4 4 2 < < < < 2 6 = o . . . . . . . . . . . . . . . . . . . . . . . . . . . . . . . . . . . . . . . . . . . . . . . . . . . . . . . . . . . . . . . . . . . . . . . . . . . . . . . . . . . . . . . . . . . . . . . . . . . . . . . . . . . . . . . . . . . . . . . . . . . . . . . . . . . . . . . . . . . . . . . .                               ",
". . . . . . . . . . . . . . . . . . . . . . . . . . . . . . . . . . . . . . . . . . . . . . . . . . . . . . . . . . . . . . . . . . . . . . . . . . . . . . . . . . . . . . . . . . . . . . . . . . . . . . . . . . . . . . . . . . . . . . . . X s ..f i +.`.iXpXBXDXJXKXLXJXvX}.~.&.&.r.i.m.C.C.A.S.S.L.XXOXOX@X@X=X=X<X,X,X,X<X:X=X@X@XXXL.L.V.V.V.a.e.e.0.0.5.5.' ' R E C B M n v y 8 7 4 4 2 < < < $ 2 6 6 % . . . . . . . . . . . . . . . . . . . . . . . . . . . . . . . . . . . . . . . . . . . . . . . . . . . . . . . . . . . . . . . . . . . . . . . . . . . . . . . . . . . . . . . . . . . . . . . . . . . . . . . . . . . . . . . . . . . . . . . . . . . . . . . . . . . . . . . . . . . . . . . .                               ",
". . . . . . . . . . . . . . . . . . . . . . . . . . . . . . . . . . . . . . . . . . . . . . . . . . . . . . . . . . . . . . . . . . . . . . . . . . . . . . . . . . . . . . . . . . . . . . . . . . . . . . . . . . . . . . . . . . . . . . . . X a ..k i ..`.iXyXcXmXJXJXLXJXMXtX!.p.&.8.p.i.m.N.C.A.A.S.L.XXXXXXOX@X@X=X=X:X<X=X@X@X@X@XL.L.P.V.V.V.a.e.e.0.0.5./ ' ' R Y C V B n v y 8 7 5 4 4 2 < < $ < 2 6 = . . . . . . . . . . . . . . . . . . . . . . . . . . . . . . . . . . . . . . . . . . . . . . . . . . . . . . . . . . . . . . . . . . . . . . . . . . . . . . . . . . . . . . . . . . . . . . . . . . . . . . . . . . . . . . . . . . . . . . . . . . . . . . . . . . . . . . . . . . . . . . . .                               ",
". . . . . . . . . . . . . . . . . . . . . . . . . . . . . . . . . . . . . . . . . . . . . . . . . . . . . . . . . . . . . . . . . . . . . . . . . . . . . . . . . . . . . . . . . . . . . . . . . . . . . . . . . . . . . . . . . . . . . . . . X - ..z r f >.wXiXjXBXDXJXKXJXMXhX!.u.} } r.p.y.n.N.N.A.A.S.S.L.L.XXOX@X@X@X@X@X@X@X@XXXXXL.L.V.V.V.a.e.e.e.0.0.5.5.' ' R E C V M b y y 8 8 7 4 4 2 < < $ $ * 6 6 O . . . . . . . . . . . . . . . . . . . . . . . . . . . . . . . . . . . . . . . . . . . . . . . . . . . . . . . . . . . . . . . . . . . . . . . . . . . . . . . . . . . . . . . . . . . . . . . . . . . . . . . . . . . . . . . . . . . . . . . . . . . . . . . . . . . . . . . . . . . . . . . .                             ",
". . . . . . . . . . . . . . . . . . . . . . . . . . . . . . . . . . . . . . . . . . . . . . . . . . . . . . . . . . . . . . . . . . . . . . . . . . . . . . . . . . . . . . . . . . . . . . . . . . . . . . . . . . . . . . . . . . . . . . . . . @ z z r i ;._.wXuXjXmXJXJXJXNXgX].u.%.` } r.y.y.y.a.N.C.A.A.S.L.L.XXXXXXXXOXOXXXXXXXL.L.L.A.V.V.a.e.e.e.e.0.0.4.5.' ' ' E C B n b y y 8 8 7 4 4 2 < < < $ $ 6 6 % o . . . . . . . . . . . . . . . . . . . . . . . . . . . . . . . . . . . . . . . . . . . . . . . . . . . . . . . . . . . . . . . . . . . . . . . . . . . . . . . . . . . . . . . . . . . . . . . . . . . . . . . . . . . . . . . . . . . . . . . . . . . . . . . . . . . . . . . . . . . . . . .                             ",
". . . . . . . . . . . . . . . . . . . . . . . . . . . . . . . . . . . . . . . . . . . . . . . . . . . . . . . . . . . . . . . . . . . . . . . . . . . . . . . . . . . . . . . . . . . . . . . . . . . . . . . . . . . . . . . . . . . . . . . . . X f z f s +.`.wXyXjXBXNXJXJXAXgX[.f.%._ ` 8.r.y.y.y.a.N.N.V.A.A.S.L.L.L.L.XXXXXXXXL.L.L.L.V.V.a.a.e.a.a.a.0.0.4./ ' ' Y D C B n v y 8 8 7 7 4 4 2 2 2 < $ $ * 6 = o . . . . . . . . . . . . . . . . . . . . . . . . . . . . . . . . . . . . . . . . . . . . . . . . . . . . . . . . . . . . . . . . . . . . . . . . . . . . . . . . . . . . . . . . . . . . . . . . . . . . . . . . . . . . . . . . . . . . . . . . . . . . . . . . . . . . . . . . . . . . . . .                             ",
". . . . . . . . . . . . . . . . . . . . . . . . . . . . . . . . . . . . . . . . . . . . . . . . . . . . . . . . . . . . . . . . . . . . . . . . . . . . . . . . . . . . . . . . . . . . . . . . . . . . . . . . . . . . . . . . . . . . . . . . . X a ..f r ..,.[.wXuXjXmXJXJXJXcX[.f.%.( _ ` 8.8.0.q.y.a.N.N.V.A.A.S.S.L.L.L.XXXXXXL.L.L.A.V.a.a.e.e.e.a.0.0.4.4.` ' ' Y D Z B n v y 8 7 7 7 5 4 2 2 2 < $ $ $ * = % . . . . . . . . . . . . . . . . . . . . . . . . . . . . . . . . . . . . . . . . . . . . . . . . . . . . . . . . . . . . . . . . . . . . . . . . . . . . . . . . . . . . . . . . . . . . . . . . . . . . . . . . . . . . . . . . . . . . . . . . . . . . . . . . . . . . . . . . . . . . . . .                             ",
". . . . . . . . . . . . . . . . . . . . . . . . . . . . . . . . . . . . . . . . . . . . . . . . . . . . . . . . . . . . . . . . . . . . . . . . . . . . . . . . . . . . . . . . . . . . . . . . . . . . . . . . . . . . . . . . . . . . . . . . . X - @.f e f >._.qXyXjXmXNXJXJXcXrXf.%.( R ~ } 8.8.0.q.y.a.a.N.V.V.A.A.A.S.L.XXXXL.L.L.L.A.V.a.a.e.q.q.0.0.8.4.` ' ' ( D C Z B n v y 8 8 7 7 4 4 2 2 2 < $ $ $ * * = # . . . . . . . . . . . . . . . . . . . . . . . . . . . . . . . . . . . . . . . . . . . . . . . . . . . . . . . . . . . . . . . . . . . . . . . . . . . . . . . . . . . . . . . . . . . . . . . . . . . . . . . . . . . . . . . . . . . . . . . . . . . . . . . . . . . . . . . . . . . . . . .                           ",
". . . . . . . . . . . . . . . . . . . . . . . . . . . . . . . . . . . . . . . . . . . . . . . . . . . . . . . . . . . . . . . . . . . . . . . . . . . . . . . . . . . . . . . . . . . . . . . . . . . . . . . . . . . . . . . . . . . . . . . . . X @ ..h e s ;.`._.iXyXjXmXJXJXmXtX!.*.( T Q ` 8.8.8.0.y.a.a.N.N.N.V.A.A.A.S.L.L.L.S.S.A.V.a.a.a.0.0.0.0.0.4.4.' ' ( D D Z Z n v v y 7 8 8 4 4 2 2 2 2 $ $ $ $ $ $ 6 = o . . . . . . . . . . . . . . . . . . . . . . . . . . . . . . . . . . . . . . . . . . . . . . . . . . . . . . . . . . . . . . . . . . . . . . . . . . . . . . . . . . . . . . . . . . . . . . . . . . . . . . . . . . . . . . . . . . . . . . . . . . . . . . . . . . . . . . . . . . . . . .                           ",
". . . . . . . . . . . . . . . . . . . . . . . . . . . . . . . . . . . . . . . . . . . . . . . . . . . . . . . . . . . . . . . . . . . . . . . . . . . . . . . . . . . . . . . . . . . . . . . . . . . . . . . . . . . . . . . . . . . . . . . . . X @ h z s s +.,._.wXyXjXmXFXJXNXgX].*.( T R ` } 8.8.0.y.y.y.a.a.a.N.C.A.A.A.A.A.A.A.A.C.s.a.y.0.0.8.8.8.4.4.' ' ( Y Z Z Z B n v v 8 7 7 7 4 4 2 2 < $ $ $ $ $ $ $ = = % o . . . . . . . . . . . . . . . . . . . . . . . . . . . . . . . . . . . . . . . . . . . . . . . . . . . . . . . . . . . . . . . . . . . . . . . . . . . . . . . . . . . . . . . . . . . . . . . . . . . . . . . . . . . . . . . . . . . . . . . . . . . . . . . . . . . . . . . . . . . . .                           ",
". . . . . . . . . . . . . . . . . . . . . . . . . . . . . . . . . . . . . . . . . . . . . . . . . . . . . . . . . . . . . . . . . . . . . . . . . . . . . . . . . . . . . . . . . . . . . . . . . . . . . . . . . . . . . . . . . . . . . . . . . . O s z s s ..:._.wXyXjXmXFXJXJXgX[.f._ T R ` } 8.8.r.0.y.y.y.a.a.a.s.s.s.s.s.s.s.s.a.a.a.y.0.0.4.4.p.p.' 4.' D D Z Z B M m v v 8 8 8 7 7 5 4 2 < < $ $ $ $ $ $ $ $ = 9 o . . . . . . . . . . . . . . . . . . . . . . . . . . . . . . . . . . . . . . . . . . . . . . . . . . . . . . . . . . . . . . . . . . . . . . . . . . . . . . . . . . . . . . . . . . . . . . . . . . . . . . . . . . . . . . . . . . . . . . . . . . . . . . . . . . . . . . . . . . . . .                           ",
". . . . . . . . . . . . . . . . . . . . . . . . . . . . . . . . . . . . . . . . . . . . . . . . . . . . . . . . . . . . . . . . . . . . . . . . . . . . . . . . . . . . . . . . . . . . . . . . . . . . . . . . . . . . . . . . . . . . . . . . . . X > z f a f >._.qXyXpXBXNXJXJXcX}.f.&._ ( ` &.r.r.r.p.0.0.y.y.y.y.a.a.a.a.a.s.s.y.y.p.p.r.4.4.4.` d.} ' ` ( D B B B n m m v y 8 8 8 8 5 6 4 2 2 < < $ $ $ $ $ $ $ = 9 = o . . . . . . . . . . . . . . . . . . . . . . . . . . . . . . . . . . . . . . . . . . . . . . . . . . . . . . . . . . . . . . . . . . . . . . . . . . . . . . . . . . . . . . . . . . . . . . . . . . . . . . . . . . . . . . . . . . . . . . . . . . . . . . . . . . . . . . . . . . . . .                         ",
". . . . . . . . . . . . . . . . . . . . . . . . . . . . . . . . . . . . . . . . . . . . . . . . . . . . . . . . . . . . . . . . . . . . . . . . . . . . . . . . . . . . . . . . . . . . . . . . . . . . . . . . . . . . . . . . . . . . . . . . . . X - z h s d <.`._.iXpXjXmXFXJXmXhX].f.%._ %.&.r.r.r.r.r.r.p.0.p.0.0.y.y.y.y.y.y.0.r.4.4.` ' ' ' ( ( ( %.&.( Z Z B m m m v v y 8 8 8 8 8 6 6 4 2 < < $ $ $ $ $ $ $ $ = ; % o . . . . . . . . . . . . . . . . . . . . . . . . . . . . . . . . . . . . . . . . . . . . . . . . . . . . . . . . . . . . . . . . . . . . . . . . . . . . . . . . . . . . . . . . . . . . . . . . . . . . . . . . . . . . . . . . . . . . . . . . . . . . . . . . . . . . . . . . . . . .                         ",
". . . . . . . . . . . . . . . . . . . . . . . . . . . . . . . . . . . . . . . . . . . . . . . . . . . . . . . . . . . . . . . . . . . . . . . . . . . . . . . . . . . . . . . . . . . . . . . . . . . . . . . . . . . . . . . . . . . . . . . . . . . @ h h s s +.,._.wXyXjXmXFXJXFXcX|.f.*.%.%.&.&.&.&.4.r.8.r.8.r.8.r.r.r.r.4.4.4.` ` ' ' ' Y D D D ( D B D Z B m S m m m v y y 8 0 0 8 0 0 6 4 2 2 < $ $ $ $ $ $ $ $ = = ; + . . . . . . . . . . . . . . . . . . . . . . . . . . . . . . . . . . . . . . . . . . . . . . . . . . . . . . . . . . . . . . . . . . . . . . . . . . . . . . . . . . . . . . . . . . . . . . . . . . . . . . . . . . . . . . . . . . . . . . . . . . . . . . . . . . . . . . . . . . . .                         ",
". . . . . . . . . . . . . . . . . . . . . . . . . . . . . . . . . . . . . . . . . . . . . . . . . . . . . . . . . . . . . . . . . . . . . . . . . . . . . . . . . . . . . . . . . . . . . . . . . . . . . . . . . . . . . . . . . . . . . . . . . . . @ s z s s ..,._.wXyXjXmXFXJXJXNXuX`.f.*.%.%.%.%.` ` ` ` ` 4.4.4.4.4.` ` ' ' ' ' ( Y D D D Z Z Z Z S n n m S m S S S m m m m d 0 0 0 0 0 0 4 2 2 2 $ $ $ $ $ $ $ % % % 9 9 + . . . . . . . . . . . . . . . . . . . . . . . . . . . . . . . . . . . . . . . . . . . . . . . . . . . . . . . . . . . . . . . . . . . . . . . . . . . . . . . . . . . . . . . . . . . . . . . . . . . . . . . . . . . . . . . . . . . . . . . . . . . . . . . . . . . . . . . . . . .                         ",
". . . . . . . . . . . . . . . . . . . . . . . . . . . . . . . . . . . . . . . . . . . . . . . . . . . . . . . . . . . . . . . . . . . . . . . . . . . . . . . . . . . . . . . . . . . . . . . . . . . . . . . . . . . . . . . . . . . . . . . . . . . X , z f s h >._.qXyXjXBXFXJXJXFXjXwX!.f.*.%.%.%._ _ _ _ ' ' ' ' ' ' ' ' Y Y D D D D D Z Z Z S S S S S S S S S F F F F F F F F d d d 0 0 0 6 6 2 2 $ $ $ $ $ $ $ % % % = = - % . . . . . . . . . . . . . . . . . . . . . . . . . . . . . . . . . . . . . . . . . . . . . . . . . . . . . . . . . . . . . . . . . . . . . . . . . . . . . . . . . . . . . . . . . . . . . . . . . . . . . . . . . . . . . . . . . . . . . . . . . . . . . . . . . . . . . . . . . . .                       ",
". . . . . . . . . . . . . . . . . . . . . . . . . . . . . . . . . . . . . . . . . . . . . . . . . . . . . . . . . . . . . . . . . . . . . . . . . . . . . . . . . . . . . . . . . . . . . . . . . . . . . . . . . . . . . . . . . . . . . . . . . . . . , z h s f ;.`.qXyXpXBXDXJXJXFXBXyX[.f.>.%.%.%.( ( ( ( ( ( ( ( Y D D D D D Z D Z Z Z Z S S S S S G G G G G G G O.O.O.G G G G F F d d d 0 0 4 2 2 2 $ $ $ $ $ % % % % = = ; = o . . . . . . . . . . . . . . . . . . . . . . . . . . . . . . . . . . . . . . . . . . . . . . . . . . . . . . . . . . . . . . . . . . . . . . . . . . . . . . . . . . . . . . . . . . . . . . . . . . . . . . . . . . . . . . . . . . . . . . . . . . . . . . . . . . . . . . . . . .                       ",
". . . . . . . . . . . . . . . . . . . . . . . . . . . . . . . . . . . . . . . . . . . . . . . . . . . . . . . . . . . . . . . . . . . . . . . . . . . . . . . . . . . . . . . . . . . . . . . . . . . . . . . . . . . . . . . . . . . . . . . . . . . . - h h s f -.,._.wXpXkXmXDXFXFXmXjXeX`.f.$.%.X.X.X.( ( ( Y Y D Z Z Z Z Z S S S P P X.X.X.X.X.O.O.O.O.O.-.;.;.;.:.:.:.;.;.-.O.G F F F d d 0 6 6 6 6 2 $ $ $ $ $ % $ % % = = 9 6 O . . . . . . . . . . . . . . . . . . . . . . . . . . . . . . . . . . . . . . . . . . . . . . . . . . . . . . . . . . . . . . . . . . . . . . . . . . . . . . . . . . . . . . . . . . . . . . . . . . . . . . . . . . . . . . . . . . . . . . . . . . . . . . . . . . . . . . . . .                       ",
". . . . . . . . . . . . . . . . . . . . . . . . . . . . . . . . . . . . . . . . . . . . . . . . . . . . . . . . . . . . . . . . . . . . . . . . . . . . . . . . . . . . . . . . . . . . . . . . . . . . . . . . . . . . . . . . . . . . . . . . . . . . @ s h s s @.,._.qXyXpXBXDXDXDXDXkXyX_.g.;.%.X.X.P P D Z Z Z Z Z S D S S G G X.O.$.$.;.;.;.;.;.;.;.:.:.g.g.h.h.h.h.h.g.:.:.;.-.G G F d d d 0 6 6 2 2 < < $ $ $ $ $ # # $ * * 6 = o . . . . . . . . . . . . . . . . . . . . . . . . . . . . . . . . . . . . . . . . . . . . . . . . . . . . . . . . . . . . . . . . . . . . . . . . . . . . . . . . . . . . . . . . . . . . . . . . . . . . . . . . . . . . . . . . . . . . . . . . . . . . . . . . . . . . . . . .                       ",
". . . . . . . . . . . . . . . . . . . . . . . . . . . . . . . . . . . . . . . . . . . . . . . . . . . . . . . . . . . . . . . . . . . . . . . . . . . . . . . . . . . . . . . . . . . . . . . . . . . . . . . . . . . . . . . . . . . . . . . . . . . . X s h s s ..>.`.qXiXpXkXBXDXmXmXkXpXqXg.>.$.o.X.X.G S S S S X.X.X.X.X.%.$.;.;.:.:.g.g.g.g.g.g.h.h.h.qXqXwXeXeXyXeXwXqXh.g.:.;.-.G F F d d d 0 4 2 2 < < $ $ $ $ $ $ $ $ $ # = 9 = o . . . . . . . . . . . . . . . . . . . . . . . . . . . . . . . . . . . . . . . . . . . . . . . . . . . . . . . . . . . . . . . . . . . . . . . . . . . . . . . . . . . . . . . . . . . . . . . . . . . . . . . . . . . . . . . . . . . . . . . . . . . . . . . . . . . . . . . .                     ",
". . . . . . . . . . . . . . . . . . . . . . . . . . . . . . . . . . . . . . . . . . . . . . . . . . . . . . . . . . . . . . . . . . . . . . . . . . . . . . . . . . . . . . . . . . . . . . . . . . . . . . . . . . . . . . . . . . . . . . . . . . . . X j h s s z <.,._.wXyXpXkXBXBXkXjXpXwX_.g.;.$.O.X.X.X.X.O.O.$.$.;.;.;.:.:.g.g.h.h.h._.qXqXqXqXwXwXeXyXpXjXlXkXkXlXpXyXwXqXh.,.;.-.G F F d d d 0 4 6 2 2 2 * * $ $ $ $ $ # # $ * 6 = o . . . . . . . . . . . . . . . . . . . . . . . . . . . . . . . . . . . . . . . . . . . . . . . . . . . . . . . . . . . . . . . . . . . . . . . . . . . . . . . . . . . . . . . . . . . . . . . . . . . . . . . . . . . . . . . . . . . . . . . . . . . . . . . . . . . . . . .                     ",
". . . . . . . . . . . . . . . . . . . . . . . . . . . . . . . . . . . . . . . . . . . . . . . . . . . . . . . . . . . . . . . . . . . . . . . . . . . . . . . . . . . . . . . . . . . . . . . . . . . . . . . . . . . . . . . . . . . . . . . . . . . . X s h f s h -.,.h.qXeXyXpXkXkXpXpXyXwX_.g.:.;.;.$.$.;.;.;.;.:.:.g.g.g.g.h.h.qXwXeXeXeXeXyXyXyXpXpXkXkXkXUXDXDXDXUXkXjXyXwX_.g.:.;.O.G F F d d d 0 4 4 2 2 2 * * $ $ $ $ $ # # # * = ; O o . . . . . . . . . . . . . . . . . . . . . . . . . . . . . . . . . . . . . . . . . . . . . . . . . . . . . . . . . . . . . . . . . . . . . . . . . . . . . . . . . . . . . . . . . . . . . . . . . . . . . . . . . . . . . . . . . . . . . . . . . . . . . . . . . . . . .                     ",
". . . . . . . . . . . . . . . . . . . . . . . . . . . . . . . . . . . . . . . . . . . . . . . . . . . . . . . . . . . . . . . . . . . . . . . . . . . . . . . . . . . . . . . . . . . . . . . . . . . . . . . . . . . . . . . . . . . . . . . . . . . . X , h f s f @.>.,._.qXyXyXpXpXpXpXeXqX_.g.:.:.:.;.:.:.:.:.g.g.g.g.h.h.h.qXqXwXeXeXyXyXpXjXjXlXkXUXDXDXDXDXKXKXDXDXmXkXpXeXqXh.,.;.-.G G F F d d 0 0 6 4 4 2 2 2 * * * $ $ $ $ # # # 9 9 & o . . . . . . . . . . . . . . . . . . . . . . . . . . . . . . . . . . . . . . . . . . . . . . . . . . . . . . . . . . . . . . . . . . . . . . . . . . . . . . . . . . . . . . . . . . . . . . . . . . . . . . . . . . . . . . . . . . . . . . . . . . . . . . . . . . . .                     ",
". . . . . . . . . . . . . . . . . . . . . . . . . . . . . . . . . . . . . . . . . . . . . . . . . . . . . . . . . . . . . . . . . . . . . . . . . . . . . . . . . . . . . . . . . . . . . . . . . . . . . . . . . . . . . . . . . . . . . . . . . . . . . , h f s s ..;.,.h.qXwXeXyXyXeXeXwXqX_.h.g.,.:.:.:.,.g.g.g.g.h.h.h.h.qXqXeXeXyXyXpXpXlXkXkXUXUXDXDXKXKXKXKXKXKXDXDXkXjXyXwXh.g.:.;.O.G G F F d d 0 0 6 6 6 2 2 2 * * $ $ $ $ $ $ # * 9 9 = o . . . . . . . . . . . . . . . . . . . . . . . . . . . . . . . . . . . . . . . . . . . . . . . . . . . . . . . . . . . . . . . . . . . . . . . . . . . . . . . . . . . . . . . . . . . . . . . . . . . . . . . . . . . . . . . . . . . . . . . . . . . . . . . . . . . .                   ",
". . . . . . . . . . . . . . . . . . . . . . . . . . . . . . . . . . . . . . . . . . . . . . . . . . . . . . . . . . . . . . . . . . . . . . . . . . . . . . . . . . . . . . . . . . . . . . . . . . . . . . . . . . . . . . . . . . . . . . . . . . . . . a h f f f ..+.:.,.h.qXqXwXwXwXqXqX_.h.g.g.,.,.,.,.g.g.g.g.h.h.h.qXqXwXeXeXeXyXpXjXlXkXkXUXUXDXDXKXKXKXKXKXKXKXDXDXkXjXyXwX_.g.:.;.-.O.G G F d d d 0 0 5 5 6 2 2 2 * * * $ $ $ $ # # % 9 9 ; o . . . . . . . . . . . . . . . . . . . . . . . . . . . . . . . . . . . . . . . . . . . . . . . . . . . . . . . . . . . . . . . . . . . . . . . . . . . . . . . . . . . . . . . . . . . . . . . . . . . . . . . . . . . . . . . . . . . . . . . . . . . . . . . . . . .                   ",
". . . . . . . . . . . . . . . . . . . . . . . . . . . . . . . . . . . . . . . . . . . . . . . . . . . . . . . . . . . . . . . . . . . . . . . . . . . . . . . . . . . . . . . . . . . . . . . . . . . . . . . . . . . . . . . . . . . . . . . . . . . . . a f f f f h @.-.:.,._.qXqXqXqX_.h.h.,.,.,.,.,.,.,.g.g.g.h.h.h._.qXwXeXeXeXyXpXpXlXlXkXkXkXUXDXDXDXKXKXKXKXKXKXDXDXkXjXyXeXqXh.g.:.;.O.O.G G F d d d d 0 0 0 6 2 2 2 * * $ $ $ $ $ # # % 6 9 9 o . . . . . . . . . . . . . . . . . . . . . . . . . . . . . . . . . . . . . . . . . . . . . . . . . . . . . . . . . . . . . . . . . . . . . . . . . . . . . . . . . . . . . . . . . . . . . . . . . . . . . . . . . . . . . . . . . . . . . . . . . . . . . . . . . .                   ",
". . . . . . . . . . . . . . . . . . . . . . . . . . . . . . . . . . . . . . . . . . . . . . . . . . . . . . . . . . . . . . . . . . . . . . . . . . . . . . . . . . . . . . . . . . . . . . . . . . . . . . . . . . . . . . . . . . . . . . . . . . . . X a f f d f f ..+.-.,.,.h.h._.h.h.,.,.,.,.,.,.:.:.:.,.g.g.h.h.h._.qXwXeXeXeXyXpXjXlXlXlXkXkXUXDXDXDXDXDXDXDXDXDXDXkXkXjXyXeXqXh.g.:.:.;.O.O.G G F d d d d 0 0 5 4 2 2 2 * * $ $ $ $ $ # # % = a 9 % . . . . . . . . . . . . . . . . . . . . . . . . . . . . . . . . . . . . . . . . . . . . . . . . . . . . . . . . . . . . . . . . . . . . . . . . . . . . . . . . . . . . . . . . . . . . . . . . . . . . . . . . . . . . . . . . . . . . . . . . . . . . . . . . .                   ",
". . . . . . . . . . . . . . . . . . . . . . . . . . . . . . . . . . . . . . . . . . . . . . . . . . . . . . . . . . . . . . . . . . . . . . . . . . . . . . . . . . . . . . . . . . . . . . . . . . . . . . . . . . . . . . . . . . . . . . . . . . . . X a d f f d d h @.-.;.,.,.,.,.,.,.,.,.:.:.:.:.:.:.:.,.g.g.g.h.h._.qXwXwXeXeXyXyXjXjXlXlXkXkXkXkXmXDXDXDXDXDXDXmXkXkXkXjXyXeXwX_.h.g.:.;.;.O.O.G F F d d d d u 0 5 4 2 2 2 2 * * $ $ $ $ # # % 9 a a % . . . . . . . . . . . . . . . . . . . . . . . . . . . . . . . . . . . . . . . . . . . . . . . . . . . . . . . . . . . . . . . . . . . . . . . . . . . . . . . . . . . . . . . . . . . . . . . . . . . . . . . . . . . . . . . . . . . . . . . . . . . . . . . . .                 ",
". . . . . . . . . . . . . . . . . . . . . . . . . . . . . . . . . . . . . . . . . . . . . . . . . . . . . . . . . . . . . . . . . . . . . . . . . . . . . . . . . . . . . . . . . . . . . . . . . . . . . . . . . . . . . . . . . . . . . . . . . . . . . a f f f d s h h @.-.;.;.;.:.:.:.:.:.;.;.;.;.:.:.:.:.g.g.g.h.h.h.qXqXeXeXeXyXyXpXjXlXlXlXlXkXkXkXmXDXDXmXmXkXkXkXkXkXjXpXyXeXwX_.h.g.:.:.;.O.O.G F F m d d d 0 5 6 2 2 2 2 2 * * * $ $ # # # % 9 g a & . . . . . . . . . . . . . . . . . . . . . . . . . . . . . . . . . . . . . . . . . . . . . . . . . . . . . . . . . . . . . . . . . . . . . . . . . . . . . . . . . . . . . . . . . . . . . . . . . . . . . . . . . . . . . . . . . . . . . . . . . . . . . . . .                 ",
". . . . . . . . . . . . . . . . . . . . . . . . . . . . . . . . . . . . . . . . . . . . . . . . . . . . . . . . . . . . . . . . . . . . . . . . . . . . . . . . . . . . . . . . . . . . . . . . . . . . . . . . . . . . . . . . . . . . . . . . . . . . o a h d d s d f h h @.-.-.-.-.;.;.;.;.;.;.;.;.:.:.:.:.,.g.g.h.h.h.qXqXwXwXeXeXyXyXjXjXjXlXlXlXlXlXkXkXkXkXkXkXkXkXkXkXkXjXpXyXyXwXqXh.g.:.;.;.O.O.G F A d d d d u 0 6 2 2 2 2 2 2 * * * * $ $ # $ 6 a a % o . . . . . . . . . . . . . . . . . . . . . . . . . . . . . . . . . . . . . . . . . . . . . . . . . . . . . . . . . . . . . . . . . . . . . . . . . . . . . . . . . . . . . . . . . . . . . . . . . . . . . . . . . . . . . . . . . . . . . . . . . . . . . .                 ",
". . . . . . . . . . . . . . . . . . . . . . . . . . . . . . . . . . . . . . . . . . . . . . . . . . . . . . . . . . . . . . . . . . . . . . . . . . . . . . . . . . . . . . . . . . . . . . . . . . . . . . . . . . . . . . . . . . . . . . . . . . . . % a h d s a a d h h h G @.O.-.-.-.-.-.-.-.-.;.;.:.:.:.:.g.g.h.h.h.h.qXwXwXeXeXyXyXhXjXjXjXlXlXlXlXlXkXkXkXkXkXkXkXkXkXkXkXkXjXpXyXwXqXh.g.:.;.$.O.O.G F m d d d u t 0 6 2 2 2 2 2 2 2 * * * * $ $ # 6 d a ; . . . . . . . . . . . . . . . . . . . . . . . . . . . . . . . . . . . . . . . . . . . . . . . . . . . . . . . . . . . . . . . . . . . . . . . . . . . . . . . . . . . . . . . . . . . . . . . . . . . . . . . . . . . . . . . . . . . . . . . . . . . . . .                 ",
". . . . . . . . . . . . . . . . . . . . . . . . . . . . . . . . . . . . . . . . . . . . . . . . . . . . . . . . . . . . . . . . . . . . . . . . . . . . . . . . . . . . . . . . . . . . . . . . . . . . . . . . . . . . . . . . . . . . . . . . . . . . % g h s a a a s d j h h h h G O.G O.O.-.-.-.-.;.;.;.:.:.:.g.g.h.h.h._.qXwXwXeXyXyXyXhXjXjXlXlXkXkXkXkXkXkXkXkXkXkXkXkXmXkXkXkXkXpXyXwX_.h.g.:.;.-.O.G G A m d d d u 0 0 6 6 6 2 2 2 2 2 2 * * $ $ $ * 9 g h = . . . . . . . . . . . . . . . . . . . . . . . . . . . . . . . . . . . . . . . . . . . . . . . . . . . . . . . . . . . . . . . . . . . . . . . . . . . . . . . . . . . . . . . . . . . . . . . . . . . . . . . . . . . . . . . . . . . . . . . . . . . . . .               ",
". . . . . . . . . . . . . . . . . . . . . . . . . . . . . . . . . . . . . . . . . . . . . . . . . . . . . . . . . . . . . . . . . . . . . . . . . . . . . . . . . . . . . . . . . . . . . . . . . . . . . . . . . . . . . . . . . . . . . . . . . . . . % h h s a a a a a g g g g h h h F G G G G -.-.-.;.;.:.:.:.g.g.h.h.h._.qXwXwXeXeXyXyXhXjXjXlXkXkXkXkXkXmXmXmXDXDXDXDXDXDXDXDXmXkXkXpXeXwX_.g.g.:.;.O.O.G F A A d d d u 0 0 0 6 6 2 2 2 2 2 2 * $ * * $ * 9 g g = o . . . . . . . . . . . . . . . . . . . . . . . . . . . . . . . . . . . . . . . . . . . . . . . . . . . . . . . . . . . . . . . . . . . . . . . . . . . . . . . . . . . . . . . . . . . . . . . . . . . . . . . . . . . . . . . . . . . . . . . . . . . .               ",
". . . . . . . . . . . . . . . . . . . . . . . . . . . . . . . . . . . . . . . . . . . . . . . . . . . . . . . . . . . . . . . . . . . . . . . . . . . . . . . . . . . . . . . . . . . . . . . . . . . . . . . . . . . . . . . . . . . . . . . . . . . . 9 g f s a a a a a a a a g g g g h h F G G O.-.-.;.;.:.:.:.g.g.h.h.h._._.qXwXeXeXyXyXjXjXlXlXkXkXmXmXmXDXDXDXDXDXDXDXDXDXDXDXDXDXkXlXyXeXwX_.g.:.;.$.O.G F A A d d d d u 0 0 0 5 4 2 2 2 2 2 2 * * * $ $ * 9 d g = o . . . . . . . . . . . . . . . . . . . . . . . . . . . . . . . . . . . . . . . . . . . . . . . . . . . . . . . . . . . . . . . . . . . . . . . . . . . . . . . . . . . . . . . . . . . . . . . . . . . . . . . . . . . . . . . . . . . . . . . . . . .               ",
". . . . . . . . . . . . . . . . . . . . . . . . . . . . . . . . . . . . . . . . . . . . . . . . . . . . . . . . . . . . . . . . . . . . . . . . . . . . . . . . . . . . . . . . . . . . . . . . . . . . . . . . . . . . . . . . . . . . . . . . . . . . 9 h f s a a a a a a a a a a g g g g h F G O.O.-.;.;.:.:.:.:.g.g.h.h._._.wXwXeXyXhXhXjXlXlXkXkXmXDXDXDXDXDXDXDXDXDXKXKXKXKXKXKXDXDXkXjXyXwXqXh.g.:.;.O.X.G F A A m d d d 0 0 0 5 5 4 4 4 2 2 2 2 2 2 * * $ * 6 d d % . . . . . . . . . . . . . . . . . . . . . . . . . . . . . . . . . . . . . . . . . . . . . . . . . . . . . . . . . . . . . . . . . . . . . . . . . . . . . . . . . . . . . . . . . . . . . . . . . . . . . . . . . . . . . . . . . . . . . . . . . . .               ",
". . . . . . . . . . . . . . . . . . . . . . . . . . . . . . . . . . . . . . . . . . . . . . . . . . . . . . . . . . . . . . . . . . . . . . . . . . . . . . . . . . . . . . . . . . . . . . . . . . . . . . . . . . . . . . . . . . . . . . . . . . . + a f s a a a 6 9 ; 9 9 9 a a a d g g h F G O.O.-.;.;.;.:.:.:.g.g.h._._.[.wXeXrXyXhXjXlXlXlXkXmXDXDXDXDXDXDXKXKXKXKXKXKXKXKXKXKXKXDXDXkXpXeXwX_.g.:.;.$.O.X.G F S A d d d u 0 8 8 5 5 4 4 6 4 2 2 2 2 2 * * * * 6 g a o . . . . . . . . . . . . . . . . . . . . . . . . . . . . . . . . . . . . . . . . . . . . . . . . . . . . . . . . . . . . . . . . . . . . . . . . . . . . . . . . . . . . . . . . . . . . . . . . . . . . . . . . . . . . . . . . . . . . . . . . . . .             ",
". . . . . . . . . . . . . . . . . . . . . . . . . . . . . . . . . . . . . . . . . . . . . . . . . . . . . . . . . . . . . . . . . . . . . . . . . . . . . . . . . . . . . . . . . . . . . . . . . . . . . . . . . . . . . . . . . . . . . . . . . . . % d f a a a 6 ; ; ; ; ; 9 9 a a d g g h F G O.O.-.;.;.:.:.:.g.g.h._._._.wXeXeXyXhXhXjXlXlXkXkXmXDXDXKXKXKXKXKXKXKXKXKXKXKXKXKXKXKXKXDXkXjXyXwX_.g.:.;.$.$.X.X.S S S m d d d u 0 8 7 5 5 6 6 4 4 4 2 2 2 2 * $ $ * 9 g 9 o . . . . . . . . . . . . . . . . . . . . . . . . . . . . . . . . . . . . . . . . . . . . . . . . . . . . . . . . . . . . . . . . . . . . . . . . . . . . . . . . . . . . . . . . . . . . . . . . . . . . . . . . . . . . . . . . . . . . . . . . . .             ",
". . . . . . . . . . . . . . . . . . . . . . . . . . . . . . . . . . . . . . . . . . . . . . . . . . . . . . . . . . . . . . . . . . . . . . . . . . . . . . . . . . . . . . . . . . . . . . . . . . . . . . . . . . . . . . . . . . . . . . . . . . . - g f a a e 6 - ; ; ; ; 9 a a a d g g F F G O.O.-.;.;.:.:.g.g.g.h._._.[.wXeXyXhXhXjXjXlXkXkXmXDXDXKXKXKXKXKXKXKXKXKXKXKXKXKXKXKXKXKXDXkXyXeXwX_.g.:.;.$.$.o.X.S S S S m m d u u 8 7 7 5 5 5 6 6 6 3 2 2 2 2 * * $ * 9 d = o . . . . . . . . . . . . . . . . . . . . . . . . . . . . . . . . . . . . . . . . . . . . . . . . . . . . . . . . . . . . . . . . . . . . . . . . . . . . . . . . . . . . . . . . . . . . . . . . . . . . . . . . . . . . . . . . . . . . . . . . .             ",
". . . . . . . . . . . . . . . . . . . . . . . . . . . . . . . . . . . . . . . . . . . . . . . . . . . . . . . . . . . . . . . . . . . . . . . . . . . . . . . . . . . . . . . . . . . . . . . . . . . . . . . . . . . . . . . . . . . . . . . . . . . ; d d a a 6 6 - ; ; ; 9 9 a a d g g F F G O.O.-.;.;.:.:.:.g.g.g.h._._.wXwXeXyXyXhXjXlXlXkXmXmXDXKXKXKXKXKXLXKXKXKXKXKXKXKXKXKXKXKXKXDXjXyXwX[._.g.f.;.$.%.o.X.X.S S S m m m u y u t 8 7 7 5 5 6 6 6 6 5 2 2 2 * * * * 9 a = . . . . . . . . . . . . . . . . . . . . . . . . . . . . . . . . . . . . . . . . . . . . . . . . . . . . . . . . . . . . . . . . . . . . . . . . . . . . . . . . . . . . . . . . . . . . . . . . . . . . . . . . . . . . . . . . . . . . . . . . .             ",
". . . . . . . . . . . . . . . . . . . . . . . . . . . . . . . . . . . . . . . . . . . . . . . . . . . . . . . . . . . . . . . . . . . . . . . . . . . . . . . . . . . . . . . . . . . . . . . . . . . . . . . . . . . . . . . . . . . . . . . . . . . ; d d a a 6 6 - ; 9 ; 9 9 9 g g g h F G O.O.-.;.;.;.:.:.g.g.g.h._._.[.wXeXyXyXhXjXjXlXkXmXAXDXDXKXKXKXKXLXLXLXKXKXKXKXKXKXKXKXKXDXDXkXjXyXeX[.g.f.>.*.$.%.%.X.X.P S S m m m m u u u u t 0 7 5 0 5 6 6 6 2 2 2 2 * * * 6 d g # . . . . . . . . . . . . . . . . . . . . . . . . . . . . . . . . . . . . . . . . . . . . . . . . . . . . . . . . . . . . . . . . . . . . . . . . . . . . . . . . . . . . . . . . . . . . . . . . . . . . . . . . . . . . . . . . . . . . . . . . .           ",
". . . . . . . . . . . . . . . . . . . . . . . . . . . . . . . . . . . . . . . . . . . . . . . . . . . . . . . . . . . . . . . . . . . . . . . . . . . . . . . . . . . . . . . . . . . . . . . . . . . . . . . . . . . . . . . . . . . . . . . . . . + a d s a a 6 6 - - 9 9 9 a a g g F F G G O.-.-.;.;.:.:.g.g.g.h._._.[.[.wXeXyXhXhXjXlXlXkXmXAXDXKXKXKXLXLXLXLXLXLXKXKXKXKXKXKXKXKXDXkXpXyX[.[.[.f.f.>.*.%.%.%.X.X.P S S S m m m m m u u u t t 7 7 5 5 6 6 5 2 2 2 2 * * * 6 g a % . . . . . . . . . . . . . . . . . . . . . . . . . . . . . . . . . . . . . . . . . . . . . . . . . . . . . . . . . . . . . . . . . . . . . . . . . . . . . . . . . . . . . . . . . . . . . . . . . . . . . . . . . . . . . . . . . . . . . . . .           ",
". . . . . . . . . . . . . . . . . . . . . . . . . . . . . . . . . . . . . . . . . . . . . . . . . . . . . . . . . . . . . . . . . . . . . . . . . . . . . . . . . . . . . . . . . . . . . . . . . . . . . . . . . . . . . . . . . . . . . . . . . . - a g a a a 6 6 9 6 6 9 a d g h F G G O.O.O.-.;.;.:.:.:.g.g.h._._._.[.wXeXrXyXhXhXjXlXkXmXmXDXJXKXKXKXKXLXLXLXLXKXKXLXKXKXKXKXKXDXkXjXyXrX`.`.!.f.f.*.*.%.%.%.X.P P S S S S m m m m m u u u t 8 7 5 5 5 5 5 4 2 2 2 2 * * * 9 g 9 O . . . . . . . . . . . . . . . . . . . . . . . . . . . . . . . . . . . . . . . . . . . . . . . . . . . . . . . . . . . . . . . . . . . . . . . . . . . . . . . . . . . . . . . . . . . . . . . . . . . . . . . . . . . . . . . . . . . . . . .           ",
". . . . . . . . . . . . . . . . . . . . . . . . . . . . . . . . . . . . . . . . . . . . . . . . . . . . . . . . . . . . . . . . . . . . . . . . . . . . . . . . . . . . . . . . . . . . . . . . . . . . . . . . . . . . . . . . . . . . . . . . . X 9 a a a a e 6 6 9 9 6 9 a g h F G G O.O.-.-.;.;.:.:.:.g.g.h._._._.[.wXeXeXrXyXhXhXjXlXlXmXmXDXJXKXKXKXKXKXKXKXKXKXKXKXKXKXDXDXDXkXjXyXeXwX`.f.f.f.u.*.%.%.%.%.( P P S S N M N N m m m y y u y t t 7 5 5 5 5 5 4 2 2 2 2 * * * a g = . . . . . . . . . . . . . . . . . . . . . . . . . . . . . . . . . . . . . . . . . . . . . . . . . . . . . . . . . . . . . . . . . . . . . . . . . . . . . . . . . . . . . . . . . . . . . . . . . . . . . . . . . . . . . . . . . . . . . . .           ",
". . . . . . . . . . . . . . . . . . . . . . . . . . . . . . . . . . . . . . . . . . . . . . . . . . . . . . . . . . . . . . . . . . . . . . . . . . . . . . . . . . . . . . . . . . . . . . . . . . . . . . . . . . . . . . . . . . . . . . . . . % a a a a a 6 6 6 6 9 a a g h h G G O.O.-.-.;.;.:.:.:.g.g.h._._._.[.wXwXeXeXrXhXhXhXlXlXlXmXmXDXJXJXJXKXKXKXKXKXKXJXJXDXDXDXmXmXkXjXyXrXeX[.!.f.f.u.p.&.%.%.%._ ( P P P Z S N N N m m m m y y y y t 8 7 5 5 5 5 5 2 2 2 2 2 * $ 6 9 g o . . . . . . . . . . . . . . . . . . . . . . . . . . . . . . . . . . . . . . . . . . . . . . . . . . . . . . . . . . . . . . . . . . . . . . . . . . . . . . . . . . . . . . . . . . . . . . . . . . . . . . . . . . . . . . . . . . . . . . .         ",
". . . . . . . . . . . . . . . . . . . . . . . . . . . . . . . . . . . . . . . . . . . . . . . . . . . . . . . . . . . . . . . . . . . . . . . . . . . . . . . . . . . . . . . . . . . . . . . . . . . . . . . . . . . . . . . . . . . . . . . . . - a a a a a e 6 9 9 a a d h h G O.O.-.-.;.;.;.:.:.:.g.g.h._._._.[.[.wXeXeXrXyXhXhXjXlXlXlXlXmXmXAXAXAXAXAXJXAXAXAXAXmXmXmXmXlXjXhXeXeX[.{.!.f.f.f.p.&.&.%._ _ _ ( ( P P Z Z B N N M M m b b y y y y t t 7 5 5 5 5 5 4 2 2 2 2 $ $ = d & o . . . . . . . . . . . . . . . . . . . . . . . . . . . . . . . . . . . . . . . . . . . . . . . . . . . . . . . . . . . . . . . . . . . . . . . . . . . . . . . . . . . . . . . . . . . . . . . . . . . . . . . . . . . . . . . . . . . . . .         ",
". . . . . . . . . . . . . . . . . . . . . . . . . . . . . . . . . . . . . . . . . . . . . . . . . . . . . . . . . . . . . . . . . . . . . . . . . . . . . . . . . . . . . . . . . . . . . . . . . . . . . . . . . . . . . . . . . . . . . . . . . - a a a a a e e a a a a g h G O.O.-.-.;.;.;.:.:.:.g.g.h._._._.[.wXwXwXeXrXrXhXhXhXjXjXlXlXlXlXlXlXlXvXvXvXvXvXlXlXlXlXhXhXlXgXrXhXrX}.{.{.].f.u.*.&.&.&.` _ _ _ ( ( ( J J J Z B M M M n b b b b y y y t t 7 5 5 5 5 5 2 2 2 2 $ $ $ 9 9 % . . . . . . . . . . . . . . . . . . . . . . . . . . . . . . . . . . . . . . . . . . . . . . . . . . . . . . . . . . . . . . . . . . . . . . . . . . . . . . . . . . . . . . . . . . . . . . . . . . . . . . . . . . . . . . . . . . . . . .         ",
". . . . . . . . . . . . . . . . . . . . . . . . . . . . . . . . . . . . . . . . . . . . . . . . . . . . . . . . . . . . . . . . . . . . . . . . . . . . . . . . . . . . . . . . . . . . . . . . . . . . . . . . . . . . . . . . . . . . . . . . % a a s a a a a a a a a h h G @.O.-.-.;.;.;.:.:.:.g.g.h._._._.wXwXwXwXeXeXrXrXhXhXhXhXjXjXjXjXjXjXlXjXgXhXgXgXhXhXhXhXhXgXvXvXhXhXfXfX{.!./.!.p.&.%.` &.` ` _ _ _ ( ( ( ( J J Z Z B M M M b n b b b y y y t 7 7 5 5 5 5 4 2 2 2 < $ $ = a a o . . . . . . . . . . . . . . . . . . . . . . . . . . . . . . . . . . . . . . . . . . . . . . . . . . . . . . . . . . . . . . . . . . . . . . . . . . . . . . . . . . . . . . . . . . . . . . . . . . . . . . . . . . . . . . . . . . . . .         ",
". . . . . . . . . . . . . . . . . . . . . . . . . . . . . . . . . . . . . . . . . . . . . . . . . . . . . . . . . . . . . . . . . . . . . . . . . . . . . . . . . . . . . . . . . . . . . . . . . . . . . . . . . . . . . . . . . . . . . . . o ; a a s a a a a a a d h h F O.O.-.-.;.;.:.:.:.,.g.g.h._._._.wXwXwXwXwXeXeXeXeXrXrXhXhXhXhXhXhXhXhXhXhXhXhXhXhX1X1X1X1XfXgXhX1X]./.].3X/.!./.j.r.&.&.j.u.` _ _ _ _ Q R T Y ( J J Z V B M M M n b b b y y y y 8 7 7 5 5 5 4 4 2 2 < $ $ $ 9 g o . . . . . . . . . . . . . . . . . . . . . . . . . . . . . . . . . . . . . . . . . . . . . . . . . . . . . . . . . . . . . . . . . . . . . . . . . . . . . . . . . . . . . . . . . . . . . . . . . . . . . . . . . . . . . . . . . . . . . .       ",
". . . . . . . . . . . . . . . . . . . . . . . . . . . . . . . . . . . . . . . . . . . . . . . . . . . . . . . . . . . . . . . . . . . . . . . . . . . . . . . . . . . . . . . . . . . . . . . . . . . . . . . . . . . . . . . . . . . . . . . + a a d s a a a a a a g h G @.O.-.-.;.;.:.:.:.,.g.g.h._._._.wXwXwXwXeXeXeXeXrXrXrXrXrXrXrXhX3XhX3X3X1X1X3X3X3X3X3X3X3X3X1X3X/.].3X/./.!.j.3X/.p.~.i.p.r._ ` _ Q ~ Q Q R R T Y Y J J C V B B M n n b b b v y y t 8 7 7 7 5 5 4 4 2 < < $ $ = g ; X . . . . . . . . . . . . . . . . . . . . . . . . . . . . . . . . . . . . . . . . . . . . . . . . . . . . . . . . . . . . . . . . . . . . . . . . . . . . . . . . . . . . . . . . . . . . . . . . . . . . . . . . . . . . . . . . . . . . .       ",
". . . . . . . . . . . . . . . . . . . . . . . . . . . . . . . . . . . . . . . . . . . . . . . . . . . . . . . . . . . . . . . . . . . . . . . . . . . . . . . . . . . . . . . . . . . . . . . . . . . . . . . . . . . . . . . . . . . . . . o - a d d a a a a a a d h F O.O.-.-.;.;.:.:.,.,.g.h._._._._.wXwXwXwXwXeXeXeXeX}.{.{.{.{.{.{.{.{.3X3X3X3X3X3X3X3X3X3X3XoX/.3X1X/.3X1X/./.p.!./.j.{./.j.p.` ` ` ` ~ ~ ~ ~ ~ Q R T Y Y J C C B B M M n n b b v v y y y 8 7 7 5 5 5 4 4 < < $ $ $ a g ; . . . . . . . . . . . . . . . . . . . . . . . . . . . . . . . . . . . . . . . . . . . . . . . . . . . . . . . . . . . . . . . . . . . . . . . . . . . . . . . . . . . . . . . . . . . . . . . . . . . . . . . . . . . . . . . . . . . . .       ",
". . . . . . . . . . . . . . . . . . . . . . . . . . . . . . . . . . . . . . . . . . . . . . . . . . . . . . . . . . . . . . . . . . . . . . . . . . . . . . . . . . . . . . . . . . . . . . . . . . . . . . . . . . . . . . . . . . . . . . O ; a a a a a a a a d h h G O.-.-.;.;.:.:.,.,.g._._._._._.qXwXwXwXeXwXeXeX}.{.{.{.{.{.{.{.{.{.{.3X3X3XoXoXoXoXoXoXoX^.^.^.^.1X/././.{.3X/./.~.i.{.i.i.p.8.8.8.} ` ` / ~ ~ ~ R R T Y Y J C B B B M M n n b b v y y y t 8 7 7 5 5 4 4 2 < $ $ $ = a g . . . . . . . . . . . . . . . . . . . . . . . . . . . . . . . . . . . . . . . . . . . . . . . . . . . . . . . . . . . . . . . . . . . . . . . . . . . . . . . . . . . . . . . . . . . . . . . . . . . . . . . . . . . . . . . . . . . . .       ",
". . . . . . . . . . . . . . . . . . . . . . . . . . . . . . . . . . . . . . . . . . . . . . . . . . . . . . . . . . . . . . . . . . . . . . . . . . . . . . . . . . . . . . . . . . . . . . . . . . . . . . . . . . . . . . . . . . . . . o & 9 a a a a a a a a h h @.@.-.-.;.;.:.:.,.g.h._._._.qXqXqXwXwXwXeXwX{.{.{.{.{.{.{.]././././././.oXoXoXoXoXoXoXoXoXoX$X1X^.^.^.1X2X{.1X1X$X/./.i.p.i.C.p.p.p.8.8.8./ / / / ~ ~ R T Y Y J C C B B B B M n b b b v y y y 8 8 7 5 5 4 4 2 2 < $ $ $ 9 @.o . . . . . . . . . . . . . . . . . . . . . . . . . . . . . . . . . . . . . . . . . . . . . . . . . . . . . . . . . . . . . . . . . . . . . . . . . . . . . . . . . . . . . . . . . . . . . . . . . . . . . . . . . . . . . . . . . . . . .     ",
". . . . . . . . . . . . . . . . . . . . . . . . . . . . . . . . . . . . . . . . . . . . . . . . . . . . . . . . . . . . . . . . . . . . . . . . . . . . . . . . . . . . . . . . . . . . . . . . . . . . . . . . . . . . . . . . . . . . . X ; a h a a a a a a d h G O.O.-.;.;.:.,.,.g.h._._.qXqXwXwXwXwXeXwXwX{.{.{.{.{.].]././././././.^.^.oXoXoXoXoXoXXXXXoXoX$X1X$XoX$XoX/./.^.^.s.N.N.C.C././.r.y.i.0.0.8.8.8./ / / ~ Q R Y Y Y C C C B B B M M n b b b y y y 8 8 8 7 5 5 4 4 < < < $ $ * h 9 X . . . . . . . . . . . . . . . . . . . . . . . . . . . . . . . . . . . . . . . . . . . . . . . . . . . . . . . . . . . . . . . . . . . . . . . . . . . . . . . . . . . . . . . . . . . . . . . . . . . . . . . . . . . . . . . . . . . .     ",
". . . . . . . . . . . . . . . . . . . . . . . . . . . . . . . . . . . . . . . . . . . . . . . . . . . . . . . . . . . . . . . . . . . . . . . . . . . . . . . . . . . . . . . . . . . . . . . . . . . . . . . . . . . . . . . . . . . . . + 9 d h a a a a a a g h @.O.-.-.;.:.,.g.h._._._._.qXwXwXwXwXeXeXeX{.{.{.].]././././././././.^.oXoXoXoXoXXXoXoXXXXXXXXXXXoX^.oX$XoX^.^.S.A.A.A.A.A.N.$X^.y.y.y.y.0.0.0.8.8./ / / ~ R R Y Y C C C B B B B M n b b b b y y y t 8 7 7 5 4 4 2 < 2 * * $ 9 g ; . . . . . . . . . . . . . . . . . . . . . . . . . . . . . . . . . . . . . . . . . . . . . . . . . . . . . . . . . . . . . . . . . . . . . . . . . . . . . . . . . . . . . . . . . . . . . . . . . . . . . . . . . . . . . . . . . . . .     ",
". . . . . . . . . . . . . . . . . . . . . . . . . . . . . . . . . . . . . . . . . . . . . . . . . . . . . . . . . . . . . . . . . . . . . . . . . . . . . . . . . . . . . . . . . . . . . . . . . . . . . . . . . . . . . . . . . . . . . & a g s a a a a a a h F O.-.;.;.:.,.,.h._._._._.qXwXwXwXwXeXeXeX}.{.{.]./.!.!.!.!.!././.^.^.^.oXoXoXoXoXoXXXOXXXOXOXXXXXXXXXXX$X$XXX:XXXL.S.S.S.A.A.A.A.C.y.y.y.y.q.0.8.8.4./ ~ ~ R R T Y D C C C V B B M N n b b m v y y 8 8 8 7 5 4 4 2 < 2 2 * $ = g g . . . . . . . . . . . . . . . . . . . . . . . . . . . . . . . . . . . . . . . . . . . . . . . . . . . . . . . . . . . . . . . . . . . . . . . . . . . . . . . . . . . . . . . . . . . . . . . . . . . . . . . . . . . . . . . . . . . .     ",
". . . . . . . . . . . . . . . . . . . . . . . . . . . . . . . . . . . . . . . . . . . . . . . . . . . . . . . . . . . . . . . . . . . . . . . . . . . . . . . . . . . . . . . . . . . . . . . . . . . . . . . . . . . . . . . . . . . . . - a g a e e a a a d h @.-.-.;.:.,.g.h._._._.qXwXwXwXwXwXeXeXeXrX{.{.].!.!.j.j.j.j.j././.^.^.^.oXoXXXoXoXoXXXOXOXOXOX@X@XOXXXXX:X=X^.XXXXL.S.S.S.A.A.XXXXA.N.a.a.y.y.q.0.0.8.4.` ~ ' R U Y Y D C C C Z B M M n b b m v y y 8 8 8 7 5 5 4 2 < 2 2 2 * % 9 h X . . . . . . . . . . . . . . . . . . . . . . . . . . . . . . . . . . . . . . . . . . . . . . . . . . . . . . . . . . . . . . . . . . . . . . . . . . . . . . . . . . . . . . . . . . . . . . . . . . . . . . . . . . . . . . . . . . . .   ",
". . . . . . . . . . . . . . . . . . . . . . . . . . . . . . . . . . . . . . . . . . . . . . . . . . . . . . . . . . . . . . . . . . . . . . . . . . . . . . . . . . . . . . . . . . . . . . . . . . . . . . . . . . . . . . . . . . . . X ; a h a e a a a a h G O.-.;.:.,.g.h._._.qXwXwXwXeXeXeXeXiXrXeXeX{.{./.!.j.j.j.j.s.C./.^.^.^.^.XXoXXXXXXXXXXXOX@X@X@X@X@X@XOXXX$XOX$XOXXXL.L.L.S.A.S.S.S.C.N.N.a.a.y.y.q.0.8.4./ ` ~ R R U Y Y C C C Z B M M n b b b v y y y 8 8 7 7 5 4 4 < 2 2 2 * # - g - . . . . . . . . . . . . . . . . . . . . . . . . . . . . . . . . . . . . . . . . . . . . . . . . . . . . . . . . . . . . . . . . . . . . . . . . . . . . . . . . . . . . . . . . . . . . . . . . . . . . . . . . . . . . . . . . . . . .   ",
". . . . . . . . . . . . . . . . . . . . . . . . . . . . . . . . . . . . . . . . . . . . . . . . . . . . . . . . . . . . . . . . . . . . . . . . . . . . . . . . . . . . . . . . . . . . . . . . . . . . . . . . . . . . . . . . . . . . & a h d a a a a a d h @.-.;.:.,.g.h._._.qXwXwXwXiXiXyXyXyXyXrXrX{.{./.!.j.i.i.i.s.s.s./.^.^.^.^.XXoXXXXXXX@X@X@X=X=X@X@X@X@X@X@XXXOXOXOXOXOXXXL.L.S.S.S.A.A.A.C.N.a.a.y.q.q.0.8.4./ ~ ~ R R T Y Y C C C B B M n n b v v y y y 8 8 7 7 5 4 4 2 2 2 2 * $ * a a + . . . . . . . . . . . . . . . . . . . . . . . . . . . . . . . . . . . . . . . . . . . . . . . . . . . . . . . . . . . . . . . . . . . . . . . . . . . . . . . . . . . . . . . . . . . . . . . . . . . . . . . . . . . . . . . . . . .   ",
". . . . . . . . . . . . . . . . . . . . . . . . . . . . . . . . . . . . . . . . . . . . . . . . . . . . . . . . . . . . . . . . . . . . . . . . . . . . . . . . . . . . . . . . . . . . . . . . . . . . . . . . . . . . . . . . . . . . - a h a e a a a d h ..O.-.:.:.,.h._._.qXqXwXwXiXyXyXyXyXyXyXrXrX{.!.j.j.i.i.i.i.s.s.C.^.^.^.^.XXXXoXXXOX@X=X=X=X=X=X=X@X@X@X@X@X@X@X@XOX@X@XOXXXL.L.L.L.S.S.A.A.C.N.a.a.y.q.0.0.8.4.` ~ ' R R Y Y D C C B B n n n b b v v y y y 8 8 7 5 4 4 2 2 2 2 2 * $ = g & . . . . . . . . . . . . . . . . . . . . . . . . . . . . . . . . . . . . . . . . . . . . . . . . . . . . . . . . . . . . . . . . . . . . . . . . . . . . . . . . . . . . . . . . . . . . . . . . . . . . . . . . . . . . . . . . . . .   ",
". . . . . . . . . . . . . . . . . . . . . . . . . . . . . . . . . . . . . . . . . . . . . . . . . . . . . . . . . . . . . . . . . . . . . . . . . . . . . . . . . . . . . . . . . . . . . . . . . . . . . . . . . . . . . . . . . . . X ; h h a a a a a d h @.+.;.:.,.g._._.qXwXwXwXeXiXyXyXyXyXyXyXrX{.].j.f.i.i.i.i.i.s.C.C.^.^.^.XXXXXXXXXX@X=X=X=X=X=X=X=X@X@X@X@X@X@X@X@X@X@X@XOXOXOXL.L.L.S.S.A.A.C.C.N.N.a.y.q.0.8.8.` ~ ~ R Y Y Y J C C Z B n n n b v v v y y y 8 8 7 5 5 4 4 2 2 < < $ * # g ; X . . . . . . . . . . . . . . . . . . . . . . . . . . . . . . . . . . . . . . . . . . . . . . . . . . . . . . . . . . . . . . . . . . . . . . . . . . . . . . . . . . . . . . . . . . . . . . . . . . . . . . . . . . . . . . . . . . . ",
". . . . . . . . . . . . . . . . . . . . . . . . . . . . . . . . . . . . . . . . . . . . . . . . . . . . . . . . . . . . . . . . . . . . . . . . . . . . . . . . . . . . . . . . . . . . . . . . . . . . . . . . . . . . . . . . . . . O a h h a a a a s h ..O.-.>.,.,._._.qXwXwXeXiXiXyXyXyXyXyXyXyXrX{.!.j.i.i.i.i.i.i.s.C.C.A.A.^.XXXXXXXXXX@X=X=X=X=X=X=X=X=X=X<X=X@X@X@X@X@X@X@XOXOXOXOXXXXXL.L.S.A.A.A.C.N.a.a.q.0.8.8.4.~ ~ ' R Y Y Y C C B B M n n b b b v y y y 8 8 7 5 5 4 2 2 < < < < * % a 9 % . . . . . . . . . . . . . . . . . . . . . . . . . . . . . . . . . . . . . . . . . . . . . . . . . . . . . . . . . . . . . . . . . . . . . . . . . . . . . . . . . . . . . . . . . . . . . . . . . . . . . . . . . . . . . . . . . . . ",
". . . . . . . . . . . . . . . . . . . . . . . . . . . . . . . . . . . . . . . . . . . . . . . . . . . . . . . . . . . . . . . . . . . . . . . . . . . . . . . . . . . . . . . . . . . . . . . . . . . . . . . . . . . . . . . . . . . O a h h a d a a d h @.-.;.:.,.h._.qXwXwXwXiXyXyXyXpXgXgXhXhXrX|.].j.f.i.i.i.i.i.i.s.C.C.A.A.S.XXXXXXXXXX@X@X=X=X=X:X:X<X<X<X<X<X<X=X=X@X@X@X@X@X@XOXOXOXOXXXL.L.S.A.A.V.N.a.a.y.0.0.8.4./ / ~ R R Y Y C Z V B M M n n b b m y y y 8 8 7 5 5 4 2 2 < < < < $ $ 9 a - . . . . . . . . . . . . . . . . . . . . . . . . . . . . . . . . . . . . . . . . . . . . . . . . . . . . . . . . . . . . . . . . . . . . . . . . . . . . . . . . . . . . . . . . . . . . . . . . . . . . . . . . . . . . . . . . . . . ",
". . . . . . . . . . . . . . . . . . . . . . . . . . . . . . . . . . . . . . . . . . . . . . . . . . . . . . . . . . . . . . . . . . . . . . . . . . . . . . . . . . . . . . . . . . . . . . . . . . . . . . . . . . . . . . . . . . . - a ..a a a a a f F O.-.;.,.,._._.wXwXwXiXyXyXpXpXpXjXgXhXhXrX{.!.f.i.i.i.i.i.y.s.s.C.C.A.A.L.XXXXXXXX@X@X@X=X:X<X,X,X<X<X<X<X<X<X<X<X=X=X@X@X@X@X@X@XOXOXOXXXL.L.A.A.A.C.N.a.y.q.0.8.8./ / ~ R R Y Y J C V B M n n n b v v y y y 8 7 7 5 5 4 4 2 < < < < $ $ = a 9 o . . . . . . . . . . . . . . . . . . . . . . . . . . . . . . . . . . . . . . . . . . . . . . . . . . . . . . . . . . . . . . . . . . . . . . . . . . . . . . . . . . . . . . . . . . . . . . . . . . . . . . . . . . . . . . . . . . ",
". . . . . . . . . . . . . . . . . . . . . . . . . . . . . . . . . . . . . . . . . . . . . . . . . . . . . . . . . . . . . . . . . . . . . . . . . . . . . . . . . . . . . . . . . . . . . . . . . . . . . . . . . . . . . . . . . . X ; a F s a a a d h ..+.-.:.,.h._.qXwXeXiXyXpXpXpXpXjXjXgXgXrX{.!.j.i.i.i.i.i.i.y.y.s.C.C.A.S.L.XXXXXXXX@X@X@X=X:X,X,X,X,X,X,X,X,X,X,X<X<X=X=X=X@X@X@X@X@XOXOXOXXXL.S.A.A.C.N.a.a.q.0.8.8.4.` ~ ' R E Y J C C Z B n n n b v v y y 8 8 7 7 5 4 4 4 2 2 < < < $ $ # a a + . . . . . . . . . . . . . . . . . . . . . . . . . . . . . . . . . . . . . . . . . . . . . . . . . . . . . . . . . . . . . . . . . . . . . . . . . . . . . . . . . . . . . . . . . . . . . . . . . . . . . . . . . . . . . . . . . . ",
". . . . . . . . . . . . . . . . . . . . . . . . . . . . . . . . . . . . . . . . . . . . . . . . . . . . . . . . . . . . . . . . . . . . . . . . . . . . . . . . . . . . . . . . . . . . . . . . . . . . . . . . . . . . . . . . . . O , g h d a a a d h @.-.;.:.g._._.wXeXiXyXyXpXjXjXjXjXjXgXfXrX].j.i.i.i.i.i.y.y.a.a.s.C.C.A.S.L.XXXX@X@X@X@X@X=X,X,X,X,X,X,X,X,X,X,X,X,X<X<X<X=X=X=X=X@X@X@XOXOXOXL.S.A.A.V.N.a.a.y.0.0.8.4./ / ' R R Y Y C C B B M n b b v v y y y 8 7 7 5 4 4 4 2 2 < < < $ $ # 9 a = . . . . . . . . . . . . . . . . . . . . . . . . . . . . . . . . . . . . . . . . . . . . . . . . . . . . . . . . . . . . . . . . . . . . . . . . . . . . . . . . . . . . . . . . . . . . . . . . . . . . . . . . . . . . . . . . . . ",
". . . . . . . . . . . . . . . . . . . . . . . . . . . . . . . . . . . . . . . . . . . . . . . . . . . . . . . . . . . . . . . . . . . . . . . . . . . . . . . . . . . . . . . . . . . . . . . . . . . . . . . . . . . . . . . . . . X a h h a a a a d h @.-.:.,.`._.qXwXiXyXyXpXjXjXjXjXjXjXgXhX}.].f.i.i.y.y.y.y.a.a.s.C.C.A.A.S.XXXXXX@X@X@X@X=X<X,X,X,X2X2X2X,X,X,X,X,X,X,X<X<X=X=X=X=X=X=X@X@XOXOXOXL.A.A.V.C.N.a.y.q.0.0.8./ ` ~ R R Y Y C C B B M n b b v y y y y 8 7 7 5 5 5 4 2 2 < < < $ $ # ; a ; . . . . . . . . . . . . . . . . . . . . . . . . . . . . . . . . . . . . . . . . . . . . . . . . . . . . . . . . . . . . . . . . . . . . . . . . . . . . . . . . . . . . . . . . . . . . . . . . . . . . . . . . . . . . . . . . . . ",
". . . . . . . . . . . . . . . . . . . . . . . . . . . . . . . . . . . . . . . . . . . . . . . . . . . . . . . . . . . . . . . . . . . . . . . . . . . . . . . . . . . . . . . . . . . . . . . . . . . . . . . . . . . . . . . . . . X a h ..a a a a j z @.;.:.,._.qXwXiXyXyXpXpXjXjXlXlXlXjXgXhX}.!.u.i.y.y.y.y.a.a.s.s.C.C.A.S.L.XXXXOX@X@X=X=X:X,X,X2X2X2X2X2X2X2X,X,X,X,X,X<X<X<X#X=X=X=X=X=X=X@X@XOXL.S.A.A.C.N.a.a.q.0.8.8.4./ ~ ' U Y Y C C V B M n b b v y y y t 8 7 7 7 7 5 4 4 2 < < < $ $ $ * a a o . . . . . . . . . . . . . . . . . . . . . . . . . . . . . . . . . . . . . . . . . . . . . . . . . . . . . . . . . . . . . . . . . . . . . . . . . . . . . . . . . . . . . . . . . . . . . . . . . . . . . . . . . . . . . . . . . ",
". . . . . . . . . . . . . . . . . . . . . . . . . . . . . . . . . . . . . . . . . . . . . . . . . . . . . . . . . . . . . . . . . . . . . . . . . . . . . . . . . . . . . . . . . . . . . . . . . . . . . . . . . . . . . . . . . . & a h h a a a s h z @.;.,.`.qXwXiXiXyXpXpXjXjXjXBXBXlXlXgXhX{.j.p.i.i.y.y.y.a.a.s.C.A.A.S.^.XXXXXXOX@X@X=X:X,X,X2X2X2X2X2X2X2X2X,X,X,X,X,X,X,X<X<X<X<X=X=X=X=X@X@XOXOXL.A.A.V.C.a.a.q.0.0.8.4./ / ~ R Y Y D C C B M n n b v y y y t 7 7 7 5 5 5 4 4 2 < < < < $ $ # a g O . . . . . . . . . . . . . . . . . . . . . . . . . . . . . . . . . . . . . . . . . . . . . . . . . . . . . . . . . . . . . . . . . . . . . . . . . . . . . . . . . . . . . . . . . . . . . . . . . . . . . . . . . . . . . . . . . ",
". . . . . . . . . . . . . . . . . . . . . . . . . . . . . . . . . . . . . . . . . . . . . . . . . . . . . . . . . . . . . . . . . . . . . . . . . . . . . . . . . . . . . . . . . . . . . . . . . . . . . . . . . . . . . . . . . . - a h h a a a s h z -.;.,._.qXwXiXyXpXpXjXjXjXkXmXmXmXcXgXrX].f.i.i.i.i.y.a.a.a.C.C.A.A.S.^.XXXXXX@X@X=X=X,X,X,X,X2X2X2X6X6X2X7X7X7X7X7X,X,X,X,X<X<X<X:X#X=X=X@X@X@XOXL.S.A.A.C.a.a.q.0.0.8.4./ / ~ R Y Y D C C B M n b b y y y y t 7 7 7 5 5 5 5 4 2 < < < < $ $ # 9 g - . . . . . . . . . . . . . . . . . . . . . . . . . . . . . . . . . . . . . . . . . . . . . . . . . . . . . . . . . . . . . . . . . . . . . . . . . . . . . . . . . . . . . . . . . . . . . . . . . . . . . . . . . . . . . . . . . ",
". . . . . . . . . . . . . . . . . . . . . . . . . . . . . . . . . . . . . . . . . . . . . . . . . . . . . . . . . . . . . . . . . . . . . . . . . . . . . . . . . . . . . . . . . . . . . . . . . . . . . . . . . . . . . . . . . X - a h h a a a a s z -.>.`.qXwXiXyXyXpXjXjXlXkXmXmXmXmXvXgX}.!.f.i.i.i.i.i.y.a.s.C.A.C.A.^.XXXXXXXX@X@X=X=X,X,X,X,X2X2X7X7X7X7X7X7X7X7X7X7X,X,X,X,X<X<X,X=X=X=X=X@X@XOXL.S.A.V.C.N.a.q.q.0.0.4./ / ~ R Y E D C V B n n b b y y y y t 8 7 7 5 5 5 5 4 2 < < < 2 * $ # = a a X . . . . . . . . . . . . . . . . . . . . . . . . . . . . . . . . . . . . . . . . . . . . . . . . . . . . . . . . . . . . . . . . . . . . . . . . . . . . . . . . . . . . . . . . . . . . . . . . . . . . . . . . . . . . . . . . ",
". . . . . . . . . . . . . . . . . . . . . . . . . . . . . . . . . . . . . . . . . . . . . . . . . . . . . . . . . . . . . . . . . . . . . . . . . . . . . . . . . . . . . . . . . . . . . . . . . . . . . . . . . . . . . . . . . X - a z h a a a d d ..-.>.`.qXiXyXyXpXpXjXjXkXBXmXmXNXmXvXgX{.!.u.p.i.i.i.i.y.a.s.C.A.A.S.^.XXXXXXOX@X=X=X=X,X,X,X,X2X7X7X7X7X7X7X7X7X7X7X7X7X6X6X,X,X,X,X:X=X=X=X@X@XOXL.L.A.A.C.N.a.y.q.0.0.8./ / ~ R Y Y D C V B n b b b v y y y t 7 7 5 5 5 5 5 4 2 < < < < $ * * * a h X . . . . . . . . . . . . . . . . . . . . . . . . . . . . . . . . . . . . . . . . . . . . . . . . . . . . . . . . . . . . . . . . . . . . . . . . . . . . . . . . . . . . . . . . . . . . . . . . . . . . . . . . . . . . . . . . ",
". . . . . . . . . . . . . . . . . . . . . . . . . . . . . . . . . . . . . . . . . . . . . . . . . . . . . . . . . . . . . . . . . . . . . . . . . . . . . . . . . . . . . . . . . . . . . . . . . . . . . . . . . . . . . . . . . X - a h f a a a s h @.-.,.`.wXiXyXpXpXjXjXkXBXmXmXDXDXmXmXgX{.f.u.i.y.i.i.i.a.s.C.A.A.A.S.^.XXXXXXOX@X=X=X=X,X,X,X,X2X7X7X7X7X7X7X7X7X7X7X7X7X7X6X6X,X,X,X,X:X=X=X=X@XOXL.L.A.A.C.N.a.y.q.0.0.8./ / ~ R E D C C B n n v v v y y y y t 7 7 5 5 4 4 4 4 2 2 < < < < * * # a h % . . . . . . . . . . . . . . . . . . . . . . . . . . . . . . . . . . . . . . . . . . . . . . . . . . . . . . . . . . . . . . . . . . . . . . . . . . . . . . . . . . . . . . . . . . . . . . . . . . . . . . . . . . . . . . . . ",
". . . . . . . . . . . . . . . . . . . . . . . . . . . . . . . . . . . . . . . . . . . . . . . . . . . . . . . . . . . . . . . . . . . . . . . . . . . . . . . . . . . . . . . . . . . . . . . . . . . . . . . . . . . . . . . . . O ; d h d a a a d h @.<.,._.aXyXpXpXpXjXjXBXmXmXmXDXFXmXvXhX{.j.i.i.y.i.i.i.s.C.C.A.A.A.S.^.XXXXXXXXOX=X=X=X:X,X,X,X2X7X7X7X7X7X7X7X7X7X7X7X7X7X7X6X6X,X,X,X:X=X=X=X@XOXOXL.A.A.V.N.a.y.q.0.8.8./ / Q R E Y C V B n n v v v y y 8 8 8 7 7 5 5 5 5 4 4 2 2 < < < 2 * * # a h - . . . . . . . . . . . . . . . . . . . . . . . . . . . . . . . . . . . . . . . . . . . . . . . . . . . . . . . . . . . . . . . . . . . . . . . . . . . . . . . . . . . . . . . . . . . . . . . . . . . . . . . . . . . . . . . . ",
". . . . . . . . . . . . . . . . . . . . . . . . . . . . . . . . . . . . . . . . . . . . . . . . . . . . . . . . . . . . . . . . . . . . . . . . . . . . . . . . . . . . . . . . . . . . . . . . . . . . . . . . . . . . . . . . . O ; g h d e a s d h @.;.,._.iXuXpXpXpXjXcXBXmXmXNXDXFXNXvXhX{.f.u.i.p.i.i.i.s.N.C.A.A.A.A.S.^.XXXXOXOX$X=X=X:X,X,X,X2X7X7X7X7X7X7X7X7X7X7X7X7X7X7X7X6X6X,X,X,X:X#X=X@XOXOXL.S.A.C.N.a.y.q.0.8.8./ ~ ~ R E Y C V B n n b v v y y y 8 7 7 5 5 5 5 4 4 4 2 2 < < 2 2 * * # 9 h ; . . . . . . . . . . . . . . . . . . . . . . . . . . . . . . . . . . . . . . . . . . . . . . . . . . . . . . . . . . . . . . . . . . . . . . . . . . . . . . . . . . . . . . . . . . . . . . . . . . . . . . . . . . . . . . . . ",
". . . . . . . . . . . . . . . . . . . . . . . . . . . . . . . . . . . . . . . . . . . . . . . . . . . . . . . . . . . . . . . . . . . . . . . . . . . . . . . . . . . . . . . . . . . . . . . . . . . . . . . . . . . . . . . . . X a h ..s e e s d h ..<.,.qXyXpXpXjXjXcXcXBXmXNXDXFXDXNXvXhX{.j.u.p.p.i.i.i.i.s.C.A.A.A.A.S.^.XXXXOXOX@X=X=X:X,X,X2X6X7X7X7X7X7X7X7X8X7X7X7X7X7X7X7X6X6X,X,X,X:X=X=X@X@XOXL.S.A.V.N.a.y.y.0.8.8.4.~ ~ R Y Y C B M n n b v v y y 8 8 7 7 5 5 4 5 4 4 2 2 < < < < 2 * * # - h ; . . . . . . . . . . . . . . . . . . . . . . . . . . . . . . . . . . . . . . . . . . . . . . . . . . . . . . . . . . . . . . . . . . . . . . . . . . . . . . . . . . . . . . . . . . . . . . . . . . . . . . . . . . . . . . . . ",
". . . . . . . . . . . . . . . . . . . . . . . . . . . . . . . . . . . . . . . . . . . . . . . . . . . . . . . . . . . . . . . . . . . . . . . . . . . . . . . . . . . . . . . . . . . . . . . . . . . . . . . . . . . . . . . . . . a h ..a e e a d h ..<.,.qXyXpXpXjXcXcXBXmXmXDXFXJXDXNXmXhX].f.p.p.p.i.i.i.i.s.C.C.A.A.A.S.^.XXXXOXOX$X=X=X:X,X,X2X2X7X7X7X8X8X8X8X8X8X7X7X7X7X7X7X7X6X6X,X,X:X:X=X=XOXOXL.S.A.A.N.N.y.y.0.0.8.4./ ~ U E Y C B n n n v v y y y 8 8 7 7 5 5 5 4 4 2 2 2 2 < < < < * * # O h 9 . . . . . . . . . . . . . . . . . . . . . . . . . . . . . . . . . . . . . . . . . . . . . . . . . . . . . . . . . . . . . . . . . . . . . . . . . . . . . . . . . . . . . . . . . . . . . . . . . . . . . . . . . . . . . . . . ",
". . . . . . . . . . . . . . . . . . . . . . . . . . . . . . . . . . . . . . . . . . . . . . . . . . . . . . . . . . . . . . . . . . . . . . . . . . . . . . . . . . . . . . . . . . . . . . . . . . . . . . . . . . . . . . . . . O ; h h s e a a d h ..-.,.wXuXjXjXcXBXBXmXmXDXFXJXJXFXNXvXhX].f.p.p.y.i.y.i.i.s.N.C.A.A.A.A.S.XXXXXXOX$X=X=X:X,X,X2X6X7X7X8X8X8X8X8X8X8X8X8X7X7X7X7X7X6X6X,X,X:X:X=X=X@XOXL.S.A.A.C.a.y.y.0.8.8./ ~ Q U Y C C B n n n b v y y y 8 7 7 5 5 5 5 4 4 2 < 2 2 < < < $ * * # # h 9 o . . . . . . . . . . . . . . . . . . . . . . . . . . . . . . . . . . . . . . . . . . . . . . . . . . . . . . . . . . . . . . . . . . . . . . . . . . . . . . . . . . . . . . . . . . . . . . . . . . . . . . . . . . . . . . . ",
". . . . . . . . . . . . . . . . . . . . . . . . . . . . . . . . . . . . . . . . . . . . . . . . . . . . . . . . . . . . . . . . . . . . . . . . . . . . . . . . . . . . . . . . . . . . . . . . . . . . . . . . . . . . . . . . . O ; a h a e e a s f F -.g.wXuXcXcXcXBXBXmXmXNXFXJXJXJXNXvXtX].j.i.p.y.i.i.i.i.s.N.C.A.A.A.A.S.^.XXXXOX$X=X=X:X,X2X2X6X7X7X8X8X8X8X8X8X8X8X8X8X8X7X7X7X7X6X,X,X:X:X=X=X@XOXL.S.A.A.C.a.y.y.0.8.4.` ~ R T Y C B B n n b v v y y y 8 7 7 5 5 4 4 4 2 2 < 2 2 < < < $ * * $ * a a o . . . . . . . . . . . . . . . . . . . . . . . . . . . . . . . . . . . . . . . . . . . . . . . . . . . . . . . . . . . . . . . . . . . . . . . . . . . . . . . . . . . . . . . . . . . . . . . . . . . . . . . . . . . . . . . ",
". . . . . . . . . . . . . . . . . . . . . . . . . . . . . . . . . . . . . . . . . . . . . . . . . . . . . . . . . . . . . . . . . . . . . . . . . . . . . . . . . . . . . . . . . . . . . . . . . . . . . . . . . . . . . . . . . O > a ..a e e a s d ..<.`.wXuXjXjXcXBXmXmXNXFXFXJXJXJXNXmXtX].!.i.p.p.i.i.i.i.s.s.C.A.A.A.A.S.^.XXXXOXOX=X=X:X:X2X2X6X7X8X8X8X8X8X8X8X8X8X8X8X8X7X7X7X7X6X6X,X,X:X=X=XOXOXL.S.A.A.N.a.y.y.0.8.4.` ~ U T J Z B B n n b v y y y 8 8 7 5 5 5 4 4 4 2 2 < < 2 < < < $ $ * $ & a j . . . . . . . . . . . . . . . . . . . . . . . . . . . . . . . . . . . . . . . . . . . . . . . . . . . . . . . . . . . . . . . . . . . . . . . . . . . . . . . . . . . . . . . . . . . . . . . . . . . . . . . . . . . . . . . . ",
". . . . . . . . . . . . . . . . . . . . . . . . . . . . . . . . . . . . . . . . . . . . . . . . . . . . . . . . . . . . . . . . . . . . . . . . . . . . . . . . . . . . . . . . . . . . . . . . . . . . . . . . . . . . . . . . . O ; a @.s a e a a d ..<.`.iXpXjXcXcXBXmXmXNXFXJXJXJXJXFXmXhX{.!.i.p.p.y.i.y.i.i.s.C.A.A.A.A.S.^.XXXXOXOX$X=X:X2X2X2X6X7X8X8X8X8X8X8X8X8X8X8X8X8X8X7X7X7X7X6X,X,X:X=X@XOXOXL.S.A.C.N.a.y.y.0.8.` ~ R U Y J Z B M n n v y y y y 8 8 7 5 5 4 4 4 2 2 2 2 < 2 < < < $ $ $ $ # g g . . . . . . . . . . . . . . . . . . . . . . . . . . . . . . . . . . . . . . . . . . . . . . . . . . . . . . . . . . . . . . . . . . . . . . . . . . . . . . . . . . . . . . . . . . . . . . . . . . . . . . . . . . . . . . . . ",
". . . . . . . . . . . . . . . . . . . . . . . . . . . . . . . . . . . . . . . . . . . . . . . . . . . . . . . . . . . . . . . . . . . . . . . . . . . . . . . . . . . . . . . . . . . . . . . . . . . . . . . . . . . . . . . . . O - d ..h a a a a d F -.`.iXpXjXcXcXBXmXmXNXFXJXJXJXJXJXmXhX{.!.j.p.p.p.y.i.i.i.s.N.C.A.A.A.S.^.^.XXOXOX@X=X:X:X2X2X6X7X8X8X8X8X8X8X8X8X8X8X8X8X8X7X7X7X6X6X,X:X:X=X@XOXL.L.A.A.C.N.y.y.0.r.8.` ~ R R Y J C B n n b v y y y y 7 7 5 5 4 4 2 2 2 2 2 2 < < < < < $ $ $ $ # g a + . . . . . . . . . . . . . . . . . . . . . . . . . . . . . . . . . . . . . . . . . . . . . . . . . . . . . . . . . . . . . . . . . . . . . . . . . . . . . . . . . . . . . . . . . . . . . . . . . . . . . . . . . . . . . . . ",
". . . . . . . . . . . . . . . . . . . . . . . . . . . . . . . . . . . . . . . . . . . . . . . . . . . . . . . . . . . . . . . . . . . . . . . . . . . . . . . . . . . . . . . . . . . . . . . . . . . . . . . . . . . . . . . . . X - a @.h a a a a s h +.`.uXpXjXcXBXBXmXmXNXFXJXJXJXKXJXmXgX|.!.j.p.p.p.p.y.y.i.s.s.N.C.A.A.A.S.^.XXOXOX$X=X:X:X2X2X6X7X8X8X8X8X8X8X8X8X8X8X8X8X8X7X7X6X6X6X,X:X=X=X@XXXL.S.A.A.C.N.y.y.r.r.8.` ' R Y J Z Z M n b b v y y y y 7 5 5 5 4 2 2 2 2 2 2 2 < < < < < $ $ $ $ # a g X . . . . . . . . . . . . . . . . . . . . . . . . . . . . . . . . . . . . . . . . . . . . . . . . . . . . . . . . . . . . . . . . . . . . . . . . . . . . . . . . . . . . . . . . . . . . . . . . . . . . . . . . . . . . . . . ",
". . . . . . . . . . . . . . . . . . . . . . . . . . . . . . . . . . . . . . . . . . . . . . . . . . . . . . . . . . . . . . . . . . . . . . . . . . . . . . . . . . . . . . . . . . . . . . . . . . . . . . . . . . . . . . . . . X > a @...a a a a d h +.g.iXpXjXcXBXmXmXmXNXFXJXJXJXJXJXMXgX|.!.f.u.p.p.p.y.i.i.i.a.a.C.C.A.A.S.^.XXXX$X$X=X:X:X2X2X6X6X8X8X8X8X8X8X8X8X8X8X8X8X8X8X7X6X6X2X,X:X=X=XOXXXL.S.A.A.C.a.y.0.8.8.` ` ' Y Y C Z B n n b v v y y y y 7 5 5 4 4 2 2 2 2 2 < < < < < $ < < $ $ $ $ 9 h . . . . . . . . . . . . . . . . . . . . . . . . . . . . . . . . . . . . . . . . . . . . . . . . . . . . . . . . . . . . . . . . . . . . . . . . . . . . . . . . . . . . . . . . . . . . . . . . . . . . . . . . . . . . . . . . ",
". . . . . . . . . . . . . . . . . . . . . . . . . . . . . . . . . . . . . . . . . . . . . . . . . . . . . . . . . . . . . . . . . . . . . . . . . . . . . . . . . . . . . . . . . . . . . . . . . . . . . . . . . . . . . . . . . . , a @.h a a a a d f O.,.iXpXjXcXBXmXmXmXNXFXJXJXKXJXJXNXjX}.!.f.u.p.p.p.p.y.i.i.a.a.a.N.C.A.S.^.^.XX$X$X=X:X:X2X2X2X6X7X8X8X8X8X8X8X8X8X8X8X8X8X8X7X7X6X,X:X:X=X@XOXL.S.S.A.C.a.y.0.8.8.` ` ' ( Y C C Z M n n b v y y y 8 8 7 5 4 4 4 2 2 2 2 2 < < < < < $ < < $ $ $ $ 6 G o . . . . . . . . . . . . . . . . . . . . . . . . . . . . . . . . . . . . . . . . . . . . . . . . . . . . . . . . . . . . . . . . . . . . . . . . . . . . . . . . . . . . . . . . . . . . . . . . . . . . . . . . . . . . . . . ",
". . . . . . . . . . . . . . . . . . . . . . . . . . . . . . . . . . . . . . . . . . . . . . . . . . . . . . . . . . . . . . . . . . . . . . . . . . . . . . . . . . . . . . . . . . . . . . . . . . . . . . . . . . . . . . . . . . ; a ..h a e e a a f O.,.wXjXjXcXBXBXmXNXNXJXJXKXKXJXJXZXcXrX].f.i.p.p.p.p.p.y.y.y.a.a.N.C.A.A.S.^.XXOX$X$X-X:X2X2X2X6X6X7X8X8X8X8X8X8X8X8X8X8X8X7X7X6X6X2X:X=X@XOXXXS.A.A.N.a.y.0.0.4.` ~ ' R Y C C C B n n b v v y y 8 7 7 7 5 4 4 4 2 2 2 2 2 2 < < < < $ < < $ $ $ $ 9 g % . . . . . . . . . . . . . . . . . . . . . . . . . . . . . . . . . . . . . . . . . . . . . . . . . . . . . . . . . . . . . . . . . . . . . . . . . . . . . . . . . . . . . . . . . . . . . . . . . . . . . . . . . . . . . . . ",
". . . . . . . . . . . . . . . . . . . . . . . . . . . . . . . . . . . . . . . . . . . . . . . . . . . . . . . . . . . . . . . . . . . . . . . . . . . . . . . . . . . . . . . . . . . . . . . . . . . . . . . . . . . . . . . . . . @ a z ..a e e a a d ..:.wXjXcXcXmXmXmXNXNXJXJXKXKXJXJXZXvXrX].!.f.u.p.p.p.p.p.y.y.y.a.a.N.C.A.A.^.^.oX$X$X=X:X:X2X2X2X6X6X6X8X8X8X8X8X8X8X8X8X7X7X6X6X2X,X:X@XOXXXS.A.C.N.a.y.0.8.4.` ~ ' R Y C C V Z B n n b v v y y 8 7 7 7 5 4 4 4 2 2 2 2 2 < < < < < $ < < $ $ $ $ 9 g ; . . . . . . . . . . . . . . . . . . . . . . . . . . . . . . . . . . . . . . . . . . . . . . . . . . . . . . . . . . . . . . . . . . . . . . . . . . . . . . . . . . . . . . . . . . . . . . . . . . . . . . . . . . . . . . . ",
". . . . . . . . . . . . . . . . . . . . . . . . . . . . . . . . . . . . . . . . . . . . . . . . . . . . . . . . . . . . . . . . . . . . . . . . . . . . . . . . . . . . . . . . . . . . . . . . . . . . . . . . . . . . . . . . . . O a h @.a e e e a s ..:.wXjXcXcXmXmXmXNXNXJXJXJXJXJXJXAXvXhX[.!.f.u.p.p.r.r.p.y.y.y.a.a.a.C.A.A.^.^.^.OX$X$X-X:X:X2X2X2X6X6X6X6X8X8X8X8X8X8X6X6X6X2X2X2X:X=XOXXXS.A.N.y.0.8.8.4./ / ' R E Y C C V B B B M n b v v y y 8 7 7 7 5 4 4 4 2 2 2 2 2 < < < < < $ $ $ $ $ $ $ 6 g ; . . . . . . . . . . . . . . . . . . . . . . . . . . . . . . . . . . . . . . . . . . . . . . . . . . . . . . . . . . . . . . . . . . . . . . . . . . . . . . . . . . . . . . . . . . . . . . . . . . . . . . . . . . . . . . . ",
". . . . . . . . . . . . . . . . . . . . . . . . . . . . . . . . . . . . . . . . . . . . . . . . . . . . . . . . . . . . . . . . . . . . . . . . . . . . . . . . . . . . . . . . . . . . . . . . . . . . . . . . . . . . . . . . . . X a z @.a e e e a a F ;.qXuXjXcXmXmXmXNXNXFXJXJXKXJXJXZXvXgX[.!.f.u.p.r.r.r.r.p.0.y.y.y.a.N.C.A.A.^.^.oXOX$X$X-X:X:X2X2X2X2X6X6X6X6X8X8X7X6X2X2X2X:X:X:X=XOXS.A.a.q.0.6.5./ / / ~ ' R E E E C C B B B B M n b v v y y 8 7 7 5 5 4 4 4 2 2 2 2 2 < < < < < $ $ $ $ $ $ $ $ h ; . . . . . . . . . . . . . . . . . . . . . . . . . . . . . . . . . . . . . . . . . . . . . . . . . . . . . . . . . . . . . . . . . . . . . . . . . . . . . . . . . . . . . . . . . . . . . . . . . . . . . . . . . . . . . . . ",
". . . . . . . . . . . . . . . . . . . . . . . . . . . . . . . . . . . . . . . . . . . . . . . . . . . . . . . . . . . . . . . . . . . . . . . . . . . . . . . . . . . . . . . . . . . . . . . . . . . . . . . . . . . . . . . . . . X , z @.d e e e a a h -._.uXjXcXmXmXmXMXNXFXJXJXKXJXJXJXbXgX}.].f.u.p.p.r.r.r.r.p.0.y.y.i.N.N.C.A.^.^.^.oXOX$X$X:X:X:X2X2X2X2X2X2X2X2X2X2X:X:X:X=X=XOXXX^.A.a.q.0.6.5./ / / / / ~ ' R E E Y D C B B B B M n b b y y y 8 7 7 5 5 4 4 4 4 2 2 2 2 < < < < < $ $ $ $ $ $ $ $ a 9 + . . . . . . . . . . . . . . . . . . . . . . . . . . . . . . . . . . . . . . . . . . . . . . . . . . . . . . . . . . . . . . . . . . . . . . . . . . . . . . . . . . . . . . . . . . . . . . . . . . . . . . . . . . . . . . ",
". . . . . . . . . . . . . . . . . . . . . . . . . . . . . . . . . . . . . . . . . . . . . . . . . . . . . . . . . . . . . . . . . . . . . . . . . . . . . . . . . . . . . . . . . . . . . . . . . . . . . . . . . . . . . . . . . . X - z @.f > e e e a f O.g.iXjXcXBXmXmXmXNXNXJXJXKXJXJXJXMXgXrX].~.f.u.p.r.r.r.r.r.0.y.y.y.i.N.C.C.A.^.^.^.^.oX$X$X=X-X:X:X:X:X:X:X:X=X=X$XOXXX^.S.A.N.a.y.0.0.6.5.5./ / / / / / ~ ' R E E Y Y C V B B B M n b b y y y 8 7 7 5 5 5 4 4 4 2 2 2 2 < < < < < $ $ $ $ $ $ $ $ 9 9 % . . . . . . . . . . . . . . . . . . . . . . . . . . . . . . . . . . . . . . . . . . . . . . . . . . . . . . . . . . . . . . . . . . . . . . . . . . . . . . . . . . . . . . . . . . . . . . . . . . . . . . . . . . . . . . ",
". . . . . . . . . . . . . . . . . . . . . . . . . . . . . . . . . . . . . . . . . . . . . . . . . . . . . . . . . . . . . . . . . . . . . . . . . . . . . . . . . . . . . . . . . . . . . . . . . . . . . . . . . . . . . . . . . . . - h +.h - e e e a d ..:.iXpXcXcXBXmXMXNXNXJXJXJXJXJXJXZXcXtX].!.f.u.p.r.r.r.8.8.8.0.y.y.y.i.C.C.C.^.^.^.^.^.oXOX$X$X$X$X$X$XOXXXXX^.A.C.N.a.a.0.0.0.0.0.6.6.5.5.5./ / / / / / ~ ' ' R E E Y C C B B B M n b b v y y t 8 7 5 5 5 4 4 4 2 2 2 2 < < < < < $ $ $ $ $ $ $ $ 6 a % X . . . . . . . . . . . . . . . . . . . . . . . . . . . . . . . . . . . . . . . . . . . . . . . . . . . . . . . . . . . . . . . . . . . . . . . . . . . . . . . . . . . . . . . . . . . . . . . . . . . . . . . . . . . . . ",
". . . . . . . . . . . . . . . . . . . . . . . . . . . . . . . . . . . . . . . . . . . . . . . . . . . . . . . . . . . . . . . . . . . . . . . . . . . . . . . . . . . . . . . . . . . . . . . . . . . . . . . . . . . . . . . . . . . @ f +...- > e e a d F ;.[.uXjXcXBXmXMXNXNXJXJXJXJXJXJXZXvXtX].!.f.u.p.r.r.r.8.8.8.8.p.y.i.y.i.s.C.C.C.^.^.^.^.^.^.^.^.^.A.A.C.a.y.y.0.0.0.0.6.6.5.6.8.8.6.6.6.5.5.5./ / / / / / ' ' R E E Y Y C V B B B n b b v y y y 8 7 7 5 5 5 4 4 2 2 2 2 < < < < < < $ $ $ $ $ $ $ $ g & + . . . . . . . . . . . . . . . . . . . . . . . . . . . . . . . . . . . . . . . . . . . . . . . . . . . . . . . . . . . . . . . . . . . . . . . . . . . . . . . . . . . . . . . . . . . . . . . . . . . . . . . . . . . . . ",
". . . . . . . . . . . . . . . . . . . . . . . . . . . . . . . . . . . . . . . . . . . . . . . . . . . . . . . . . . . . . . . . . . . . . . . . . . . . . . . . . . . . . . . . . . . . . . . . . . . . . . . . . . . . . . . . . . . X a @...e - e e e a h +.`.iXjXcXcXBXmXMXNXFXJXJXJXJXJXZXvXhX].!.f.u.r.&.&.&.` 8.8.8.r.p.y.y.i.i.i.i.s.C.C.C.C.C.C.s.a.y.y.0.0.0.8.8.8.5.5.5.6.6.6.0.0.0.0.8.6.5.5.5.5./ / / / / ~ ' R E U Y Y C V B B B M b b v y y y t 7 7 7 5 5 4 4 4 2 2 < < < < < < < $ $ $ $ $ $ $ $ a ; + . . . . . . . . . . . . . . . . . . . . . . . . . . . . . . . . . . . . . . . . . . . . . . . . . . . . . . . . . . . . . . . . . . . . . . . . . . . . . . . . . . . . . . . . . . . . . . . . . . . . . . . . . . . . . ",
". . . . . . . . . . . . . . . . . . . . . . . . . . . . . . . . . . . . . . . . . . . . . . . . . . . . . . . . . . . . . . . . . . . . . . . . . . . . . . . . . . . . . . . . . . . . . . . . . . . . . . . . . . . . . . . . . . . X a @.@.s - > e e i f @.,.iXjXcXcXBXmXMXNXNXJXJXJXJXJXZXvXhX{.!.f.u.p.&.&.&.` ` 8.8.8.r.r.p.p.p.p.i.y.p.p.y.r.r.0.8.8.4.4.4.4.5.5.4.4.4.8.8.0.0.0.0.0.0.0.6.6.8.5.4.4.5.5./ / / / ' R R U Y Y C C B B B M n b b y y y y 8 7 7 5 5 5 4 4 2 2 2 < < < < < < $ $ $ < $ $ $ $ 9 9 % . . . . . . . . . . . . . . . . . . . . . . . . . . . . . . . . . . . . . . . . . . . . . . . . . . . . . . . . . . . . . . . . . . . . . . . . . . . . . . . . . . . . . . . . . . . . . . . . . . . . . . . . . . . . . ",
". . . . . . . . . . . . . . . . . . . . . . . . . . . . . . . . . . . . . . . . . . . . . . . . . . . . . . . . . . . . . . . . . . . . . . . . . . . . . . . . . . . . . . . . . . . . . . . . . . . . . . . . . . . . . . . . . . X X , ..+.f - > e e a f ..>.wXuXcXcXcXBXmXNXNXNXFXFXJXZXMXvXfX[.!.f.u.&.&.&.} ` ` ` } r.r.r.r.r.r.r.r.8.8.4.4.4./ / / 5.5.5.5.4.4.4.8.0.0.0.0.0.0.0.0.q.q.0.0.8.8.8.4.4.5.5.5./ / / ' R R U Y Y J C V B B M M n b y y y y t 8 7 7 5 5 4 4 2 2 2 2 < < < < < < < $ < $ $ $ $ 6 a % X . . . . . . . . . . . . . . . . . . . . . . . . . . . . . . . . . . . . . . . . . . . . . . . . . . . . . . . . . . . . . . . . . . . . . . . . . . . . . . . . . . . . . . . . . . . . . . . . . . . . . . . . . . . . ",
". . . . . . . . . . . . . . . . . . . . . . . . . . . . . . . . . . . . . . . . . . . . . . . . . . . . . . . . . . . . . . . . . . . . . . . . . . . . . . . . . . . . . . . . . . . . . . . . . . . . . . . . . . . . . . . . . . . X - f +.f - > e e a s ..;.`.yXjXcXcXcXBXmXNXNXNXNXNXZXMXvXhX[.!.f.*.&.&.%.` ` ` ` ` ` ` &.r.` ` ` ` ` ` ` ` ~ ~ ~ / 4.4.4.8.8.0.0.0.0.0.0.0.0.q.q.y.q.y.q.0.0.8.8.4.4.5.5.5./ / ~ ~ ' R R T Y Y C V B B M M M n b y y y y 8 8 7 7 5 5 4 4 2 2 2 2 < < < < < < $ < $ $ $ $ $ g & + . . . . . . . . . . . . . . . . . . . . . . . . . . . . . . . . . . . . . . . . . . . . . . . . . . . . . . . . . . . . . . . . . . . . . . . . . . . . . . . . . . . . . . . . . . . . . . . . . . . . . . . . . . . . ",
". . . . . . . . . . . . . . . . . . . . . . . . . . . . . . . . . . . . . . . . . . . . . . . . . . . . . . . . . . . . . . . . . . . . . . . . . . . . . . . . . . . . . . . . . . . . . . . . . . . . . . . . . . . . . . . . . . . . @ s +...e - e e e s h +.,.iXuXjXjXcXcXmXmXNXNXNXmXMXvXcXtX[.!.f.*.&.%.%.` _ _ _ ` ` ' ` ` ' ' ' ~ ~ ~ / ~ ~ ~ / 4.8.8.8.0.0.0.0.0.0.0.0.y.y.y.y.y.y.y.y.0.0.8.8.4.4.4.5.4.5./ / / ~ ' R R T Y Y K V B B Z M n n v y y y y 8 8 8 5 5 4 4 2 2 2 2 < < < < < < $ $ $ $ $ $ $ a ; + . . . . . . . . . . . . . . . . . . . . . . . . . . . . . . . . . . . . . . . . . . . . . . . . . . . . . . . . . . . . . . . . . . . . . . . . . . . . . . . . . . . . . . . . . . . . . . . . . . . . . . . . . . . . ",
". . . . . . . . . . . . . . . . . . . . . . . . . . . . . . . . . . . . . . . . . . . . . . . . . . . . . . . . . . . . . . . . . . . . . . . . . . . . . . . . . . . . . . . . . . . . . . . . . . . . . . . . . . . . . . . . . . . . X a @.@.a - q e e a f ..>.wXuXuXjXjXcXcXvXBXBXcXcXcXjXgXrX].f.f.*.%.%._ _ _ ( R ( ( ( ( ( ' ' ' ' ' ' ~ ` ` / 4.8.8.0.0.0.0.0.0.0.0.0.y.y.a.a.a.a.y.y.y.y.0.8.8.8.4.4.4.4.4.4.5./ ~ ~ ' R R T Y J K V B B B M n b v y y y y 8 8 5 5 4 4 2 2 2 2 < < < < $ $ $ $ $ $ $ $ $ 9 9 O . . . . . . . . . . . . . . . . . . . . . . . . . . . . . . . . . . . . . . . . . . . . . . . . . . . . . . . . . . . . . . . . . . . . . . . . . . . . . . . . . . . . . . . . . . . . . . . . . . . . . . . . . . . . ",
". . . . . . . . . . . . . . . . . . . . . . . . . . . . . . . . . . . . . . . . . . . . . . . . . . . . . . . . . . . . . . . . . . . . . . . . . . . . . . . . . . . . . . . . . . . . . . . . . . . . . . . . . . . . . . . . . . . . X , z +.i * > q e a s f -.`.iXuXuXuXuXgXjXjXjXgXgXuXuXrX[.!.f.>.%.o.P P Y Y Y Y Y Y Y Y ( ( ( ' ' ' ' ~ ` ` 4.8.8.8.0.0.0.0.0.0.0.0.y.y.y.a.a.a.a.a.a.a.y.y.0.0.0.8.8.8.4.4.4.4.4./ ~ ~ ~ R R R Y J J C V Z B M n b v v y y 8 8 7 5 4 4 4 2 < < < < < < < $ $ $ $ $ $ $ $ 6 a % X . . . . . . . . . . . . . . . . . . . . . . . . . . . . . . . . . . . . . . . . . . . . . . . . . . . . . . . . . . . . . . . . . . . . . . . . . . . . . . . . . . . . . . . . . . . . . . . . . . . . . . . . . . . ",
". . . . . . . . . . . . . . . . . . . . . . . . . . . . . . . . . . . . . . . . . . . . . . . . . . . . . . . . . . . . . . . . . . . . . . . . . . . . . . . . . . . . . . . . . . . . . . . . . . . . . . . . . . . . . . . . . . . . . - f +.f - > q e e i f @.,.[.iXiXrXtXtXtXtXrXrXrXrXrX[.`.f.>.*.%.P P J J J J J J Y Y Y ( ( ' ' ' ' ' ' ` ` 4.8.8.8.8.0.0.0.0.y.y.y.y.a.a.a.N.N.a.a.a.a.a.y.y.y.0.0.8.8.8.8.8.8.4.4./ ` ` ~ ' ' R T Y J Z Z Z N N n v v y y 8 8 7 5 4 4 4 2 2 2 < < 2 < < < $ $ < < $ $ $ * g & + . . . . . . . . . . . . . . . . . . . . . . . . . . . . . . . . . . . . . . . . . . . . . . . . . . . . . . . . . . . . . . . . . . . . . . . . . . . . . . . . . . . . . . . . . . . . . . . . . . . . . . . . . . . ",
". . . . . . . . . . . . . . . . . . . . . . . . . . . . . . . . . . . . . . . . . . . . . . . . . . . . . . . . . . . . . . . . . . . . . . . . . . . . . . . . . . . . . . . . . . . . . . . . . . . . . . . . . . . . . . . . . . . . . @ s +...e - e e e a i ..;.`.`.[.wXiX|.wXwX[.[.[.`.`.~.f.>.$.%.P P J J Z J J J Y Y Y Y Y ( ( ' ' ' ' ' ` ` 4.8.8.8.0.0.0.0.y.y.y.y.a.a.a.N.N.N.N.C.C.A.C.N.a.a.y.y.0.0.0.8.0.8.8.8.4.4.4.` ` ` ' R ( Y J J Z B M n m v y y y y 8 7 5 4 4 2 2 2 2 < 2 < < < < $ < < < $ $ * a = + . . . . . . . . . . . . . . . . . . . . . . . . . . . . . . . . . . . . . . . . . . . . . . . . . . . . . . . . . . . . . . . . . . . . . . . . . . . . . . . . . . . . . . . . . . . . . . . . . . . . . . . . . . . ",
". . . . . . . . . . . . . . . . . . . . . . . . . . . . . . . . . . . . . . . . . . . . . . . . . . . . . . . . . . . . . . . . . . . . . . . . . . . . . . . . . . . . . . . . . . . . . . . . . . . . . . . . . . . . . . . . . . . . . X a ..@.e - e e e a e f @.;.,.`.`.`.`.`.`.`.`.~.f.>.>.*.$.o.P P P J K K J J J J Y Y Y Y Y ( ' ' ' ' ' ` ` 8.8.8.8.0.0.0.y.y.y.y.a.a.N.N.A.A.A.A.A.S.S.A.A.C.a.a.y.y.0.0.0.0.0.0.0.8.8.8.8.` ` ` _ R ( Y J Z B M M m m v y y y 8 7 5 4 4 4 2 2 2 2 2 < < < $ $ $ < < $ $ * 9 9 + . . . . . . . . . . . . . . . . . . . . . . . . . . . . . . . . . . . . . . . . . . . . . . . . . . . . . . . . . . . . . . . . . . . . . . . . . . . . . . . . . . . . . . . . . . . . . . . . . . . . . . . . . . . ",
". . . . . . . . . . . . . . . . . . . . . . . . . . . . . . . . . . . . . . . . . . . . . . . . . . . . . . . . . . . . . . . . . . . . . . . . . . . . . . . . . . . . . . . . . . . . . . . . . . . . . . . . . . . . . . . . . . . . . X - h +.r - > e e e e d h +.;.>.:.,.g.f.>.>.>.>.*.*.$.$.X.P A A Z Z K Z J J J J Y Y Y Y Y ( ( ' ' ' ` ` ` 8.8.0.0.0.y.y.y.y.a.a.N.C.A.A.S.S.S.S.S.^.XXXX^.S.A.N.a.a.a.y.y.y.y.y.0.0.8.8.8.` ` ` ` Q ( T Y Z B B M n m v y y y 8 7 5 5 4 4 2 2 2 2 2 < < < < $ $ < < $ $ * 9 a % . . . . . . . . . . . . . . . . . . . . . . . . . . . . . . . . . . . . . . . . . . . . . . . . . . . . . . . . . . . . . . . . . . . . . . . . . . . . . . . . . . . . . . . . . . . . . . . . . . . . . . . . . . . ",
". . . . . . . . . . . . . . . . . . . . . . . . . . . . . . . . . . . . . . . . . . . . . . . . . . . . . . . . . . . . . . . . . . . . . . . . . . . . . . . . . . . . . . . . . . . . . . . . . . . . . . . . . . . . . . . . . . . . . . @ a +.i > - - e e e a d F @.+.+.$.;.$.$.$.$.$.$.$.o.X.X.L A A Z Z Z Z Z J J J Y Y Y Y T ( ' ' ' ` ` ` 4.8.8.r.0.y.y.y.y.a.N.A.A.S.S.S.XXXXXXOXOXOXOXOXOXXXS.A.C.C.N.a.a.a.a.y.q.0.0.8.r.8.` ` ` ' R T Y J B B M n b v y y y 8 7 5 5 4 4 4 2 2 2 2 2 < < < $ $ < < $ $ * = g & X . . . . . . . . . . . . . . . . . . . . . . . . . . . . . . . . . . . . . . . . . . . . . . . . . . . . . . . . . . . . . . . . . . . . . . . . . . . . . . . . . . . . . . . . . . . . . . . . . . . . . . . . . . ",
". . . . . . . . . . . . . . . . . . . . . . . . . . . . . . . . . . . . . . . . . . . . . . . . . . . . . . . . . . . . . . . . . . . . . . . . . . . . . . . . . . . . . . . . . . . . . . . . . . . . . . . . . . . . . . . . . . . . . . X a @.f - * - - e e e a d f F ....o.o.o.o.o.o.o.o.o.P P L A A A Z V V V Z J J Y Y Y Y T R ( ' ` ` ` ` 8.8.0.0.0.y.y.a.N.C.A.S.^.XXXXOXOX$X$X=X=X=X=X=X=X$XOXS.S.A.A.C.N.N.a.y.y.y.0.0.r.8.` ` ` _ R T Y J Z B M n b b y y y 8 7 7 5 5 4 4 2 2 2 2 2 < < < $ $ < < $ $ $ * a ; + . . . . . . . . . . . . . . . . . . . . . . . . . . . . . . . . . . . . . . . . . . . . . . . . . . . . . . . . . . . . . . . . . . . . . . . . . . . . . . . . . . . . . . . . . . . . . . . . . . . . . . . . . . ",
". . . . . . . . . . . . . . . . . . . . . . . . . . . . . . . . . . . . . . . . . . . . . . . . . . . . . . . . . . . . . . . . . . . . . . . . . . . . . . . . . . . . . . . . . . . . . . . . . . . . . . . . . . . . . . . . . . . . . . X - z ..e * - - e e e e a d d f A ....X.X.o.o.o.o.o.X.P L L A A Z Z Z V K J J Y Y Y T ( ( ' ' ` ` ` 8.8.r.0.p.y.y.a.C.A.A.S.XXOXOX$X$X=X-X:X:X:X:X:X:X:X-X$XOXL.S.A.A.C.N.N.y.y.y.0.0.r.8.` ` ` ' ' T T J Z B N M n b v y y t 8 7 5 5 5 4 2 2 2 2 2 2 < < $ $ $ < $ $ $ * 9 9 % . . . . . . . . . . . . . . . . . . . . . . . . . . . . . . . . . . . . . . . . . . . . . . . . . . . . . . . . . . . . . . . . . . . . . . . . . . . . . . . . . . . . . . . . . . . . . . . . . . . . . . . . . . ",
". . . . . . . . . . . . . . . . . . . . . . . . . . . . . . . . . . . . . . . . . . . . . . . . . . . . . . . . . . . . . . . . . . . . . . . . . . . . . . . . . . . . . . . . . . . . . . . . . . . . . . . . . . . . . . . . . . . . . . . & f +.d * e e e 3 e e e a d d f A L X.X.o.o.o.o.o.X.P P L A P P J K Z J J J T T R R R ( ' ' ` ` r.r.r.r.y.y.y.N.C.A.S.^.XXOX$X:X:X:X2X2X2X6X2X2X2X,X,X:X=XOXOXL.S.A.C.N.N.a.y.y.y.0.8.8.8.` ` ' ' T T Y J V B M n b v y y y 8 7 5 5 5 4 4 2 2 2 2 2 2 < < $ $ < < $ $ * 6 a & . . . . . . . . . . . . . . . . . . . . . . . . . . . . . . . . . . . . . . . . . . . . . . . . . . . . . . . . . . . . . . . . . . . . . . . . . . . . . . . . . . . . . . . . . . . . . . . . . . . . . . . . . . ",
". . . . . . . . . . . . . . . . . . . . . . . . . . . . . . . . . . . . . . . . . . . . . . . . . . . . . . . . . . . . . . . . . . . . . . . . . . . . . . . . . . . . . . . . . . . . . . . . . . . . . . . . . . . . . . . . . . . . . . . O e +.h - 3 3 3 3 3 e e e a d i f L ..X.X.X.X.o.o.o.o.o.P P P P P J J J J J T T T R R _ ' ` ` ` r.r.r.y.y.y.N.C.A.^.XXOXOX$X:X2X2X6X6X6X6X6X6X6X6X6X2X:X-X@XOXL.S.A.A.N.N.N.y.y.0.0.0.8.8.` ` ` Q R T Y J V Z N n b b y y y t 7 5 5 5 4 4 4 2 2 2 2 2 < < $ $ < < $ $ $ * d = o . . . . . . . . . . . . . . . . . . . . . . . . . . . . . . . . . . . . . . . . . . . . . . . . . . . . . . . . . . . . . . . . . . . . . . . . . . . . . . . . . . . . . . . . . . . . . . . . . . . . . . . . . ",
"  . . . . . . . . . . . . . . . . . . . . . . . . . . . . . . . . . . . . . . . . . . . . . . . . . . . . . . . . . . . . . . . . . . . . . . . . . . . . . . . . . . . . . . . . . . . . . . . . . . . . . . . . . . . . . . . . . . . . . . X - z ..a - 3 3 3 3 6 e e a a i f A ....X.o.o.o.$.$.$.$.%.o.%.X.P J J J J T T T T R R _ _ ` ` r.r.p.p.y.i.N.C.A.^.XXOX$X$X:X2X2X6X6X6X6X6X6X6X6X6X6X2X:X-X@XOXL.S.A.A.N.N.N.y.y.q.0.0.8.8.` ` ` ' R T Y Y Z Z N M b b y y y t 7 7 5 5 5 4 4 2 2 2 2 2 2 < < $ < < $ $ $ * a 9 + . . . . . . . . . . . . . . . . . . . . . . . . . . . . . . . . . . . . . . . . . . . . . . . . . . . . . . . . . . . . . . . . . . . . . . . . . . . . . . . . . . . . . . . . . . . . . . . . . . . . . . . . . ",
"  . . . . . . . . . . . . . . . . . . . . . . . . . . . . . . . . . . . . . . . . . . . . . . . . . . . . . . . . . . . . . . . . . . . . . . . . . . . . . . . . . . . . . . . . . . . . . . . . . . . . . . . . . . . . . . . . . . . . . . . @ s ..f - - - * - 6 e e e a d f A L ..X.o.+.$.*.>.>.>.>.*.$.%.P P P P ( ( ( Q Q R _ _ ` ` r.r.p.p.i.i.C.C.A.S.^.XXOX$X:X:X2X6X6X6X6X6X6X6X6X6X6X6X,X:X-X@XOXOXS.S.A.N.N.N.y.y.q.r.0.8.8.` ` ` ' R T T Y Z V B M b b y y y t 7 7 5 5 5 4 4 4 2 2 2 2 2 < < $ < < < $ $ * 6 9 % . . . . . . . . . . . . . . . . . . . . . . . . . . . . . . . . . . . . . . . . . . . . . . . . . . . . . . . . . . . . . . . . . . . . . . . . . . . . . . . . . . . . . . . . . . . . . . . . . . . . . . . . . ",
"  . . . . . . . . . . . . . . . . . . . . . . . . . . . . . . . . . . . . . . . . . . . . . . . . . . . . . . . . . . . . . . . . . . . . . . . . . . . . . . . . . . . . . . . . . . . . . . . . . . . . . . . . . . . . . . . . . . . . . . . X > h h > - - - - 6 6 e e a i f A ....o.$.$.>.>.f.f.f.f.f.>.%.%._ _ _ ( ( ( _ _ ` ` ` ` 8.r.r.p.y.y.s.C.A.A.S.^.OX$X-X:X2X2X6X6X6X6X6X6X6X6X6X6X2X,X:X-X@XOXOXS.S.A.N.N.N.N.y.y.r.8.8.8.8.` ` ' Q R T Y J V B M n b b y y t 8 7 7 5 5 5 4 2 4 2 2 2 2 2 < < < < < $ $ * 6 9 & . . . . . . . . . . . . . . . . . . . . . . . . . . . . . . . . . . . . . . . . . . . . . . . . . . . . . . . . . . . . . . . . . . . . . . . . . . . . . . . . . . . . . . . . . . . . . . . . . . . . . . . . . ",
"  . . . . . . . . . . . . . . . . . . . . . . . . . . . . . . . . . . . . . . . . . . . . . . . . . . . . . . . . . . . . . . . . . . . . . . . . . . . . . . . . . . . . . . . . . . . . . . . . . . . . . . . . . . . . . . . . . . . . . . . X @ s h a e - - - 3 e e w i d f ....+.$.>.>.f.~.~.`.`.`.`.f.*.*.%._ _ _ _ ` ` ` ` ` ` 8.r.r.p.p.i.i.N.C.A.S.^.XXOX$X-X:X2X2X6X6X6X6X6X6X6X6X6X6X6X,X:X:X=X$XOX^.S.A.N.N.N.N.y.y.0.8.8.8.8.` ` ` Q R T Y J V V B M n b y y y t 7 7 5 5 5 4 4 2 2 2 2 2 2 < < $ < < $ < * 6 a - . . . . . . . . . . . . . . . . . . . . . . . . . . . . . . . . . . . . . . . . . . . . . . . . . . . . . . . . . . . . . . . . . . . . . . . . . . . . . . . . . . . . . . . . . . . . . . . . . . . . . . . . . ",
"    . . . . . . . . . . . . . . . . . . . . . . . . . . . . . . . . . . . . . . . . . . . . . . . . . . . . . . . . . . . . . . . . . . . . . . . . . . . . . . . . . . . . . . . . . . . . . . . . . . . . . . . . . . . . . . . . . . . . . . . O > s s e - 3 3 3 e e a d d f ..@.$.>.>.f.`.`.[.[.|.|.[.`.f.f.*.&.%.&.&.%.%.` ` ` } r.r.p.p.y.i.i.C.C.A.S.^.XXOX$X-X:X2X2X6X6X6X6X6X6X6X6X6X6X2X,X:X:X=X$XOXXXS.A.C.N.N.N.y.y.y.0.8.8.8.` ` ` Q R U T Y C V B M b b y y y y 8 7 7 5 5 4 4 2 2 2 2 2 2 < < $ < < < $ * 2 9 - X . . . . . . . . . . . . . . . . . . . . . . . . . . . . . . . . . . . . . . . . . . . . . . . . . . . . . . . . . . . . . . . . . . . . . . . . . . . . . . . . . . . . . . . . . . . . . . . . . . . . . . . . ",
"    . . . . . . . . . . . . . . . . . . . . . . . . . . . . . . . . . . . . . . . . . . . . . . . . . . . . . . . . . . . . . . . . . . . . . . . . . . . . . . . . . . . . . . . . . . . . . . . . . . . . . . . . . . . . . . . . . . . . . . . X - e f e > - - 3 e e a i f F ..+.>.>.~.`.[.[.|.rXtXtXrX[.!.f.f.*.&.&.&.&.%.%.` } 8.r.r.p.p.y.i.s.C.A.A.S.^.XXOX$X-X:X2X2X2X6X6X6X6X6X6X6X6X6X2X,X:X:X-X$XOXOXS.A.C.N.N.N.n.y.y.0.8.8.8.` ` ` ' Q R T Y K V B M M n b y y y 8 7 7 5 5 4 4 2 2 2 2 2 2 < < < < < < $ $ * 6 9 O . . . . . . . . . . . . . . . . . . . . . . . . . . . . . . . . . . . . . . . . . . . . . . . . . . . . . . . . . . . . . . . . . . . . . . . . . . . . . . . . . . . . . . . . . . . . . . . . . . . . . . . . ",
"    . . . . . . . . . . . . . . . . . . . . . . . . . . . . . . . . . . . . . . . . . . . . . . . . . . . . . . . . . . . . . . . . . . . . . . . . . . . . . . . . . . . . . . . . . . . . . . . . . . . . . . . . . . . . . . . . . . . . . . . . @ > s s q 3 - 3 e a d f f ..o.<.>.,.`.[.iXrXtXgXgXgXfXrX[.!.f.u.*.&.&.&.%.%.&.&.r.r.r.p.p.y.i.s.C.C.A.S.^.^.OX$X$X:X:X2X2X6X6X6X6X6X6X6X6X6X2X,X,X:X=X$XOXOXS.S.A.C.N.N.n.y.y.r.8.8.8.8.` ` ~ Q R T Y J V V M M n b y y y t 7 7 5 5 5 4 2 2 2 2 2 2 2 < < < < < $ $ * 6 9 % . . . . . . . . . . . . . . . . . . . . . . . . . . . . . . . . . . . . . . . . . . . . . . . . . . . . . . . . . . . . . . . . . . . . . . . . . . . . . . . . . . . . . . . . . . . . . . . . . . . . . . . . ",
"    . . . . . . . . . . . . . . . . . . . . . . . . . . . . . . . . . . . . . . . . . . . . . . . . . . . . . . . . . . . . . . . . . . . . . . . . . . . . . . . . . . . . . . . . . . . . . . . . . . . . . . . . . . . . . . . . . . . . . . . . X > s s e > - q e e d f A ..+.>.>.`.[.iXtXgXzXcXcXcXcXgXrX].~.f.*.&.&.&.&.&.&.&.r.r.r.p.p.i.i.s.N.C.A.A.S.^.XXOX$X-X:X:X2X6X6X6X6X6X6X6X6X6X2X,X:X:X-X$XOXOX^.S.Z.C.N.N.N.y.y.0.0.8.8.4.` ` ~ ~ R R T Y V V B M n b b y y t 7 7 5 5 5 4 4 2 2 2 2 2 2 < < < < < < $ $ * a & . . . . . . . . . . . . . . . . . . . . . . . . . . . . . . . . . . . . . . . . . . . . . . . . . . . . . . . . . . . . . . . . . . . . . . . . . . . . . . . . . . . . . . . . . . . . . . . . . . . . . . . . ",
"      . . . . . . . . . . . . . . . . . . . . . . . . . . . . . . . . . . . . . . . . . . . . . . . . . . . . . . . . . . . . . . . . . . . . . . . . . . . . . . . . . . . . . . . . . . . . . . . . . . . . . . . . . . . . . . . . . . . . . . . X - s s e q 3 q e e d f ....+.>.`.[.iXuXgXzXcXvXnXvXvXcXtX[.!.f.u.p.u.p.&.&.&.&.r.r.r.p.y.y.i.s.N.C.A.A.S.^.^.OXOX$X:X:X2X6X6X6X6X6X6X6X6X6X2X,X:X:X-X@XOXOX^.S.A.A.N.N.N.y.y.0.0.8.8.8.` ` ~ ' R R T Y C V B M n b b y y t 8 7 7 5 5 4 4 2 2 2 2 2 2 2 < < < < < $ * * a - o . . . . . . . . . . . . . . . . . . . . . . . . . . . . . . . . . . . . . . . . . . . . . . . . . . . . . . . . . . . . . . . . . . . . . . . . . . . . . . . . . . . . . . . . . . . . . . . . . . . . . . . ",
"      . . . . . . . . . . . . . . . . . . . . . . . . . . . . . . . . . . . . . . . . . . . . . . . . . . . . . . . . . . . . . . . . . . . . . . . . . . . . . . . . . . . . . . . . . . . . . . . . . . . . . . . . . . . . . . . . . . . . . . . . @ , f r e q e e e d f ....+.>.`.[.rXuXcXcXvXbXMXMXbXvXgX}.].~.u.u.*.p.&.&.&.&.r.r.r.p.p.p.y.s.N.N.C.A.A.^.^.OXOX$X-X:X2X2X6X6X6X6X6X6X6X6X2X2X:X:X:X=XOXOX^.S.A.C.N.N.N.y.y.0.0.0.8.8.| ` / ~ Q R T Y J V B M M n b y y t t 7 7 5 5 4 4 4 4 2 2 2 2 2 < < < < < $ $ * 6 9 + . . . . . . . . . . . . . . . . . . . . . . . . . . . . . . . . . . . . . . . . . . . . . . . . . . . . . . . . . . . . . . . . . . . . . . . . . . . . . . . . . . . . . . . . . . . . . . . . . . . . . . . ",
"      . . . . . . . . . . . . . . . . . . . . . . . . . . . . . . . . . . . . . . . . . . . . . . . . . . . . . . . . . . . . . . . . . . . . . . . . . . . . . . . . . . . . . . . . . . . . . . . . . . . . . . . . . . . . . . . . . . . . . . . . X , f f e e e e e i i F ..+.>.`.|.rXgXcXvXMXMXMXMXMXvXgXrX].!.f.u.*.p.&.&.&.&.r.r.r.p.t.y.y.i.N.C.C.A.A.^.^.XXOX$X$X:X:X2X6X6X6X6X6X6X6X2X2X2X:X:X:X=XOXOX^.S.A.C.C.N.N.y.y.q.0.8.8.8.8.` ` ~ Q R T T J V V M M n b b y y t 7 7 7 5 5 4 4 4 2 2 2 2 2 < < < < < $ $ * 6 a % . . . . . . . . . . . . . . . . . . . . . . . . . . . . . . . . . . . . . . . . . . . . . . . . . . . . . . . . . . . . . . . . . . . . . . . . . . . . . . . . . . . . . . . . . . . . . . . . . . . . . . . ",
"      . . . . . . . . . . . . . . . . . . . . . . . . . . . . . . . . . . . . . . . . . . . . . . . . . . . . . . . . . . . . . . . . . . . . . . . . . . . . . . . . . . . . . . . . . . . . . . . . . . . . . . . . . . . . . . . . . . . . . . . . . @ f f e e e e e a i f ..+.>.`.[.uXzXvXMXZXZXMXMXMXMXcXtX{.!.f.u.u.u.&.&.&.&.&.r.r.r.r.y.y.i.i.N.C.A.A.A.^.^.XXOX$X-X:X:X2X6X6X6X6X6X6X2X2X2X:X:X:X=X$XOXXXS.A.A.C.N.a.a.y.q.0.0.8.8.8.` ` ~ ~ R R T Y V V B M n n b y y y 8 7 7 5 5 4 4 4 2 2 2 2 2 2 < < < < < $ * * a & . . . . . . . . . . . . . . . . . . . . . . . . . . . . . . . . . . . . . . . . . . . . . . . . . . . . . . . . . . . . . . . . . . . . . . . . . . . . . . . . . . . . . . . . . . . . . . . . . . . . . . . ",
"        . . . . . . . . . . . . . . . . . . . . . . . . . . . . . . . . . . . . . . . . . . . . . . . . . . . . . . . . . . . . . . . . . . . . . . . . . . . . . . . . . . . . . . . . . . . . . . . . . . . . . . . . . . . . . . . . . . . . . . . . @ s f r e e e e a d f ..+.>.`.[.uXcXvXMXZXZXZXMXMXMXcXgX|.].~.u.u.*.&.&.&.&.&.r.r.r.p.y.y.y.i.N.C.C.A.A.S.^.^.OXOX$X:X:X2X6X6X6X6X2X2X2X,X:X:X:X:X=X$XOXXXS.S.A.N.N.a.y.y.q.0.0.8.8.8.` ` / ~ Q R T Y C V B M M b b y y y t 7 7 7 5 5 4 4 4 2 2 2 2 2 < < < < < $ * $ a = o . . . . . . . . . . . . . . . . . . . . . . . . . . . . . . . . . . . . . . . . . . . . . . . . . . . . . . . . . . . . . . . . . . . . . . . . . . . . . . . . . . . . . . . . . . . . . . . . . . . . . . ",
"        . . . . . . . . . . . . . . . . . . . . . . . . . . . . . . . . . . . . . . . . . . . . . . . . . . . . . . . . . . . . . . . . . . . . . . . . . . . . . . . . . . . . . . . . . . . . . . . . . . . . . . . . . . . . . . . . . . . . . . . . X a f i e e e e a d f ..+.>.`.[.uXcXvXNXZXZXZXZXNXNXvXgXrX].~.f.u.*.&.&.&.&.&.r.r.r.p.t.y.y.i.N.N.C.A.A.S.^.^.OXOX$X-X:X:X2X2X2X2X2X2X2X,X:X:X:X-X=X$XOXXXS.S.A.N.N.N.y.y.q.0.0.8.8.8.| ` / ~ Q R T Y J V V M M b b b y y t 8 7 7 5 5 4 4 4 2 2 2 2 2 2 < < < < $ $ $ 6 6 O . . . . . . . . . . . . . . . . . . . . . . . . . . . . . . . . . . . . . . . . . . . . . . . . . . . . . . . . . . . . . . . . . . . . . . . . . . . . . . . . . . . . . . . . . . . . . . . . . . . . . . ",
"        . . . . . . . . . . . . . . . . . . . . . . . . . . . . . . . . . . . . . . . . . . . . . . . . . . . . . . . . . . . . . . . . . . . . . . . . . . . . . . . . . . . . . . . . . . . . . . . . . . . . . . . . . . . . . . . . . . . . . . . . X - h f e e e e e i f ..+.>.g.[.rXcXBXMXNXZXZXZXZXNXMXcXtX].!.f.u.u.&.&.&.&.&.r.r.r.p.p.p.y.y.i.N.C.C.A.A.S.^.^.OX$X=X:X:X2X2X2X2X2X2X2X,X:X:X:X:X=X$XOXXX^.A.A.N.a.a.y.y.q.0.0.8.8.8.| ` / ~ ~ R U T J C V B M M b b y y y 8 7 7 5 5 4 4 4 2 2 2 2 2 2 2 < < 2 $ $ * 2 a # . . . . . . . . . . . . . . . . . . . . . . . . . . . . . . . . . . . . . . . . . . . . . . . . . . . . . . . . . . . . . . . . . . . . . . . . . . . . . . . . . . . . . . . . . . . . . . . . . . . . . . ",
"        . . . . . . . . . . . . . . . . . . . . . . . . . . . . . . . . . . . . . . . . . . . . . . . . . . . . . . . . . . . . . . . . . . . . . . . . . . . . . . . . . . . . . . . . . . . . . . . . . . . . . . . . . . . . . . . . . . . . . . . . . & f f e e e e e i f ..o.;.>.`.rXgXvXMXNXZXZXZXZXNXMXvXfX{.!.f.u.*.*.&.&.&.&.r.r.r.r.p.p.y.y.i.N.N.C.A.A.S.^.^.OXOX$X-X:X2X2X2X2X2X2X2X:X:X:X:X:X-X$XOXXXS.A.A.N.a.y.y.y.y.0.0.8.8.8.| ` / ~ ~ R R T Y C V Z M M b b y y y 8 7 7 5 5 4 4 4 4 2 2 2 2 2 < < 2 2 2 * * * a & . . . . . . . . . . . . . . . . . . . . . . . . . . . . . . . . . . . . . . . . . . . . . . . . . . . . . . . . . . . . . . . . . . . . . . . . . . . . . . . . . . . . . . . . . . . . . . . . . . . . . . ",
"          . . . . . . . . . . . . . . . . . . . . . . . . . . . . . . . . . . . . . . . . . . . . . . . . . . . . . . . . . . . . . . . . . . . . . . . . . . . . . . . . . . . . . . . . . . . . . . . . . . . . . . . . . . . . . . . . . . . . . . . . @ s f i e e e a i f ..@.$.>.`.iXuXvXnXMXZXZXZXZXNXZXvXgX}.].~.u.u.*.&.&.&.&.r.r.r.r.p.p.y.y.i.n.N.C.A.A.^.^.^.^.OX$X=X:X:X2X2X2X2X:X:X:X:X:X:X:X=X$XOXXXS.S.A.N.a.y.y.y.y.0.0.8.8.8.| | ` / ~ Q R T Y J V B M M b b b y y t 7 7 7 5 5 4 4 4 2 2 2 2 2 < < 2 < 2 * * * a * o . . . . . . . . . . . . . . . . . . . . . . . . . . . . . . . . . . . . . . . . . . . . . . . . . . . . . . . . . . . . . . . . . . . . . . . . . . . . . . . . . . . . . . . . . . . . . . . . . . . . . ",
"          . . . . . . . . . . . . . . . . . . . . . . . . . . . . . . . . . . . . . . . . . . . . . . . . . . . . . . . . . . . . . . . . . . . . . . . . . . . . . . . . . . . . . . . . . . . . . . . . . . . . . . . . . . . . . . . . . . . . . . . . X a f f e e e a i f f ..+.>.`.wXuXcXvXMXNXZXZXZXZXZXnXgXrX].~.f.u.*.&.&.&.&.r.r.r.r.p.y.y.y.y.i.N.C.C.A.A.S.^.^.OXOX$X-X:X2X2X2X2X2X:X:X:X:X:X=X=X$XOXXXS.S.A.N.a.y.y.y.y.0.0.9.8.8.8.| ` / ~ Q R T T J V V B M M b b y y t 8 7 7 5 5 4 4 4 2 2 2 2 2 2 < 2 2 2 * * * 6 6 O . . . . . . . . . . . . . . . . . . . . . . . . . . . . . . . . . . . . . . . . . . . . . . . . . . . . . . . . . . . . . . . . . . . . . . . . . . . . . . . . . . . . . . . . . . . . . . . . . . . . . ",
"          . . . . . . . . . . . . . . . . . . . . . . . . . . . . . . . . . . . . . . . . . . . . . . . . . . . . . . . . . . . . . . . . . . . . . . . . . . . . . . . . . . . . . . . . . . . . . . . . . . . . . . . . . . . . . . . . . . . . . . . . X - h f i e a a i i f ..+.>.g.[.uXcXBXMXNXZXZXZXZXZXMXcXtX[.!.f.u.u.&.&.&.&.&.r.r.r.r.y.y.y.y.i.N.C.C.A.A.A.^.^.OXOX$X=X:X:X2X2X2X:X:X:X:X:X:X=X=X$XOXXXS.S.A.N.N.y.y.y.y.y.0.0.8.8.8.| ` / ~ Q Q T T J C V B M M b b y y y 7 7 7 7 5 5 4 4 4 4 2 2 2 2 2 2 2 2 * $ * 3 a # . . . . . . . . . . . . . . . . . . . . . . . . . . . . . . . . . . . . . . . . . . . . . . . . . . . . . . . . . . . . . . . . . . . . . . . . . . . . . . . . . . . . . . . . . . . . . . . . . . . . . ",
"          . . . . . . . . . . . . . . . . . . . . . . . . . . . . . . . . . . . . . . . . . . . . . . . . . . . . . . . . . . . . . . . . . . . . . . . . . . . . . . . . . . . . . . . . . . . . . . . . . . . . . . . . . . . . . . . . . . . . . . . . . & f f s e a e i i f ..@.;.,.`.rXjXBXmXMXZXZXZXZXZXMXvXhX|.!.f.u.u.&.&.&.&.&.r.r.r.r.y.y.y.y.i.N.C.C.A.A.A.^.^.^.OXOX$X-X:X:X:X:X:X:X:X:X:X:X-X=X$XOXOX^.S.A.C.N.a.y.y.y.y.9.0.8.8.8.| / / ~ ~ Q R T Y C V B M M b b y y y 8 7 7 7 5 5 4 4 4 4 2 2 2 2 2 < 2 2 $ $ * * a & . . . . . . . . . . . . . . . . . . . . . . . . . . . . . . . . . . . . . . . . . . . . . . . . . . . . . . . . . . . . . . . . . . . . . . . . . . . . . . . . . . . . . . . . . . . . . . . . . . . . . ",
"            . . . . . . . . . . . . . . . . . . . . . . . . . . . . . . . . . . . . . . . . . . . . . . . . . . . . . . . . . . . . . . . . . . . . . . . . . . . . . . . . . . . . . . . . . . . . . . . . . . . . . . . . . . . . . . . . . . . . . . . . @ a f f e e e e i f ..@.$.>.`.iXgXvXmXMXNXZXZXZXZXZXvXgX}.].~.u.u.&.&.&.&.&.r.8.r.r.r.y.y.y.i.m.C.C.C.A.A.A.^.^.XXOX$X$X:X:X:X:X:X:X:X:X:X:X-X$X$XOXOX^.S.A.A.N.y.y.y.y.y.0.9.9.8.8.| / / ~ ~ Q R T T K V B M M b b b y y t 7 7 7 5 5 4 4 4 4 2 2 2 2 2 2 2 2 2 * * * a & o . . . . . . . . . . . . . . . . . . . . . . . . . . . . . . . . . . . . . . . . . . . . . . . . . . . . . . . . . . . . . . . . . . . . . . . . . . . . . . . . . . . . . . . . . . . . . . . . . . . . ",
"            . . . . . . . . . . . . . . . . . . . . . . . . . . . . . . . . . . . . . . . . . . . . . . . . . . . . . . . . . . . . . . . . . . . . . . . . . . . . . . . . . . . . . . . . . . . . . . . . . . . . . . . . . . . . . . . . . . . . . . . . X a f f i e e e i f f ..+.>.`.[.uXcXvXMXMXZXZXZXZXZXbXzXrX].~.u.u.&.&.&.&.&.8.8.r.r.r.y.y.y.i.i.N.C.C.A.A.A.^.^.^.OX$X$X:X:X:X:X:X:X:X:X:X:X-X$X$XOXOX^.S.A.A.N.y.y.y.y.y.0.9.9.8.8.| ` / ~ ~ Q R T T J V V B M M b b y y t 8 7 7 7 5 4 4 4 4 2 2 2 2 2 2 2 2 2 * * * 6 6 O . . . . . . . . . . . . . . . . . . . . . . . . . . . . . . . . . . . . . . . . . . . . . . . . . . . . . . . . . . . . . . . . . . . . . . . . . . . . . . . . . . . . . . . . . . . . . . . . . . . . ",
"            . . . . . . . . . . . . . . . . . . . . . . . . . . . . . . . . . . . . . . . . . . . . . . . . . . . . . . . . . . . . . . . . . . . . . . . . . . . . . . . . . . . . . . . . . . . . . . . . . . . . . . . . . . . . . . . . . . . . . . . . . - h f r w e e i s f ..+.>.g.`.tXcXBXMXMXZXZXZXZXZXMXcXfX{.!.u.p.&.&.&.&.r.8.8.8.8.r.y.y.y.y.i.N.C.C.A.A.A.S.^.^.OXOX$X*X:X:X:X:X:X:X:X:X-X-X=X$XOXOXS.S.A.C.N.n.y.y.y.y.q.9.9.8.8.8./ / / / ~ R T Y J C V B M M b b y y y 8 7 7 7 5 5 4 4 4 4 2 2 2 2 2 2 2 2 $ * * 3 a # . . . . . . . . . . . . . . . . . . . . . . . . . . . . . . . . . . . . . . . . . . . . . . . . . . . . . . . . . . . . . . . . . . . . . . . . . . . . . . . . . . . . . . . . . . . . . . . . . . . . ",
"            . . . . . . . . . . . . . . . . . . . . . . . . . . . . . . . . . . . . . . . . . . . . . . . . . . . . . . . . . . . . . . . . . . . . . . . . . . . . . . . . . . . . . . . . . . . . . . . . . . . . . . . . . . . . . . . . . . . . . . . . . & f f s e e e i s f ..+.<.>.`.iXgXvXnXMXZXZXZXZXZXCXvXfX|.!.f.p.&.&.&.&.&.8.8.8.8.r.y.y.y.y.y.N.N.C.A.A.A.S.^.^.OXOX$X$X-X:X:X:X:X:X:X-X-X-X=X$XOXOX^.S.A.C.N.N.y.y.y.y.q.9.9.8.8.| / ` / / ~ R U T Y C V Z M M b b y y y t 7 7 7 5 5 4 4 4 4 2 2 2 2 2 < 2 2 $ * * * a & . . . . . . . . . . . . . . . . . . . . . . . . . . . . . . . . . . . . . . . . . . . . . . . . . . . . . . . . . . . . . . . . . . . . . . . . . . . . . . . . . . . . . . . . . . . . . . . . . . . . ",
"              . . . . . . . . . . . . . . . . . . . . . . . . . . . . . . . . . . . . . . . . . . . . . . . . . . . . . . . . . . . . . . . . . . . . . . . . . . . . . . . . . . . . . . . . . . . . . . . . . . . . . . . . . . . . . . . . . . . . . . . . @ s f s e e e i i f ..@.+.>.`.wXgXvXvXMXZXZXZXZXZXZXvXgX}./.f.p.&.&.&.&.&.&.r.8.8.r.y.y.y.y.y.a.N.C.C.A.A.A.S.^.(.OXOX$X-X:X:X:X:X-X-X-X-X-X=X$XOXOX^.S.A.A.N.N.y.y.y.y.q.9.8.8.8.| | / / / ~ Q R T Y J V B M M b b b y y t 8 7 7 7 5 4 4 4 4 2 2 2 2 2 < 2 2 $ * * * a = o . . . . . . . . . . . . . . . . . . . . . . . . . . . . . . . . . . . . . . . . . . . . . . . . . . . . . . . . . . . . . . . . . . . . . . . . . . . . . . . . . . . . . . . . . . . . . . . . . . . ",
"              . . . . . . . . . . . . . . . . . . . . . . . . . . . . . . . . . . . . . . . . . . . . . . . . . . . . . . . . . . . . . . . . . . . . . . . . . . . . . . . . . . . . . . . . . . . . . . . . . . . . . . . . . . . . . . . . . . . . . . . . O a f f e e e i i f A ..+.>.~.[.uXcXvXMXCXZXZXZXZXZXbXgXrX].~.u.&.&.&.&.&.&.r.r.r.r.y.y.y.y.y.n.N.C.C.A.S.A.S.^.^.OXOX$X$X-X:X:X:X-X-X-X-X-X=X$XOXOX(.S.S.A.N.N.y.y.y.y.q.9.9.8.8.| / / / / ~ Q R T T J V V B M M b b y y t 8 7 7 7 5 4 4 4 4 2 2 2 2 2 < 2 2 $ * * * 6 6 O . . . . . . . . . . . . . . . . . . . . . . . . . . . . . . . . . . . . . . . . . . . . . . . . . . . . . . . . . . . . . . . . . . . . . . . . . . . . . . . . . . . . . . . . . . . . . . . . . . . ",
"              . . . . . . . . . . . . . . . . . . . . . . . . . . . . . . . . . . . . . . . . . . . . . . . . . . . . . . . . . . . . . . . . . . . . . . . . . . . . . . . . . . . . . . . . . . . . . . . . . . . . . . . . . . . . . . . . . . . . . . . . X - f f r w w w i i f ..+.<.,.`.rXgXvXbXCXCXZXZXZXZXCXxXfX].!.u.&.&.&.} &.&.r.r.p.t.y.y.y.y.y.n.N.C.C.A.A.A.S.^.^.OXOXOX$X-X:X-X-X-X-X-X-X-X-X$XOXOXOX^.S.Z.N.N.y.y.y.y.y.9.9.8.8.8.| / / / ~ ~ R T T J C V B M M b b y y y t 7 7 7 7 5 4 4 4 4 2 2 2 2 2 < 2 2 $ * * 3 a # . . . . . . . . . . . . . . . . . . . . . . . . . . . . . . . . . . . . . . . . . . . . . . . . . . . . . . . . . . . . . . . . . . . . . . . . . . . . . . . . . . . . . . . . . . . . . . . . . . . ",
"              . . . . . . . . . . . . . . . . . . . . . . . . . . . . . . . . . . . . . . . . . . . . . . . . . . . . . . . . . . . . . . . . . . . . . . . . . . . . . . . . . . . . . . . . . . . . . . . . . . . . . . . . . . . . . . . . . . . . . . . . . & f f r w w w w i f ..o.$.>.`.rXgXvXnXCXCXZXZXZXZXCXvXfX|.!.u.&.&.&.} } &.r.r.p.t.y.y.y.y.y.n.N.C.C.C.A.A.S.^.^.(.OXOX$X*X-X-X-X-X-X-X-X-X-X$XOXOXOX^.S.Z.C.N.n.y.y.y.y.0.9.8.8.8.8./ / / / ~ R U T Y C V Z M M N b b y y t 8 7 7 7 5 4 4 4 4 2 2 2 2 2 < 2 2 $ * * * a & . . . . . . . . . . . . . . . . . . . . . . . . . . . . . . . . . . . . . . . . . . . . . . . . . . . . . . . . . . . . . . . . . . . . . . . . . . . . . . . . . . . . . . . . . . . . . . . . . . . ",
"                . . . . . . . . . . . . . . . . . . . . . . . . . . . . . . . . . . . . . . . . . . . . . . . . . . . . . . . . . . . . . . . . . . . . . . . . . . . . . . . . . . . . . . . . . . . . . . . . . . . . . . . . . . . . . . . . . . . . . . . . @ s f i w w w w i f L X.+.>.~.[.tXcXvXMXZXZXZXZXZXCXvXgX}./.f.p.&.&.} } } r.r.p.t.y.y.y.y.y.n.N.N.C.C.A.S.S.S.^.^.OXOXOX$X-X-X-X-X-X-X-X-X-X$XOXOXOX^.S.S.C.N.N.y.y.y.y.y.9.9.8.8.8.| ` / / ~ Q R T Y J C Z B M M b b y y y t 8 7 7 5 4 4 4 4 2 2 2 2 < < < < $ * * * a = o . . . . . . . . . . . . . . . . . . . . . . . . . . . . . . . . . . . . . . . . . . . . . . . . . . . . . . . . . . . . . . . . . . . . . . . . . . . . . . . . . . . . . . . . . . . . . . . . . . ",
"                . . . . . . . . . . . . . . . . . . . . . . . . . . . . . . . . . . . . . . . . . . . . . . . . . . . . . . . . . . . . . . . . . . . . . . . . . . . . . . . . . . . . . . . . . . . . . . . . . . . . . . . . . . . . . . . . . . . . . . . . X e f s w w w w i i k ..o.$.,.`.tXzXvXbXZXZXZXZXZXCXbXgX}.].~.u.&.} } } } &.r.r.t.t.y.y.y.y.n.N.N.C.C.A.S.S.S.^.^.OXOXOX$X-X-X-X-X-X-X-X-X-X=X$XOXOX(.S.Z.A.N.N.n.n.n.y.y.0.8.8.8.8.| ` / / ~ Q R T T J Z Z B M M b b b y y t 8 7 7 5 4 4 4 4 2 2 2 2 2 < 2 < < * * * 6 6 O . . . . . . . . . . . . . . . . . . . . . . . . . . . . . . . . . . . . . . . . . . . . . . . . . . . . . . . . . . . . . . . . . . . . . . . . . . . . . . . . . . . . . . . . . . . . . . . . . . ",
"                . . . . . . . . . . . . . . . . . . . . . . . . . . . . . . . . . . . . . . . . . . . . . . . . . . . . . . . . . . . . . . . . . . . . . . . . . . . . . . . . . . . . . . . . . . . . . . . . . . . . . . . . . . . . . . . . . . . . . . . . X - f s r w w w i i f L o.$.>.`.rXgXvXnXCXZXZXZXZXCXCXxXfX].!.u.&.&.} } } } r.r.t.t.y.y.y.y.y.N.N.C.C.C.A.A.S.^.^.(.OXOX$X-X-X-X-X-X-X-X-X-X=X$XOXOXOX^.S.Z.C.N.n.n.n.y.y.9.9.8.8.8.| ` / / ~ ~ R T T J Z V Z M N b b b y y t 8 7 7 7 5 4 4 4 4 2 2 2 2 2 < < < $ $ * 2 a % . . . . . . . . . . . . . . . . . . . . . . . . . . . . . . . . . . . . . . . . . . . . . . . . . . . . . . . . . . . . . . . . . . . . . . . . . . . . . . . . . . . . . . . . . . . . . . . . . . ",
"                . . . . . . . . . . . . . . . . . . . . . . . . . . . . . . . . . . . . . . . . . . . . . . . . . . . . . . . . . . . . . . . . . . . . . . . . . . . . . . . . . . . . . . . . . . . . . . . . . . . . . . . . . . . . . . . . . . . . . . . . . @ f f r w w w r i f L ..+.>.~.|.gXcXnXMXZXZXZXZXZXCXxXfX{./.u.&.&.} } } } r.r.r.t.y.y.y.y.n.N.N.C.C.C.A.S.S.^.^.(.OXOX$X-X-X-X-X-X-X-X-X-X=X$X$XOXOX^.S.Z.Z.N.n.n.n.y.y.0.0.8.8.8.| / ` / / ~ R R T Y J V Z B N M b b y y y t 7 7 7 5 5 4 4 2 2 2 2 2 2 < < < $ $ * * a & . . . . . . . . . . . . . . . . . . . . . . . . . . . . . . . . . . . . . . . . . . . . . . . . . . . . . . . . . . . . . . . . . . . . . . . . . . . . . . . . . . . . . . . . . . . . . . . . . . ",
"                  . . . . . . . . . . . . . . . . . . . . . . . . . . . . . . . . . . . . . . . . . . . . . . . . . . . . . . . . . . . . . . . . . . . . . . . . . . . . . . . . . . . . . . . . . . . . . . . . . . . . . . . . . . . . . . . . . . . . . . . . @ s f i r w w r i f k ..o.>.~.[.tXzXvXMXZXZXZXZXZXZXnXfX}./.i.p.&.} | } } r.r.r.t.t.y.y.y.y.n.N.C.C.C.A.A.S.^.^.^.OXOX$X*X-X-X-X-X-X-X-X-X-X=X$XOXOX(.S.Z.Z.N.n.y.n.y.y.q.9.9.8.8.6./ ` / / ~ Q R T Y J C Z B N M b b b y y t 8 7 7 5 5 4 4 4 2 2 2 2 2 < 2 < < * * * a - o . . . . . . . . . . . . . . . . . . . . . . . . . . . . . . . . . . . . . . . . . . . . . . . . . . . . . . . . . . . . . . . . . . . . . . . . . . . . . . . . . . . . . . . . . . . . . . . . . ",
"                  . . . . . . . . . . . . . . . . . . . . . . . . . . . . . . . . . . . . . . . . . . . . . . . . . . . . . . . . . . . . . . . . . . . . . . . . . . . . . . . . . . . . . . . . . . . . . . . . . . . . . . . . . . . . . . . . . . . . . . . . O , k f r w w i i f f ..o.$.>.`.rXgXvXnXMXZXZXZXZXZXnXzX}.].~.u.&.} | | } &.r.r.r.t.y.y.y.y.n.N.C.C.C.A.A.S.^.^.^.OXOXOX$X-X-X-X-X-X-X-X-X-X=X$XOXOX(.S.S.Z.N.N.y.y.y.y.q.9.9.8.8.6.] / / / / Q R T T J Z V B M M b b b y y t 8 7 7 5 4 4 4 4 2 2 2 2 2 < 2 < < * * * 6 6 O . . . . . . . . . . . . . . . . . . . . . . . . . . . . . . . . . . . . . . . . . . . . . . . . . . . . . . . . . . . . . . . . . . . . . . . . . . . . . . . . . . . . . . . . . . . . . . . . . ",
"                  . . . . . . . . . . . . . . . . . . . . . . . . . . . . . . . . . . . . . . . . . . . . . . . . . . . . . . . . . . . . . . . . . . . . . . . . . . . . . . . . . . . . . . . . . . . . . . . . . . . . . . . . . . . . . . . . . . . . . . . . X - k f r w w r i i f L ..$.>.`.rXgXvXnXCXZXZXZXZXZXCXxX1X].~.u.&.} | } } &.r.r.r.t.y.y.y.y.n.N.N.C.C.A.A.S.S.^.^.OXOXOX$X-X-X-X-X-X-X-X-X-X-X$XOXOX(.^.S.Z.C.N.y.y.y.y.q.9.9.8.8.8.] / / / / Q ! T T Y C V B M M b b b y y t 8 7 7 7 5 4 4 4 4 2 2 2 2 2 < 2 2 $ * * * a & . . . . . . . . . . . . . . . . . . . . . . . . . . . . . . . . . . . . . . . . . . . . . . . . . . . . . . . . . . . . . . . . . . . . . . . . . . . . . . . . . . . . . . . . . . . . . . . . . ",
"                  . . . . . . . . . . . . . . . . . . . . . . . . . . . . . . . . . . . . . . . . . . . . . . . . . . . . . . . . . . . . . . . . . . . . . . . . . . . . . . . . . . . . . . . . . . . . . . . . . . . . . . . . . . . . . . . . . . . . . . . . . @ f k r r w r i i f L ..+.>.~.[.tXcXvXMXZXZXZXZXZXCXxXfX{./.u.&.} | | } } r.r.r.t.y.y.y.y.n.N.N.C.C.A.A.S.S.^.^.OXOXOX$X-X-X-X-X-X-X-X-X-X-X$X$XOX(.^.S.A.C.N.n.y.y.y.y.9.9.8.8.| | / / / / ~ Q R T Y C V B B M M b b y y y t 7 7 7 5 4 4 4 4 2 2 2 2 2 < 2 2 < * * * a = . . . . . . . . . . . . . . . . . . . . . . . . . . . . . . . . . . . . . . . . . . . . . . . . . . . . . . . . . . . . . . . . . . . . . . . . . . . . . . . . . . . . . . . . . . . . . . . . . ",
"                    . . . . . . . . . . . . . . . . . . . . . . . . . . . . . . . . . . . . . . . . . . . . . . . . . . . . . . . . . . . . . . . . . . . . . . . . . . . . . . . . . . . . . . . . . . . . . . . . . . . . . . . . . . . . . . . . . . . . . . . . @ s k f r w r i i f k ..o.<.f.[.tXzXvXbXZXZXZXZXZXCXnXfX}./.i.r.&.} } } } &.r.p.t.t.y.y.y.n.n.N.C.C.C.A.A.S.^.^.(.OXOX$X*X-X-X-X-X-X-X-X-X-X*X$XOXOX^.S.Z.C.N.n.y.y.y.y.9.9.9.8.| | / / / / ~ Q R T T K C V B M M b b b y y t 8 7 7 5 4 4 4 4 4 2 2 2 2 < 2 2 < * * * e 9 X . . . . . . . . . . . . . . . . . . . . . . . . . . . . . . . . . . . . . . . . . . . . . . . . . . . . . . . . . . . . . . . . . . . . . . . . . . . . . . . . . . . . . . . . . . . . . . . . ",
"                    . . . . . . . . . . . . . . . . . . . . . . . . . . . . . . . . . . . . . . . . . . . . . . . . . . . . . . . . . . . . . . . . . . . . . . . . . . . . . . . . . . . . . . . . . . . . . . . . . . . . . . . . . . . . . . . . . . . . . . . . X , k k r r w i i f f ..X.$.>.`.rXgXvXnXCXZXZXZXZXCXCXzX}.].~.u.&.} } } } &.r.r.r.t.y.y.y.y.n.N.C.C.C.A.A.S.^.^.(.OXOXOX*X-X-X-X-X-X-X-X-X-X*X$XOXOX(.^.Z.Z.N.n.y.y.y.y.q.9.9.8.8.| | / ^ / ~ Q R T T J C V B M M b b b y y t 8 7 7 5 4 4 4 4 4 2 2 2 2 < 2 2 < $ * * 6 6 % . . . . . . . . . . . . . . . . . . . . . . . . . . . . . . . . . . . . . . . . . . . . . . . . . . . . . . . . . . . . . . . . . . . . . . . . . . . . . . . . . . . . . . . . . . . . . . . . ",
"                    . . . . . . . . . . . . . . . . . . . . . . . . . . . . . . . . . . . . . . . . . . . . . . . . . . . . . . . . . . . . . . . . . . . . . . . . . . . . . . . . . . . . . . . . . . . . . . . . . . . . . . . . . . . . . . . . . . . . . . . . X - k k r r w r i f f L ..+.>.`.|.gXxXnXCXZXCXZXZXCXCXxXfX].!.u.&.} } } } } r.r.r.t.y.y.y.y.n.N.C.C.C.C.S.S.^.^.(.OXOX$X*X-X-X-X-X-X-X-X-X-X-X$XOXOX(.^.S.Z.C.N.y.y.y.y.q.9.8.8.8.| | / / / ~ Q W R E Y C C B M M n b b y y t 8 7 7 7 5 4 4 4 4 2 2 2 2 2 < 2 < $ $ * * a & . . . . . . . . . . . . . . . . . . . . . . . . . . . . . . . . . . . . . . . . . . . . . . . . . . . . . . . . . . . . . . . . . . . . . . . . . . . . . . . . . . . . . . . . . . . . . . . . ",
"                    . . . . . . . . . . . . . . . . . . . . . . . . . . . . . . . . . . . . . . . . . . . . . . . . . . . . . . . . . . . . . . . . . . . . . . . . . . . . . . . . . . . . . . . . . . . . . . . . . . . . . . . . . . . . . . . . . . . . . . . . . @ f k i r w r i i f L ..o.>.~.[.tXzXnXCXCXCXCXZXZXCXxXfX{.!.u.r.} } } } } r.r.t.t.t.y.y.y.n.m.N.C.C.C.S.^.^.^.(.(.OXOX$X*X-X-X-X-X-X-X-X-X-X*X$XOX(.^.S.Z.C.N.n.y.y.y.q.9.9.8.8.| | / / / ~ ~ W R U Y C C V B M n n b y y y t 8 7 7 5 4 4 4 4 4 4 2 2 2 < 2 < $ $ * * a - . . . . . . . . . . . . . . . . . . . . . . . . . . . . . . . . . . . . . . . . . . . . . . . . . . . . . . . . . . . . . . . . . . . . . . . . . . . . . . . . . . . . . . . . . . . . . . . . ",
"                      . . . . . . . . . . . . . . . . . . . . . . . . . . . . . . . . . . . . . . . . . . . . . . . . . . . . . . . . . . . . . . . . . . . . . . . . . . . . . . . . . . . . . . . . . . . . . . . . . . . . . . . . . . . . . . . . . . . . . . . . @ r k f r r r i i f L L X.$.>.`.tXgXvXbXCXZXCXCXZXCXvXfX}./.i.p.&.} } } } &.r.t.t.t.y.y.y.n.N.N.C.C.C.S.S.^.^.(.(.OXOX$X*X-X-X-X-X-X-X-X-X-X*X$XOX(.(.S.Z.C.N.n.y.y.y.y.9.9.8.8.| ] ` / / ~ ~ W R U E J C V B M M n b b y y t 8 7 7 5 4 4 4 4 4 4 2 2 2 < 2 < $ $ * * a 6 X . . . . . . . . . . . . . . . . . . . . . . . . . . . . . . . . . . . . . . . . . . . . . . . . . . . . . . . . . . . . . . . . . . . . . . . . . . . . . . . . . . . . . . . . . . . . . . . ",
"                      . . . . . . . . . . . . . . . . . . . . . . . . . . . . . . . . . . . . . . . . . . . . . . . . . . . . . . . . . . . . . . . . . . . . . . . . . . . . . . . . . . . . . . . . . . . . . . . . . . . . . . . . . . . . . . . . . . . . . . . . X , k k i i i i i f A L ..+.>.`.}.gXxXnXCXCXCXCXZXCXnXgX}.].~.p.&.} } } } } r.r.r.t.y.y.y.i.i.m.C.C.C.A.S.^.^.^.(.(.OX$X*X-X-X-X-X-X-X-X-X-X*X$XOXOX(.^.Z.Z.N.n.y.y.y.y.9.9.9.8.| | ` / ^ ~ ~ Q R U E J C C B M M n n b y y t t 7 7 5 5 4 4 4 4 4 2 2 2 < 2 < $ $ * * 6 a % . . . . . . . . . . . . . . . . . . . . . . . . . . . . . . . . . . . . . . . . . . . . . . . . . . . . . . . . . . . . . . . . . . . . . . . . . . . . . . . . . . . . . . . . . . . . . . . ",
"                      . . . . . . . . . . . . . . . . . . . . . . . . . . . . . . . . . . . . . . . . . . . . . . . . . . . . . . . . . . . . . . . . . . . . . . . . . . . . . . . . . . . . . . . . . . . . . . . . . . . . . . . . . . . . . . . . . . . . . . . . X - k L i r i p i p f L L o.>.~.[.fXzXvXbXCXCXCXCXZXCXxXfX].!.u.r.} } } } } &.r.t.t.t.y.y.y.n.N.N.C.C.C.S.^.^.^.(.(.OX$X*X*X-X-X-X-X-X-X-X-X-X$XOXOX(.^.S.Z.N.n.y.y.y.y.9.9.9.8.8.| ] ` / ^ ~ Q ! U T Y C V B M M n n b y y y 8 7 7 7 5 4 4 4 4 4 2 2 2 2 < 2 $ $ $ * = a & . . . . . . . . . . . . . . . . . . . . . . . . . . . . . . . . . . . . . . . . . . . . . . . . . . . . . . . . . . . . . . . . . . . . . . . . . . . . . . . . . . . . . . . . . . . . . . . ",
"                      . . . . . . . . . . . . . . . . . . . . . . . . . . . . . . . . . . . . . . . . . . . . . . . . . . . . . . . . . . . . . . . . . . . . . . . . . . . . . . . . . . . . . . . . . . . . . . . . . . . . . . . . . . . . . . . . . . . . . . . . . @ f ..i r r p i p p L L o.*.f.].tXgXvXbXCXCXCXCXZXCXvXfX{.!.i.r.} } } } } } r.r.t.t.y.y.y.i.N.N.C.C.C.S.^.^.^.(.(.OX$X*X*X-X-X-X-X-X-X-X-X-X*X$XOX(.^.S.Z.C.N.y.y.y.y.y.9.9.8.8.| | ` ^ ^ ~ ~ Q R T Y C V B B M M n b b y y t 8 7 7 5 5 4 4 4 4 4 2 2 2 < 2 $ $ * * # h ; . . . . . . . . . . . . . . . . . . . . . . . . . . . . . . . . . . . . . . . . . . . . . . . . . . . . . . . . . . . . . . . . . . . . . . . . . . . . . . . . . . . . . . . . . . . . . . . ",
"                        . . . . . . . . . . . . . . . . . . . . . . . . . . . . . . . . . . . . . . . . . . . . . . . . . . . . . . . . . . . . . . . . . . . . . . . . . . . . . . . . . . . . . . . . . . . . . . . . . . . . . . . . . . . . . . . . . . . . . . . . @ s ..f r i p p p p L L X.$.>.`.rXgXvXbXCXCXCXZXZXCXvXfX}./.j.p.&.} } } | } } r.t.t.y.y.y.i.n.N.C.C.C.S.S.^.^.(.(.OX$X$X*X-X-X-X-X-X-X;X;X-X*X$XOXOX(.S.Z.C.N.n.y.y.y.y.9.9.8.8.| | ] ^ ^ ^ ~ Q R T T J C V B M M n n b y y t 8 7 7 5 5 4 4 4 4 2 2 2 2 < 2 $ $ * * # d a + . . . . . . . . . . . . . . . . . . . . . . . . . . . . . . . . . . . . . . . . . . . . . . . . . . . . . . . . . . . . . . . . . . . . . . . . . . . . . . . . . . . . . . . . . . . . . . ",
"                        . . . . . . . . . . . . . . . . . . . . . . . . . . . . . . . . . . . . . . . . . . . . . . . . . . . . . . . . . . . . . . . . . . . . . . . . . . . . . . . . . . . . . . . . . . . . . . . . . . . . . . . . . . . . . . . . . . . . . . . . X , z k r i p p p p f L L o.>.~.|.fXxXnXCXCXCXCXZXCXnXgX1X].~.u.&.} } } } } } 8.r.t.t.y.y.y.n.n.N.C.C.S.S.^.^.^.(.(.OX$X*X*X-X-X-X-X-X-X-X*X*X*XOXOX(.^.Z.Z.N.n.y.y.y.y.9.9.8.8.| | ] ^ / ~ ~ Q ! T T J C V B M M n n b y y y 8 8 7 7 5 4 4 4 4 2 2 2 2 < 2 * $ $ $ # 9 d & . . . . . . . . . . . . . . . . . . . . . . . . . . . . . . . . . . . . . . . . . . . . . . . . . . . . . . . . . . . . . . . . . . . . . . . . . . . . . . . . . . . . . . . . . . . . . . ",
"                        . . . . . . . . . . . . . . . . . . . . . . . . . . . . . . . . . . . . . . . . . . . . . . . . . . . . . . . . . . . . . . . . . . . . . . . . . . . . . . . . . . . . . . . . . . . . . . . . . . . . . . . . . . . . . . . . . . . . . . . . X - z ..r r i p p p f L L o.*.~.[.tXzXvXbXCXCXCXCXCXCXxXfX{.!.u.r.} } | } } } r.t.t.t.y.y.y.i.n.m.C.C.C.S.S.^.^.(.(.OX$X*X*X-X-X-X-X-X-X-X-X*X*X$XOX(.S.S.Z.N.n.n.y.y.y.y.8.9.8.8.| ] ` / ~ ~ Q ! T T Y C V V B M n n b y y y 8 7 7 5 5 4 4 4 4 4 2 2 2 2 2 2 $ $ $ % = h ; . . . . . . . . . . . . . . . . . . . . . . . . . . . . . . . . . . . . . . . . . . . . . . . . . . . . . . . . . . . . . . . . . . . . . . . . . . . . . . . . . . . . . . . . . . . . . . ",
"                        . . . . . . . . . . . . . . . . . . . . . . . . . . . . . . . . . . . . . . . . . . . . . . . . . . . . . . . . . . . . . . . . . . . . . . . . . . . . . . . . . . . . . . . . . . . . . . . . . . . . . . . . . . . . . . . . . . . . . . . . . @ k ..i r i p p p f L L o.$.>.`.tXzXvXnXCXCXCXZXZXCXxXfX}.!.i.p.} ` } } } } &.r.t.t.y.y.y.y.n.n.N.C.C.A.S.^.^.(.(.OX$X*X*X-X-X-X-X-X-X-X;X*X*X$XOX(.^.S.Z.C.N.n.y.y.y.y.9.9.8.8.| ] ` / / ~ ~ Q R T Y J C V B M M n b b y y t 7 7 7 5 5 4 4 4 4 4 2 2 2 2 2 2 $ * $ o F 9 . . . . . . . . . . . . . . . . . . . . . . . . . . . . . . . . . . . . . . . . . . . . . . . . . . . . . . . . . . . . . . . . . . . . . . . . . . . . . . . . . . . . . . . . . . . . . . ",
"                          . . . . . . . . . . . . . . . . . . . . . . . . . . . . . . . . . . . . . . . . . . . . . . . . . . . . . . . . . . . . . . . . . . . . . . . . . . . . . . . . . . . . . . . . . . . . . . . . . . . . . . . . . . . . . . . . . . . . . . . . @ s ..k r i p p p f L L X.$.>.`.|.gXxXnXCXCXCXZXZXCXvXfX}.].~.u.&.` ` } } } } r.t.t.t.y.y.y.y.n.m.C.C.C.S.^.^.(.(.OX$X$X*X-X-X-X-X-X-X-X-X*X*X$XOXOX(.S.S.C.N.n.y.y.y.q.9.9.8.8.| ] ] / / ~ ~ Q R T T J C V B M M n n b y y t 8 8 7 7 5 5 5 4 4 4 4 2 2 2 2 2 $ = $ # d a + . . . . . . . . . . . . . . . . . . . . . . . . . . . . . . . . . . . . . . . . . . . . . . . . . . . . . . . . . . . . . . . . . . . . . . . . . . . . . . . . . . . . . . . . . . . . . ",
"                          . . . . . . . . . . . . . . . . . . . . . . . . . . . . . . . . . . . . . . . . . . . . . . . . . . . . . . . . . . . . . . . . . . . . . . . . . . . . . . . . . . . . . . . . . . . . . . . . . . . . . . . . . . . . . . . . . . . . . . . . X e ..L r r p p p p k L ..o.>.~.|.fXxXvXbXCXCXZXCXCXnXgX}.].!.u.&.` ` ` } } } r.r.t.t.y.y.y.y.n.m.N.C.C.A.S.^.(.(.OXOX$X*X-X-X-X-X-X-X-X-X*X*X*XOXOX(.S.S.Z.N.n.y.y.y.y.9.9.8.8.| ] ] ` / ~ ~ Q R T T J C V B M M n n b y y y t 8 8 7 5 5 5 4 4 4 4 2 2 2 2 2 $ = * % a d & . . . . . . . . . . . . . . . . . . . . . . . . . . . . . . . . . . . . . . . . . . . . . . . . . . . . . . . . . . . . . . . . . . . . . . . . . . . . . . . . . . . . . . . . . . . . . ",
"                          . . . . . . . . . . . . . . . . . . . . . . . . . . . . . . . . . . . . . . . . . . . . . . . . . . . . . . . . . . . . . . . . . . . . . . . . . . . . . . . . . . . . . . . . . . . . . . . . . . . . . . . . . . . . . . . . . . . . . . . . X - z ..i r i p p p f L L o.*.f.[.tXzXvXbXCXCXCXZXCXCXxXfX{.!.u.r.` ` { } } } } r.t.t.t.y.y.y.n.m.N.C.C.Z.S.^.(.(.(.OX$X*X*X-X-X-X-X-X-X-X-X*X*X$XOX(.(.S.Z.N.n.n.y.y.y.9.9.9.8.| | ] ` / ~ ~ ! Q T T Y C V V B M M n b y y y t t 8 7 5 5 5 4 4 4 4 2 2 2 2 2 $ $ * % = F ; . . . . . . . . . . . . . . . . . . . . . . . . . . . . . . . . . . . . . . . . . . . . . . . . . . . . . . . . . . . . . . . . . . . . . . . . . . . . . . . . . . . . . . . . . . . . . ",
"                          . . . . . . . . . . . . . . . . . . . . . . . . . . . . . . . . . . . . . . . . . . . . . . . . . . . . . . . . . . . . . . . . . . . . . . . . . . . . . . . . . . . . . . . . . . . . . . . . . . . . . . . . . . . . . . . . . . . . . . . . . @ k ..p u i p p p f L L X.$.>.`.rXgXxXnXbXCXZXZXCXCXxXfX}./.f.p.} } } } } } } 8.t.t.t.y.y.y.y.n.m.C.C.Z.S.^.^.(.(.OX$X*X*X-X-X-X-X-X-X-X;X*X*X+XOX(.(.S.Z.C.N.n.y.y.y.y.9.9.8.8.| ] ` ^ ~ ~ ~ Q R T T J C V B M M b b y y y t t 8 7 7 5 5 5 4 4 4 2 2 2 < 6 2 $ = $ o G a . . . . . . . . . . . . . . . . . . . . . . . . . . . . . . . . . . . . . . . . . . . . . . . . . . . . . . . . . . . . . . . . . . . . . . . . . . . . . . . . . . . . . . . . . . . . . ",
"                            . . . . . . . . . . . . . . . . . . . . . . . . . . . . . . . . . . . . . . . . . . . . . . . . . . . . . . . . . . . . . . . . . . . . . . . . . . . . . . . . . . . . . . . . . . . . . . . . . . . . . . . . . . . . . . . . . . . . . . . . @ s ..k r r p p p f A L L o.>.!.|.gXxXvXbXCXZXZXCXCXvXfX}.].~.u.&.} ` } } } } 8.8.t.t.y.y.y.y.n.m.C.C.Z.S.^.^.(.(.OX$X*X*X-X-X-X;X;X;X;X;X&X*X$XOX(.(.^.S.Z.N.n.y.y.y.y.9.9.8.8.| ] ] ^ ^ ^ ~ Q R T T J C V B M M b b b y y t t 8 7 7 5 5 5 4 4 4 4 2 2 2 6 2 $ = $ # h d O . . . . . . . . . . . . . . . . . . . . . . . . . . . . . . . . . . . . . . . . . . . . . . . . . . . . . . . . . . . . . . . . . . . . . . . . . . . . . . . . . . . . . . . . . . . . ",
"                            . . . . . . . . . . . . . . . . . . . . . . . . . . . . . . . . . . . . . . . . . . . . . . . . . . . . . . . . . . . . . . . . . . . . . . . . . . . . . . . . . . . . . . . . . . . . . . . . . . . . . . . . . . . . . . . . . . . . . . . . O e ..L r i p p p p A L L o.*.~.[.tXzXvXbXCXCXZXCXCXnXgX}.].!.u.&.} ` ` } } } 8.8.9.9.t.y.y.y.y.n.m.C.C.S.^.^.(.(.OXOX$X*X-X;X;X;X;X;X;X;X;X*X*X$XOX(.^.S.Z.N.n.y.y.y.y.9.9.8.8.| ] ] / ^ ^ ~ Q R T T Y K V B M M b b b y y t t 8 8 7 5 5 5 4 4 4 4 2 2 2 2 2 $ * * # a h & . . . . . . . . . . . . . . . . . . . . . . . . . . . . . . . . . . . . . . . . . . . . . . . . . . . . . . . . . . . . . . . . . . . . . . . . . . . . . . . . . . . . . . . . . . . . ",
"                            . . . . . . . . . . . . . . . . . . . . . . . . . . . . . . . . . . . . . . . . . . . . . . . . . . . . . . . . . . . . . . . . . . . . . . . . . . . . . . . . . . . . . . . . . . . . . . . . . . . . . . . . . . . . . . . . . . . . . . . . X > ....i i p p p p f L L X.$.>.].tXzXvXbXCXCXCXZXCXCXxXfX{./.u.p.` ` ` ` { } } r.t.t.t.y.y.y.n.n.m.C.C.Z.S.^.(.(.(.$X$X*X-X;X;X;X;X;X;X;X;X*X*X$XOX(.(.Z.Z.N.n.n.y.y.y.9.9.9.8.| ] ] / ^ / W Q W R E Y K C V B M n b b y y y t t 8 7 5 5 5 4 4 4 4 2 2 2 2 2 < $ = % = F 9 . . . . . . . . . . . . . . . . . . . . . . . . . . . . . . . . . . . . . . . . . . . . . . . . . . . . . . . . . . . . . . . . . . . . . . . . . . . . . . . . . . . . . . . . . . . . ",
"                            . . . . . . . . . . . . . . . . . . . . . . . . . . . . . . . . . . . . . . . . . . . . . . . . . . . . . . . . . . . . . . . . . . . . . . . . . . . . . . . . . . . . . . . . . . . . . . . . . . . . . . . . . . . . . . . . . . . . . . . . . @ k @.p i p p p p f L L X.$.>.`.|.gXxXnXCXCXCXCXCXCXxXfX}./.f.p.&.` ` } { } } r.r.t.t.y.y.y.y.n.m.C.C.Z.S.^.(.(.(.$X$X*X-X;X;X;X;X;X;X;X;X*X*X$XOXOX(.S.Z.C.n.n.y.y.y.y.9.9.8.] ] ] / ^ / W ~ Q R U T J C V B M M b b y y y t 8 8 7 7 5 5 5 4 4 4 2 2 2 2 2 $ $ = $ o @.a . . . . . . . . . . . . . . . . . . . . . . . . . . . . . . . . . . . . . . . . . . . . . . . . . . . . . . . . . . . . . . . . . . . . . . . . . . . . . . . . . . . . . . . . . . . . ",
"                              . . . . . . . . . . . . . . . . . . . . . . . . . . . . . . . . . . . . . . . . . . . . . . . . . . . . . . . . . . . . . . . . . . . . . . . . . . . . . . . . . . . . . . . . . . . . . . . . . . . . . . . . . . . . . . . . . . . . . . . . @ s ..k r r i p p f f L L o.>.~.|.tXxXnXbXCXCXCXCXCXvXfX}.].~.u.&.} ` } } } } r.8.8.9.t.y.y.y.n.n.m.C.Z.S.^.^.(.(.$X$X*X*X;X;X;X;X;X;X;X;X*X*X$XOXOX(.S.S.Z.N.n.y.y.y.y.9.9.8.8.] ] / ^ / W ~ Q R T T J C V B M M b b b y y t t t 7 7 5 5 5 4 4 4 4 2 2 2 2 $ $ * $ # g d + . . . . . . . . . . . . . . . . . . . . . . . . . . . . . . . . . . . . . . . . . . . . . . . . . . . . . . . . . . . . . . . . . . . . . . . . . . . . . . . . . . . . . . . . . . . ",
"                              . . . . . . . . . . . . . . . . . . . . . . . . . . . . . . . . . . . . . . . . . . . . . . . . . . . . . . . . . . . . . . . . . . . . . . . . . . . . . . . . . . . . . . . . . . . . . . . . . . . . . . . . . . . . . . . . . . . . . . . . O e ..L i i p p p f f L L X.*.~.[.tXzXvXbXCXCXCXCXCXnXgX1X].!.u.&.&.} } } } } &.r.8.9.9.y.y.y.y.n.m.C.C.Z.^.^.(.(.OX$X*X-X&X&X;X;X;X;X;X;X;X*X*X$XOX(.H.S.Z.N.n.n.y.y.y.9.9.8.8.] ] ] / ^ W ~ Q R T T Y C V B M M n b b y y y t 8 8 7 5 5 5 4 4 4 4 2 2 2 2 2 $ $ * % a h - . . . . . . . . . . . . . . . . . . . . . . . . . . . . . . . . . . . . . . . . . . . . . . . . . . . . . . . . . . . . . . . . . . . . . . . . . . . . . . . . . . . . . . . . . . . ",
"                              . . . . . . . . . . . . . . . . . . . . . . . . . . . . . . . . . . . . . . . . . . . . . . . . . . . . . . . . . . . . . . . . . . . . . . . . . . . . . . . . . . . . . . . . . . . . . . . . . . . . . . . . . . . . . . . . . . . . . . . . X > z ..r r p p f p p f L X.$.>.`.rXgXvXnXCXCXCXCXCXnXxXfX{.!.u.&.&.} } } } } } r.8.9.t.y.y.y.y.n.m.C.C.Z.^.^.(.(.OX$X*X*X;X;X;X;X;X;X;X;X;X*X*X$XOX(.(.S.Z.C.N.n.y.y.y.q.9.8.8.| ] ] / ^ / W Q W U T Y C C V B M M n b b y y t 8 8 7 5 5 5 4 4 4 4 2 2 2 2 2 $ $ * % = F 9 . . . . . . . . . . . . . . . . . . . . . . . . . . . . . . . . . . . . . . . . . . . . . . . . . . . . . . . . . . . . . . . . . . . . . . . . . . . . . . . . . . . . . . . . . . . ",
"                              . . . . . . . . . . . . . . . . . . . . . . . . . . . . . . . . . . . . . . . . . . . . . . . . . . . . . . . . . . . . . . . . . . . . . . . . . . . . . . . . . . . . . . . . . . . . . . . . . . . . . . . . . . . . . . . . . . . . . . . . . @ k ..i r i p p p p f L ..+.>.`.|.fXxXnXbXCXCXCXCXCXxXfX}./.f.u.&.&.` } } } } 8.8.8.t.t.y.y.y.y.m.C.C.C.S.^.(.(.(.$X*X*X;X;X;X;X;X;X;X;X;X&X*X$XOXOX(.S.S.Z.N.n.y.y.y.q.9.9.8.8.] ] / ^ ^ W ~ Q R T Y J C V B M M M n b y y t 8 8 7 7 5 5 5 4 4 4 4 2 2 2 2 $ $ * $ o ..a . . . . . . . . . . . . . . . . . . . . . . . . . . . . . . . . . . . . . . . . . . . . . . . . . . . . . . . . . . . . . . . . . . . . . . . . . . . . . . . . . . . . . . . . . . . ",
"                                . . . . . . . . . . . . . . . . . . . . . . . . . . . . . . . . . . . . . . . . . . . . . . . . . . . . . . . . . . . . . . . . . . . . . . . . . . . . . . . . . . . . . . . . . . . . . . . . . . . . . . . . . . . . . . . . . . . . . . . . @ s ..k r i p p f f p L L o.*.~.[.tXzXvXbXCXCXCXCXCXvXgX}.].~.u.&.&.} } } } } } 8.8.9.t.t.y.y.y.n.m.C.C.Z.^.^.(.(.$X*X*X;X;X;X;X;X;X;X;X;X&X*X*X$XOX(.(.S.Z.N.n.n.y.y.q.9.9.8.8.] ] ` / ^ ! ~ Q R T T J J Z B M M n n b y y y t 8 7 7 5 5 5 4 4 4 4 2 2 2 2 < $ * $ # g d + . . . . . . . . . . . . . . . . . . . . . . . . . . . . . . . . . . . . . . . . . . . . . . . . . . . . . . . . . . . . . . . . . . . . . . . . . . . . . . . . . . . . . . . . . . ",
"                                . . . . . . . . . . . . . . . . . . . . . . . . . . . . . . . . . . . . . . . . . . . . . . . . . . . . . . . . . . . . . . . . . . . . . . . . . . . . . . . . . . . . . . . . . . . . . . . . . . . . . . . . . . . . . . . . . . . . . . . . X , z k r i p p f f f A L X.$.f.[.tXzXvXnXCXCXCXCXCXnXzXfX].!.u.&.&.} } } { } } 8.8.8.t.t.y.y.y.n.m.C.C.Z.^.^.(.(.OX$X*X&X;X;X;X;X;X;X;X;X;X&X*X$XOX(.(.S.Z.C.n.n.y.y.q.9.9.8.8.] ] ] / ~ ~ ~ Q R T T Y J Z Z B M M n b y y y t 8 8 7 5 5 5 4 4 4 4 2 2 2 2 2 $ * * # a h - . . . . . . . . . . . . . . . . . . . . . . . . . . . . . . . . . . . . . . . . . . . . . . . . . . . . . . . . . . . . . . . . . . . . . . . . . . . . . . . . . . . . . . . . . . ",
"                                . . . . . . . . . . . . . . . . . . . . . . . . . . . . . . . . . . . . . . . . . . . . . . . . . . . . . . . . . . . . . . . . . . . . . . . . . . . . . . . . . . . . . . . . . . . . . . . . . . . . . . . . . . . . . . . . . . . . . . . . X - z k i r i p f f p A L X.$.>.`.rXgXxXnXbXCXZXZXCXbXxXfX{.!.u.&.} } { ` { { } 8.8.8.9.t.t.y.y.n.m.C.C.Z.Z.^.(.(.OX$X*X*X;X;X;X;X;X;X;X;X;X&X*X$XOX(.(.H.Z.C.N.n.n.y.y.q.9.9.8.] ] / / ~ ~ ~ Q R T T Y J Z Z B M M n b b y y t 8 7 7 5 5 5 4 4 4 4 2 2 2 2 2 $ $ = % = F 9 . . . . . . . . . . . . . . . . . . . . . . . . . . . . . . . . . . . . . . . . . . . . . . . . . . . . . . . . . . . . . . . . . . . . . . . . . . . . . . . . . . . . . . . . . . ",
"                                . . . . . . . . . . . . . . . . . . . . . . . . . . . . . . . . . . . . . . . . . . . . . . . . . . . . . . . . . . . . . . . . . . . . . . . . . . . . . . . . . . . . . . . . . . . . . . . . . . . . . . . . . . . . . . . . . . . . . . . . . @ f k i r i i f f p f L L o.>.`.|.tXxXvXbXZXZXZXZXCXvXfX}.].~.u.} { { } { { | } 8.8.9.t.t.y.y.i.m.m.C.Z.S.^.(.(.(.$X*X*X&X;X;X;X;X;X;X;X;X&X*X*X$X).(.(.S.Z.N.n.n.y.y.q.9.8.6.| ] / / / ~ ~ Q R T T T J J Z B M M n b b y y t 8 8 7 7 5 5 5 4 4 4 4 2 2 2 2 2 $ = $ o ..a . . . . . . . . . . . . . . . . . . . . . . . . . . . . . . . . . . . . . . . . . . . . . . . . . . . . . . . . . . . . . . . . . . . . . . . . . . . . . . . . . . . . . . . . . . ",
"                                  . . . . . . . . . . . . . . . . . . . . . . . . . . . . . . . . . . . . . . . . . . . . . . . . . . . . . . . . . . . . . . . . . . . . . . . . . . . . . . . . . . . . . . . . . . . . . . . . . . . . . . . . . . . . . . . . . . . . . . . . @ s k f r i i f f f f A L o.*.~.[.tXzXvXbXCXZXZXZXCXnXgX}.].~.u.&.{ { { { { } } 8.8.8.t.t.y.y.y.n.m.C.C.Z.^.(.(.(.$X*X*X&X;X;X;X;X;X;X;X;X;X*X*X+XOX(.(.Z.Z.N.n.n.n.y.q.9.9.8.8.] / / / ~ ~ Q Q T T T J J Z B M M n n b y y t t 8 7 7 5 5 5 4 4 4 4 2 2 2 6 2 2 = $ o h d + . . . . . . . . . . . . . . . . . . . . . . . . . . . . . . . . . . . . . . . . . . . . . . . . . . . . . . . . . . . . . . . . . . . . . . . . . . . . . . . . . . . . . . . . . ",
"                                  . . . . . . . . . . . . . . . . . . . . . . . . . . . . . . . . . . . . . . . . . . . . . . . . . . . . . . . . . . . . . . . . . . . . . . . . . . . . . . . . . . . . . . . . . . . . . . . . . . . . . . . . . . . . . . . . . . . . . . . . O a z k r r p f f f f A L X.$.>.[.tXzXvXnXCXCXZXZXZXnXxXfX].!.u.&.{ { ` { { { | } 8.8.t.t.y.y.y.i.m.C.C.Z.^.^.(.(.).*X*X&X&X&X;X;X;X;X;X;X;X&X*X+XOX(.(.S.Z.C.N.n.n.y.q.9.9.8.8.] ] ` / ~ ~ Q Q T T T J J K Z M M M n b y y y t 8 8 7 5 5 5 4 4 4 4 2 2 2 2 6 2 = $ # a h - . . . . . . . . . . . . . . . . . . . . . . . . . . . . . . . . . . . . . . . . . . . . . . . . . . . . . . . . . . . . . . . . . . . . . . . . . . . . . . . . . . . . . . . . . ",
"                                  . . . . . . . . . . . . . . . . . . . . . . . . . . . . . . . . . . . . . . . . . . . . . . . . . . . . . . . . . . . . . . . . . . . . . . . . . . . . . . . . . . . . . . . . . . . . . . . . . . . . . . . . . . . . . . . . . . . . . . . . X > z k i r p f f f f f L X.$.>.`.rXgXxXnXbXZXZXZXZXCXxXfX{.!.f.&.} { { { { { { } 8.8.t.t.y.y.y.i.m.m.C.Z.Z.^.(.(.).*X*X&X&X;X;X;X;X&X&X;X;X&X*X$XOX(.(.H.Z.Z.N.n.n.n.q.9.9.8.8.] ] ` / ~ ~ Q ! ! T T T J K Z B M M n b b y y t 8 8 7 5 5 5 4 4 4 4 4 2 2 2 6 2 6 = # = F 9 . . . . . . . . . . . . . . . . . . . . . . . . . . . . . . . . . . . . . . . . . . . . . . . . . . . . . . . . . . . . . . . . . . . . . . . . . . . . . . . . . . . . . . . . . ",
"                                  . . . . . . . . . . . . . . . . . . . . . . . . . . . . . . . . . . . . . . . . . . . . . . . . . . . . . . . . . . . . . . . . . . . . . . . . . . . . . . . . . . . . . . . . . . . . . . . . . . . . . . . . . . . . . . . . . . . . . . . . . - k k i r i i f f f f L L o.>.`.|.uXxXvXbXZXZXZXZXCXvXfX}./.f.*.} _ ` { { { { | } 8.t.r.t.y.y.y.m.m.m.Z.Z.^.(.(.).*X*X&X&X&X;X;X;X&X&X;X;X&X*X*X$XOX(.(.Z.Z.N.N.n.n.q.9.9.8.6.6.] ` / / ~ Q Q Q T T T J K V B B M M n b y y t 8 8 7 7 5 5 5 4 4 4 4 2 2 2 6 2 6 6 # o G a . . . . . . . . . . . . . . . . . . . . . . . . . . . . . . . . . . . . . . . . . . . . . . . . . . . . . . . . . . . . . . . . . . . . . . . . . . . . . . . . . . . . . . . . . ",
"                                    . . . . . . . . . . . . . . . . . . . . . . . . . . . . . . . . . . . . . . . . . . . . . . . . . . . . . . . . . . . . . . . . . . . . . . . . . . . . . . . . . . . . . . . . . . . . . . . . . . . . . . . . . . . . . . . . . . . . . . . . @ s k f i i i f f f f A L o.*.~.[.tXzXvXbXZXZXZXZXZXnXzX}.].~.u.&._ ` { { { { | } 8.8.t.t.t.t.y.m.m.m.C.Z.^.(.(.).$X*X*X&X&X;X;X;X;X&X;X;X&X*X*X+XOX(.(.S.Z.B.N.n.n.q.q.9.7.6.8.] / / / Q Q Q Q T T T J J Z B M M n n b y y y t 8 7 7 5 5 5 4 4 4 4 2 2 2 2 2 6 6 * o g d % . . . . . . . . . . . . . . . . . . . . . . . . . . . . . . . . . . . . . . . . . . . . . . . . . . . . . . . . . . . . . . . . . . . . . . . . . . . . . . . . . . . . . . . . ",
"                                    . . . . . . . . . . . . . . . . . . . . . . . . . . . . . . . . . . . . . . . . . . . . . . . . . . . . . . . . . . . . . . . . . . . . . . . . . . . . . . . . . . . . . . . . . . . . . . . . . . . . . . . . . . . . . . . . . . . . . . . . O e k k r r p p f f p f L X.$.>.[.tXgXvXbXZXZXZXZXZXbXzXtX].~.u.&._ _ ` { { { } } } 8.t.r.t.t.t.i.m.m.m.Z.Z.^.(.(.OX*X*X&X&X;X;X;X;X&X&X;X;X&X*X+XOXOX(.H.Z.Z.N.n.n.l.q.9.9.6.8.] / ^ ~ Q Q Q Q T T T J J Z V V M M n b y y y t 8 8 7 5 5 5 4 4 4 4 4 2 2 2 2 6 6 * # 9 g ; . . . . . . . . . . . . . . . . . . . . . . . . . . . . . . . . . . . . . . . . . . . . . . . . . . . . . . . . . . . . . . . . . . . . . . . . . . . . . . . . . . . . . . . . ",
"                                    . . . . . . . . . . . . . . . . . . . . . . . . . . . . . . . . . . . . . . . . . . . . . . . . . . . . . . . . . . . . . . . . . . . . . . . . . . . . . . . . . . . . . . . . . . . . . . . . . . . . . . . . . . . . . . . . . . . . . . . . X > z k r w i i f f f f A X.$.>.`.rXgXxXnXCXZXZXZXZXbXxXfX|.!.u.&.{ _ { { { { { | } 8.r.t.t.t.t.y.m.m.C.Z.Z.^.(.(.).*X*X&X&X&X;X;X;X&X&X;X;X&X*X*X+XOX(.(.Z.Z.N.n.n.n.q.9.9.6.6.] / ^ ~ Q Q Q Q Q T T T J J Z B M M n b y y y t 8 7 7 5 5 5 4 4 4 4 4 2 2 2 2 6 6 = # = F a . . . . . . . . . . . . . . . . . . . . . . . . . . . . . . . . . . . . . . . . . . . . . . . . . . . . . . . . . . . . . . . . . . . . . . . . . . . . . . . . . . . . . . . . ",
"                                    . . . . . . . . . . . . . . . . . . . . . . . . . . . . . . . . . . . . . . . . . . . . . . . . . . . . . . . . . . . . . . . . . . . . . . . . . . . . . . . . . . . . . . . . . . . . . . . . . . . . . . . . . . . . . . . . . . . . . . . . . - k k i w w i i f p f A L o.>.~.|.tXzXvXbXZXZXZXZXCXvXfX}.!.f.&._ _ ` ` { { { | } } r.t.t.t.t.i.m.m.C.Z.Z.^.(.(.).*X*X*X&X&X;X;X;X;X;X;X;X&X*X*X+X+X(.(.S.Z.N.n.n.n.q.q.9.6.6.] / ^ ~ Q Q Q Q Q T T T J J Z Z V M n b b y y t t 7 7 5 5 5 5 4 4 4 4 2 2 2 2 2 6 = % o F d . . . . . . . . . . . . . . . . . . . . . . . . . . . . . . . . . . . . . . . . . . . . . . . . . . . . . . . . . . . . . . . . . . . . . . . . . . . . . . . . . . . . . . . . ",
"                                      . . . . . . . . . . . . . . . . . . . . . . . . . . . . . . . . . . . . . . . . . . . . . . . . . . . . . . . . . . . . . . . . . . . . . . . . . . . . . . . . . . . . . . . . . . . . . . . . . . . . . . . . . . . . . . . . . . . . . . . . @ s k f w w i p p p f f L X.$.f.[.tXzXvXbXZXZXZXZXZXnXgX}.].~.*.&._ _ ` { { ` | | } 8.t.t.t.t.t.y.m.m.Z.Z.^.(.(.(.).*X%X&X&X;X&X;X;X;X;X;X&X*X*X*X+X).(.H.Z.B.N.n.n.n.q.9.6.6.] / ^ / ~ Q Q Q Q T T T J J Z B V M n n b y y y t 7 7 7 5 5 5 4 4 4 4 4 4 2 6 2 6 6 $ o g h & . . . . . . . . . . . . . . . . . . . . . . . . . . . . . . . . . . . . . . . . . . . . . . . . . . . . . . . . . . . . . . . . . . . . . . . . . . . . . . . . . . . . . . . ",
"                                      . . . . . . . . . . . . . . . . . . . . . . . . . . . . . . . . . . . . . . . . . . . . . . . . . . . . . . . . . . . . . . . . . . . . . . . . . . . . . . . . . . . . . . . . . . . . . . . . . . . . . . . . . . . . . . . . . . . . . . . . O e k f w w u i p p p f L X.$.>.`.rXgXxXbXZXZXZXZXZXbXxXtX].~.u.&._ _ ` ` { { { | } 8.r.t.t.t.t.y.m.m.m.Z.Z.(.(.(.).*X%X&X&X;X;X;X4X&X&X;X&X*X*X*X+XOX(.(.Z.Z.N.n.n.n.q.9.9.8.] ] ^ / ~ Q Q Q Q Q T T J J Z Z B M M n b y y y t 8 7 7 5 5 5 4 4 4 4 4 4 2 2 2 2 6 $ o 9 h ; . . . . . . . . . . . . . . . . . . . . . . . . . . . . . . . . . . . . . . . . . . . . . . . . . . . . . . . . . . . . . . . . . . . . . . . . . . . . . . . . . . . . . . . ",
"                                      . . . . . . . . . . . . . . . . . . . . . . . . . . . . . . . . . . . . . . . . . . . . . . . . . . . . . . . . . . . . . . . . . . . . . . . . . . . . . . . . . . . . . . . . . . . . . . . . . . . . . . . . . . . . . . . . . . . . . . . . X > z k r w u i p p p p A L o.>.`.|.gXxXnXZXZXZXZXZXbXvXfX|.!.u.&._ _ ` ` ` ` { | | } r.t.t.t.t.t.m.m.m.Z.Z.(.(.(.).*X*X&X&X&X;X;X;X&X&X;X&X*X*X*X+XOX(.(.Z.Z.N.n.n.n.q.9.9.6.] ] / ^ ~ Q Q Q Q T T T J J K V B M M n b y y y t 8 7 7 5 5 5 4 4 4 4 4 4 2 6 2 2 6 * # & h a . . . . . . . . . . . . . . . . . . . . . . . . . . . . . . . . . . . . . . . . . . . . . . . . . . . . . . . . . . . . . . . . . . . . . . . . . . . . . . . . . . . . . . . ",
"                                      . . . . . . . . . . . . . . . . . . . . . . . . . . . . . . . . . . . . . . . . . . . . . . . . . . . . . . . . . . . . . . . . . . . . . . . . . . . . . . . . . . . . . . . . . . . . . . . . . . . . . . . . . . . . . . . . . . . . . . . . . - k k i w w i i p i p A L o.*.~.[.tXzXvXbXZXZXZXZXZXvXgX}./.u.&._ _ ` ` ` ` { } | } r.t.t.t.t.t.m.m.m.Z.Z.^.(.(.).*X*X&X&X&X;X;X;X&X&X&X&X&X*X*X+X+X(.(.H.Z.B.N.n.n.q.9.9.6.8.] / / ~ Q Q Q Q Q T T T J K V B M M n b b y y t 8 7 7 5 5 5 5 4 4 4 4 4 4 6 2 2 2 6 # o F d . . . . . . . . . . . . . . . . . . . . . . . . . . . . . . . . . . . . . . . . . . . . . . . . . . . . . . . . . . . . . . . . . . . . . . . . . . . . . . . . . . . . . . . ",
"                                        . . . . . . . . . . . . . . . . . . . . . . . . . . . . . . . . . . . . . . . . . . . . . . . . . . . . . . . . . . . . . . . . . . . . . . . . . . . . . . . . . . . . . . . . . . . . . . . . . . . . . . . . . . . . . . . . . . . . . . . . @ s k f w w u p p p p A L o.$.>.[.tXzXvXbXZXZXZXZXZXnXgX}.].f.&._ _ ` ` ` ` { } | } &.r.t.t.t.t.y.m.m.Z.Z.^.(.(.).).*X&X&X&X4X;X;X&X&X&X;X&X*X*X+X+X).(.H.Z.Z.N.n.n.l.q.9.6.8.] / ^ / ~ Q Q Q Q T T T J J Z B M M M n b y y y 8 7 7 5 5 5 5 4 4 4 4 4 4 6 2 2 2 2 $ o g h % . . . . . . . . . . . . . . . . . . . . . . . . . . . . . . . . . . . . . . . . . . . . . . . . . . . . . . . . . . . . . . . . . . . . . . . . . . . . . . . . . . . . . . ",
"                                        . . . . . . . . . . . . . . . . . . . . . . . . . . . . . . . . . . . . . . . . . . . . . . . . . . . . . . . . . . . . . . . . . . . . . . . . . . . . . . . . . . . . . . . . . . . . . . . . . . . . . . . . . . . . . . . . . . . . . . . . X a z f w w w p p f f f L X.$.>.`.rXgXvXnXbXZXZXZXZXnXzXfX].~.u.&._ _ ` ` ` ` { | | } r.t.t.t.t.y.m.m.C.Z.Z.(.(.(.).*X%X&X&X4X4X;X;X&X&X;X&X*X*X*X+XOX(.H.Z.Z.N.n.n.l.q.9.9.8.] / / / ~ Q ! Q T T T T J J Z B M M M n b b y y 8 7 7 5 5 5 5 4 4 4 4 4 4 2 2 2 2 2 * % 9 h ; . . . . . . . . . . . . . . . . . . . . . . . . . . . . . . . . . . . . . . . . . . . . . . . . . . . . . . . . . . . . . . . . . . . . . . . . . . . . . . . . . . . . . . ",
"                                        . . . . . . . . . . . . . . . . . . . . . . . . . . . . . . . . . . . . . . . . . . . . . . . . . . . . . . . . . . . . . . . . . . . . . . . . . . . . . . . . . . . . . . . . . . . . . . . . . . . . . . . . . . . . . . . . . . . . . . . . X > z k w w w i p p p p L ..o.>.`.rXuXxXnXbXZXZXZXZXbXxXfX{.!.u.&._ _ ` ` ` ` { } | } &.t.t.t.t.t.m.m.m.Z.Z.(.(.(.).*X%X&X&X&X;X;X&X&X&X;X;X&X*X*X*X+X(.H.S.Z.N.n.n.n.q.9.9.8.] ] ^ / ~ Q Q R T T T T Y J Z Z B M M n b b y y t 8 7 7 5 5 5 4 4 4 4 4 2 2 2 2 2 2 = % & h a . . . . . . . . . . . . . . . . . . . . . . . . . . . . . . . . . . . . . . . . . . . . . . . . . . . . . . . . . . . . . . . . . . . . . . . . . . . . . . . . . . . . . . ",
"                                        . . . . . . . . . . . . . . . . . . . . . . . . . . . . . . . . . . . . . . . . . . . . . . . . . . . . . . . . . . . . . . . . . . . . . . . . . . . . . . . . . . . . . . . . . . . . . . . . . . . . . . . . . . . . . . . . . . . . . . . . . - h k i w w i p p p p A L o.$.~.[.tXzXvXbXMXZXZXZXCXvXgX}.!.u.&._ _ ` ` ` ` { } | | &.r.t.t.t.t.n.m.m.Z.Z.(.(.(.).).*X&X&X4X&X&X&X4X4X;X;X&X*X*X*X+X(.(.Z.Z.B.n.n.n.q.9.9.6.] ] ^ / ~ Q Q R T T T T Y J Z Z B M M M n b y y t 7 7 7 5 5 5 5 4 4 4 4 2 2 2 2 2 2 6 % o F g o . . . . . . . . . . . . . . . . . . . . . . . . . . . . . . . . . . . . . . . . . . . . . . . . . . . . . . . . . . . . . . . . . . . . . . . . . . . . . . . . . . . . . ",
"                                          . . . . . . . . . . . . . . . . . . . . . . . . . . . . . . . . . . . . . . . . . . . . . . . . . . . . . . . . . . . . . . . . . . . . . . . . . . . . . . . . . . . . . . . . . . . . . . . . . . . . . . . . . . . . . . . . . . . . . . . . @ s k f w w i i p p f A L X.$.>.[.tXzXvXnXMXZXZXZXZXnXgX}.].f.&.&._ _ ` ` ` { { | } } r.t.t.t.t.y.m.m.Z.Z.(.(.(.).).*X&X&X&X4X4X&X4X4X&X;X&X*X*X*X+X(.(.H.Z.Z.n.n.n.q.9.9.6.8.] ^ / ~ ~ Q R R T T T T J J Z B M M M n b y y y 8 7 7 7 5 5 5 4 4 4 4 2 4 2 2 2 2 6 = o g h % . . . . . . . . . . . . . . . . . . . . . . . . . . . . . . . . . . . . . . . . . . . . . . . . . . . . . . . . . . . . . . . . . . . . . . . . . . . . . . . . . . . . . ",
"                                          . . . . . . . . . . . . . . . . . . . . . . . . . . . . . . . . . . . . . . . . . . . . . . . . . . . . . . . . . . . . . . . . . . . . . . . . . . . . . . . . . . . . . . . . . . . . . . . . . . . . . . . . . . . . . . . . . . . . . . . . X a z f r w i i f f f f L ..+.>.`.rXgXcXnXbXMXZXZXZXnXzXtX].~.u.&._ _ ` ` ` { | | | } r.t.t.t.t.t.m.m.m.Z.^.(.(.).).*X%X&X&X&X&X&X&X4X&X&X&X*X*X*X+XOX(.H.Z.Z.N.n.n.q.9.9.8.8.] / / ) ~ Q R R T T T Y J J Z B B M M n b b y y 8 7 7 7 5 5 5 4 4 4 4 4 4 2 2 2 2 6 = % 9 h ; . . . . . . . . . . . . . . . . . . . . . . . . . . . . . . . . . . . . . . . . . . . . . . . . . . . . . . . . . . . . . . . . . . . . . . . . . . . . . . . . . . . . . ",
"                                          . . . . . . . . . . . . . . . . . . . . . . . . . . . . . . . . . . . . . . . . . . . . . . . . . . . . . . . . . . . . . . . . . . . . . . . . . . . . . . . . . . . . . . . . . . . . . . . . . . . . . . . . . . . . . . . . . . . . . . . . X > z k r q u i f f f f A ..o.>.`.|.uXzXvXbXMXMXZXZXbXxXfX|.!.u.&._ _ _ ` { { | | | } &.t.t.t.t.t.n.m.m.Z.Z.(.(.).).*X%X&X&X&X&X&X&X4X&X&X&X%X%X*X+XOX(.(.Z.Z.N.n.n.q.9.9.9.8.| ] ^ / ~ Q Q R T T T Y J J V V M M M n b b y y t 8 7 7 5 5 5 4 4 4 4 4 2 2 2 2 2 2 = % = h a . . . . . . . . . . . . . . . . . . . . . . . . . . . . . . . . . . . . . . . . . . . . . . . . . . . . . . . . . . . . . . . . . . . . . . . . . . . . . . . . . . . . . ",
"                                          . . . . . . . . . . . . . . . . . . . . . . . . . . . . . . . . . . . . . . . . . . . . . . . . . . . . . . . . . . . . . . . . . . . . . . . . . . . . . . . . . . . . . . . . . . . . . . . . . . . . . . . . . . . . . . . . . . . . . . . . . & k k i w w i f f f f f L o.$.~.[.tXzXvXbXMXMXZXZXMXvXgX}.!.f.&._ _ _ ` { { { } | | &.r.t.t.t.t.n.m.m.Z.Z.(.(.).).).%X&X&X&X&X&X&X&X&X&X&X%X%X*X+XOX(.(.Z.Z.B.n.n.n.q.9.9.8.| ] ^ / ~ Q Q R T T T J J J V V B M M M n b y y t 8 7 7 5 5 5 5 4 4 4 4 2 2 2 2 2 2 6 = o h g . . . . . . . . . . . . . . . . . . . . . . . . . . . . . . . . . . . . . . . . . . . . . . . . . . . . . . . . . . . . . . . . . . . . . . . . . . . . . . . . . . . . . ",
"                                            . . . . . . . . . . . . . . . . . . . . . . . . . . . . . . . . . . . . . . . . . . . . . . . . . . . . . . . . . . . . . . . . . . . . . . . . . . . . . . . . . . . . . . . . . . . . . . . . . . . . . . . . . . . . . . . . . . . . . . . . @ s k f w w i i f i p f L ..+.>.[.rXzXvXnXMXMXZXZXMXvXzXrX].~.*.&._ _ _ ` { { } } } &.&.t.t.t.t.n.m.m.Z.Z.(.(.(.).).*X%X&X&X&X&X&X&X&X&X&X%X%X*X+X+X).(.H.Z.Z.n.n.n.q.9.9.8.8.] ^ ~ ~ Q R T T E Y Y J J V V B M M M n b y y t 8 7 7 7 5 5 5 4 4 4 4 2 2 2 2 2 2 2 = o g g : . . . . . . . . . . . . . . . . . . . . . . . . . . . . . . . . . . . . . . . . . . . . . . . . . . . . . . . . . . . . . . . . . . . . . . . . . . . . . . . . . . . . ",
"                                            . . . . . . . . . . . . . . . . . . . . . . . . . . . . . . . . . . . . . . . . . . . . . . . . . . . . . . . . . . . . . . . . . . . . . . . . . . . . . . . . . . . . . . . . . . . . . . . . . . . . . . . . . . . . . . . . . . . . . . . . O e k f w w u i i i i f f ..+.>.`.iXuXcXnXMXMXZXZXMXnXzXtX].~.u.&._ _ _ ` { { { { } } &.t.t.t.t.t.m.m.m.Z.^.(.(.).).*X%X%X&X&X&X&X&X&X&X&X%X%X*X+X+X).(.H.Z.Z.N.n.n.y.9.9.9.8.] ^ ~ ~ Q R T E E Y Y K J V V B M M M n b y y y t 8 7 7 5 5 5 4 4 4 4 4 2 2 2 2 2 2 = % 9 h ; . . . . . . . . . . . . . . . . . . . . . . . . . . . . . . . . . . . . . . . . . . . . . . . . . . . . . . . . . . . . . . . . . . . . . . . . . . . . . . . . . . . . ",
"                                            . . . . . . . . . . . . . . . . . . . . . . . . . . . . . . . . . . . . . . . . . . . . . . . . . . . . . . . . . . . . . . . . . . . . . . . . . . . . . . . . . . . . . . . . . . . . . . . . . . . . . . . . . . . . . . . . . . . . . . . . X > z k r w w i i i i f f L o.>.`.|.uXzXvXbXMXMXZXMXbXxXfX|.!.u.&._ _ _ ` { { { { } } &.r.t.t.t.t.m.m.m.Z.Z.(.(.).).).%X%X&X&X&X&X&X&X&X4X%X%X*X+X+XOX(.H.Z.Z.N.n.n.n.9.9.8.8.] ^ ^ Q Q ! T T E E K K J C V B B M M n b y y y t 8 7 7 7 5 5 4 4 4 4 4 4 2 2 2 2 2 = % % h a . . . . . . . . . . . . . . . . . . . . . . . . . . . . . . . . . . . . . . . . . . . . . . . . . . . . . . . . . . . . . . . . . . . . . . . . . . . . . . . . . . . . ",
"                                            . . . . . . . . . . . . . . . . . . . . . . . . . . . . . . . . . . . . . . . . . . . . . . . . . . . . . . . . . . . . . . . . . . . . . . . . . . . . . . . . . . . . . . . . . . . . . . . . . . . . . . . . . . . . . . . . . . . . . . . . . - k k i w w r i i i f f L o.$.~.[.tXzXvXbXMXMXZXZXMXvXgX}.!.f.*._ _ _ _ ` { { { } } &.r.t.t.t.t.n.m.m.Z.Z.(.(.).).).*X%X&X&X&X&X&X4X4X4X%X%X*X+X+X+X(.(.Z.Z.B.n.n.n.q.9.9.8.| ^ ^ ~ Q Q R T E E K K J C V V B M M n b b y y t 8 7 7 7 5 5 5 4 4 4 4 4 2 2 2 2 < * = o h g . . . . . . . . . . . . . . . . . . . . . . . . . . . . . . . . . . . . . . . . . . . . . . . . . . . . . . . . . . . . . . . . . . . . . . . . . . . . . . . . . . . . ",
"                                              . . . . . . . . . . . . . . . . . . . . . . . . . . . . . . . . . . . . . . . . . . . . . . . . . . . . . . . . . . . . . . . . . . . . . . . . . . . . . . . . . . . . . . . . . . . . . . . . . . . . . . . . . . . . . . . . . . . . . . . . @ s z f w w w i i i f f L ..$.>.[.rXgXvXnXMXMXMXZXMXvXzX}.].~.*.&._ _ _ ` { { { { } &.&.t.t.t.t.n.m.m.Z.Z.^.(.).).).*X%X%X&X&X&X&X4X4X&X%X%X%X*X+X+X(.(.H.Z.B.N.n.n.q.9.9.8.| ^ ^ ~ Q Q R T E E Y K K J V V B M M M n b y y y 8 7 7 7 5 5 5 4 4 4 4 4 2 2 2 2 2 * = O g g % . . . . . . . . . . . . . . . . . . . . . . . . . . . . . . . . . . . . . . . . . . . . . . . . . . . . . . . . . . . . . . . . . . . . . . . . . . . . . . . . . . . ",
"                                              . . . . . . . . . . . . . . . . . . . . . . . . . . . . . . . . . . . . . . . . . . . . . . . . . . . . . . . . . . . . . . . . . . . . . . . . . . . . . . . . . . . . . . . . . . . . . . . . . . . . . . . . . . . . . . . . . . . . . . . . O e z k r q w i i i i f A ..+.>.`.iXuXcXvXbXMXMXMXMXnXzXtX].~.*.&._ _ _ ` { { { } } &.&.p.t.t.t.n.m.m.m.Z.Z.(.(.).).).%X%X&X&X&X&X&X4X%X%X%X%X*X+X+XOX(.H.Z.B.N.n.n.q.9.9.8.| ] ^ ~ Q Q R T E E E Y K J C V B B M M n n b y y t 8 7 7 5 5 5 4 4 4 4 4 2 2 2 2 2 * = % 9 h ; . . . . . . . . . . . . . . . . . . . . . . . . . . . . . . . . . . . . . . . . . . . . . . . . . . . . . . . . . . . . . . . . . . . . . . . . . . . . . . . . . . . ",
"                                              . . . . . . . . . . . . . . . . . . . . . . . . . . . . . . . . . . . . . . . . . . . . . . . . . . . . . . . . . . . . . . . . . . . . . . . . . . . . . . . . . . . . . . . . . . . . . . . . . . . . . . . . . . . . . . . . . . . . . . . . X > z ..r e w w i i i f f ..+.>.`.|.uXzXvXbXMXMXMXMXbXxXtX|.!.u.&._ _ _ _ _ ` { } } &.&.t.t.t.t.n.M.M.m.Z.Z.(.(.).).).*X%X%X4X%X%X%X&X&X%X%X%X*X+X+X+X(.H.Z.B.B.n.n.q.9.9.8.8.] ^ ~ ~ Q ! T T E Y Y K J J V B B M M n n b y y t 8 7 7 5 5 5 4 4 4 4 4 4 2 2 2 2 * = = % h a . . . . . . . . . . . . . . . . . . . . . . . . . . . . . . . . . . . . . . . . . . . . . . . . . . . . . . . . . . . . . . . . . . . . . . . . . . . . . . . . . . . ",
"                                              . . . . . . . . . . . . . . . . . . . . . . . . . . . . . . . . . . . . . . . . . . . . . . . . . . . . . . . . . . . . . . . . . . . . . . . . . . . . . . . . . . . . . . . . . . . . . . . . . . . . . . . . . . . . . . . . . . . . . . . . . @ z @.f w w w i i i f f L o.<.~.[.tXzXvXnXMXMXMXZXbXvXgX}.!.f.&._ _ ) _ _ ` { { } &.&.t.t.t.t.t.M.m.m.Z.Z.Z.(.(.).).*X%X%X%X%X%X%X&X&X%X%X%X*X*X+X+X(.H.J.B.B.n.n.n.q.9.9.8.] ^ ~ ~ Q Q R T E E E Y J J V V B M M M n b y y y 8 7 7 5 5 5 5 4 4 4 4 4 2 2 2 2 $ = = o h g . . . . . . . . . . . . . . . . . . . . . . . . . . . . . . . . . . . . . . . . . . . . . . . . . . . . . . . . . . . . . . . . . . . . . . . . . . . . . . . . . . . ",
"                                                . . . . . . . . . . . . . . . . . . . . . . . . . . . . . . . . . . . . . . . . . . . . . . . . . . . . . . . . . . . . . . . . . . . . . . . . . . . . . . . . . . . . . . . . . . . . . . . . . . . . . . . . . . . . . . . . . . . . . . . . @ s ..k w e w i i i f f L ..$.>.`.rXgXcXnXbXMXMXZXMXvXzX}.].~.*.&._ ) _ _ ` { { } &.&.&.t.t.t.t.M.m.m.m.Z.Z.(.(.).).+X*X%X%X%X%X%X%X%X%X%X%X%X*X+X+X(.H.H.Z.B.N.n.n.q.9.9.8.| ^ ~ ~ Q Q T T T E E Y J J Z V B B M M n b b y y 8 7 7 5 5 5 5 4 4 4 4 4 2 2 2 2 2 = = O g g % . . . . . . . . . . . . . . . . . . . . . . . . . . . . . . . . . . . . . . . . . . . . . . . . . . . . . . . . . . . . . . . . . . . . . . . . . . . . . . . . . . ",
"                                                . . . . . . . . . . . . . . . . . . . . . . . . . . . . . . . . . . . . . . . . . . . . . . . . . . . . . . . . . . . . . . . . . . . . . . . . . . . . . . . . . . . . . . . . . . . . . . . . . . . . . . . . . . . . . . . . . . . . . . . . X a ....r e w w i i i f f ..+.>.`.rXuXcXvXbXbXMXZXMXnXzXtX].~.u.&._ ) _ _ _ { { } &.&.&.t.t.t.t.n.M.M.m.Z.Z.H.(.(.).).*X%X%X%X%X%X%X%X%X%X%X%X*X+X+XOXH.H.Z.B.N.n.n.y.9.9.8.| ] ~ ~ Q ! T T T E E Y Y J Z V B B M M n n b y y t 8 7 7 5 5 5 4 4 4 4 4 2 2 2 2 2 2 = % 9 h ; . . . . . . . . . . . . . . . . . . . . . . . . . . . . . . . . . . . . . . . . . . . . . . . . . . . . . . . . . . . . . . . . . . . . . . . . . . . . . . . . . . ",
"                                                . . . . . . . . . . . . . . . . . . . . . . . . . . . . . . . . . . . . . . . . . . . . . . . . . . . . . . . . . . . . . . . . . . . . . . . . . . . . . . . . . . . . . . . . . . . . . . . . . . . . . . . . . . . . . . . . . . . . . . . . X - z @.r e w w i i i f f L o.>.`.|.uXzXvXnXbXMXMXZXbXxXfX|.!.u.&._ _ ) _ _ { { } &.&.&.&.t.t.t.t.M.M.m.Z.Z.H.(.(.).).+X*X%X%X%X%X%X%X%X%X%X%X*X+X+XOX(.H.Z.B.B.n.n.n.9.9.8.| ] / ~ ! Q R T T T E Y Y J Z V B B M M M n b y y t 8 7 7 5 5 5 4 4 4 4 4 4 2 2 2 2 * = = % h a . . . . . . . . . . . . . . . . . . . . . . . . . . . . . . . . . . . . . . . . . . . . . . . . . . . . . . . . . . . . . . . . . . . . . . . . . . . . . . . . . . ",
"                                                . . . . . . . . . . . . . . . . . . . . . . . . . . . . . . . . . . . . . . . . . . . . . . . . . . . . . . . . . . . . . . . . . . . . . . . . . . . . . . . . . . . . . . . . . . . . . . . . . . . . . . . . . . . . . . . . . . . . . . . . . @ z @.f w e w r i i f f L X.$.~.[.tXzXvXnXbXMXMXZXbXvXzX}.!.f.&._ _ ) _ _ { { { } &.&.&.t.t.t.t.n.n.m.M.Z.Z.(.(.).).+X*X%X%X%X%X%X4X4X%X%X%X%X+X+XOX(.H.S.B.B.N.n.n.9.9.8.| ] ^ ~ ! Q R T T T E Y Y J J V V B M M M n b y y y 8 7 7 5 5 5 5 4 4 4 4 4 2 2 2 2 $ = = o h g . . . . . . . . . . . . . . . . . . . . . . . . . . . . . . . . . . . . . . . . . . . . . . . . . . . . . . . . . . . . . . . . . . . . . . . . . . . . . . . . . . ",
"                                                  . . . . . . . . . . . . . . . . . . . . . . . . . . . . . . . . . . . . . . . . . . . . . . . . . . . . . . . . . . . . . . . . . . . . . . . . . . . . . . . . . . . . . . . . . . . . . . . . . . . . . . . . . . . . . . . . . . . . . . . . @ s @.k w q w w i i i f A ..$.>.[.rXzXvXvXbXMXMXZXMXvXzX}.].~.*.&._ ) _ _ { { { { } &.&.t.t.t.t.t.n.m.M.Z.Z.H.H.(.).).+X*X%X%X%X%X%X4X%X%X%X%X*X+X+X(.H.H.Z.B.N.n.n.q.9.9.8.| ^ ~ ! Q R T T T E E K K J Z V B B M M n b b y y 8 7 7 5 5 5 5 4 4 4 4 4 2 2 2 2 2 * = O g g : . . . . . . . . . . . . . . . . . . . . . . . . . . . . . . . . . . . . . . . . . . . . . . . . . . . . . . . . . . . . . . . . . . . . . . . . . . . . . . . . . ",
"                                                  . . . . . . . . . . . . . . . . . . . . . . . . . . . . . . . . . . . . . . . . . . . . . . . . . . . . . . . . . . . . . . . . . . . . . . . . . . . . . . . . . . . . . . . . . . . . . . . . . . . . . . . . . . . . . . . . . . . . . . . . X , ....r e w w i i i f f L +.>.`.iXuXcXvXnXbXMXMXMXnXzXtX].~.u.&._ ) ) _ { { { { } } &.&.t.t.t.t.n.m.m.Z.Z.H.H.(.).).+X*X%X%X%X%X%X4X%X%X%X%X*X+X+XOXH.H.Z.B.B.n.n.y.9.9.8.| / / ~ ! ! T T T E E Y K J Z V B B M M n b b y y t 8 7 7 5 5 5 4 4 4 4 4 2 2 2 2 2 * = % 9 h ; . . . . . . . . . . . . . . . . . . . . . . . . . . . . . . . . . . . . . . . . . . . . . . . . . . . . . . . . . . . . . . . . . . . . . . . . . . . . . . . . . ",
"                                                  . . . . . . . . . . . . . . . . . . . . . . . . . . . . . . . . . . . . . . . . . . . . . . . . . . . . . . . . . . . . . . . . . . . . . . . . . . . . . . . . . . . . . . . . . . . . . . . . . . . . . . . . . . . . . . . . . . . . . . . . X - ..@.r e q w u i i f f L o.>.`.|.uXzXvXnXbXMXMXMXbXcXfX|.!.u.&._ ) ) _ _ { { { { } } &.t.t.t.t.n.M.m.Z.Z.Z.H.(.(.).+X*X*X%X%X%X%X4X4X%X%X%X*X+X+X+X(.H.Z.Z.B.n.n.n.9.9.8.| ] / ~ ! Q R T T U E E Y J J V B B M M M n b y y t 8 7 7 5 5 5 4 4 4 4 4 4 2 2 2 2 * = % % h a . . . . . . . . . . . . . . . . . . . . . . . . . . . . . . . . . . . . . . . . . . . . . . . . . . . . . . . . . . . . . . . . . . . . . . . . . . . . . . . . . ",
"                                                  . . . . . . . . . . . . . . . . . . . . . . . . . . . . . . . . . . . . . . . . . . . . . . . . . . . . . . . . . . . . . . . . . . . . . . . . . . . . . . . . . . . . . . . . . . . . . . . . . . . . . . . . . . . . . . . . . . . . . . . . . @ z @.f w e w w i i f f L X.$.~.[.tXzXvXnXbXMXMXZXMXvXgX}.!.f.&._ _ ) _ _ { { { { { } &.t.t.t.t.n.n.m.M.Z.Z.H.H.(.).+X+X*X%X%X%X%X4X%X%X%X%X%X+X+X+X(.H.H.Z.B.N.n.n.q.9.9.8.] ^ ~ ~ Q R T T E E E K J J V V B M M M n b y y y 8 7 7 5 5 5 5 4 4 4 4 4 2 2 2 2 2 * = o h a . . . . . . . . . . . . . . . . . . . . . . . . . . . . . . . . . . . . . . . . . . . . . . . . . . . . . . . . . . . . . . . . . . . . . . . . . . . . . . . . . ",
"                                                    . . . . . . . . . . . . . . . . . . . . . . . . . . . . . . . . . . . . . . . . . . . . . . . . . . . . . . . . . . . . . . . . . . . . . . . . . . . . . . . . . . . . . . . . . . . . . . . . . . . . . . . . . . . . . . . . . . . . . . . . @ s @.k w e w w i i f f A ..+.>.`.rXzXvXvXbXMXMXZXMXvXzX}.].~.*._ _ ) ) _ { { { { | } &.t.t.t.t.t.n.M.M.Z.Z.H.H.(.).).+X*X%X%X%X%X%X%X%X%X%X%X+X+X+X+XH.H.S.Z.B.n.l.q.9.9.8.| ^ ^ Q Q R T T E E E K J J Z V B B M M n b b y y 8 7 7 7 5 5 5 4 4 4 4 4 2 2 2 2 2 * = O a g % . . . . . . . . . . . . . . . . . . . . . . . . . . . . . . . . . . . . . . . . . . . . . . . . . . . . . . . . . . . . . . . . . . . . . . . . . . . . . . . . ",
"                                                    . . . . . . . . . . . . . . . . . . . . . . . . . . . . . . . . . . . . . . . . . . . . . . . . . . . . . . . . . . . . . . . . . . . . . . . . . . . . . . . . . . . . . . . . . . . . . . . . . . . . . . . . . . . . . . . . . . . . . . . . X , @.@.w e w w u i i f f ..+.>.`.iXgXcXvXbXbXMXMXMXnXxXtX].~.*.&._ ) ) _ _ { { { { | &.t.t.t.t.t.n.M.m.Z.Z.Z.H.H.(.).+X*X*X%X%X%X%X%X%X%X%X%X+X+X+X+XH.H.H.Z.B.n.l.q.9.9.8.| { ^ ~ Q Q R T T E E E K J Z V B M M M n n b y y t 8 7 7 5 5 5 4 4 4 4 4 2 2 2 2 2 * * % 9 g ; . . . . . . . . . . . . . . . . . . . . . . . . . . . . . . . . . . . . . . . . . . . . . . . . . . . . . . . . . . . . . . . . . . . . . . . . . . . . . . . . ",
"                                                    . . . . . . . . . . . . . . . . . . . . . . . . . . . . . . . . . . . . . . . . . . . . . . . . . . . . . . . . . . . . . . . . . . . . . . . . . . . . . . . . . . . . . . . . . . . . . . . . . . . . . . . . . . . . . . . . . . . . . . . . . - ..+.r e w w i i i f f L o.>.`.|.uXzXvXnXbXMXMXMXbXvXfX|.!.u.&._ ) ) ) _ ` { { { | } t.t.t.t.t.n.M.m.Z.Z.Z.H.H.(.).+X+X*X%X%X%X%X4X4X%X%X%X*X+X+X+X(.H.H.Z.B.N.l.q.9.9.8.] ] ^ ^ ~ Q R T T T E E K J J V B B M M M n b b y t 8 7 7 5 5 5 5 4 4 4 4 4 2 2 2 2 2 $ % % h a . . . . . . . . . . . . . . . . . . . . . . . . . . . . . . . . . . . . . . . . . . . . . . . . . . . . . . . . . . . . . . . . . . . . . . . . . . . . . . . . ",
"                                                      . . . . . . . . . . . . . . . . . . . . . . . . . . . . . . . . . . . . . . . . . . . . . . . . . . . . . . . . . . . . . . . . . . . . . . . . . . . . . . . . . . . . . . . . . . . . . . . . . . . . . . . . . . . . . . . . . . . . . . . . @ z +.f e e w w i i i f L ..$.~.[.tXzXvXnXbXMXMXMXMXvXzX}.!.f.&._ ) ) ) _ { { { { | } &.t.t.t.t.n.n.m.m.Z.Z.Z.H.(.).).+X*X%X%X%X%X4X4X%X%X%X*X+X+X+X+XH.H.Z.B.B.l.q.q.9.9.8.] / ^ ! Q R T U T U E K J J V B B M M M n n b y y t 8 7 7 5 5 5 5 4 4 4 4 2 2 2 2 2 $ = o h a o . . . . . . . . . . . . . . . . . . . . . . . . . . . . . . . . . . . . . . . . . . . . . . . . . . . . . . . . . . . . . . . . . . . . . . . . . . . . . . . ",
"                                                      . . . . . . . . . . . . . . . . . . . . . . . . . . . . . . . . . . . . . . . . . . . . . . . . . . . . . . . . . . . . . . . . . . . . . . . . . . . . . . . . . . . . . . . . . . . . . . . . . . . . . . . . . . . . . . . . . . . . . . . . X s @.k w e w w u i i f A ..+.>.[.rXgXvXvXbXMXMXMXMXnXzX}.].~.&._ _ ) ) _ { { { { { | &.t.t.t.t.t.n.M.M.Z.Z.Z.H.(.).).+X*X%X%X%X%X%X4X%X%X%X%X+X+X+X+XH.H.Z.Z.B.l.l.q.9.9.8.] ^ ^ ! Q R U U T E E E J J K V B M M M n n b y y t 8 7 7 7 5 5 5 4 4 4 4 4 2 2 2 2 $ = # a g : . . . . . . . . . . . . . . . . . . . . . . . . . . . . . . . . . . . . . . . . . . . . . . . . . . . . . . . . . . . . . . . . . . . . . . . . . . . . . . . ",
"                                                      . . . . . . . . . . . . . . . . . . . . . . . . . . . . . . . . . . . . . . . . . . . . . . . . . . . . . . . . . . . . . . . . . . . . . . . . . . . . . . . . . . . . . . . . . . . . . . . . . . . . . . . . . . . . . . . . . . . . . . . . X , @...w e e w u i i f f ..+.>.`.iXuXcXvXnXbXMXMXMXnXcXtX].~.*.&._ ) ) _ ) ) { { { { } t.t.t.t.t.M.M.m.Z.Z.Z.H.(.).).+X*X%X%X%X%X%X4X%X%X%X%X+X+X+X+XH.H.J.J.B.l.l.q.9.9.8.] / ^ ~ Q R R U U E E E K J J Z V B M M M n b b y t 8 8 7 5 5 5 5 4 4 4 4 4 2 2 2 2 * * % 9 g ; . . . . . . . . . . . . . . . . . . . . . . . . . . . . . . . . . . . . . . . . . . . . . . . . . . . . . . . . . . . . . . . . . . . . . . . . . . . . . . . ",
"                                                      . . . . . . . . . . . . . . . . . . . . . . . . . . . . . . . . . . . . . . . . . . . . . . . . . . . . . . . . . . . . . . . . . . . . . . . . . . . . . . . . . . . . . . . . . . . . . . . . . . . . . . . . . . . . . . . . . . . . . . . . X @ z +.r e q w w u i i f L o.>.`.|.uXzXvXnXbXMXMXMXbXvXfX|.!.u.&._ ) ) _ _ ) { { { | } &.t.t.t.t.n.M.M.Z.Z.Z.H.(.).).+X*X%X%X%X%X%X%X%X%X%X%X*X+X+X+X+XH.H.Z.B.l.l.q.9.9.8.| ] / ~ ~ Q R U U T E E K J J K V Z V M M n b b y y t 8 7 5 5 5 5 4 4 4 4 4 4 2 2 2 2 $ % % h a . . . . . . . . . . . . . . . . . . . . . . . . . . . . . . . . . . . . . . . . . . . . . . . . . . . . . . . . . . . . . . . . . . . . . . . . . . . . . . . ",
"                                                        . . . . . . . . . . . . . . . . . . . . . . . . . . . . . . . . . . . . . . . . . . . . . . . . . . . . . . . . . . . . . . . . . . . . . . . . . . . . . . . . . . . . . . . . . . . . . . . . . . . . . . . . . . . . . . . . . . . . . . . . @ z @.i e q w w u i i f L X.$.~.[.tXzXvXvXbXMXMXMXMXvXzX|.!.u.&._ _ ) _ _ ) { { { { } &.t.t.t.t.n.n.m.M.Z.Z.H.(.(.).).*X*X%X%X%X%X%X%X%X%X%X*X+X+X+X+XH.H.Z.B.B.l.l.q.9.9.8.] / ^ ! Q ! U U U T T K K J K Z Z Z M M b b b y y t 8 7 7 5 5 5 5 4 4 4 4 4 2 2 2 2 $ = o h a o . . . . . . . . . . . . . . . . . . . . . . . . . . . . . . . . . . . . . . . . . . . . . . . . . . . . . . . . . . . . . . . . . . . . . . . . . . X X @ X ",
"                                                        . . . . . . . . . . . . . . . . . . . . . . . . . . . . . . . . . . . . . . . . . . . . . . . . . . . . . . . . . . . . . . . . . . . . . . . . . . . . . . . . . . . . . . . . . . . . . . . . . . . . . . . . . . . . . . . . . . . . . . . . X s @.k e q e w u i i f A ..+.>.`.rXzXcXvXnXMXMXMXMXnXxX}.].f.&.{ _ ) _ _ ) { { { { | &.&.t.t.t.n.n.M.M.Z.Z.H.(.(.).).).*X*X%X%X%X%X%X%X%X%X%X+X+X+X+XH.H.J.B.B.l.l.q.9.9.8.] ] ^ ^ ! ! W W U T T T K J K Z Z Z M M M b b y y t 8 7 7 7 5 5 5 4 4 4 4 4 2 2 2 2 * = # a g % . . . . . . . . . . . . . . . . . . . . . . . . . . . . . . . . . . . . . . . . . . . . . . . . . . . . . . . . . . . . . . . . . . . . . . X X @ X X X . . ",
"                                                        . . . . . . . . . . . . . . . . . . . . . . . . . . . . . . . . . . . . . . . . . . . . . . . . . . . . . . . . . . . . . . . . . . . . . . . . . . . . . . . . . . . . . . . . . . . . . . . . . . . . . . . . . . . . . . . . . . . . . . . . X , @...w e e w w u i f f ..+.>.`.rXgXcXvXnXbXMXMXMXnXxXtX].~.*.&._ ) ) ) ) { { { { | &.&.t.t.t.t.n.M.M.Z.Z.Z.(.(.(.).).+X*X%X%X%X%X%X%X%X%X%X+X+X+X+XH.H.J.B.B.l.l.q.9.9.6.] ] ^ ^ ~ ! W W U T T K K J K K Z Z V M M n b b y t t 8 7 7 5 5 5 5 4 4 4 4 2 2 2 2 * * % 9 g ; . . . . . . . . . . . . . . . . . . . . . . . . . . . . . . . . . . . . . . . . . . . . . . . . . . . . . . . . . . . . . . . . . . X X @ X X X . . . . . . ",
"                                                        . . . . . . . . . . . . . . . . . . . . . . . . . . . . . . . . . . . . . . . . . . . . . . . . . . . . . . . . . . . . . . . . . . . . . . . . . . . . . . . . . . . . . . . . . . . . . . . . . . . . . . . . . . . . . . . . . . . . . . . . . - z +.w e e q w w i i f L o.>.`.|.uXzXvXnXbXMXMXMXbXvXfX|.~.*.&._ ) ) _ ) _ { { { | &.&.t.t.t.t.n.M.M.Z.Z.Z.H.(.(.).).+X*X%X%X%X%X4X4X%X%X%X+X+X+X+X).H.H.J.B.B.l.q.q.9.9.6.] / ^ ~ ! ! W U U T T K K J K Z Z B M M n b b y y t 8 7 7 7 7 5 5 4 4 4 4 4 4 2 2 2 $ % % h a . . . . . . . . . . . . . . . . . . . . . . . . . . . . . . . . . . . . . . . . . . . . . . . . . . . . . . . . . . . . . . X X @ X X X . . . . . . . . . . ",
"                                                          . . . . . . . . . . . . . . . . . . . . . . . . . . . . . . . . . . . . . . . . . . . . . . . . . . . . . . . . . . . . . . . . . . . . . . . . . . . . . . . . . . . . . . . . . . . . . . . . . . . . . . . . . . . . . . . . . . . . . . . . @ h @.i e e e w w i i f L o.$.~.[.tXzXcXnXnXMXMXMXbXvXgX|.!.u.&._ ) ) _ ) _ { { { | } &.t.t.t.t.n.n.M.N.Z.Z.H.(.(.).).+X+X%X%X%X%X4X4X%X%X%X+X+X+X+X+XH.H.J.B.B.l.l.q.9.9.6.] / ^ ^ ! ! W R U T T K K J K Z Z B M M N b b y y t 8 8 7 7 7 7 5 5 4 4 4 4 2 2 2 2 $ = o g a o . . . . . . . . . . . . . . . . . . . . . . . . . . . . . . . . . . . . . . . . . . . . . . . . . . . . . . . . . X X @ X X X . . . . . . . . . . . . . . ",
"                                                          . . . . . . . . . . . . . . . . . . . . . . . . . . . . . . . . . . . . . . . . . . . . . . . . . . . . . . . . . . . . . . . . . . . . . . . . . . . . . . . . . . . . . . . . . . . . . . . . . . . . . . . . . . . . . . . . . . . . . . . . X s @.k e e e w w i i p L ..$.>.[.rXgXzXvXnXMXMXMXbXvXzX}.!.f.&.{ ) ) ) ) ) ` { { | } &.t.t.t.t.n.n.M.N.Z.Z.Z.H.(.).).+X+X*X%X%X%X%X4X4X4X%X%X+X+X+X+XH.H.J.Z.B.l.l.q.9.9.6.6.] / ^ ^ ! W R U T T T K J J Z Z B M M M b b y y t t 8 7 7 7 7 5 5 4 4 4 4 2 2 2 2 * = # a g & . . . . . . . . . . . . . . . . . . . . . . . . . . . . . . . . . . . . . . . . . . . . . . . . . . . . . X X @ X X X . . . . . . . . . . . . . . . . . . ",
"                                                          . . . . . . . . . . . . . . . . . . . . . . . . . . . . . . . . . . . . . . . . . . . . . . . . . . . . . . . . . . . . . . . . . . . . . . . . . . . . . . . . . . . . . . . . . . . . . . . . . . . . . . . . . . . . . . . . . . . . . . . . X , ....w e e w w w i i f ..+.>.`.rXuXzXvXnXbXMXMXMXnXxXtX].~.&.} ) ) ) ) ) _ { { { | &.t.t.t.t.t.n.M.N.Z.Z.Z.H.(.(.).).+X+X%X%X%X%X4X4X4X4X+X+X+X+X+X+XH.H.Z.B.B.l.l.q.9.6.6.] / ^ W ! ! R U T T T T J J Z Z Z V M M b b b y y t 8 7 7 7 7 5 5 4 4 4 4 4 2 2 2 * * % ; g ; . . . . . . . . . . . . . . . . . . . . . . . . . . . . . . . . . . . . . . . . . . . . . . . . . X X @ X X X . . . . . . . . . . . . . . . . . . . . . . ",
"                                                          . . . . . . . . . . . . . . . . . . . . . . . . . . . . . . . . . . . . . . . . . . . . . . . . . . . . . . . . . . . . . . . . . . . . . . . . . . . . . . . . . . . . . . . . . . . . . . . . . . . . . . . . . . . . . . . . . . . . . . . . X @ z @.r e e w w w i i f L o.>.`.|.tXzXcXnXbXMXMXMXnXxXtX].~.u.&._ ) ) ) ) ) { { | | } t.t.t.t.t.n.n.M.N.Z.Z.Z.H.(.).).+X+X%X%X%X%X4X4X4X4X%X+X+X+X+X+XH.H.J.B.B.l.l.q.9.9.8.] / ^ / ! ! W U U T T T J J K Z Z B M M b b b y y t 8 7 7 7 7 5 5 4 4 4 4 4 2 2 2 2 $ % % g a . . . . . . . . . . . . . . . . . . . . . . . . . . . . . . . . . . . . . . . . . . . . . X X @ X X X . . . . . . . . . . . . . . . . . . . . . . . . . . ",
"                                                            . . . . . . . . . . . . . . . . . . . . . . . . . . . . . . . . . . . . . . . . . . . . . . . . . . . . . . . . . . . . . . . . . . . . . . . . . . . . . . . . . . . . . . . . . . . . . . . . . . . . . . . . . . . . . . . . . . . . . . . . X f @.f e e q w w w i f L o.$.~.[.tXzXzXvXbXbXMXMXnXvXfX|.~.u.&.) ) ) ) ) { { { { | } &.t.t.t.t.n.n.M.N.Z.Z.Z.H.(.).).+X+X%X%X%X%X4X4X4X4X%X+X+X+X+X+X(.H.H.B.B.l.l.q.9.9.8.] / ^ / ~ Q R U U T T T J J J Z Z B M M M b b y y t 8 8 7 7 7 7 5 5 4 4 4 4 2 2 2 2 $ = o g a o . . . . . . . . . . . . . . . . . . . . . . . . . . . . . . . . . . . . . . . . X X @ X X X . . . . . . . . . . . . . . . . . . . . . . . . . . . . . . ",
"                                                            . . . . . . . . . . . . . . . . . . . . . . . . . . . . . . . . . . . . . . . . . . . . . . . . . . . . . . . . . . . . . . . . . . . . . . . . . . . . . . . . . . . . . . . . . . . . . . . . . . . . . . . . . . . . . . . . . . . . . . . . X s ..k w e q w w w i p L X.$.>.[.rXgXzXvXnXbXbXbXbXvXzX}.!.u.&._ ) ) ) ) ) { { { | } &.t.t.t.t.y.n.M.N.Z.Z.Z.H.(.(.).).+X%X%X%X4X4X4X4X4X4X4X+X+X+X+X+XH.H.J.B.n.l.l.9.9.6.] ] / ^ ^ ! ! U U T T T Y J Z V V B M M M b b b y t t 7 7 7 7 7 7 5 4 5 4 4 2 2 2 2 * = # a g % . . . . . . . . . . . . . . . . . . . . . . . . . . . . . . . . . . . . X X @ X X X . . . . . . . . . . . . . . . . . . . . . . . . . . . . . . . . . . ",
"                                                            . . . . . . . . . . . . . . . . . . . . . . . . . . . . . . . . . . . . . . . . . . . . . . . . . . . . . . . . . . . . . . . . . . . . . . . . . . . . . . . . . . . . . . . . . . . . . . . . . . . . . . . . . . . . . . . . . . . . . . . . X , z k w e q w w w i i A ..+.>.`.iXuXzXcXnXbXbXbXbXnXzX}.].~.*.{ ) ) ) ) { { { { | | &.t.t.t.t.t.n.M.M.Z.Z.Z.H.(.(.).).+X+X%X%X4X%X4X4X4X4X4X+X+X+X+X+XH.H.J.B.B.l.l.q.9.9.8.] / ^ ^ ~ ! R U U E E Y J J V V B B M M n b b y y t 8 7 7 7 7 7 7 5 5 5 4 4 2 2 2 * * % = a ; . . . . . . . . . . . . . . . . . . . . . . . . . . . . . . . . X X @ X X X . . . . . . . . . . . . . . . . . . . . . . . . . . . . . . . . . . . . . . ",
"                                                            . . . . . . . . . . . . . . . . . . . . . . . . . . . . . . . . . . . . . . . . . . . . . . . . . . . . . . . . . . . . . . . . . . . . . . . . . . . . . . . . . . . . . . . . . . . . . . . . . . . . . . . . . . . . . . . . . . . . . . . . X - z ..w e e w w w i i f ..o.>.`.|.tXzXxXnXnXbXbXbXnXxXtX].~.*.&.) ) ) ) { { { { | | &.t.t.t.t.t.n.M.M.Z.Z.Z.H.(.(.(.).).+X%X4X%X4X4X4X4X4X4X4X+X+X+X+XI.H.J.B.B.l.l.q.9.9.8.] [ / ^ ~ Q R R U E E Y J J Z V B B M M n b b y y t t 8 7 5 5 5 5 5 5 4 4 4 2 2 2 2 $ % % d a . . . . . . . . . . . . . . . . . . . . . . . . . . . . X X @ X X X . . . . . . . . . . . . . . . . . . . . . . . . . . . . . . . . . . . . . . . . . . ",
"                                                              . . . . . . . . . . . . . . . . . . . . . . . . . . . . . . . . . . . . . . . . . . . . . . . . . . . . . . . . . . . . . . . . . . . . . . . . . . . . . . . . . . . . . . . . . . . . . . . . . . . . . . . . . . . . . . . . . . . . . . . . @ f ..r e q q w w u i f L o.*.~.[.tXgXxXvXnXbXbXbXnXxXfX|.!.u.&.) ) ) ) { { { { { | } t.t.t.t.t.n.n.M.N.Z.Z.H.H.(.(.).).+X+X%X%X4X4X4X4X4X4X4X+X+X+X+XI.H.H.J.B.n.l.l.9.9.6.] ] / ^ ~ Q R R U E E T Y J Z V V B M M M n b y y t t 8 7 7 5 7 5 5 5 5 4 4 2 2 2 2 $ = o d a X . . . . . . . . . . . . . . . . . . . . . . . X X @ X X X . . . . . . . . . . . . . . . . . . . . . . . . . . . . . . . . . . . . . . . . . . . . . . ",
"                                                              . . . . . . . . . . . . . . . . . . . . . . . . . . . . . . . . . . . . . . . . . . . . . . . . . . . . . . . . . . . . . . . . . . . . . . . . . . . . . . . . . . . . . . . . . . . . . . . . . . . . . . . . . . . . . . . . . . . . . . . . @ s z f q q q q w u i f L X.$.f.[.rXgXzXvXnXbXbXbXnXvXzX}.!.f.&._ ) ) ) { { { { { | } &.t.t.t.t.n.n.M.N.Z.Z.Z.H.H.(.).).+X+X%X4X4X%X4X4X4X4X+X+X+X+X+XH.H.H.J.B.B.l.l.9.9.9.8.] / ^ ^ ! Q U U E E Y Y J Z V V B B M M n b b y y t t 7 7 7 7 5 5 5 5 4 4 2 2 2 2 * = # a a = . . . . . . . . . . . . . . . . . . . X X @ X X X . . . . . . . . . . . . . . . . . . . . . . . . . . . . . . . . . . . . . . . . . . . . . . . . . . ",
"                                                              . . . . . . . . . . . . . . . . . . . . . . . . . . . . . . . . . . . . . . . . . . . . . . . . . . . . . . . . . . . . . . . . . . . . . . . . . . . . . . . . . . . . . . . . . . . . . . . . . . . . . . . . . . . . . . . . . . . . . . . . X > k f w q q w w u u i A ..+.>.`.rXtXzXvXnXnXbXbXnXvXxXtX].~.*.{ ) ) ) _ { { { { | } &.t.t.t.t.n.n.M.N.Z.Z.Z.H.H.(.).).+X+X%X%X4X%X4X%X%X4X+X+X+X+X+X+XH.H.J.B.B.l.l.l.9.9.8.] [ / ^ ! Q R U E E T Y J Z V V V B M M n n b y y t t 8 7 7 7 5 5 5 5 4 4 4 2 2 2 2 * % = a ; . . . . . . . . . . . . . . . X X @ X X X . . . . . . . . . . . . . . . . . . . . . . . . . . . . . . . . . . . . . . . . . . . . . . . . . . . . . . ",
"                                                              . . . . . . . . . . . . . . . . . . . . . . . . . . . . . . . . . . . . . . . . . . . . . . . . . . . . . . . . . . . . . . . . . . . . . . . . . . . . . . . . . . . . . . . . . . . . . . . . . . . . . . . . . . . . . . . . . . . . . . . . X - f k w q q q w u u i A ..o.>.`.[.tXzXxXnXnXbXbXbXnXxXfX].~.*.&._ ) ) _ { { { { | } &.t.t.t.t.n.n.M.M.Z.Z.Z.H.H.H.(.).+X+X+X%X%X%X%X4X4X4X4X+X+X+X+XI.H.H.J.B.B.n.l.l.9.9.8.] [ / ^ ~ Q R R U E Y Y J Z V V V B B M n n b y y y t 8 7 7 7 5 5 5 5 4 4 4 2 2 2 2 $ % % a a . . . . . . . . . . . X X @ X X X . . . . . . . . . . . . . . . . . . . . . . . . . . . . . . . . . . . . . . . . . . . . . . . . . . . . . . . . . . ",
"                                                                . . . . . . . . . . . . . . . . . . . . . . . . . . . . . . . . . . . . . . . . . . . . . . . . . . . . . . . . . . . . . . . . . . . . . . . . . . . . . . . . . . . . . . . . . . . . . . . . . . . . . . . . . . . . . . . . . . . . . . . . @ s k i e q q w u u i f L o.*.~.[.tXgXzXvXnXbXbXbXnXvXfX|.~.u.&._ ) ) _ { { { { | | &.t.t.t.t.t.n.M.M.Z.Z.Z.Z.H.H.(.).+X+X+X%X%X%X%X+X4X4X4X+X+X+X+XY.I.H.J.J.B.M.l.l.9.9.6.] ] / ^ ~ Q ! R U E Y Y J J V V V B B M M n b b y y t 8 7 7 7 7 5 5 5 5 4 4 4 4 4 2 $ = o a g + . . . . . . X X @ X X X . . . . . . . . . . . . . . . . . . . . . . . . . . . . . . . . . . . . . . . . . . . . . . . . . . . . . . . . . . . . . . ",
"                                                                . . . . . . . . . . . . . . . . . . . . . . . . . . . . . . . . . . . . . . . . . . . . . . . . . . . . . . . . . . . . . . . . . . . . . . . . . . . . . . . . . . . . . . . . . . . . . . . . . . . . . . . . . . . . . . . . . . . . . . . . @ r f i q q q q w u i f L X.$.>.[.rXgXzXvXnXnXbXbXbXnXzX}.!.u.&._ ) ) _ { { { { | | } &.t.t.t.t.n.n.M.N.Z.Z.Z.H.H.(.(.).+X+X%X%X%X+X+X+X4X4X4X+X+X+X+XI.H.H.J.B.M.l.l.9.9.6.] ] / ^ ^ ! Q R U E E Y J J Z V V V B M M n b b y y t t 7 7 7 7 5 5 5 5 4 4 4 4 4 2 * = # 9 d - . . X X X X X X . . . . . . . . . . . . . . . . . . . . . . . . . . . . . . . . . . . . . . . . . . . . . . . . . . . . . . . . . . . . . . . . . . ",
"                                                                . . . . . . . . . . . . . . . . . . . . . . . . . . . . . . . . . . . . . . . . . . . . . . . . . . . . . . . . . . . . . . . . . . . . . . . . . . . . . . . . . . . . . . . . . . . . . . . . . . . . . . . . . . . . . . . . . . . . . . . . X > f i w q q q w w u i A ..+.>.`.rXtXzXxXnXnXbXbXbXnXzX}.].~.&.{ _ ) ) { { { { { | } &.t.t.t.t.n.n.M.M.Z.Z.Z.H.H.H.(.).+X+X%X%X%X%X+X+X4X4X%X+X+X+X+XY.I.H.J.B.M.l.l.l.9.9.] ] / / ^ ~ Q R U E E E Y J Z V V V V M M n n b y y t t 8 7 7 7 7 7 5 5 5 4 4 4 4 2 2 * % - a 9 O X X X . . . . . . . . . . . . . . . . . . . . . . . . . . . . . . . . . . . . . . . . . . . . . . . . . . . . . . . . . . . . . . . . . . . . . . ",
"                                                                . . . . . . . . . . . . . . . . . . . . . . . . . . . . . . . . . . . . . . . . . . . . . . . . . . . . . . . . . . . . . . . . . . . . . . . . . . . . . . . . . . . . . . . . . . . . . . . . . . . . . . . . . . . . . . . . . . . . . . . . . - f f w q q q w w u i A ..o.>.!.[.tXzXxXvXnXnXbXbXnXxXfX].~.*.&._ ) ) _ { { { { | } &.t.t.t.t.t.n.M.M.Z.Z.Z.H.H.H.(.).+X+X*X%X+X+X%X%X+X4X+X+X+X+X+X+XI.H.H.B.B.n.l.l.9.9.8.] [ ^ ^ ~ Q R R E E Y Y J C V V V V M M n n b y y y t t 7 7 7 5 5 5 5 5 4 4 4 4 2 2 $ % % a a o . . . . . . . . . . . . . . . . . . . . . . . . . . . . . . . . . . . . . . . . . . . . . . . . . . . . . . . . . . . . . . . . . . . . . . . . . ",
"                                                                  . . . . . . . . . . . . . . . . . . . . . . . . . . . . . . . . . . . . . . . . . . . . . . . . . . . . . . . . . . . . . . . . . . . . . . . . . . . . . . . . . . . . . . . . . . . . . . . . . . . . . . . . . . . . . . . . . . . . . . . . & f f r e q q w w u i f L o.>.~.[.tXgXzXvXnXnXbXbXbXvXgX|.!.u.&._ ) ) _ { { { { { | &.&.t.t.t.t.n.n.M.Z.Z.Z.Z.H.H.(.).).+X+X+X+X+X+X%X+X4X4X+X+X+X+X+XY.H.J.J.B.M.l.l.9.9.6.] ] / ^ ~ Q ! R U E Y Y J K C V V B B M M b b b y y y t 8 7 7 7 5 5 5 5 4 4 4 4 4 2 $ * o a d + . . . . . . . . . . . . . . . . . . . . . . . . . . . . . . . . . . . . . . . . . . . . . . . . . . . . . . . . . . . . . . . . . . . . . . . . . ",
"                                                                  . . . . . . . . . . . . . . . . . . . . . . . . . . . . . . . . . . . . . . . . . . . . . . . . . . . . . . . . . . . . . . . . . . . . . . . . . . . . . . . . . . . . . . . . . . . . . . . . . . . . . . . . . . . . . . . . . . . . . . . . @ s f i q q q w w u i f L X.$.f.[.rXgXzXcXnXnXbXbXbXvXzX}.!.u.&.{ _ ) _ _ { { { { | } &.t.t.t.t.n.n.M.N.Z.Z.Z.H.(.(.).).+X+X%X+X+X%X%X+X+X4X+X+X+X+X+XY.H.H.J.B.M.l.l.9.9.9.| ] / ^ ^ ! ! R U E E Y K J C V V V B M M b b b y y y t t 7 7 7 5 7 5 5 4 4 4 4 2 2 * $ # 9 d - . . . . . . . . . . . . . . . . . . . . . . . . . . . . . . . . . . . . . . . . . . . . . . . . . . . . . . . . . . . . . . . . . . . . . . . . . ",
"                                                                  . . . . . . . . . . . . . . . . . . . . . . . . . . . . . . . . . . . . . . . . . . . . . . . . . . . . . . . . . . . . . . . . . . . . . . . . . . . . . . . . . . . . . . . . . . . . . . . . . . . . . . . . . . . . . . . . . . . . . . . . O e f f w q q w w u i p A ..$.>.`.rXtXzXxXvXnXnXbXbXnXxX}.].~.&.{ _ ) _ _ { { { { | } &.t.t.t.t.n.n.M.Z.Z.Z.Z.H.H.(.).).+X+X+X+X+X+X+X+X+X4X4X+X+X+X+X+XI.H.J.B.M.l.l.l.9.9.8.] / / ^ ! Q R U U U E Y J C V V V B M M M b b y y y y 8 7 7 7 7 7 5 5 5 4 4 4 2 2 2 $ # = a 9 . . . . . . . . . . . . . . . . . . . . . . . . . . . . . . . . . . . . . . . . . . . . . . . . . . . . . . . . . . . . . . . . . . . . . . . . . ",
"                                                                  . . . . . . . . . . . . . . . . . . . . . . . . . . . . . . . . . . . . . . . . . . . . . . . . . . . . . . . . . . . . . . . . . . . . . . . . . . . . . . . . . . . . . . . . . . . . . . . . . . . . . . . . . . . . . . . . . . . . . . . . . - h f w q q w w u i i f L o.>.`.|.tXzXxXvXnXnXbXbXnXxXfX].~.*.&._ ) ) _ { { { | | } &.t.t.t.t.n.n.M.M.Z.Z.J.H.H.H.(.).+X+X+X+X+X+X+X+X+X4X4X+X+X+X+X+XH.H.J.B.B.n.l.l.9.9.8.] ] / ^ ~ W R U U U E E J C C V V B M M M b b y y y y t 7 7 7 7 7 5 5 5 5 4 4 2 2 2 $ # % a a o . . . . . . . . . . . . . . . . . . . . . . . . . . . . . . . . . . . . . . . . . . . . . . . . . . . . . . . . . . . . . . . . . . . . . . . . ",
"                                                                    . . . . . . . . . . . . . . . . . . . . . . . . . . . . . . . . . . . . . . . . . . . . . . . . . . . . . . . . . . . . . . . . . . . . . . . . . . . . . . . . . . . . . . . . . . . . . . . . . . . . . . . . . . . . . . . . . . . . . . . . & f f w e q q w w i i f L o.*.~.[.tXgXzXvXnXnXbXbXnXvXfX|.~.u.&._ ) ) _ ` { { { | } } &.t.t.t.t.n.n.M.Z.Z.Z.H.H.H.(.).).+X+X+X+X%X+X4X4X4X4X+X+X+X+X+XI.H.J.J.B.n.l.l.9.9.6.] ] / ^ ~ W R W U U E E E J C V V B B M M b b b y y y t 8 7 7 7 7 5 5 5 5 4 4 2 2 2 $ $ # a d + . . . . . . . . . . . . . . . . . . . . . . . . . . . . . . . . . . . . . . . . . . . . . . . . . . . . . . . . . . . . . . . . . . . . . . . . ",
"                                                                    . . . . . . . . . . . . . . . . . . . . . . . . . . . . . . . . . . . . . . . . . . . . . . . . . . . . . . . . . . . . . . . . . . . . . . . . . . . . . . . . . . . . . . . . . . . . . . . . . . . . . . . . . . . . . . . . . . . . . . . . @ s f i e q e q w i i f L X.$.>.[.rXgXzXvXnXnXbXbXbXvXzX}.!.u.&._ ) ) ) ` { { { | } } &.t.t.t.t.n.n.M.M.Z.Z.H.H.H.(.).).+X+X+X+X%X+X4X4X+X+X+X+X+X+XY.I.H.J.J.B.M.l.l.9.9.6.] ] / ^ ~ W W R U U U E E J C V V V B M M b b b y y y t 8 8 7 7 7 7 7 7 4 5 4 2 2 2 $ $ # a d - . . . . . . . . . . . . . . . . . . . . . . . . . . . . . . . . . . . . . . . . . . . . . . . . . . . . . . . . . . . . . . . . . . . . . . . . ",
"                                                                    . . . . . . . . . . . . . . . . . . . . . . . . . . . . . . . . . . . . . . . . . . . . . . . . . . . . . . . . . . . . . . . . . . . . . . . . . . . . . . . . . . . . . . . . . . . . . . . . . . . . . . . . . . . . . . . . . . . . . . . . X a h f w q e q w u i p A ..+.>.`.rXtXzXxXnXnXbXbXbXnXxX}.].~.&.{ _ ) ) _ { { { | | } &.t.t.t.t.n.n.M.M.Z.Z.J.H.H.H.).).+X+X+X+X+X+X4X4X+X+X+X+X+X+X+XI.H.H.J.B.M.l.l.q.9.6.6.] / ^ ~ ~ W R R U U E E K C V V V B M M b b b y y y t 8 8 7 7 7 7 7 7 5 5 4 4 2 2 $ $ # - d 9 . . . . . . . . . . . . . . . . . . . . . . . . . . . . . . . . . . . . . . . . . . . . . . . . . . . . . . . . . . . . . . . . . . . . . . . . ",
"                                                                    . . . . . . . . . . . . . . . . . . . . . . . . . . . . . . . . . . . . . . . . . . . . . . . . . . . . . . . . . . . . . . . . . . . . . . . . . . . . . . . . . . . . . . . . . . . . . . . . . . . . . . . . . . . . . . . . . . . . . . . . . - z f w q q q w u i i A ..o.>.`.|.tXzXxXvXnXbXbXbXnXxXfX].~.*.&._ ) ) _ { { { { | } &.t.t.t.t.t.n.n.M.Z.Z.Z.H.H.H.).).).+X+X+X+X+X4X4X+X+X+X+X+X+X+XI.H.H.J.B.B.l.l.q.9.6.8.] ] ^ ^ ~ Q R W U U E E J C C V V Z M M n b b y y y y y 8 7 7 7 7 7 7 7 5 5 4 2 2 2 $ # * d a o . . . . . . . . . . . . . . . . . . . . . . . . . . . . . . . . . . . . . . . . . . . . . . . . . . . . . . . . . . . . . . . . . . . . . . . ",
"                                                                      . . . . . . . . . . . . . . . . . . . . . . . . . . . . . . . . . . . . . . . . . . . . . . . . . . . . . . . . . . . . . . . . . . . . . . . . . . . . . . . . . . . . . . . . . . . . . . . . . . . . . . . . . . . . . . . . . . . . . . . . @ h f i q q q w u u i f L o.*.~.[.tXgXzXvXnXnXbXbXnXvXgX|.~.u.&._ ) ) _ { { { { { | } &.t.t.t.t.n.n.M.M.Z.Z.Z.H.H.H.).).).+X+X+X+X4X4X+X+X+X+X+X+X+XY.Y.H.J.B.B.l.l.q.9.9.8.] ] ^ ^ ~ Q R W U E E E J K V V B Z B M M b b v y y y y 8 8 7 8 7 7 7 7 5 5 4 2 2 2 $ $ # a d % . . . . . . . . . . . . . . . . . . . . . . . . . . . . . . . . . . . . . . . . . . . . . . . . . . . . . . . . . . . . . . . . . . . . . . . ",
"                                                                      . . . . . . . . . . . . . . . . . . . . . . . . . . . . . . . . . . . . . . . . . . . . . . . . . . . . . . . . . . . . . . . . . . . . . . . . . . . . . . . . . . . . . . . . . . . . . . . . . . . . . . . . . . . . . . . . . . . . . . . . @ s f i q q q w w u i f L X.$.f.].rXuXzXcXnXnXbXbXbXvXzX}.!.u.&._ ) _ _ ` { { { { | } &.t.t.t.t.n.n.M.M.Z.Z.J.H.H.H.).).).+X+X+X+X+X+X+X+X+X+X+X+X+X+XI.H.H.J.B.l.l.q.9.9.6.6.] ^ ^ ~ Q W W U E E Y K J C V B Z B M M b b b y y y y 8 8 8 7 7 7 5 7 5 5 4 2 2 < $ $ # 6 d = . . . . . . . . . . . . . . . . . . . . . . . . . . . . . . . . . . . . . . . . . . . . . . . . . . . . . . . . . . . . . . . . . . . . . . . ",
"                                                                      . . . . . . . . . . . . . . . . . . . . . . . . . . . . . . . . . . . . . . . . . . . . . . . . . . . . . . . . . . . . . . . . . . . . . . . . . . . . . . . . . . . . . . . . . . . . . . . . . . . . . . . . . . . . . . . . . . . . . . . . X a h f w q q q w u u i A ..$.>.`.|.tXzXxXnXnXnXbXbXnXxXtX].~.&.} _ ) _ { { { { { | } &.t.t.t.t.t.n.n.M.B.Z.Z.H.H.H.H.).).+X+X+X+X+X+X+X+X+X+X+X+X+X+XI.H.H.D.B.l.l.q.9.9.6.6.] / ^ ~ ~ W R R E E Y J J V V V Z M M n n b b y y y y 8 8 8 7 7 7 5 7 5 5 4 4 2 < < $ # * a 9 . . . . . . . . . . . . . . . . . . . . . . . . . . . . . . . . . . . . . . . . . . . . . . . . . . . . . . . . . . . . . . . . . . . . . . . ",
"                                                                      . . . . . . . . . . . . . . . . . . . . . . . . . . . . . . . . . . . . . . . . . . . . . . . . . . . . . . . . . . . . . . . . . . . . . . . . . . . . . . . . . . . . . . . . . . . . . . . . . . . . . . . . . . . . . . . . . . . . . . . . X - h f w q q q w u u i f L o.>.`.[.tXzXxXvXnXbXbXbXnXxXfX].~.u.&._ _ ) _ { { { { | | } &.&.t.t.t.n.n.M.M.B.Z.J.H.H.H.).).+X+X+X+X+X+X+X+X+X+X+X+X+X+X+XH.H.J.B.B.l.l.9.9.6.6.] / / ~ ~ W R R E U Y K K C V Z B M M n n b b v y y y y 8 8 7 7 7 7 7 7 4 4 4 2 < < $ $ $ 9 a o . . . . . . . . . . . . . . . . . . . . . . . . . . . . . . . . . . . . . . . . . . . . . . . . . . . . . . . . . . . . . . . . . . . . . . ",
"                                                                        . . . . . . . . . . . . . . . . . . . . . . . . . . . . . . . . . . . . . . . . . . . . . . . . . . . . . . . . . . . . . . . . . . . . . . . . . . . . . . . . . . . . . . . . . . . . . . . . . . . . . . . . . . . . . . . . . . . . . . . . @ f f u q q q w u u i f L o.*.~.[.tXgXxXvXnXnXbXbXnXvXgX|.!.u.&._ _ ) _ { { { { { | } &.&.&.9.t.l.n.M.B.B.Z.J.H.H.H.H.).+X+X+X+X+X+X+X+X+X+X+X+X+X+XY.H.H.J.B.B.l.l.9.9.6.6.] ] / / W W R R E Y K K C V V B B M M n n b b v y y y 8 8 8 7 7 7 7 7 7 5 5 4 4 < < < $ # 6 h % . . . . . . . . . . . . . . . . . . . . . . . . . . . . . . . . . . . . . . . . . . . . . . . . . . . . . . . . . . . . . . . . . . . . . . ",
"                                                                        . . . . . . . . . . . . . . . . . . . . . . . . . . . . . . . . . . . . . . . . . . . . . . . . . . . . . . . . . . . . . . . . . . . . . . . . . . . . . . . . . . . . . . . . . . . . . . . . . . . . . . . . . . . . . . . . . . . . . . . . @ a f i q q q q w u i p L X.$.>.[.rXfXzXxXnXnXnXbXbXnXzX}.!.u.&.{ _ ) _ _ { { { { | | } &.9.9.t.t.n.n.M.M.B.Z.J.H.H.H.).+X+X+X+X+X+X+X+X+X+X+X+X+XY.Y.Y.H.J.B.B.l.l.q.9.6.8.] [ / / ~ Q Q R E E K J C V V B M M M M n b b y y y y 8 8 8 7 7 7 7 5 5 5 4 4 4 4 < < $ $ $ d 9 O . . . . . . . . . . . . . . . . . . . . . . . . . . . . . . . . . . . . . . . . . . . . . . . . . . . . . . . . . . . . . . . . . . . . . ",
"                                                                        . . . . . . . . . . . . . . . . . . . . . . . . . . . . . . . . . . . . . . . . . . . . . . . . . . . . . . . . . . . . . . . . . . . . . . . . . . . . . . . . . . . . . . . . . . . . . . . . . . . . . . . . . . . . . . . . . . . . . . . . X a h d q q q q w u u i A ..$.>.`.|.tXzXxXvXnXnXbXbXnXzX}.].~.*.&._ ) _ _ { { { { { | } &.r.9.t.9.n.n.M.B.B.Z.J.H.H.H.H.+X+X+X+X+X4X+X+X+X+X+X+X+XY.Y.Y.H.J.J.B.l.l.q.9.6.8.] [ ^ / / ~ Q R E E K K C V V B M M M M n n b y y y y y 8 8 8 8 7 7 5 5 5 5 5 4 4 < < $ $ $ 9 d % . . . . . . . . . . . . . . . . . . . . . . . . . . . . . . . . . . . . . . . . . . . . . . . . . . . . . . . . . . . . . . . . . . . . . ",
"                                                                        . . . . . . . . . . . . . . . . . . . . . . . . . . . . . . . . . . . . . . . . . . . . . . . . . . . . . . . . . . . . . . . . . . . . . . . . . . . . . . . . . . . . . . . . . . . . . . . . . . . . . . . . . . . . . . . . . . . . . . . . X - h f w q q q w u u i A L o.>.!.[.tXgXxXvXnXnXbXbXnXxXtX].~.*.&._ ) ) _ ) ) ) { { | | } &.&.9.t.t.n.n.M.B.Z.J.J.H.H.H.).+X+X+X+X4X4X+X+X+X+X+X+X+XY.Y.H.J.J.B.l.l.q.9.9.8.] ] / / / ! R U E E K K C V B B M M M M n b v v y y y y 8 8 8 7 7 7 7 7 7 7 5 4 4 2 < < $ $ $ d 9 . . . . . . . . . . . . . . . . . . . . . . . . . . . . . . . . . . . . . . . . . . . . . . . . . . . . . . . . . . . . . . . . . . . . . ",
"                                                                          . . . . . . . . . . . . . . . . . . . . . . . . . . . . . . . . . . . . . . . . . . . . . . . . . . . . . . . . . . . . . . . . . . . . . . . . . . . . . . . . . . . . . . . . . . . . . . . . . . . . . . . . . . . . . . . . . . . . . . . . @ f f u q q q w u u p f L o.*.~.[.tXgXzXxXnXnXnXbXnXvXfX|.!.u.&.{ _ ) ) ) ) ) { { { | } &.9.9.t.t.n.n.n.M.Z.Z.J.J.H.H.H.).+X+X+X4X+X+X+X+X+X+X+XY.Y.Y.H.J.J.B.l.l.9.9.9.6.] [ / / ~ ! R R E E K C C V V B M M M M n n v v y y y y 8 8 8 8 8 8 7 7 7 7 5 5 4 2 < < $ $ % a a % . . . . . . . . . . . . . . . . . . . . . . . . . . . . . . . . . . . . . . . . . . . . . . . . . . . . . . . . . . . . . . . . . . . . ",
"                                                                          . . . . . . . . . . . . . . . . . . . . . . . . . . . . . . . . . . . . . . . . . . . . . . . . . . . . . . . . . . . . . . . . . . . . . . . . . . . . . . . . . . . . . . . . . . . . . . . . . . . . . . . . . . . . . . . . . . . . . . . . @ a f i q q q w w u p p L X.$.>.].rXtXzXxXnXnXnXbXbXvXzX}.!.f.&.{ _ ) ) ! ! ! [ { { | | &.9.9.t.t.t.n.n.M.B.Z.J.J.H.H.H.).+X+X+X4X4X4X+X+X+X+XY.I.Y.H.H.J.B.B.l.l.w.9.9.8.] [ [ / W W R U E Y K C C V V B M M M M n n v v v v v y y 8 8 8 8 8 7 7 7 7 5 5 4 4 4 < < $ # 6 a = . . . . . . . . . . . . . . . . . . . . . . . . . . . . . . . . . . . . . . . . . . . . . . . . . . . . . . . . . . . . . . . . . . . . ",
"                                                                          . . . . . . . . . . . . . . . . . . . . . . . . . . . . . . . . . . . . . . . . . . . . . . . . . . . . . . . . . . . . . . . . . . . . . . . . . . . . . . . . . . . . . . . . . . . . . . . . . . . . . . . . . . . . . . . . . . . . . . . . X a h d q q q w u u u i A X.$.>.`.|.tXzXxXvXnXnXbXbXnXxX}.].~.*.{ _ ) ) ! ! ! ^ [ { { | | &.9.9.9.t.n.n.M.B.B.Z.J.J.H.H.H.+X+X+X4X4X4X+XY.Y.Y.I.Y.H.H.J.J.B.B.l.l.l.9.9.8.] [ ^ / W W R E E K K C C V B B M M n M n n v v v v v y y 8 8 8 8 8 7 7 7 7 7 5 5 4 4 < < $ $ $ 9 a O . . . . . . . . . . . . . . . . . . . . . . . . . . . . . . . . . . . . . . . . . . . . . . . . . . . . . . . . . . . . . . . . . . . ",
"                                                                          . . . . . . . . . . . . . . . . . . . . . . . . . . . . . . . . . . . . . . . . . . . . . . . . . . . . . . . . . . . . . . . . . . . . . . . . . . . . . . . . . . . . . . . . . . . . . . . . . . . . . . . . . . . . . . . . . . . . . . . . . - h f w q q w u u u i A L o.>.!.[.tXzXxXvXnXnXnXbXnXxXfX].~.*.&._ ) ) ) ~ ~ ^ / [ { | | &.&.9.9.9.l.n.n.B.B.Z.J.J.H.H.H.H.+X+X+X+X+XY.Y.H.H.H.H.H.J.J.F.B.B.l.l.l.9.9.6.[ [ / / W W U E E E K K C V V B B n n n n n v v v v v y y y 8 8 8 8 8 8 7 7 7 5 5 4 4 < < $ $ # * g 9 . . . . . . . . . . . . . . . . . . . . . . . . . . . . . . . . . . . . . . . . . . . . . . . . . . . . . . . . . . . . . . . . . . . ",
"                                                                            . . . . . . . . . . . . . . . . . . . . . . . . . . . . . . . . . . . . . . . . . . . . . . . . . . . . . . . . . . . . . . . . . . . . . . . . . . . . . . . . . . . . . . . . . . . . . . . . . . . . . . . . . . . . . . . . . . . . . . . . & f f w q q w u u u p f L o.*.~.[.tXgXzXxXnXnXnXbXnXxXfX|.~.u.&._ ) ) ) ) ) ^ ^ [ { { | | | | 9.9.q.n.n.M.B.Z.Z.J.J.H.H.H.H.Y.H.+XH.H.H.H.H.H.H.J.J.J.F.B.x.l.l.l.9.9.6.[ [ / W W W U U E E K K C C V B B M n n n n b v v v v v v y y y 8 8 8 8 7 7 7 7 5 5 4 4 4 < $ $ % g a O . . . . . . . . . . . . . . . . . . . . . . . . . . . . . . . . . . . . . . . . . . . . . . . . . . . . . . . . . . . . . . . . . . ",
"                                                                            . . . . . . . . . . . . . . . . . . . . . . . . . . . . . . . . . . . . . . . . . . . . . . . . . . . . . . . . . . . . . . . . . . . . . . . . . . . . . . . . . . . . . . . . . . . . . . . . . . . . . . . . . . . . . . . . . . . . . . . . O a f i q q w u u u p p L X.$.f.`.rXfXzXxXvXnXnXbXnXvXzX}.!.f.&.{ ) ) ) ! ) ~ ^ ^ [ { | | | | 9.9.9.l.n.n.B.B.Z.Z.Z.J.H.H.H.H.H.H.H.H.H.H.H.H.J.F.F.F.B.x.x.l.l.q.9.7.6.[ / / W W U E E E E K K C V V B B M M n n n n v v v m v v v y y y y 8 8 8 8 7 7 5 5 4 4 4 2 2 * $ 9 g ; . . . . . . . . . . . . . . . . . . . . . . . . . . . . . . . . . . . . . . . . . . . . . . . . . . . . . . . . . . . . . . . . . . ",
"                                                                            . . . . . . . . . . . . . . . . . . . . . . . . . . . . . . . . . . . . . . . . . . . . . . . . . . . . . . . . . . . . . . . . . . . . . . . . . . . . . . . . . . . . . . . . . . . . . . . . . . . . . . . . . . . . . . . . . . . . . . . . X ; f f q q w u w u u p A ..$.>.`.|.tXzXxXvXnXnXnXnXnXzX}.].~.&.{ _ ) ) ) ) ~ ~ ~ ^ { { | | | 9.9.9.9.l.n.n.B.B.Z.Z.J.J.J.H.H.H.H.H.H.H.H.H.J.J.F.F.B.B.x.l.l.w.9.7.6.6.[ / ^ W W U U E E Y K K C V V B B B M n n n n v v v m v v v y y y y 8 8 8 8 8 7 7 5 4 4 4 4 2 2 * 6 a g o . . . . . . . . . . . . . . . . . . . . . . . . . . . . . . . . . . . . . . . . . . . . . . . . . . . . . . . . . . . . . . . . . ",
"                                                                            . . . . . . . . . . . . . . . . . . . . . . . . . . . . . . . . . . . . . . . . . . . . . . . . . . . . . . . . . . . . . . . . . . . . . . . . . . . . . . . . . . . . . . . . . . . . . . . . . . . . . . . . . . . . . . . . . . . . . . . . . - f f q q w w u u u i f L o.>.~.[.tXgXzXcXnXnXnXbXnXxXfX].~.*.&._ ) ) ) ~ ) ) ~ ^ [ { | | | | 9.9.9.9.l.n.M.B.B.B.B.B.J.J.J.J.J.J.J.J.J.J.F.B.B.B.B.B.x.l.l.w.7.7.6.6.] / / W W U U E Y K K K C V V V B M M n n n n v v v m m v v y y y y y y 8 8 8 8 8 7 5 4 4 4 2 2 * = = G % . . . . . . . . . . . . . . . . . . . . . . . . . . . . . . . . . . . . . . . . . . . . . . . . . . . . . . . . . . . . . . . . . ",
"                                                                              . . . . . . . . . . . . . . . . . . . . . . . . . . . . . . . . . . . . . . . . . . . . . . . . . . . . . . . . . . . . . . . . . . . . . . . . . . . . . . . . . . . . . . . . . . . . . . . . . . . . . . . . . . . . . . . . . . . . . . . . @ d f w q q w w u u i f L o.*.~.[.rXtXzXxXvXnXnXbXnXxXfX|.!.u.&._ ) ! ) ) ) ) ) ! ^ { { | | | 8.9.9.9.q.n.n.n.B.B.B.B.B.J.F.J.J.J.J.J.F.F.F.B.B.B.B.x.l.l.w.w.7.6.6.] / / / W W U U E K K K K C V V V B B M n M n n n n b v m m v v v v v v y y 8 8 8 8 8 8 5 4 4 4 2 6 = # h 9 o . . . . . . . . . . . . . . . . . . . . . . . . . . . . . . . . . . . . . . . . . . . . . . . . . . . . . . . . . . . . . . . . ",
"                                                                              . . . . . . . . . . . . . . . . . . . . . . . . . . . . . . . . . . . . . . . . . . . . . . . . . . . . . . . . . . . . . . . . . . . . . . . . . . . . . . . . . . . . . . . . . . . . . . . . . . . . . . . . . . . . . . . . . . . . . . . . O a f i q q w w u u i p A X.$.f.`.}.tXzXxXvXnXnXnXnXvXzX}.!.u.&._ ) ) ) Q ) ~ ! ) ^ { { { | | | 9.9.9.9.q.l.n.n.M.B.B.B.B.B.F.F.F.J.F.F.B.B.B.B.x.x.c.l.w.w.7.7.6.[ [ / ^ W W W U U E K K K K C C V V B B B B B B M M n n n n m m m v v v v v y y y 8 8 8 8 5 7 4 4 4 2 * % g g % . . . . . . . . . . . . . . . . . . . . . . . . . . . . . . . . . . . . . . . . . . . . . . . . . . . . . . . . . . . . . . . . ",
"                                                                              . . . . . . . . . . . . . . . . . . . . . . . . . . . . . . . . . . . . . . . . . . . . . . . . . . . . . . . . . . . . . . . . . . . . . . . . . . . . . . . . . . . . . . . . . . . . . . . . . . . . . . . . . . . . . . . . . . . . . . . . X - f i q q w w w u u i A L $.>.`.|.tXgXzXvXnXnXnXnXnXzX}.].~.&.} _ ) ) ) ! ) ! ~ ! ^ { { { ] ] 8.9.9.9.9.q.n.n.n.M.B.B.B.B.B.B.B.B.B.B.B.B.x.x.l.l.l.w.w.7.7.6.6.[ / / ^ W W U U U E K K K K K K C V V B B B B B B B M n n n m m m m m v v v y y y y y 8 8 8 7 5 4 4 2 * $ 9 h = . . . . . . . . . . . . . . . . . . . . . . . . . . . . . . . . . . . . . . . . . . . . . . . . . . . . . . . . . . . . . . . . ",
"                                                                              . . . . . . . . . . . . . . . . . . . . . . . . . . . . . . . . . . . . . . . . . . . . . . . . . . . . . . . . . . . . . . . . . . . . . . . . . . . . . . . . . . . . . . . . . . . . . . . . . . . . . . . . . . . . . . . . . . . . . . . . X & f f q q w w w u u i f L o.>.~.[.tXgXzXvXvXnXnXnXnXxXfX].~.u.&._ ) ) ! ! Q ! ! ~ ! ) { { { ] | 8.9.9.9.9.q.n.n.n.n.M.B.x.B.B.B.B.B.B.x.x.l.l.l.w.w.w.w.7.6.6.6.[ / ^ W W W U U U U E K K K J K K K Z Z C V B B B B B B n n n m n b v v v v v v v v y y 8 8 7 5 5 4 2 $ * % F ; . . . . . . . . . . . . . . . . . . . . . . . . . . . . . . . . . . . . . . . . . . . . . . . . . . . . . . . . . . . . . . . . ",
"                                                                                . . . . . . . . . . . . . . . . . . . . . . . . . . . . . . . . . . . . . . . . . . . . . . . . . . . . . . . . . . . . . . . . . . . . . . . . . . . . . . . . . . . . . . . . . . . . . . . . . . . . . . . . . . . . . . . . . . . . . . . X O f f w q w w u u u i f L o.*.~.[.rXfXzXxXvXnXnXnXnXxXfX{.!.u.&._ ) ) Q ! ! ! ! ! ! ! ) ) { ] | ] 8.9.9.9.9.n.n.n.n.l.l.z.l.l.l.l.l.l.l.l.l.w.w.w.w.7.6.6.6.6.[ [ / / ^ W W W U U U E E T T Y Y K K J J J C C C C B B B B n n n n n b b b b v v v v y y 8 8 7 7 4 4 2 * = % h a O . . . . . . . . . . . . . . . . . . . . . . . . . . . . . . . . . . . . . . . . . . . . . . . . . . . . . . . . . . . . . . . ",
"                                                                                . . . . . . . . . . . . . . . . . . . . . . . . . . . . . . . . . . . . . . . . . . . . . . . . . . . . . . . . . . . . . . . . . . . . . . . . . . . . . . . . . . . . . . . . . . . . . . . . . . . . . . . . . . . . . . . . . . . . . . . . O a f i q q w u u u i p A X.$.f.`.|.tXgXxXvXvXnXnXnXvXfX}.!.u.&._ ) ) Q ! ! ! ! ! ! ! ! ! ^ { ] ] ] 8.9.9.9.9.q.l.l.l.l.l.l.l.l.l.l.w.w.w.w.7.7.6.6.6.6.6.6.6.6.[ / ^ / W W W W W U E E E T E E T T Y Y J J C C C C C B B B n n n n n n n n v v v v y y 8 8 8 7 4 4 2 2 = $ a g % . . . . . . . . . . . . . . . . . . . . . . . . . . . . . . . . . . . . . . . . . . . . . . . . . . . . . . . . . . . . . . . ",
"                                                                                . . . . . . . . . . . . . . . . . . . . . . . . . . . . . . . . . . . . . . . . . . . . . . . . . . . . . . . . . . . . . . . . . . . . . . . . . . . . . . . . . . . . . . . . . . . . . . . . . . . . . . . . . . . . . . . . . . . . X X X X O > f f q q w u u u u i A L $.>.`.|.tXgXxXxXvXnXnXnXvXgX}.].f.&._ ) Q Q ! ! ! ! ~ ! ) ! ) ~ ^ ` ] ] ] ] 8.6.9.9.9.9.9.w.w.w.7.7.7.7.7.7.7.6.6.6.6.6.6.6.6.6.6.6.[ [ [ [ / / / / W W W W R R R U E T T Y Y Y J C C C C C B B B B n n n n n n v v v v v y 8 8 8 7 4 4 2 2 = $ 9 g ; . . . . . . . . . . . . . . . . . . . . . . . . . . . . . . . . . . . . . . . . . . . . . . . . . . . . . . . . . . . . . . . ",
"                                                                                . . . . . . . . . . . . . . . . . . . . . . . . . . . . . . . . . . . . . . . . . . . . . . . . . . . . . . . . . . . . . . . . . . . . . . . . . . . . . . . . . . . . . . . . . . . . . . . . . . . . . . . . . . . . . . . . X X X @ X X . . X & f f q q w u u u i i A L o.>.~.[.rXgXzXxXvXnXnXnXnXzXrX].~.u.&._ Q Q Q ! T ! ! ! ! ! ! ! ^ ^ ^ { ] | ] 6.6.6.6.6.7.7.7.7.7.7.7.7.7.6.6.6.6.6.6.6.6.6.6.6.6.6.6.6.] ] [ / / / ^ / W W Q Q ! R R U E Y Y Y E E C C C C B B B M M n n n n b b v v v y y y 8 8 7 4 4 4 2 * = = g 9 . . . . . . . . . . . . . . . . . . . . . . . . . . . . . . . . . . . . . . . . . . . . . . . . . . . . . . . . . . . . . . . ",
"                                                                                  . . . . . . . . . . . . . . . . . . . . . . . . . . . . . . . . . . . . . . . . . . . . . . . . . . . . . . . . . . . . . . . . . . . . . . . . . . . . . . . . . . . . . . . . . . . . . . . . . . . . . . . . . . . X X X @ X X . . . . . . . @ s f i q q w u u u p f L o.*.f.].}.tXgXxXvXnXnXbXnXxXfX[.~.u.&._ Q Q Q ! T ! ! W W ! ! ! ! ~ ^ ^ { ] ] ] [ ] [ [ 6.6.6.6.6.6.6.6.6.6.6.6.6.6.7.7.7.7.7.7.7.7.7.6.6.6.] ] ] ] / / / / ^ ! ! W W W U E E E Y E E C C C V B B B M M n n n b b v v y y y y 8 8 7 4 4 4 2 2 = = g a + . . . . . . . . . . . . . . . . . . . . . . . . . . . . . . . . . . . . . . . . . . . . . . . . . . . . . . . . . . . . . . ",
"                                                                                  . . . . . . . . . . . . . . . . . . . . . . . . . . . . . . . . . . . . . . . . . . . . . . . . . . . . . . . . . . . . . . . . . . . . . . . . . . . . . . . . . . . . . . . . . . . . . . . . . . . . . . . X X X @ X X . . . . . . . . . . . O a f i q q q u u u p N L X.$.>.`.|.tXfXxXvXnXnXbXnXvXgX|.!.u.&._ _ Q Q Q T T W W W W ! ! W W W ~ ^ / / / ] [ [ [ 6.6.6.6.6.6.6.6.6.6.7.7.w.w.w.w.w.w.w.w.w.w.7.7.7.7.6.6.] ] ] [ / / / ^ ^ ~ W W W R U E E E E D C C C B B B M M n n n b b v v v y y y 8 8 7 7 4 4 2 2 = = a g = . . . . . . . . . . . . . . . . . . . . . . . . . . . . . . . . . . . . . . . . . . . . . . . . . . . . . . . . . . . . . . ",
"                                                                                  . . . . . . . . . . . . . . . . . . . . . . . . . . . . . . . . . . . . . . . . . . . . . . . . . . . . . . . . . . . . . . . . . . . . . . . . . . . . . . . . . . . . . . . . . . . . . . . . . . . X X X @ X X . . . . . . . . . . . . . . . X - f f e q q u u u i p A L o.>.`.|.tXfXxXvXvXnXbXbXvXgX}.].f.&._ _ Q Q Q T T W W W W ! ! W W W W ^ ^ / / ] [ [ [ 6.6.6.6.6.6.6.7.7.7.w.w.w.w.w.w.w.l.l.l.k.w.w.w.w.7.9.7.6.6.6.6.6.] ] / / ^ W W W W W U U E E E C C C V B B B M n n b b b v v v y y y y 8 8 7 4 4 2 2 = = 9 g ; . . . . . . . . . . . . . . . . . . . . . . . . . . . . . . . . . . . . . . . . . . . . . . . . . . . . . . . . . . . . . . ",
"                                                                                  . . . . . . . . . . . . . . . . . . . . . . . . . . . . . . . . . . . . . . . . . . . . . . . . . . . . . . . . . . . . . . . . . . . . . . . . . . . . . . . . . . . . . . . . . . . . . . . X X X @ X X . . . . . . . . . . . . . . . . . . . X - f F q q q w i u u p A L o.>.!.[.tXgXzXvXnXnXbXbXvXxXtX].f.*._ ) Q Q ! ! W W W W W W W W W W W / / ^ / ] ] ] ] 6.6.6.6.6.7.7.w.w.w.w.w.l.l.l.l.z.z.z.z.l.l.l.k.l.w.w.9.7.7.7.6.6.6.] ] ] / / / W W W R U E E E C C C V B B M M n n b b b v v v v v y y 8 7 7 4 4 2 2 * = = g 9 . . . . . . . . . . . . . . . . . . . . . . . . . . . . . . . . . . . . . . . . . . . . . . . . . . . . . . . . . . . . . . ",
"                                                                                    . . . . . . . . . . . . . . . . . . . . . . . . . . . . . . . . . . . . . . . . . . . . . . . . . . . . . . . . . . . . . . . . . . . . . . . . . . . . . . . . . . . . . . . . . . X X X @ X X . . . . . . . . . . . . . . . . . . . . . . . . @ s F i q q w w u u p N L o.>.!.[.tXgXzXvXnXbXMXMXbXvXfX].~.u.&._ ) ! ! ! ! W W W U W W W W W W ^ ^ ^ / ] ] ] 6.6.6.6.7.7.7.w.w.w.w.l.l.l.z.z.z.x.x.x.x.x.z.z.z.z.l.l.l.9.7.7.6.6.6.6.] ] ] / / / W W R R E E Y J J C C V B B M M n n b n b v v y y y y 8 7 7 4 4 2 2 * = % g a + . . . . . . . . . . . . . . . . . . . . . . . . . . . . . . . . . . . . . . . . . . . . . . . . . . . . . . . . . . . . . ",
"                                                                                    . . . . . . . . . . . . . . . . . . . . . . . . . . . . . . . . . . . . . . . . . . . . . . . . . . . . . . . . . . . . . . . . . . . . . . . . . . . . . . . . . . . . . . X X X @ X X . . . . . . . . . . . . . . . . . . . . . . . . . . . . O a F f w q w w u u p N L P *.`.|.tXgXzXcXvXnXMXMXMXvXgX|.!.u.&._ ) Q Q ! ! W W W W W W W W W W / ^ ^ [ ] ] 6.6.6.7.7.w.w.w.w.w.l.l.l.z.z.x.x.x.x.x.x.x.x.x.x.x.z.l.l.l.w.w.7.7.6.6.6.6.] ] ] / / / W W R R E Y J J C C V B B M M M n n b b b v y y y y 8 8 7 4 4 4 2 2 = = a g % . . . . . . . . . . . . . . . . . . . . . . . . . . . . . . . . . . . . . . . . . . . . . . . . . . . . . . . . . . . . . ",
"                                                                                    . . . . . . . . . . . . . . . . . . . . . . . . . . . . . . . . . . . . . . . . . . . . . . . . . . . . . . . . . . . . . . . . . . . . . . . . . . . . . . . . . . X X X @ X X . . . . . . . . . . . . . . . . . . . . . . . . . . . . . . . . X - h F w q w w u u p p N P *.`.|.tXgXcXvXvXMXMXZXMXvXgX}.!.f.&._ ) Q ! T ! W W W W W W W W W W ^ / [ ] ] ] 6.6.7.7.w.w.l.l.l.z.z.z.x.x.x.x.x.b.F.F.F.b.x.x.x.x.x.x.z.l.l.w.9.9.7.7.6.6.6.] ] ] / / W W W R E E Y J J C V V B B M n n b b b b v y y y y y 8 7 5 4 2 6 6 = = 9 g ; . . . . . . . . . . . . . . . . . . . . . . . . . . . . . . . . . . . . . . . . . . . . . . . . . . . . . . . . . . . . . ",
"                                                                                    . . . . . . . . . . . . . . . . . . . . . . . . . . . . . . . . . . . . . . . . . . . . . . . . . . . . . . . . . . . . . . . . . . . . . . . . . . . . . . X X X @ X X . . . . . . . . . . . . . . . . . . . . . . . . . . . . . . . . . . . . . & h ..i w w w u u p p N L $.!.|.tXgXcXvXvXMXMXMXMXnXxXtX].f.&._ _ ) ! T ! ! W W W W W W W / / / [ ] ] ] ] 8.9.9.9.l.l.l.z.x.x.x.x.B.B.F.F.F.F.F.G.F.F.F.b.x.x.x.x.x.l.l.l.l.q.w.9.7.6.8.] ] ] / / / W Q R R E Y J J C V B B M M M n b b b b v y y y y y 8 7 5 4 2 2 * * = & g ; . . . . . . . . . . . . . . . . . . . . . . . . . . . . . . . . . . . . . . . . . . . . . . . . . . . . . . . . . . . . . ",
"                                                                                      . . . . . . . . . . . . . . . . . . . . . . . . . . . . . . . . . . . . . . . . . . . . . . . . . . . . . . . . . . . . . . . . . . . . . . . . . X X X @ X X . . . . . . . . . . . . . . . . . . . . . . . . . . . . . . . . . . . . . . . . . O s ..f w w w u u u p A L $.~.[.uXzXcXvXvXMXMXMXMXbXvXfX].~.*.} _ ) ! T ! W W W W W W W W ^ / { { ] 8.8.8.9.9.9.l.l.x.x.x.x.x.F.F.F.F.G.G.G.G.G.G.G.F.F.F.b.x.x.x.x.x.x.l.l.l.q.9.9.6.8.6.] ] ] / / ^ ~ Q R U E J J C V V B M M M n b b b b v y y y y y 8 7 5 4 2 2 * * * # g 9 X . . . . . . . . . . . . . . . . . . . . . . . . . . . . . . . . . . . . . . . . . . . . . . . . . . . . . . . . . . . . ",
"                                                                                      . . . . . . . . . . . . . . . . . . . . . . . . . . . . . . . . . . . . . . . . . . . . . . . . . . . . . . . . . . . . . . . . . . . . . X X X @ X X . . . . . . . . . . . . . . . . . . . . . . . . . . . . . . . . . . . . . . . . . . . . . O a ..A u q w u u i i N L o.f.[.uXzXcXvXvXMXMXMXZXMXvXgX{.~.u.&._ ) ! T T W W W W W W / / / { ] ] ] | 9.9.9.l.l.l.x.B.B.B.F.F.F.G.G.G.G.G.G.G.G.G.G.G.G.F.F.b.b.x.x.x.x.l.l.l.q.9.9.9.6.8.6.] ] ] / / ~ Q R E E Y J C C V B M M n n n b b b v y y y y 8 8 7 5 4 2 < $ * * # a a + . . . . . . . . . . . . . . . . . . . . . . . . . . . . . . . . . . . . . . . . . . . . . . . . . . . . . . . . . . . . ",
"                                                                                      . . . . . . . . . . . . . . . . . . . . . . . . . . . . . . . . . . . . . . . . . . . . . . . . . . . . . . . . . . . . . . . . . X X X @ X X . . . . . . . . . . . . . . . . . . . . . . . . . . . . . . . . . . . . . . . . . . . . . . . . . X ; F ..u q q u w u i p A X.>.[.tXcXcXvXvXMXMXNXZXMXvXgX|.!.*.&._ ) ! ! T ! W W W W W ^ ^ { [ ] ] ] 8.9.9.l.l.n.M.B.B.B.J.F.G.G.G.G.G.G.G.G.G.Y.Y.Y.Y.G.G.F.F.F.b.x.B.x.l.l.l.l.q.9.9.9.6.6.6.] ] ] / / W W R E K K C C V B M M n n b b b b v y y y y 8 7 7 5 2 2 < $ * * # = g = . . . . . . . . . . . . . . . . . . . . . . . . . . . . . . . . . . . . . . . . . . . . . . . . . . . . . . . . . . . . ",
"                                                                                      . . . . . . . . . . . . . . . . . . . . . . . . . . . . . . . . . . . . . . . . . . . . . . . . . . . . . . . . . . . . . X X X @ X X . . . . . . . . . . . . . . . . . . . . . . . . . . . . . . . . . . . . . . . . . . . . . . . . . . . . . . - f +.i q q u w u i p A X.>.[.uXcXcXvXmXMXMXMXZXMXnXzX}.!.u.&._ ) ! ! ! W W W W W ^ [ [ { ] ] ] | 9.9.l.l.l.n.B.B.B.F.F.G.G.G.G.G.G.G.Y.E.T.T.Y.Y.Y.Y.G.G.F.F.b.F.B.x.x.l.l.l.w.9.9.9.6.6.6.] ] ] / / W W R U E K C C V B M M n n b b b v v y y y y 8 7 5 4 2 < $ $ $ = % % h = . . . . . . . . . . . . . . . . . . . . . . . . . . . . . . . . . . . . . . . . . . . . . . . . . . . . . . . . . . . . ",
"                                                                                        . . . . . . . . . . . . . . . . . . . . . . . . . . . . . . . . . . . . . . . . . . . . . . . . . . . . . . . . X X X @ X X . . . . . . . . . . . . . . . . . . . . . . . . . . . . . . . . . . . . . . . . . . . . . . . . . . . . . . . . . . # d o.f u w u u u i p A o.f.|.gXcXcXvXmXMXMXNXMXMXbXxXrX!.u.{ _ ) ! ! ! W W W W / / [ ] ] | | 8.9.9.9.l.l.n.M.B.B.J.F.J.G.G.G.Y.Y.E.E.E.E.E.E.Y.Y.Y.Y.G.F.F.F.F.F.B.B.x.l.l.l.w.9.9.9.7.6.6.6.] ] / / W W R U E K C V V B M M n n b b b v v y y y y 8 7 5 4 2 < $ $ $ = % O g ; o . . . . . . . . . . . . . . . . . . . . . . . . . . . . . . . . . . . . . . . . . . . . . . . . . . . . . . . . . . . ",
"                                                                                        . . . . . . . . . . . . . . . . . . . . . . . . . . . . . . . . . . . . . . . . . . . . . . . . . . . . X X X @ X X . . . . . . . . . . . . . . . . . . . . . . . . . . . . . . . . . . . . . . . . . . . . . . . . . . . . . . . . . . . . . . & d X.A u u u u i p A A X.f.rXzXcXvXvXMXMXMXNXNXNXbXxXtX!.u.&._ ) ! ! ! W W W W ^ [ ] ] ] ] | 9.9.9.q.n.n.M.B.B.B.F.J.G.G.Y.Y.Y.E.E.E.E.E.E.E.Y.Y.Y.Y.G.G.F.F.F.F.x.x.x.x.l.l.l.w.9.9.7.6.6.6.] ] [ ^ W W W U K K C V B M M n n n b b v v v y y 8 8 8 5 4 2 2 $ $ $ $ % # O a a X . . . . . . . . . . . . . . . . . . . . . . . . . . . . . . . . . . . . . . . . . . . . . . . . . . . . . . . . . . . ",
"                                                                                        . . . . . . . . . . . . . . . . . . . . . . . . . . . . . . . . . . . . . . . . . . . . . . . . X X X @ X X . . . . . . . . . . . . . . . . . . . . . . . . . . . . . . . . . . . . . . . . . . . . . . . . . . . . . . . . . . . . . . . . . . O a X...w u u u i i p A X.~.tXzXcXvXvXMXMXNXMXMXMXMXvXtX].u.&._ ) ! ! ! W W W / ^ [ ] ] ] | | 9.9.9.q.n.n.M.B.B.J.J.J.G.G.Y.Y.E.E.E.E.E.E.E.E.E.Y.Y.Y.G.G.F.F.F.F.x.x.x.x.l.l.l.w.9.9.7.6.6.6.] ] [ ^ W W W U K K C V B M M n b n b b v v y y y 8 8 7 5 6 2 2 $ $ = = % # O 9 g X . . . . . . . . . . . . . . . . . . . . . . . . . . . . . . . . . . . . . . . . . . . . . . . . . . . . . . . . . . . ",
"                                                                                        . . . . . . . . . . . . . . . . . . . . . . . . . . . . . . . . . . . . . . . . . . . . X X X @ X X . . . . . . . . . . . . . . . . . . . . . . . . . . . . . . . . . . . . . . . . . . . . . . . . . . . . . . . . . . . . . . . . . . . . . . % a +.X.w w u u i p f A o.`.tXzXcXvXvXMXMXNXNXMXMXMXvXfX].u.&._ _ ! ! ! W W W ^ / [ ] ] ] | 8.9.9.9.l.n.n.M.B.B.J.J.G.G.G.Y.E.E.E.E.E.E.E.E.E.E.T.Y.Y.Y.G.F.F.F.F.b.x.B.x.l.l.l.l.w.9.9.6.6.6.] [ [ ^ W W W U K K C V M M M n b b b b b y y y y 8 7 7 5 6 2 * $ $ $ % % # O & h o . . . . . . . . . . . . . . . . . . . . . . . . . . . . . . . . . . . . . . . . . . . . . . . . . . . . . . . . . . . ",
"                                                                                          . . . . . . . . . . . . . . . . . . . . . . . . . . . . . . . . . . . . . . . X X X @ X X . . . . . . . . . . . . . . . . . . . . . . . . . . . . . . . . . . . . . . . . . . . . . . . . . . . . . . . . . . . . . . . . . . . . . . . . . . & a O...u q u u u p f A o.`.gXcXcXcXvXmXMXNXNXNXNXZXbXgX[.f.&._ _ ! ! ! W W W ^ ^ { { ] | | 8.9.9.9.l.l.n.M.B.B.J.J.G.G.G.Y.E.E.E.E.E.E.E.E.E.E.E.T.Y.Y.G.G.F.F.F.b.x.x.x.x.l.l.l.w.9.9.6.6.6.] [ [ / ^ W W U K K V V M M M n b b b b b b y y y 7 7 5 4 2 $ $ # # # # # % O % j % . . . . . . . . . . . . . . . . . . . . . . . . . . . . . . . . . . . . . . . . . . . . . . . . . . . . . . . . . . . ",
"                                                                                          . . . . . . . . . . . . . . . . . . . . . . . . . . . . . . . . . . . X X X @ X X . . . . . . . . . . . . . . . . . . . . . . . . . . . . . . . . . . . . . . . . . . . . . . . . . . . . . . . . . . . . . . . . . . . . . . . . . . . . . . & a @...i w u u u p f A X.g.gXvXvXvXvXvXMXNXNXNXMXZXMXzX|.~.&._ ) ! ! ! W W W ^ ^ [ { ] | | 8.9.9.9.l.l.l.M.B.B.J.J.J.G.G.Y.E.E.E.E.E.E.E.E.E.E.E.T.T.Y.G.G.F.b.F.b.x.x.x.x.l.l.l.w.w.9.9.6.6.6.[ ] [ ^ W W U K K V B M M M M n m m m b b y y 8 5 4 4 2 * $ # # % % % O # O % a ; . . . . . . . . . . . . . . . . . . . . . . . . . . . . . . . . . . . . . . . . . . . . . . . . . . . . . . . . . . . ",
"                                                                                          . . . . . . . . . . . . . . . . . . . . . . . . . . . . . . . X X X @ X X . . . . . . . . . . . . . . . . . . . . . . . . . . . . . . . . . . . . . . . . . . . . . . . . . . . . . . . . . . . . . . . . . . . . . . . . . . . . . . . . . . % a ....u w u u i p p A ..g.gXvXvXcXvXvXMXNXNXNXNXMXMXxX}.!.*._ ) ! ! ! W W W ^ ^ / [ ] ] | 8.9.9.9.q.l.l.n.B.B.B.J.J.G.G.Y.E.E.E.E.E.E.E.E.E.E.E.T.Y.Y.G.G.F.b.F.F.b.x.x.x.x.l.l.l.w.w.9.9.7.6.] ] ] ^ ~ ! E K C V M M M M M N m m m y y t 7 5 4 2 2 2 $ $ % % % o o o o o + 9 ; . . . . . . . . . . . . . . . . . . . . . . . . . . . . . . . . . . . . . . . . . . . . . . . . . . . . . . . . . . . ",
"                                                                                          . . . . . . . . . . . . . . . . . . . . . . . . . . . X X X @ X X . . . . . . . . . . . . . . . . . . . . . . . . . . . . . . . . . . . . . . . . . . . . . . . . . . . . . . . . . . . . . . . . . . . . . . . . . . . . . . . . . . . . . . O a ....w w u u i p i f L >.tXcXvXcXvXvXmXMXMXMXMXMXMXvXtX!.*._ ) ! ! ! W W W / ^ ^ / { ] | | 9.9.9.9.l.l.l.x.B.B.J.J.G.G.G.E.E.E.E.E.E.E.E.E.E.E.T.G.G.Y.G.v.F.F.F.F.F.B.x.x.l.l.l.w.9.9.9.6.8.8.| | { Q Q T J V V B M M N m m y y y t 7 5 5 2 2 2 $ $ # # # o o o o o . . . a ; . . . . . . . . . . . . . . . . . . . . . . . . . . . . . . . . . . . . . . . . . . . . . . . . . . . . . . . . . . . ",
"                                                                                            . . . . . . . . . . . . . . . . . . . . . . X X X @ X X . . . . . . . . . . . . . . . . . . . . . . . . . . . . . . . . . . . . . . . . . . . . . . . . . . . . . . . . . . . . . . . . . . . . . . . . . . . . . . . . . . . . . . . . . . X a @...q q w u i i i f A >.rXcXcXcXcXvXvXnXMXMXMXMXMXvXfX].u._ ) ! ! ! W W W W / / / { ] | | 8.9.9.9.q.l.l.x.B.B.J.J.J.G.G.E.E.E.E.E.E.E.E.E.E.E.T.T.Y.Y.Y.G.G.G.F.F.F.x.x.x.z.l.l.w.9.9.9.8.8.| | { ) Q T J V B M M n b y y t t t 5 5 5 2 2 2 $ $ # # % o o o o o o . . . . a = . . . . . . . . . . . . . . . . . . . . . . . . . . . . . . . . . . . . . . . . . . . . . . . . . . . . . . . . . . . ",
"                                                                                            . . . . . . . . . . . . . . . . . . X X X @ X X . . . . . . . . . . . . . . . . . . . . . . . . . . . . . . . . . . . . . . . . . . . . . . . . . . . . . . . . . . . . . . . . . . . . . . . . . . . . . . . . . . . . . . . . . . . . . . X a ....i q w w u i u d A $.[.zXcXgXcXcXvXvXvXMXMXMXMXnXgX[.f.&.) ! ! ! ~ ~ W W W W ^ [ ] | | 8.9.9.9.l.l.l.x.B.B.B.J.G.G.G.E.E.E.E.E.E.E.E.E.E.E.E.E.E.T.T.Y.G.G.G.G.F.F.x.x.x.l.l.w.9.9.9.8.| { ) ! T K K V M n b y y y t 5 5 5 5 2 2 2 2 $ $ # # % % o o o o . . . . . . . ; ; . . . . . . . . . . . . . . . . . . . . . . . . . . . . . . . . . . . . . . . . . . . . . . . . . . . . . . . . . . . ",
"                                                                                            . . . . . . . . . . . . . . X X X @ X X . . . . . . . . . . . . . . . . . . . . . . . . . . . . . . . . . . . . . . . . . . . . . . . . . . . . . . . . . . . . . . . . . . . . . . . . . . . . . . . . . . . . . . . . . . . . . . . . . . o - h ..i q w w u i i u f X.`.gXgXgXgXgXzXcXcXvXvXnXnXvXgX|.~.&.) ! ! ! ! W W W W W ^ [ [ | | | 9.9.9.9.l.l.l.x.B.B.F.J.G.G.Y.E.E.E.E.W.W.W.W.W.W.W.W.E.E.E.E.T.Y.G.G.F.F.B.x.x.l.l.9.9.9.| { ! U U K K B M n b y t t t 5 5 2 2 2 2 2 $ $ $ $ # # o o o o o . . . . . . . . . ; ; . . . . . . . . . . . . . . . . . . . . . . . . . . . . . . . . . . . . . . . . . . . . . . . . . . . . . . . . . . . ",
"                                                                                            . . . . . . . . . . X X X @ X X . . . . . . . . . . . . . . . . . . . . . . . . . . . . . . . . . . . . . . . . . . . . . . . . . . . . . . . . . . . . . . . . . . . . . . . . . . . . . . . . . . . . . . . . . . . . . . . . . . . . . . o - f ..i w w w t u u u f X.g.rXgXuXgXgXgXzXzXxXvXvXvXvXgX|.~.&.) ! ! ! ! ! W W W W ^ [ [ ] | | 9.9.9.9.l.l.l.x.B.B.J.F.G.G.Y.E.E.E.W.W.W.9X9X9XW.9X9X9XW.W.W.E.Y.Y.F.F.b.x.z.l.l.9.6.[ / W U K K K V M b y y y t 5 5 5 2 2 2 $ $ $ $ $ $ # # % % % o o o o . . . . . . . . . = ; . . . . . . . . . . . . . . . . . . . . . . . . . . . . . . . . . . . . . . . . . . . . . . . . . . . . . . . . . . . ",
"                                                                                              . . . . . X X X @ X X . . . . . . . . . . . . . . . . . . . . . . . . . . . . . . . . . . . . . . . . . . . . . . . . . . . . . . . . . . . . . . . . . . . . . . . . . . . . . . . . . . . . . . . . . . . . . . . . . . . . . . . . . . o & d ..d u w w u u u u d A >.[.tXtXtXfXfXgXgXzXzXxXxXxXgX}.!.&.) Q ! ! ! ! W W W W ^ [ [ ] | | | 9.9.9.l.l.l.x.B.B.F.F.G.G.Y.E.E.W.W.W.9X9X9X9X9X9X9X9XW.W.E.Y.F.b.x.x.z.l.7.6.[ [ / W U U K K C B M b y t t q 5 2 2 2 2 $ $ $ $ $ # # # % % % o o o o o . . . . . . . . . . = = . . . . . . . . . . . . . . . . . . . . . . . . . . . . . . . . . . . . . . . . . . . . . . . . . . . . . . . . . . . ",
"                                                                                              . X X X @ X X . . . . . . . . . . . . . . . . . . . . . . . . . . . . . . . . . . . . . . . . . . . . . . . . . . . . . . . . . . . . . . . . . . . . . . . . . . . . . . . . . . . . . . . . . . . . . . . . . . . . . . . . . . . . . . . & a F f q q w t t u u u A $.`.rXrXrXtXtXtXfXfXgXgXzXzXfX|.!.*._ Q ! ! ! W W W W W ^ ^ [ [ | | | 9.9.9.9.l.l.l.x.B.F.F.G.G.Y.E.E.W.W.9X9X9X9X9X9X9XW.E.Y.G.F.x.x.z.k.w.7.[ [ [ ^ / W W U K K K B M b y t q 5 5 2 2 * $ $ $ $ # # # # % % % o o o o o . o . . . . . . . . . . + : . . . . . . . . . . . . . . . . . . . . . . . . . . . . . . . . . . . . . . . . . . . . . . . . . . . . . . . . . . . ",
"                                                                                              @ X X . . . . . . . . . . . . . . . . . . . . . . . . . . . . . . . . . . . . . . . . . . . . . . . . . . . . . . . . . . . . . . . . . . . . . . . . . . . . . . . . . . . . . . . . . . . . . . . . . . . . . . . . . . . . . . . . . . . # e f f q q w t t t u p p X.!.[.|.|.}.}.}.}.tXfXfXfXfXfX|.!.u._ ( Q ! ! ! W W W W ^ ^ [ [ ] | | 9.9.9.9.l.l.l.x.B.F.F.G.G.Y.E.E.W.W.9X9X9XW.W.E.Y.G.F.x.x.z.z.k.7.7.7.[ [ [ ^ / W W T K K K V N b y t t 5 4 4 2 * $ $ $ $ # # % % o o o o o o o o . . . . . . . . . . . . . X + . . . . . . . . . . . . . . . . . . . . . . . . . . . . . . . . . . . . . . . . . . . . . . . . . . . . . . . . . . . ",
"                                                                                              . . . . . . . . . . . . . . . . . . . . . . . . . . . . . . . . . . . . . . . . . . . . . . . . . . . . . . . . . . . . . . . . . . . . . . . . . . . . . . . . . . . . . . . . . . . . . . . . . . . . . . . . . . . . . . . . . . . . . . O 6 f f q q q w t t u u p L >.`.].].].[.|.|.|.}.}.}.}.}.].!.u._ Q Q Q ! ! W W W W ^ ^ [ [ [ | ] 8.9.9.w.l.l.l.x.B.B.J.J.G.Y.Y.E.E.E.E.E.T.G.F.F.x.x.z.z.k.k.w.7.7.7.[ [ [ [ ^ ~ ! T K J Z N N u u t t 5 4 2 2 * $ $ # # # # # o o o o o o o . . . . . . . . . . . . . . . . . + . . . . . . . . . . . . . . . . . . . . . . . . . . . . . . . . . . . . . . . . . . . . . . . . . . . . . . . . . . . ",
"                                                                                                . . . . . . . . . . . . . . . . . . . . . . . . . . . . . . . . . . . . . . . . . . . . . . . . . . . . . . . . . . . . . . . . . . . . . . . . . . . . . . . . . . . . . . . . . . . . . . . . . . . . . . . . . . . . . . . . . . . . . O - d i q q q q t t t u u A $.f.!.!.!.!.].].].|.|.|.|.].].!.u.&.Q Q Q ! ! W W W ~ ^ ^ [ [ ] ] ] | 6.9.9.l.l.l.x.B.B.J.J.G.G.G.Y.G.G.G.F.b.x.x.x.z.z.z.l.k.w.7.7.7.7.6.] ] { ! ! T K K N N b y t 5 5 5 3 * * * $ $ # # # # # o o o o o o . . . . . . . . . . . . . . . . . . . o . . . . . . . . . . . . . . . . . . . . . . . . . . . . . . . . . . . . . . . . . . . . . . . . . . . . . . . . . . . ",
"                                                                                                . . . . . . . . . . . . . . . . . . . . . . . . . . . . . . . . . . . . . . . . . . . . . . . . . . . . . . . . . . . . . . . . . . . . . . . . . . . . . . . . . . . . . . . . . . . . . . . . . . . . . . . . . . . . . . . . . . . . . O - a i q q q q t t t u u N X.*.f.f.f.~.!.!.].].].].].].!.~.u.&.) Q Q T ! W W ~ W ^ ^ [ [ [ ] ] 6.6.9.9.9.l.l.x.B.B.B.J.J.J.F.F.F.x.x.x.x.x.z.l.l.l.l.w.w.7.7.7.7.7.] ] { ! T I K V M b y t t 5 2 4 2 * * $ $ # # # % % o o o o . . . . . . . . . . . . . . . . . . . . . . . . . . . . . . . . . . . . . . . . . . . . . . . . . . . . . . . . . . . . . . . . . . . . . . . . . . . . . . . . . . . ",
"                                                                                                . . . . . . . . . . . . . . . . . . . . . . . . . . . . . . . . . . . . . . . . . . . . . . . . . . . . . . . . . . . . . . . . . . . . . . . . . . . . . . . . . . . . . . . . . . . . . . . . . . . . . . . . . . . . . . . . . . . . . o & e a e q q q q t t t u u P $.>.f.f.f.f.~.!.!.!.!.!.!.~.m.u.} ) Q T ! W ! W ~ ~ ^ [ [ [ [ ] ] ] 6.6.9.9.l.l.l.l.M.M.x.B.B.x.x.x.z.x.x.x.l.l.l.l.l.l.7.7.7.7.7.6.] ] ^ ! T K V M p y t 5 5 4 2 2 * * * $ $ # # % % o o o o o o . . . o o o o o o o . . . . . . . . . . . . . . . . . . . . . . . . . . . . . . . . . . . . . . . . . . . . . . . . . . . . . . . . . . . . . . . . . . . . . . . . . ",
"                                                                                                . . . . . . . . . . . . . . . . . . . . . . . . . . . . . . . . . . . . . . . . . . . . . . . . . . . . . . . . . . . . . . . . . . . . . . . . . . . . . . . . . . . . . . . . . . . . . . . . . . . . . . . . . . . . . . . . . . . . . . & e a q e q q t t t t y u A o.*.*.*.*.u.f.~.~.~.~.~.~.m.u.t.{ ! T T W ! ! ~ ^ ! ^ ^ [ / [ ] ] ] ] 8.8.9.9.9.l.l.l.l.l.l.l.l.l.l.l.l.l.l.l.l.l.l.l.w.w.7.9.7.8.[ ! ! K K K N b y t q 5 4 3 2 * * * $ $ # # # % o o o o o o o o o o + % % % % + + o . . . . . . . . . . . . . . . . . . . . . . . . . . . . . . . . . . . . . . . . . . . . . . . . . . . . . . . . . . . . . . . . . . . . . . . . . ",
"                                                                                                  . . . . . . . . . . . . . . . . . . . . . . . . . . . . . . . . . . . . . . . . . . . . . . . . . . . . . . . . . . . . . . . . . . . . . . . . . . . . . . . . . . . . . . . . . . . . . . . . . . . . . . . . . . . . . . . . . . . . . # e e e e q q q q t t y y N P %.*.*.*.*.*.u.u.u.u.m.u.u.t.r.` ! ! ! T ! ! ~ ) ^ ^ ^ ^ ^ / { { ] | ] | 8.6.9.9.9.8.9.9.9.9.9.9.9.9.w.9.q.l.l.l.l.l.q.9.9.9.] W U K K V N p u y q 5 4 4 2 * * * # # # # # % % o o o o o o o % % & = = & & % + + o . . . . . . . . . . . . . . . . . . . . . . . . . . . . . . . . . . . . . . . . . . . . . . . . . . . . . . . . . . . . . . . . . . . . . . . . . . ",
"                                                                                                  . . . . . . . . . . . . . . . . . . . . . . . . . . . . . . . . . . . . . . . . . . . . . . . . . . . . . . . . . . . . . . . . . . . . . . . . . . . . . . . . . . . . . . . . . . . . . . . . . . . . . . . . . . . . . . . . . . . . . O - e e e e q q t t t t y p L P %.%.%.*.*.*.u.u.u.u.u.u.t.&._ ! ! ! ! ! ! ! ) ! ! ! W W ~ ^ { { { { ] ] ] ] [ [ [ [ [ [ [ [ [ [ [ [ 7.9.q.l.l.n.l.q.9.t.| U K K M b p y t q 5 4 3 2 * * * $ # # # # # # % % % % % # % $ = = ; ; ; = % % O o . . . . . . . . . . . . . . . . . . . . . . . . . . . . . . . . . . . . . . . . . . . . . . . . . . . . . . . . . . . . . . . . . . . . . . . . . . . . ",
"                                                                                                  . . . . . . . . . . . . . . . . . . . . . . . . . . . . . . . . . . . . . . . . . . . . . . . . . . . . . . . . . . . . . . . . . . . . . . . . . . . . . . . . . . . . . . . . . . . . . . . . . . . . . . . . . . . . . . . . . . . . . o & e e e e q q q t t t y u N P X.%.%.%.*.&.*.p.p.p.t.t.r.} ` Q ! ! ! T W T T ! T T T T T ! ) ) ) ) ) ) [ ! ^ ^ W W W W W W W W ^ ] 9.q.n.n.n.n.y.9.| ) T V b y t t q q 3 3 2 * * * * $ # # # # # # # # # # $ * * = = = 6 = ; = % O o . . . . . . . . . . . . . . . . . . . . . . . . . . . . . . . . . . . . . . . . . . . . . . . . . . . . . . . . . . . . . . . . . . . . . . . . . . . . . . . ",
"                                                                                                  . . . . . . . . . . . . . . . . . . . . . . . . . . . . . . . . . . . . . . . . . . . . . . . . . . . . . . . . . . . . . . . . . . . . . . . . . . . . . . . . . . . . . . . . . . . . . . . . . . . . . . . . . . . . . . . . . . . . . . & e e q e e q q q q t y y p N P o.%.%.&.&.&.&.&.r.r.&.&.} ` ~ Q T T U K K I K K K K K T T Q Q T T Q ) ) ! ! ! ! U K K K ! [ ] 9.q.n.N.n.9.8.] ! T K V N p w q 5 3 3 3 2 * * * * $ # # # # # # # # $ * = = 6 6 9 6 = * % # % O . . . . . . . . . . . . . . . . . . . . . . . . . . . . . . . . . . . . . . . . . . . . . . . . . . . . . . . . . . . . . . . . . . . . . . . . . . . . . . . . . . ",
"                                                                                                    . . . . . . . . . . . . . . . . . . . . . . . . . . . . . . . . . . . . . . . . . . . . . . . . . . . . . . . . . . . . . . . . . . . . . . . . . . . . . . . . . . . . . . . . . . . . . . . . . . . . . . . . . . . . . . . . . . . . . # 6 e q q e q 5 5 5 q t y u N L P ( _ _ &.&.&.&.&.&.&.&.&.` _ T T K K K K K K K J J J P J J K K K K K T T T T ! ! ! ! { | t.n.n.t.8.{ ! T K K N b u y t q 3 3 3 3 * * * * * # # # # # # # # * * * * * 6 = = * * % # o o o . . . . . . . . . . . . . . . . . . . . . . . . . . . . . . . . . . . . . . . . . . . . . . . . . . . . . . . . . . . . . . . . . . . . . . . . . . . . . . . . . . . . ",
"                                                                                                    . . . . . . . . . . . . . . . . . . . . . . . . . . . . . . . . . . . . . . . . . . . . . . . . . . . . . . . . . . . . . . . . . . . . . . . . . . . . . . . . . . . . . . . . . . . . . . . . . . . . . . . . . . . . . . . . . . . . . O - e e e q 5 q 5 5 q t y y p N P P ( _ _ &.&.&.&.&.&.&.&._ _ ( J J K K Z V V V Z J J J K K J K K J J P ( ( ( ) } &.r.r.} { { ! I K N b p u y t q q q 3 3 3 * * * * * * # # # # # # # $ $ $ * * * * # # # # o o o o . . . . . . . . . . . . . . . . . . . . . . . . . . . . . . . . . . . . . . . . . . . . . . . . . . . . . . . . . . . . . . . . . . . . . . . . . . . . . . . . . . . . . . . ",
"                                                                                                    . . . . . . . . . . . . . . . . . . . . . . . . . . . . . . . . . . . . . . . . . . . . . . . . . . . . . . . . . . . . . . . . . . . . . . . . . . . . . . . . . . . . . . . . . . . . . . . . . . . . . . . . . . . . . . . . . . . . . o & e e e e q q q 5 q q t y u N P P P _ _ _ &.&.&.&.&.&.&.%._ P J J K V V N N N N N V N N N V Z J P P P P _ _ _ _ P K K K N b p u u y t q q 3 3 3 3 3 3 - & * * * * # # # # # # # # # # # # # # # O o o o o o . . . . . . . . . . . . . . . . . . . . . . . . . . . . . . . . . . . . . . . . . . . . . . . . . . . . . . . . . . . . . . . . . . . . . . . . . . . . . . . . . . . . . . . . . . ",
"                                                                                                    . . . . . . . . . . . . . . . . . . . . . . . . . . . . . . . . . . . . . . . . . . . . . . . . . . . . . . . . . . . . . . . . . . . . . . . . . . . . . . . . . . . . . . . . . . . . . . . . . . . . . . . . . . . . . . . . . . . . . . & e e e e q 5 5 5 5 q t y u N N L P P _ _ %.&.&.&.&.&.*.%.%.P J Z N N N N N N N N N N N N N N A A A P P Z N N p u y y y w w t q q 3 3 3 * * * * & * & & # # # # # # # # % % % # # O O O o o o . . . . . . . . . . . . . . . . . . . . . . . . . . . . . . . . . . . . . . . . . . . . . . . . . . . . . . . . . . . . . . . . . . . . . . . . . . . . . . . . . . . . . . . . . . . . . . . . . ",
"                                                                                                      . . . . . . . . . . . . . . . . . . . . . . . . . . . . . . . . . . . . . . . . . . . . . . . . . . . . . . . . . . . . . . . . . . . . . . . . . . . . . . . . . . . . . . . . . . . . . . . . . . . . . . . . . . . . . . . . . . . . . O e e e e 5 6 5 5 5 q t u u p N N L P P %.%.*.*.*.*.*.*.%.%.P P A N N N N p p u p p u p N N N N p p u u u t 5 5 5 5 5 5 3 4 3 2 * & * * # # # # # # # # # # # # % % % O o o o o o o o o . . . . . . . . . . . . . . . . . . . . . . . . . . . . . . . . . . . . . . . . . . . . . . . . . . . . . . . . . . . . . . . . . . . . . . . . . . . . . . . . . . . . . . . . . . . . . . . . . . . . ",
"                                                                                                      . . . . . . . . . . . . . . . . . . . . . . . . . . . . . . . . . . . . . . . . . . . . . . . . . . . . . . . . . . . . . . . . . . . . . . . . . . . . . . . . . . . . . . . . . . . . . . . . . . . . . . . . . . . . . . . . . . . . . X - e e e 3 3 5 5 5 5 q u u u u N N L P X.%.*.*.%.*.*.*.*.%.X.P A A m p p u u u u u u u u u u t q 0 6 5 3 4 4 2 2 * * * * * * # # # # # # # # # # # # O O o o o o o o o o o . . . . . . . . . . . . . . . . . . . . . . . . . . . . . . . . . . . . . . . . . . . . . . . . . . . . . . . . . . . . . . . . . . . . . . . . . . . . . . . . . . . . . . . . . . . . . . . . . . . . . . . . . . ",
"                                                                                                      . . . . . . . . . . . . . . . . . . . . . . . . . . . . . . . . . . . . . . . . . . . . . . . . . . . . . . . . . . . . . . . . . . . . . . . . . . . . . . . . . . . . . . . . . . . . . . . . . . . . . . . . . . . . . . . . . . . . . o & e e e 3 3 5 5 5 5 q t u u u u N A L P %.%.*.*.*.*.*.$.$.%.X.A A p u u t t t q q 5 q 5 5 5 3 3 2 2 2 2 * * * $ # $ $ # # # # # # # # # # # # O O O O o o o o o o o . . . . . . . . . . . . . . . . . . . . . . . . . . . . . . . . . . . . . . . . . . . . . . . . . . . . . . . . . . . . . . . . . . . . . . . . . . . . . . . . . . . . . . . . . . . . . . . . . . . . . . . . . . . . . ",
"                                                                                                      . . . . . . . . . . . . . . . . . . . . . . . . . . . . . . . . . . . . . . . . . . . . . . . . . . . . . . . . . . . . . . . . . . . . . . . . . . . . . . . . . . . . . . . . . . . . . . . . . . . . . . . . . . . . . . . . . . . . . . # e e e e e e q 5 q q q t t u u p N A P X.%.$.$.*.$.$.$.$.o.X.F A d u t q 5 5 5 4 4 4 4 3 2 * * * * * * * $ $ # # # # # # # # # # # # O O O o o o o o . . . . . . . . . . . . . . . . . . . . . . . . . . . . . . . . . . . . . . . . . . . . . . . . . . . . . . . . . . . . . . . . . . . . . . . . . . . . . . . . . . . . . . . . . . . . . . . . . . . . . . . . . . . . . . . . . . . . ",
"                                                                                                        . . . . . . . . . . . . . . . . . . . . . . . . . . . . . . . . . . . . . . . . . . . . . . . . . . . . . . . . . . . . . . . . . . . . . . . . . . . . . . . . . . . . . . . . . . . . . . . . . . . . . . . . . . . . . . . . . . . . . X 6 e e e e e e 5 q q q q t t u u p p A L X.o.$.$.$.$.$.$.o.X.F A d u 6 5 5 3 2 2 2 2 2 * * * * * * $ # # # # # % # # % % % % o o o o o o o o o . . . . . . . . . . . . . . . . . . . . . . . . . . . . . . . . . . . . . . . . . . . . . . . . . . . . . . . . . . . . . . . . . . . . . . . . . . . . . . . . . . . . . . . . . . . . . . . . . . . . . . . . . . . . . . . . . . . . . . . ",
"                                                                                                        . . . . . . . . . . . . . . . . . . . . . . . . . . . . . . . . . . . . . . . . . . . . . . . . . . . . . . . . . . . . . . . . . . . . . . . . . . . . . . . . . . . . . . . . . . . . . . . . . . . . . . . . . . . . . . . . . . . . . . = e e q e e e 3 5 5 5 q q w t t t u p A A X.o.$.$.$.$.$.O.X.F A d q 3 3 3 2 2 * * * * * * * % # # # # # O # % % % % o o o o o o o o . . . . . . . . . . . . . . . . . . . . . . . . . . . . . . . . . . . . . . . . . . . . . . . . . . . . . . . . . . . . . . . . . . . . . . . . . . . . . . . . . . . . . . . . . . . . . . . . . . . . . . . . . . . . . . . . . . . . . . . . . . . . ",
"                                                                                                        . . . . . . . . . . . . . . . . . . . . . . . . . . . . . . . . . . . . . . . . . . . . . . . . . . . . . . . . . . . . . . . . . . . . . . . . . . . . . . . . . . . . . . . . . . . . . . . . . . . . . . . . . . . . . . . . . . . . . . % e e e e 3 3 e 5 5 5 5 q q 5 5 q t u u A A X.X.o.$.+.+.X...F d d 6 3 2 * * * * $ $ $ # # # # # # # # # O O o o o o o o o o . . . . . . . . . . . . . . . . . . . . . . . . . . . . . . . . . . . . . . . . . . . . . . . . . . . . . . . . . . . . . . . . . . . . . . . . . . . . . . . . . . . . . . . . . . . . . . . . . . . . . . . . . . . . . . . . . . . . . . . . . . . . . . . . ",
"                                                                                                        . . . . . . . . . . . . . . . . . . . . . . . . . . . . . . . . . . . . . . . . . . . . . . . . . . . . . . . . . . . . . . . . . . . . . . . . . . . . . . . . . . . . . . . . . . . . . . . . . . . . . . . . . . . . . . . . . . . . . . O e e e e 3 3 3 5 5 5 5 q q 5 5 5 5 q u d f A ..X.O.O.X...F f d a 6 2 * * * * # # # # # # # # # % % % + O o o o o o o o . . . . . . . . . . . . . . . . . . . . . . . . . . . . . . . . . . . . . . . . . . . . . . . . . . . . . . . . . . . . . . . . . . . . . . . . . . . . . . . . . . . . . . . . . . . . . . . . . . . . . . . . . . . . . . . . . . . . . . . . . . . . . . . . . . ",
"                                                                                                          . . . . . . . . . . . . . . . . . . . . . . . . . . . . . . . . . . . . . . . . . . . . . . . . . . . . . . . . . . . . . . . . . . . . . . . . . . . . . . . . . . . . . . . . . . . . . . . . . . . . . . . . . . . . . . . . . . . . . . 6 e e e 3 3 3 5 5 5 5 3 5 5 5 5 5 5 q e d d A F F ..G F F h d a 6 2 * * * * # # # % % % % % % % + + o o o o . o o . . . . . . . . . . . . . . . . . . . . . . . . . . . . . . . . . . . . . . . . . . . . . . . . . . . . . . . . . . . . . . . . . . . . . . . . . . . . . . . . . . . . . . . . . . . . . . . . . . . . . . . . . . . . . . . . . . . . . . . . . . . . . . . . . . . . ",
"                                                                                                          . . . . . . . . . . . . . . . . . . . . . . . . . . . . . . . . . . . . . . . . . . . . . . . . . . . . . . . . . . . . . . . . . . . . . . . . . . . . . . . . . . . . . . . . . . . . . . . . . . . . . . . . . . . . . . . . . . . . . . - e e e q 3 3 3 3 3 3 3 3 3 3 5 5 5 5 e a d d d f F F F h g d a 9 = * * * % # # % % % % % % + + X o o . . . . . . . . . . . . . . . . . . . . . . . . . . . . . . . . . . . . . . . . . . . . . . . . . . . . . . . . . . . . . . . . . . . . . . . . . . . . . . . . . . . . . . . . . . . . . . . . . . . . . . . . . . . . . . . . . . . . . . . . . . . . . . . . . . . . . . . . . . ",
"                                                                                                          . . . . . . . . . . . . . . . . . . . . . . . . . . . . . . . . . . . . . . . . . . . . . . . . . . . . . . . . . . . . . . . . . . . . . . . . . . . . . . . . . . . . . . . . . . . . . . . . . . . . . . . . . . . . . . . . . . . . . . O - e e e 3 3 3 3 3 3 3 3 3 3 5 5 3 6 6 9 0 d d d d d d d a a 9 = = = = % % % % % % + + + + X o . . . . . . . . . . . . . . . . . . . . . . . . . . . . . . . . . . . . . . . . . . . . . . . . . . . . . . . . . . . . . . . . . . . . . . . . . . . . . . . . . . . . . . . . . . . . . . . . . . . . . . . . . . . . . . . . . . . . . . . . . . . . . . . . . . . . . . . . . . . . . ",
"                                                                                                          . . . . . . . . . . . . . . . . . . . . . . . . . . . . . . . . . . . . . . . . . . . . . . . . . . . . . . . . . . . . . . . . . . . . . . . . . . . . . . . . . . . . . . . . . . . . . . . . . . . . . . . . . . . . . . . . . . . . . . X & e e e q 3 3 3 3 4 4 3 3 6 6 6 6 6 6 6 6 9 a a a a a 9 9 9 ; = = = % % % + + + + X o o . . . . . . . . . . . . . . . . . . . . . . . . . . . . . . . . . . . . . . . . . . . . . . . . . . . . . . . . . . . . . . . . . . . . . . . . . . . . . . . . . . . . . . . . . . . . . . . . . . . . . . . . . . . . . . . . . . . . . . . . . . . . . . . . . . . . . . . . . . . . . . . . ",
"                                                                                                            . . . . . . . . . . . . . . . . . . . . . . . . . . . . . . . . . . . . . . . . . . . . . . . . . . . . . . . . . . . . . . . . . . . . . . . . . . . . . . . . . . . . . . . . . . . . . . . . . . . . . . . . . . . . . . . . . . . . . . O e e e q 3 3 3 3 3 3 3 6 6 6 3 3 6 6 6 = 6 6 6 6 6 = = = = = = % % % + + o o o o o . . . . . . . . . . . . . . . . . . . . . . . . . . . . . . . . . . . . . . . . . . . . . . . . . . . . . . . . . . . . . . . . . . . . . . . . . . . . . . . . . . . . . . . . . . . . . . . . . . . . . . . . . . . . . . . . . . . . . . . . . . . . . . . . . . . . . . . . . . . . . . . . . . ",
"                                                                                                            . . . . . . . . . . . . . . . . . . . . . . . . . . . . . . . . . . . . . . . . . . . . . . . . . . . . . . . . . . . . . . . . . . . . . . . . . . . . . . . . . . . . . . . . . . . . . . . . . . . . . . . . . . . . . . . . . . . . . . X - e e e q 3 3 3 3 3 3 3 3 3 3 2 * * * * = * $ = = % % % % % % % + X o o . . . . . . . . . . . . . . . . . . . . . . . . . . . . . . . . . . . . . . . . . . . . . . . . . . . . . . . . . . . . . . . . . . . . . . . . . . . . . . . . . . . . . . . . . . . . . . . . . . . . . . . . . . . . . . . . . . . . . . . . . . . . . . . . . . . . . . . . . . . . . . . . . . . .       ",
"                                                                                                            . . . . . . . . . . . . . . . . . . . . . . . . . . . . . . . . . . . . . . . . . . . . . . . . . . . . . . . . . . . . . . . . . . . . . . . . . . . . . . . . . . . . . . . . . . . . . . . . . . . . . . . . . . . . . . . . . . . . . . . & a a e q 3 3 3 3 3 3 3 3 * * * * * & % % % % % % % + + + + + + + o . . . . . . . . . . . . . . . . . . . . . . . . . . . . . . . . . . . . . . . . . . . . . . . . . . . . . . . . . . . . . . . . . . . . . . . . . . . . . . . . . . . . . . . . . . . . . . . . . . . . . . . . . . . . . . . . . . . . . . . . . . . . . . . . . . . . . . . . . . . . . . . . . .               ",
"                                                                                                            . . . . . . . . . . . . . . . . . . . . . . . . . . . . . . . . . . . . . . . . . . . . . . . . . . . . . . . . . . . . . . . . . . . . . . . . . . . . . . . . . . . . . . . . . . . . . . . . . . . . . . . . . . . . . . . . . . . . . . . . a a a e 3 3 3 * * * * & * * # # # % % % % o O % O O o + + + + . . . . . . . . . . . . . . . . . . . . . . . . . . . . . . . . . . . . . . . . . . . . . . . . . . . . . . . . . . . . . . . . . . . . . . . . . . . . . . . . . . . . . . . . . . . . . . . . . . . . . . . . . . . . . . . . . . . . . . . . . . . . . . . . . . . . . . . . . . . . . . . .                       ",
"                                                                                                              . . . . . . . . . . . . . . . . . . . . . . . . . . . . . . . . . . . . . . . . . . . . . . . . . . . . . . . . . . . . . . . . . . . . . . . . . . . . . . . . . . . . . . . . . . . . . . . . . . . . . . . . . . . . . . . . . . . . . . . O e a e 3 * * * * & * & # # # # % + + + + O o O + o + . + + + + + + + o . . . . . . . . . . . . . . . . . . . . . . . . . . . . . . . . . . . . . . . . . . . . . . . . . . . . . . . . . . . . . . . . . . . . . . . . . . . . . . . . . . . . . . . . . . . . . . . . . . . . . . . . . . . . . . . . . . . . . . . . . . . . . . . . . . . . . . .                               ",
"                                                                                                              . . . . . . . . . . . . . . . . . . . . . . . . . . . . . . . . . . . . . . . . . . . . . . . . . . . . . . . . . . . . . . . . . . . . . . . . . . . . . . . . . . . . . . . . . . . . . . . . . . . . . . . . . . . . . . . . . . . . . . . . & e a e - * * & & # # # # O O O O + X + O o + + + + + + + + + + + + + . . . . . . . . . . . . . . . . . . . . . . . . . . . . . . . . . . . . . . . . . . . . . . . . . . . . . . . . . . . . . . . . . . . . . . . . . . . . . . . . . . . . . . . . . . . . . . . . . . . . . . . . . . . . . . . . . . . . . . . . . . . . . . . . . . .                                       ",
"                                                                                                              . . . . . . . . . . . . . . . . . . . . . . . . . . . . . . . . . . . . . . . . . . . . . . . . . . . . . . . . . . . . . . . . . . . . . . . . . . . . . . . . . . . . . . . . . . . . . . . . . . . . . . . . . . . . . . . . . . . . . . . . X - a e - - & & # # O O O O O X X X X + O o O + + + + + : : : : + + o . . . . . . . . . . . . . . . . . . . . . . . . . . . . . . . . . . . . . . . . . . . . . . . . . . . . . . . . . . . . . . . . . . . . . . . . . . . . . . . . . . . . . . . . . . . . . . . . . . . . . . . . . . . . . . . . . . . . . . . . . . . . . . .                                               ",
"                                                                                                              . . . . . . . . . . . . . . . . . . . . . . . . . . . . . . . . . . . . . . . . . . . . . . . . . . . . . . . . . . . . . . . . . . . . . . . . . . . . . . . . . . . . . . . . . . . . . . . . . . . . . . . . . . . . . . . . . . . . . . . . . X a ; ; ; - & # # O O O X X X X X X O + + + + : : : : : : : + o . . . . . . . . . . . . . . . . . . . . . . . . . . . . . . . . . . . . . . . . . . . . . . . . . . . . . . . . . . . . . . . . . . . . . . . . . . . . . . . . . . . . . . . . . . . . . . . . . . . . . . . . . . . . . . . . . . . . . . . . . . . . .                                                       ",
"                                                                                                                . . . . . . . . . . . . . . . . . . . . . . . . . . . . . . . . . . . . . . . . . . . . . . . . . . . . . . . . . . . . . . . . . . . . . . . . . . . . . . . . . . . . . . . . . . . . . . . . . . . . . . . . . . . . . . . . . . . . . . . . . + ; ; ; - & % % + + O X X X X X X + + o + + + + + + + . . . . . . . . . . . . . . . . . . . . . . . . . . . . . . . . . . . . . . . . . . . . . . . . . . . . . . . . . . . . . . . . . . . . . . . . . . . . . . . . . . . . . . . . . . . . . . . . . . . . . . . . . . . . . . . . . . . . . . . . . . . . .                                                               ",
"                                                                                                                . . . . . . . . . . . . . . . . . . . . . . . . . . . . . . . . . . . . . . . . . . . . . . . . . . . . . . . . . . . . . . . . . . . . . . . . . . . . . . . . . . . . . . . . . . . . . . . . . . . . . . . . . . . . . . . . . . . . . . . . . . O - - & % & % + O o o X X X X o o o . . . . . . . . . . . . . . . . . . . . . . . . . . . . . . . . . . . . . . . . . . . . . . . . . . . . . . . . . . . . . . . . . . . . . . . . . . . . . . . . . . . . . . . . . . . . . . . . . . . . . . . . . . . . . . . . . . . . . . . . . . . . . . . . .                                                                       ",
"                                                                                                                . . . . . . . . . . . . . . . . . . . . . . . . . . . . . . . . . . . . . . . . . . . . . . . . . . . . . . . . . . . . . . . . . . . . . . . . . . . . . . . . . . . . . . . . . . . . . . . . . . . . . . . . . . . . . . . . . . . . . . . . . . . . + O + X + o o + X X . . . . . . . . . . . . . . . . . . . . . . . . . . . . . . . . . . . . . . . . . . . . . . . . . . . . . . . . . . . . . . . . . . . . . . . . . . . . . . . . . . . . . . . . . . . . . . . . . . . . . . . . . . . . . . . . . . . . . . . . . . . . . . . . . . .                                                                               ",
"                                                                                                                . . . . . . . . . . . . . . . . . . . . . . . . . . . . . . . . . . . . . . . . . . . . . . . . . . . . . . . . . . . . . . . . . . . . . . . . . . . . . . . . . . . . . . . . . . . . . . . . . . . . . . . . . . . . . . . . . . . . . . . . . . . . . . . . . . . . . . . . . . . . . . . . . . . . . . . . . . . . . . . . . . . . . . . . . . . . . . . . . . . . . . . . . . . . . . . . . . . . . . . . . . . . . . . . . . . . . . . . . . . . . . . . . . . . . . . . . . . . . . . . . . . . . . . . . . . . . . . . . . . . .                                                                                       ",
"                                                                                                                  . . . . . . . . . . . . . . . . . . . . . . . . . . . . . . . . . . . . . . . . . . . . . . . . . . . . . . . . . . . . . . . . . . . . . . . . . . . . . . . . . . . . . . . . . . . . . . . . . . . . . . . . . . . . . . . . . . . . . . . . . . . . . . . . . . . . . . . . . . . . . . . . . . . . . . . . . . . . . . . . . . . . . . . . . . . . . . . . . . . . . . . . . . . . . . . . . . . . . . . . . . . . . . . . . . . . . . . . . . . . . . . . . . . . . . . . . . . . . . . . . . . . . . . . . . . . . . . .                                                                                               ",
"                                                                                                                  . . . . . . . . . . . . . . . . . . . . . . . . . . . . . . . . . . . . . . . . . . . . . . . . . . . . . . . . . . . . . . . . . . . . . . . . . . . . . . . . . . . . . . . . . . . . . . . . . . . . . . . . . . . . . . . . . . . . . . . . . . . . . . . . . . . . . . . . . . . . . . . . . . . . . . . . . . . . . . . . . . . . . . . . . . . . . . . . . . . . . . . . . . . . . . . . . . . . . . . . . . . . . . . . . . . . . . . . . . . . . . . . . . . . . . . . . . . . . . . . . . . . . . . . . . . .                                                                                                       ",
"                                                                                                                  . . . . . . . . . . . . . . . . . . . . . . . . . . . . . . . . . . . . . . . . . . . . . . . . . . . . . . . . . . . . . . . . . . . . . . . . . . . . . . . . . . . . . . . . . . . . . . . . . . . . . . . . . . . . . . . . . . . . . . . . . . . . . . . . . . . . . . . . . . . . . . . . . . . . . . . . . . . . . . . . . . . . . . . . . . . . . . . . . . . . . . . . . . . . . . . . . . . . . . . . . . . . . . . . . . . . . . . . . . . . . . . . . . . . . . . . . . . . . . . . . . . . . . . .                                                                                                               ",
"                                                                                                                  . . . . . . . . . . . . . . . . . . . . . . . . . . . . . . . . . . . . . . . . . . . . . . . . . . . . . . . . . . . . . . . . . . . . . . . . . . . . . . . . . . . . . . . . . . . . . . . . . . . . . . . . . . . . . . . . . . . . . . . . . . . . . . . . . . . . . . . . . . . . . . . . . . . . . . . . . . . . . . . . . . . . . . . . . . . . . . . . . . . . . . . . . . . . . . . . . . . . . . . . . . . . . . . . . . . . . . . . . . . . . . . . . . . . . . . . . . . . . . . . . . . . .                                                                                                                     ",
"                                                                                                                    . . . . . . . . . . . . . . . . . . . . . . . . . . . . . . . . . . . . . . . . . . . . . . . . . . . . . . . . . . . . . . . . . . . . . . . . . . . . . . . . . . . . . . . . . . . . . . . . . . . . . . . . . . . . . . . . . . . . . . . . . . . . . . . . . . . . . . . . . . . . . . . . . . . . . . . . . . . . . . . . . . . . . . . . . . . . . . . . . . . . . . . . . . . . . . . . . . . . . . . . . . . . . . . . . . . . . . . . . . . . . . . . . . . . . . . . . . . . . . . .                                                                                                                             ",
"                                                                                                                    . . . . . . . . . . . . . . . . . . . . . . . . . . . . . . . . . . . . . . . . . . . . . . . . . . . . . . . . . . . . . . . . . . . . . . . . . . . . . . . . . . . . . . . . . . . . . . . . . . . . . . . . . . . . . . . . . . . . . . . . . . . . . . . . . . . . . . . . . . . . . . . . . . . . . . . . . . . . . . . . . . . . . . . . . . . . . . . . . . . . . . . . . . . . . . . . . . . . . . . . . . . . . . . . . . . . . . . . . . . . . . . . . . . . . . . . . . . .                                                                                                                                     ",
"                                                                                                                    . . . . . . . . . . . . . . . . . . . . . . . . . . . . . . . . . . . . . . . . . . . . . . . . . . . . . . . . . . . . . . . . . . . . . . . . . . . . . . . . . . . . . . . . . . . . . . . . . . . . . . . . . . . . . . . . . . . . . . . . . . . . . . . . . . . . . . . . . . . . . . . . . . . . . . . . . . . . . . . . . . . . . . . . . . . . . . . . . . . . . . . . . . . . . . . . . . . . . . . . . . . . . . . . . . . . . . . . . . . . . . . . . . . . . . . .                                                                                                                                             ",
"                                                                                                                    . . . . . . . . . . . . . . . . . . . . . . . . . . . . . . . . . . . . . . . . . . . . . . . . . . . . . . . . . . . . . . . . . . . . . . . . . . . . . . . . . . . . . . . . . . . . . . . . . . . . . . . . . . . . . . . . . . . . . . . . . . . . . . . . . . . . . . . . . . . . . . . . . . . . . . . . . . . . . . . . . . . . . . . . . . . . . . . . . . . . . . . . . . . . . . . . . . . . . . . . . . . . . . . . . . . . . . . . . . . . . . . . . . . .                                                                                                                                                     ",
"                                                                                                                      . . . . . . . . . . . . . . . . . . . . . . . . . . . . . . . . . . . . . . . . . . . . . . . . . . . . . . . . . . . . . . . . . . . . . . . . . . . . . . . . . . . . . . . . . . . . . . . . . . . . . . . . . . . . . . . . . . . . . . . . . . . . . . . . . . . . . . . . . . . . . . . . . . . . . . . . . . . . . . . . . . . . . . . . . . . . . . . . . . . . . . . . . . . . . . . . . . . . . . . . . . . . . . . . . . . . . . . . . . . . . . .                                                                                                                                                             ",
"                                                                                                                      . . . . . . . . . . . . . . . . . . . . . . . . . . . . . . . . . . . . . . . . . . . . . . . . . . . . . . . . . . . . . . . . . . . . . . . . . . . . . . . . . . . . . . . . . . . . . . . . . . . . . . . . . . . . . . . . . . . . . . . . . . . . . . . . . . . . . . . . . . . . . . . . . . . . . . . . . . . . . . . . . . . . . . . . . . . . . . . . . . . . . . . . . . . . . . . . . . . . . . . . . . . . . . . . . . . . . . . . . . .                                                                                                                                                                     ",
"                                                                                                                      . . . . . . . . . . . . . . . . . . . . . . . . . . . . . . . . . . . . . . . . . . . . . . . . . . . . . . . . . . . . . . . . . . . . . . . . . . . . . . . . . . . . . . . . . . . . . . . . . . . . . . . . . . . . . . . . . . . . . . . . . . . . . . . . . . . . . . . . . . . . . . . . . . . . . . . . . . . . . . . . . . . . . . . . . . . . . . . . . . . . . . . . . . . . . . . . . . . . . . . . . . . . . . . . . . . . . . .                                                                                                                                                                             ",
"                                                                                                                      . . . . . . . . . . . . . . . . . . . . . . . . . . . . . . . . . . . . . . . . . . . . . . . . . . . . . . . . . . . . . . . . . . . . . . . . . . . . . . . . . . . . . . . . . . . . . . . . . . . . . . . . . . . . . . . . . . . . . . . . . . . . . . . . . . . . . . . . . . . . . . . . . . . . . . . . . . . . . . . . . . . . . . . . . . . . . . . . . . . . . . . . . . . . . . . . . . . . . . . . . . . . . . . . . . .                                                                                                                                                                                     ",
"                                                                                                                        . . . . . . . . . . . . . . . . . . . . . . . . . . . . . . . . . . . . . . . . . . . . . . . . . . . . . . . . . . . . . . . . . . . . . . . . . . . . . . . . . . . . . . . . . . . . . . . . . . . . . . . . . . . . . . . . . . . . . . . . . . . . . . . . . . . . . . . . . . . . . . . . . . . . . . . . . . . . . . . . . . . . . . . . . . . . . . . . . . . . . . . . . . . . . . . . . . . . . . . . . . . . . .                                                                                                                                                                                             ",
"                                                                                                                        . . . . . . . . . . . . . . . . . . . . . . . . . . . . . . . . . . . . . . . . . . . . . . . . . . . . . . . . . . . . . . . . . . . . . . . . . . . . . . . . . . . . . . . . . . . . . . . . . . . . . . . . . . . . . . . . . . . . . . . . . . . . . . . . . . . . . . . . . . . . . . . . . . . . . . . . . . . . . . . . . . . . . . . . . . . . . . . . . . . . . . . . . . . . . . . . . . . . . . . . . .                                                                                                                                                                                                     ",
"                                                                                                                        . . . . . . . . . . . . . . . . . . . . . . . . . . . . . . . . . . . . . . . . . . . . . . . . . . . . . . . . . . . . . . . . . . . . . . . . . . . . . . . . . . . . . . . . . . . . . . . . . . . . . . . . . . . . . . . . . . . . . . . . . . . . . . . . . . . . . . . . . . . . . . . . . . . . . . . . . . . . . . . . . . . . . . . . . . . . . . . . . . . . . . . . . . . . . . . . . . . . . .                                                                                                                                                                                                             ",
"                                                                                                                        . . . . . . . . . . . . . . . . . . . . . . . . . . . . . . . . . . . . . . . . . . . . . . . . . . . . . . . . . . . . . . . . . . . . . . . . . . . . . . . . . . . . . . . . . . . . . . . . . . . . . . . . . . . . . . . . . . . . . . . . . . . . . . . . . . . . . . . . . . . . . . . . . . . . . . . . . . . . . . . . . . . . . . . . . . . . . . . . . . . . . . . . . . . . . . . . . .                                                                                                                                                                                                                     ",
"                                                                                                                          . . . . . . . . . . . . . . . . . . . . . . . . . . . . . . . . . . . . . . . . . . . . . . . . . . . . . . . . . . . . . . . . . . . . . . . . . . . . . . . . . . . . . . . . . . . . . . . . . . . . . . . . . . . . . . . . . . . . . . . . . . . . . . . . . . . . . . . . . . . . . . . . . . . . . . . . . . . . . . . . . . . . . . . . . . . . . . . . . . . . . . . . . . . . .                                                                                                                                                                                                                             ",
"                                                                                                                          . . . . . . . . . . . . . . . . . . . . . . . . . . . . . . . . . . . . . . . . . . . . . . . . . . . . . . . . . . . . . . . . . . . . . . . . . . . . . . . . . . . . . . . . . . . . . . . . . . . . . . . . . . . . . . . . . . . . . . . . . . . . . . . . . . . . . . . . . . . . . . . . . . . . . . . . . . . . . . . . . . . . . . . . . . . . . . . . . . . . . . . . .                                                                                                                                                                                                                                     ",
"                                                                                                                          . . . . . . . . . . . . . . . . . . . . . . . . . . . . . . . . . . . . . . . . . . . . . . . . . . . . . . . . . . . . . . . . . . . . . . . . . . . . . . . . . . . . . . . . . . . . . . . . . . . . . . . . . . . . . . . . . . . . . . . . . . . . . . . . . . . . . . . . . . . . . . . . . . . . . . . . . . . . . . . . . . . . . . . . . . . . . . . . . . . . .                                                                                                                                                                                                                                             ",
"                                                                                                                          . . . . . . . . . . . . . . . . . . . . . . . . . . . . . . . . . . . . . . . . . . . . . . . . . . . . . . . . . . . . . . . . . . . . . . . . . . . . . . . . . . . . . . . . . . . . . . . . . . . . . . . . . . . . . . . . . . . . . . . . . . . . . . . . . . . . . . . . . . . . . . . . . . . . . . . . . . . . . . . . . . . . . . . . . . . . . . . . .                                                                                                                                                                                                                                                     ",
"                                                                                                                            . . . . . . . . . . . . . . . . . . . . . . . . . . . . . . . . . . . . . . . . . . . . . . . . . . . . . . . . . . . . . . . . . . . . . . . . . . . . . . . . . . . . . . . . . . . . . . . . . . . . . . . . . . . . . . . . . . . . . . . . . . . . . . . . . . . . . . . . . . . . . . . . . . . . . . . . . . . . . . . . . . . . . . . . . . . .                                                                                                                                                                                                                                                             ",
"                                                                                                                            . . . . . . . . . . . . . . . . . . . . . . . . . . . . . . . . . . . . . . . . . . . . . . . . . . . . . . . . . . . . . . . . . . . . . . . . . . . . . . . . . . . . . . . . . . . . . . . . . . . . . . . . . . . . . . . . . . . . . . . . . . . . . . . . . . . . . . . . . . . . . . . . . . . . . . . . . . . . . . . . . . . . . . . .                                                                                                                                                                                                                                                                     ",
"                                                                                                                            . . . . . . . . . . . . . . . . . . . . . . . . . . . . . . . . . . . . . . . . . . . . . . . . . . . . . . . . . . . . . . . . . . . . . . . . . . . . . . . . . . . . . . . . . . . . . . . . . . . . . . . . . . . . . . . . . . . . . . . . . . . . . . . . . . . . . . . . . . . . . . . . . . . . . . . . . . . . . . . . . . . .                                                                                                                                                                                                                                                                             ",
"                                                                                                                            . . . . . . . . . . . . . . . . . . . . . . . . . . . . . . . . . . . . . . . . . . . . . . . . . . . . . . . . . . . . . . . . . . . . . . . . . . . . . . . . . . . . . . . . . . . . . . . . . . . . . . . . . . . . . . . . . . . . . . . . . . . . . . . . . . . . . . . . . . . . . . . . . . . . . . . . . . . . . . . .                                                                                                                                                                                                                                                                                     ",
"                                                                                                                              . . . . . . . . . . . . . . . . . . . . . . . . . . . . . . . . . . . . . . . . . . . . . . . . . . . . . . . . . . . . . . . . . . . . . . . . . . . . . . . . . . . . . . . . . . . . . . . . . . . . . . . . . . . . . . . . . . . . . . . . . . . . . . . . . . . . . . . . . . . . . . . . . . . . . . . . . . .                                                                                                                                                                                                                                                                                             "
};
