/* XPM */
static char *_5205ccaf24345acdb6f33becea2d7421NQe9PelleDFhQ9d[] = {
/* columns rows colors chars-per-pixel */
"360 546 256 2 ",
"   c None",
".  c #010301",
"X  c #050B02",
"o  c #0A0C03",
"O  c #0A0704",
"+  c #140B03",
"@  c #0C1302",
"#  c #0D1C02",
"$  c #0A1306",
"%  c #121C03",
"&  c #131C0B",
"*  c #171707",
"=  c #191B12",
"-  c #0B1013",
";  c #241B09",
":  c #281910",
">  c #0E2201",
",  c #0B2602",
"<  c #122403",
"1  c #1C2403",
"2  c #162A02",
"3  c #1A2D02",
"4  c #19250B",
"5  c #1C3303",
"6  c #1C3605",
"7  c #1C2413",
"8  c #1E3211",
"9  c #242B03",
"0  c #2B2C05",
"q  c #272808",
"w  c #332C09",
"e  c #223504",
"r  c #233C04",
"t  c #2D330A",
"y  c #293807",
"u  c #33340C",
"i  c #35390A",
"p  c #272916",
"a  c #342B17",
"s  c #2A3518",
"d  c #383816",
"f  c #2C3423",
"g  c #373925",
"h  c #312E25",
"j  c #131B23",
"k  c #443A1A",
"l  c #4D2E15",
"z  c #463A25",
"x  c #533A2B",
"c  c #5C341B",
"v  c #264203",
"b  c #2B4403",
"n  c #2D4A03",
"m  c #2B450A",
"M  c #324C04",
"N  c #374808",
"B  c #355204",
"V  c #3A5405",
"C  c #3C5A05",
"Z  c #3B5709",
"A  c #3A4517",
"S  c #345014",
"D  c #3D6109",
"F  c #394528",
"G  c #3B4D2E",
"H  c #1C4302",
"J  c #425C0A",
"K  c #445B06",
"L  c #44461B",
"P  c #465817",
"I  c #51530A",
"U  c #4B6506",
"Y  c #45630A",
"T  c #4B640A",
"R  c #4C6A0B",
"E  c #486506",
"W  c #536B05",
"Q  c #536C0B",
"!  c #576A0A",
"~  c #55720B",
"^  c #5B740B",
"/  c #5A780A",
"(  c #4B6914",
")  c #5B6C14",
"_  c #586B18",
"`  c #5A7616",
"'  c #4D720D",
"]  c #637B0C",
"[  c #657809",
"{  c #627415",
"}  c #647A1B",
"|  c #667A17",
" . c #6E710D",
".. c #494726",
"X. c #4A5626",
"o. c #53582A",
"O. c #474936",
"+. c #585836",
"@. c #4F4F33",
"#. c #6E5032",
"$. c #57692E",
"%. c #677A26",
"&. c #697234",
"*. c #685618",
"=. c #535848",
"-. c #59694E",
";. c #667659",
":. c #6E714D",
">. c #6F7666",
",. c #6B5745",
"<. c #886C30",
"1. c #90704F",
"2. c #97795B",
"3. c #5D8314",
"4. c #5C840D",
"5. c #6A8509",
"6. c #768909",
"7. c #6C8314",
"8. c #678818",
"9. c #768A17",
"0. c #6B941A",
"q. c #77951B",
"w. c #79920C",
"e. c #79A61B",
"r. c #6A8624",
"t. c #768827",
"y. c #799826",
"u. c #758738",
"i. c #799834",
"p. c #6D8B2C",
"a. c #7CA427",
"s. c #7DA333",
"d. c #5C872F",
"f. c #798B4B",
"g. c #768769",
"h. c #788B6F",
"j. c #7DA74D",
"k. c #878A0A",
"l. c #879719",
"z. c #909410",
"x. c #97A51A",
"c. c #8CAD19",
"v. c #A7A917",
"b. c #B6B919",
"n. c #AAB016",
"m. c #869928",
"M. c #879A34",
"N. c #8E952C",
"B. c #87A62B",
"V. c #98A727",
"C. c #87B728",
"Z. c #88A835",
"A. c #97A936",
"S. c #8CB436",
"D. c #96B73A",
"F. c #96B62A",
"G. c #A9B427",
"H. c #A8B639",
"J. c #ACB42F",
"K. c #A59A26",
"L. c #98C53A",
"P. c #99C62B",
"I. c #A6C839",
"U. c #A8D539",
"Y. c #B5C933",
"T. c #BBCF2A",
"R. c #C7C925",
"E. c #C5CA34",
"W. c #CFD338",
"Q. c #C2C51E",
"!. c #899955",
"~. c #889150",
"^. c #99BA43",
"/. c #90AB53",
"(. c #A7BA45",
"). c #B2BD47",
"_. c #A8B246",
"`. c #879779",
"'. c #8E926D",
"]. c #B0916E",
"[. c #98A867",
"{. c #9AA676",
"}. c #96B070",
"|. c #A8B679",
" X c #A5AC75",
".X c #A98B59",
"XX c #C6A275",
"oX c #9CC647",
"OX c #9BC254",
"+X c #A6C84A",
"@X c #B9C549",
"#X c #A9D64A",
"$X c #B4DB45",
"%X c #AACB52",
"&X c #BDCA54",
"*X c #BDCD5A",
"=X c #B6C854",
"-X c #ACD653",
";X c #B5D359",
":X c #BCD15C",
">X c #B4D857",
",X c #BBE647",
"<X c #B9E658",
"1X c #B5E651",
"2X c #B0D26A",
"3X c #BDE662",
"4X c #9EC168",
"5X c #C2CB50",
"6X c #C5EC53",
"7X c #C3EA68",
"8X c #C7F668",
"9X c #CEF773",
"0X c #E0E74D",
"qX c #C3BD2E",
"wX c #909885",
"eX c #97A788",
"rX c #98AD8D",
"tX c #AAB787",
"yX c #B4BB89",
"uX c #A7B799",
"iX c #B6B897",
"pX c #AAAA8E",
"aX c #B0B9A5",
"sX c #A89D89",
"dX c #CFB38F",
"fX c #CDBAA5",
"gX c #B7C48A",
"hX c #BBC696",
"jX c #ADC692",
"kX c #B8C7A9",
"lX c #B8CDB1",
"zX c #C3CA9A",
"xX c #C6D29C",
"cX c #C5CAA7",
"vX c #CBD5A7",
"bX c #D3DBAC",
"nX c #D1D7A8",
"mX c #C9D6B8",
"MX c #D4DDB3",
"NX c #D5DAB9",
"BX c #CDCBB2",
"VX c #EBD3B2",
"CX c #D5E3AD",
"ZX c #D6E3B5",
"AX c #CAE2B9",
"SX c #EAD1A4",
"DX c #C8DBC4",
"FX c #D6DAC4",
"GX c #D0CFCA",
"HX c #D8E5C8",
"JX c #D8EAD4",
"KX c #CFE3CB",
"LX c #E6EAD4",
"PX c #F0EAD0",
"IX c #F2E9D7",
"UX c #BDD3C0",
/* pixels */
"                                                                                                                                                                                                                                                                                                                                                                                                                                                                                                                                                                                                                                                                                                                                                ",
"                                                                                                                                                                                                                                                                                                                                                                                                                                                                                                                                                                                                                                                                                                                                                ",
"                                                                                                                                                                                                                                                                                                                                                                                                                                                                                                                                                                                                                                                                                                                                                ",
"                                                                                                                                                                                                                                                                                                                                                                                                                                                                                                                                                                                                                                                                                                                                                ",
"                                                                                                                                                                                                                                                                                                                                                                                                                                                                                                                                                                                                                                                                                                                                                ",
"                                                                                                                                                                                                                                                                                                                                                                                                                                                                                                                                                                                                                                                                                                                                                ",
"                                                                                                                                                                                                                                                                                                                                                                                                                                                                                                                                                                                                                                                                                                                                                ",
"                                                                                                                                                                                                                                                                                                                                                                                                                                                                                                                                                                                                                                                                                                                                                ",
"                                                                                                                                                                                                                                                                                                                                                                                                                                                                                                                                                                                                                                                                                                                                                ",
"                                                                                                                                                                                                                                                                                                                                                                                                                                                                                                                                                                                                                                                                                                                                                ",
"                                                                                                                                                                                                                                                                                                                                                                                                                                                                                                                                                                                                                                                                                                                                                ",
"                                                                                                                                                                                                                                                                                                                                                                                                                                                                                                                                                                                                                                                                                                                                                ",
"                                                                                                                                                                                                                                                                                                                                                                                                                                                                                                                                                                                                                                                                                                                                                ",
"                                                                                                                                                                                                                                                                                                                                                                                                                                                                                                                                                                                                                                                                                                                                                ",
"                                                                                                                                                                                                                                                                                                                                                                                                                                                                                                                                                                                                                                                                                                                                                ",
"                                                                                                                                                                                                                                                                                                                                                                                                                                                                                                                                                                                                                                                                                                                                                ",
"                                                                                                                                                                                                                                                                                                                                                                                                                                                                                                                                                                                                                                                                                                                                                ",
"                                                                                                                                                                                                                                                                                                                                                                                                                                                                                                                                                                                                                                                                                                                                                ",
"                                                                                                                                                                                                                                                                                                                                                                                                                                                                                                                                                                                                                                                                                                                                                ",
"                                                                                                                                                                                                                                                                                                                                                                                                                                                                                                                                                                                                                                                                                                                                                ",
"                                                                                                                                                                                                                                                                                                                                                                                                                                                                                                                                                                                                                                                                                                                                                ",
"                                                                                                                                                                                                                                                                                                                                                                                                                                                                                                                                                                                                                                                                                                                                                ",
"                                                                                                                                                                                                                                                                                                                                                                                                                                                                                                                                                                                                                                                                                                                                                ",
"                                                                                                                                                                                                                                                                                                                                                                                                                                                                                                                                                                                                                                                                                                                                                ",
"                                                                                                                                                                                                                                                                                                                                                                                                                                                                                                                                                                                                                                                                                                                                                ",
"                                                                                                                                                                                                                                                                                                                                                                                                                                                                                                                                                                                                                                                                                                                                                ",
"                                                                                                                                                                                                                                                                                                                                                                                                                                                                                                                                                                                                                                                                                                                                                ",
"                                                                                                                                                                                                                                                                                                                                                                                                                                                                                                                                                                                                                                                                                                                                                ",
"                                                                                                                                                                                                                                                                                                                                                                                                                                                                                                                                                                                                                                                                                                                                                ",
"                                                                                                                                                                                                                                                                                                                                                                                                                                                                                                                                                                                                                                                                                                                                                ",
"                                                                                                                                                                                                                                                                                                                                                                                                                                                                                                                                                                                                                                                                                                                                                ",
"                                                                                                                                                                                                                                                                                                                                                                                                                                                                                                                                                                                                                                                                                                                                                ",
"                                                                                                                                                                                                                                                                                                                                                                                                                                                                                                                                                                                                                                                                                                                                                ",
"                                                                                                                                                                                                                                                                                                                                                                                                                                                                                                                                                                                                                                                                                                                                                ",
"                                                                                                                                                                                                                                                                                                                                                                                                                                                                                                                                                                                                                                                                                                                                                ",
"                                                                                                                                                                                                                                                                                                                                                                                                                                                                                                                                                                                                                                                                                                                                                ",
"                                                                                                                                                                                                                                                                              : : : ;                                                                                                                                                                                                                                                                                                                                                                                                                                                           ",
"                                                                                                                                                                                                                                                                    #.c c x #.,.#.x x z : =                                                                                                                                                                                                                                                                                                                                                                                                                                                     ",
"                                                                                                                                                                                                                                                        x x ,.1.2.2.].].].2.2.1.,.#.#.x x h = O                                                                                                                                                                                                                                                                                                                                                                                                                                                 ",
"                                                                                                                                                                                                                                                #.#.1.2.].sXdXBXVXVXfXdX].].2.1.#.c x x x g a +                                                                                                                                                                                                                                                                                                                                                                                                                                                 ",
"                                                                                                                                                                                                                                          #.#.2.sXfXSXVXPXIXIXIXPXVXfXdX].2.2.1.#.c x x x z a : +                                                                                                                                                                                                                                                                                                                                                                                                                                               ",
"                                                                                                                                                                                                                                  #.#.1.].dXVXVXPXIXIXIXIXIXIXPXfXdXXX].1.<.1.1.<.x x z z x l : : O                                                                                                                                                                                                                                                                                                                                                                                                                                             ",
"                                                                                                                                                                                                                            #.#.2.dXVXPXIXIXIXIXIXIXIXIXPXPXVXSXdX2.1.1.1.#.c 1.1.c a a a ,.x : a ;                                                                                                                                                                                                                                                                                                                                                                                                                                             ",
"                                                                                                                                                                                                                    #.#.1.].dXVXPXIXIXIXIXIXIXIXIXPXPXVXdX].].SXVX,.#.#.#.x w #.2.x ; + : x x a : : +                                                                                                                                                                                                                                                                                                                                                                                                                                           ",
"                                                                                                                                                                                                              #.#.1.].fXVXPXIXIXIXIXIXIXPXVXVXPXfXdXdXdX].1.#.dXPX,.l x @.x : l 1.#.; + ; l @.l + z x O                                                                                                                                                                                                                                                                                                                                                                                                                                         ",
"                                                                                                                                                                                                        c #.1.].dXSXVXPXIXIXIXIXPXVXSXdXdXXXSXVX.X1.2.].1.#.l 1.dX,.: a a l : : #.1.a O O z sX'.+ iX].:                                                                                                                                                                                                                                                                                                                                                                                                                                         ",
"                                                                                                                                                                                                  l #.1..XXXdXSXVXVXVXVXVXVXVXdXdXXX].].1.<.dXVX2.c c #.c l : @.dX2.+ ; + O + + 1.fX..z ].BXIXfX,.fXBX,.                                                                                                                                                                                                                                                                                                                                                                                                                                        ",
"                                                                                                                                                                                              #.<.2.].dXSXSXVXVXVXSXSXfXdXdXdX].XX]..X].<.c 2.VX2.w : c l w + a SXfX+ * a + h ,.].fX,.#.fXIXIXGX2.wXIXsXz                                                                                                                                                                                                                                                                                                                                                                                                                                       ",
"                                                                                                                                                                                        l c <..XXXSXSXVXVXPXPXVXSXSXSXXX].SXdX2.]..X1.1.<.l ].PX].+ + : : + O l fXVXx ,.pXBXVXdXsXVX2.x 2.VXBXBXwX=.fXsXz                                                                                                                                                                                                                                                                                                                                                                                                                                       ",
"                                                                                                                                                                                      l <..XdXdXSXVXPXPXIXIXIXVXSXSXSXXXsXPXdX#.2.#.c #.#.l BXIX].: O + : x ,.].BXVXsX2.IXIXVX].pXIX'.,.sXfX>.=.= : O.g O                                                                                                                                                                                                                                                                                                                                                                                                                                       ",
"                                                                                                                                                                                    l <.XXdXSXVXPXPXIXIXIXIXVXPXSXSXdX].].IXfXl #.l : l l x BXIXsX=.=.-.'.pXpXVXPXpX].@.fXPXiX,.2.,.p z h O O . . . O O                                                                                                                                                                                                                                                                                                                                                                                                                                         ",
"                                                                                                                                                                                  *.1.XXdXSXVXPXPXIXPXPXIXPX2.PXSXdXdX2.].VXfXx : ; + ; : ,.BXIXfX,.sXIXIXVX:.IXIX2.x + O.=.x z h o . . . . . . . -                                                                                                                                                                                                                                                                                                                                                                                                                                             ",
"                                                                                                                                                                                c <.XXSXSXSXVXPXPXVXVXVXIXfX#.dXSXXX].<.1.NXGX,.+ + l #.#..XVXIXVX#.,.BXFXfX1.aXwXg + O O O . . . . . . . . . . .                                                                                                                                                                                                                                                                                                                                                                                                                                               ",
"                                                                                                                                                                                #.1.dXVXSXVXPXPXPXPXVXPXIXfX#.1.2.<.].c x FXIX2.,.+ 2.dXSXdXVXIXPX:.a =.>.,.p . . X o o o o . . . . . . . . X . O                                                                                                                                                                                                                                                                                                                                                                                                                                               ",
"                                                                                                                                                                              #.1..XSXVXSXVXPXBXBXIXIXIXIXPX1.l l w dX].1.LXIXdX].c ].SX.X2.pXsX,.p o X o @ o o @ @ % @ @ o X X X . . . . . . X o                                                                                                                                                                                                                                                                                                                                                                                                                                               ",
"                                                                                                                                                                              <..XXXSXVXdXVXPX2.sXIXIXBXVXPX1.#.#.l ].dXdXPXIXVXdX#.,.dXpX2.@.p . 4 s d y y 1 1 1 < % % @ @ X X X . . . . . . X o o                                                                                                                                                                                                                                                                                                                                                                                                                                             ",
"                                                                                                                                                                              1.XX].VXSXdXPXIX@.,.sX].#.].VX.X1.2.c ,.dX].BXLXiX:.w q @.= @ q A P ( P Z N y e 9 3 2 < % @ @ X X X X . . . . . . X X                                                                                                                                                                                                                                                                                                                                                                                                                                             ",
"                                                                                                                                                                              1.XXXXPXPXdXVXPX:.; l l l 1.SXdX#.1.l c fXsXsX2.@.= X 4 s A P P ( ( ( J M b r e e e 3 1 % # @ X X X X . . . . . . . X X                                                                                                                                                                                                                                                                                                                                                                                                                                           ",
"                                                                                                                                                                              ].dXnXVXcX].|.VX'.+ #.1.].1.VXPXc <.#.x ].,.: + 9 i P P X.X.( P J V B M n b b b m y y 3 < % @ X X X X . . . . . . . X . .                                                                                                                                                                                                                                                                                                                                                                                                                                         ",
"                                                                                                                                                                                bXnXVX1.l #.SXXX+ 2.pXVX].VXPX,.z : O + * q i N P P P P Z V M M M M V Z K J P Z N y 9 2 % @ @ X X X . . . . . . . o o .                                                                                                                                                                                                                                                                                                                                                                                                                                         ",
"                                                                                                                                                                                  nXPX.X*.<.SXdXl 1.NXIXsX,.: : p ; * * t A S Z M M M N M M V K T Q ) ` ` _ ( P N y 9 2 % # @ X X X . . . . . . . . o . .                                                                                                                                                                                                                                                                                                                                                                                                                                       ",
"                                                                                                                                                                                  SXPXdX.XXXSXSX#.x :.,.g + p wX>.=...s d m b b n n M Z J T ) } r.t.r.} _ ( J V N r 3 2 < # @ X X X . . . . . . . . . . . .                                                                                                                                                                                                                                                                                                                                                                                                                                     ",
"                                                                                                                                                                                  VXVXdX.XVXVXdX#.+ * . = z wXLXuX;.@.d i y y n M J ( ` r.t.t.t.r.8.` Q T K V M b r 5 2 < # # @ X X X . . . . . . . . . . .                                                                                                                                                                                                                                                                                                                                                                                                                                     ",
"                                                                                                                                                                                  VXVXdX.XsX,.a . O : =.>.wXaXaXwX;.@.A A N N Z P _ %.r.r.r.8.8./ W U E E C B n v r 5 2 < # # @ X X X . . . . . . . . O . . .                                                                                                                                                                                                                                                                                                                                                                                                                                   ",
"                                                                                                                                                                                  NXfX,.+ O . O O O p -.2.wXwXwX>.-.O.d A A Z P ( _ } } } ` ^ ~ W U E E C V B n r e 3 2 < % # @ X X X . . . . . . . . . . . .                                                                                                                                                                                                                                                                                                                                                                                                                                   ",
"                                                                                                                                                                                '.pX>.: O O O + * + = O.=.-.>.>.>.-.O.F A A Z J P Y T R Q R U U U E E K C V M b r e 3 2 < % # @ @ X X X . . . . . . . . . . . .                                                                                                                                                                                                                                                                                                                                                                                                                                 ",
"                                                                                                                                                                                a ; * O O + + p = + * O.=.=.-.;.;.-.@.G A A S V Z Z J J Y T E T E Y K C V V M b r e 3 2 < % # @ X X X X . . . . . . . . . . . X X                                                                                                                                                                                                                                                                                                                                                                                                                               ",
"                                                                                                                                                                                            O h p + = g =.=.=.-.-.=.=.G A A S N N Z Z J J Y Y Y Y Y J C V B M v r 5 3 2 < % # # @ X X X X . . . . . . . . . . . .                                                                                                                                                                                                                                                                                                                                                                                                                               ",
"                                                                                                                                                                                            O : p - * h =.=.=.=.-.=.=.G A A S N N N Z Z Z J J J J J J V B M n v r 5 3 2 % # # # @ X X X X . . . . . . . . . . X X X                                                                                                                                                                                                                                                                                                                                                                                                                             ",
"                                                                                                                                                                                            O = h + + h =.=.=.=.-.-.=.O.F A m m m N N Z Z Z J J J Z Z B M n n r 5 3 2 < # # # # @ X X X . . . . . . . . . . . . X .                                                                                                                                                                                                                                                                                                                                                                                                                             ",
"                                                                                                                                                                                            O : h + O p =.=.=.-.-.-.=.O.F A m m m m N N Z Z Z Z Z V B M n v v r 5 2 < # # # # # @ X X X X . . . . . . . . . . . X X                                                                                                                                                                                                                                                                                                                                                                                                                             ",
"                                                                                                                                                                                            O p h = O = O.=.=.-.-.-.-.=.G A s m m m m N N S S N M M n b r r r 5 2 > # # # # # # # $ X X X . . . . . . . . . . . X X                                                                                                                                                                                                                                                                                                                                                                                                                             ",
"                                                                                                                                                                                            O : h = + = g =.=.-.;.>.-.=.G F s s y y m m m N m m b v r e e 5 3 2 > > # # # # # # # $ X X X . . . . . . . . . . X X o                                                                                                                                                                                                                                                                                                                                                                                                                             ",
"                                                                                                                                                                                            O = h = * = G =.=.-.>.>.-.=.G F s s y y y m m m r r e 6 5 3 3 2 < > > > , , 2 , 2 > @ $ X X . . . . . . . . . . X o X                                                                                                                                                                                                                                                                                                                                                                                                                               ",
"                                                                                                                                                                                            . : h = * = g =.-.;.>.>.;.-.O.F s s s s y y e 6 6 5 3 2 < < > > > , 5 6 H m m m 8 # X X X . . . . . . . . . . . X o                                                                                                                                                                                                                                                                                                                                                                                                                                 ",
"                                                                                                                                                                                            O : h : * = g =.-.;.>.>.>.-.=.F f s s s e 8 3 2 < < > > > , 6 v n D $.d.f.G 4 $ X X X . . . . . . . . . . . . X X o                                                                                                                                                                                                                                                                                                                                                                                                                                 ",
"                                                                                                                                                                                            O : h : = = O.-.;.>.>.>.>.;.=.F f s 8 4 4 < > > , # , 6 n D ` p.j.j.$.s X X X X X $ @ X X X . . . . . . . X X X X o o                                                                                                                                                                                                                                                                                                                                                                                                                               ",
"                                                                                                                                                                                            O * g * = = O.-.;.>.>.>.>.>.=.G f p 4 > > > , 2 H n D d.j./.f.G 7 X X . . & f F g p % @ @ @ o o o o X X X X X X o o X                                                                                                                                                                                                                                                                                                                                                                                                                               ",
"                                                                                                                                                                                            . : h : * = O.-.;.>.>.wXwX>.-.G f s > , , 6 n ( d.j.j.$.A X X X X $ f @.;.=.g 7 X * % % 1 1 % % @ o o o X o o o o o X                                                                                                                                                                                                                                                                                                                                                                                                                               ",
"                                                                                                                                                                                            . : h : * = z -.>.>.wXwXwXwX;.=.f 4 , 6 S &./.f.G 7 X X X # s +.g.`.-.F & X @ @ % 0 i A A t 9 9 % @ o o o o o o o o o X                                                                                                                                                                                                                                                                                                                                                                                                                             ",
"                                                                                                                                                                                            . = h : * = z ;.>.wXpXGXGXeX>.G p s X.$.G s $ X . . o f +.g.g.=.f X @ t 0 0 A L o.*.I I L i 0 q * * @ o o o o o o $ o X                                                                                                                                                                                                                                                                                                                                                                                                                             ",
"                                                                                                                                                                                            . * g : * : =.>.wXaXJXIXGX>.h $ & 7 4 $ X X . & F -.}.-.F 4 # y y y I _ &.&.%.{  .) ! I I i 0 9 q * @ @ o o o o o $ $ X                                                                                                                                                                                                                                                                                                                                                                                                                             ",
"                                                                                                                                                                                            . = h : * : =.aXIXGXaX>.h - X o X X . . $ 8 O.$.G S m # # N t.m.N._._.N. . . . . .! W I I N i 0 9 % $ @ o o o o o $ + o .                                                                                                                                                                                                                                                                                                                                                                                                                           ",
"                                                                                                                                                                                              = h p * : O.>.>.=.h - . . . . X X & 8 7 7 > $ # @ X 4 P N.A.N.N.N.N.l.k.k.9. . .! W I K N y 0 9 1 * @ @ o @ @ @ + * $ X                                                                                                                                                                                                                                                                                                                                                                                                                           ",
"                                                                                                                                                                                              + g h : * = = O . . . . . . X o o $ $ $ # % 1 t i P %.N.N.l.z.z.N.x.z.k.6. . .[ ! W I I K i 0 9 1 % @ @ @ @ @ @ $ & + o o                                                                                                                                                                                                                                                                                                                                                                                                                         ",
"                                                                                                                                                                                              O g h : = + O O O . . O - p h h p % X 4 A X.o.*.{ N.N.l.z.z.k.z.z.z.k.k.6. . .[ ! ! I I K i i 0 9 * * @ @ @ @ $ + * & o X                                                                                                                                                                                                                                                                                                                                                                                                                         ",
"                                                                                                                                                                                              O = p : = + O O O o p g >.pXGXaX-.F F X.o.*.*. .<.k.k.k.k.k.k.k.k.k.k.k.6. . . .! ! I I I i i 0 q 9 % * @ @ @ @ $ & & $ o o                                                                                                                                                                                                                                                                                                                                                                                                                       ",
"                                                                                                                                                                                                O - = : * + O O g 2.LXIXIXIXaX'.-.$.o.I *. . . . .k.k.k.k.k.k.k.k.k.k.6. . . . .! I I I K i 0 9 q * * @ @ @ @ $ $ & & o o                                                                                                                                                                                                                                                                                                                                                                                                                       ",
"                                                                                                                                                                                                    O O * q * * =.wXUXGXGXGXaX'.:.X.I I I *. . . . .k.k.k.k.k.k.k.k.k.k. . . . .! ! I I I K i 0 9 9 % * @ @ @ @ * * * @ O                                                                                                                                                                                                                                                                                                                                                                                                                       ",
"                                                                                                                                                                                                      O * p q @ h >.sXaXBXGXBXwX:.P L I I !  . . . .k.k.k.k.k.k.k.k.k.k.6. . .[ [ ! W I I I i i 0 q * * @ @ @ @ @ $ * @ o o                                                                                                                                                                                                                                                                                                                                                                                                                     ",
"                                                                                                                                                                                                        O p g + = -.wXuXUXGXGXpX:.o.I I I I  . . . .k.k.k.k.k.k.k.k.k.k.k.6. . . . .! W I I K i 0 9 9 * * @ @ @ @ $ $ $ @ o                                                                                                                                                                                                                                                                                                                                                                                                                     ",
"                                                                                                                                                                                                        O : @.* + =.wXuXaXGXGXaX'.&.I I I !  . . .<.k.k.k.k.k.k.z.z.k.k.k.k.6. . . .[ ! I I I N i 0 9 * * @ @ @ @ @ @ @ @ o                                                                                                                                                                                                                                                                                                                                                                                                                     ",
"                                                                                                                                                                                                        O : z p + z 2.pXaXGXGXBX{.:.*.I I !  . . .k.k.k.k.k.k.z.z.z.z.z.k.k.k.6. . . . .! I I I i 0 q 9 * * @ @ @ @ @ @ @ o o                                                                                                                                                                                                                                                                                                                                                                                                                   ",
"                                                                                                                                                                                                          : z a + a >.sXaXGXGXGXpX:.*.*.I !  . . .k.k.k.k.k.z.z.z.z.z.z.k.k.k.k.6. . . .! ! I I K i 9 9 * * * @ @ @ @ @ @ @ @                                                                                                                                                                                                                                                                                                                                                                                                                   ",
"                                                                                                                                                                                                          + O.z + : >.sXaXGXGXGXiX~.&.*.I !  . . .k.k.k.k.z.z.z.z.z.z.z.z.z.k.k.k.6. . . . .! I I i 0 q 1 % * @ @ @ @ $ $ $ @ o                                                                                                                                                                                                                                                                                                                                                                                                                 ",
"                                                                                                                                                                                                          O O.z * : -.wXaXlXGXGXiX'.&.*.*.!  . . .k.k.z.z.z.z.z.z.z.z.z.z.z.z.z.z.k.k. . . .! I I K i 9 9 % * @ @ @ @ $ $ * $ o                                                                                                                                                                                                                                                                                                                                                                                                                 ",
"                                                                                                                                                                                                          O g O.a : =.wXaXaXGXFXBX{.&.*.!  . . . .k.k.z.z.z.z.z.z.z.z.v.v.v.z.z.z.k.k.6. . . .! I I i 0 9 1 * @ @ @ @ @ $ * * o .                                                                                                                                                                                                                                                                                                                                                                                                               ",
"                                                                                                                                                                                                          O p @.a ; @.wXpXaXGXFXNXpX:.*.*. . . . .k.k.z.z.z.v.v.v.v.v.v.v.v.z.z.z.z.k.k.6. . .! I I N 0 9 1 % * @ @ @ $ $ * * @ .                                                                                                                                                                                                                                                                                                                                                                                                               ",
"                                                                                                                                                                                                            * ,.a ; x '.pXaXBXFXNXiX~.&.*. . . .<.k.k.z.z.v.v.v.v.v.n.v.v.v.v.z.z.z.z.z.k.6. . .! I I i 0 q 1 % % @ @ @ $ * & * o                                                                                                                                                                                                                                                                                                                                                                                                               ",
"                                                                                                                                                                                                            = @.z ; z 2.pXaXBXFXFXfX'.&. . . . .<.k.z.z.v.v.v.v.v.n.n.n.n.v.v.v.x.z.z.z.k.k.6. . .! I N y 0 9 1 % % @ @ $ * = = $ o                                                                                                                                                                                                                                                                                                                                                                                                             ",
"                                                                                                                                                                                                            = z z ; a >.pXaXBXFXFXBX[.&. . . .<.k.k.z.x.v.v.n.v.n.n.n.b.n.n.n.n.v.x.z.z.z.z.k.6. .! I I i 0 9 9 1 * @ @ @ * * = * o                                                                                                                                                                                                                                                                                                                                                                                                             ",
"                                                                                                                                                                                                            + z @.; : :.pXuXBXFXHXBX X<.%. . .<.k.z.z.v.v.n.n.n.b.b.b.b.b.b.n.n.n.v.x.z.z.z.z.k. . .! I K i 0 9 1 % * @ @ * * = & o X                                                                                                                                                                                                                                                                                                                                                                                                           ",
"                                                                                                                                                                                                            . g O.a a ,.sXuXaXGXHXNXpX~.%. . .<.k.z.z.v.v.n.n.b.b.b.b.b.b.b.b.n.n.n.v.x.z.z.z.k.6. .! I I i 0 9 1 % * * * * * = = @ o                                                                                                                                                                                                                                                                                                                                                                                                           ",
"                                                                                                                                                                                                            O h O.a a +.`.pXaXNXFXFXiX~.%. . .k.k.z.x.v.v.b.b.b.b.b.b.b.b.b.b.n.n.n.n.v.x.z.z.z.k. . .! I N i 9 9 1 * * * * * * = * o .                                                                                                                                                                                                                                                                                                                                                                                                         ",
"                                                                                                                                                                                                              : @.d : O.'.pXaXBXHXFXcX[.<. . .k.k.z.v.v.n.b.b.b.b.b.b.b.b.b.b.b.n.n.n.v.v.x.z.z.k.k. . .I I i y 9 1 % * * * * * * = * X                                                                                                                                                                                                                                                                                                                                                                                                         ",
"                                                                                                                                                                                                              + =.z ; z '.sXaXBXFXHXBX XN. .<.k.z.z.v.v.n.b.b.b.b.b.b.b.Q.b.b.b.b.n.n.n.v.v.x.z.z.k.k. . .I I i 0 9 * % * * * * * * * o                                                                                                                                                                                                                                                                                                                                                                                                         ",
"                                                                                                                                                                                                              + @.z q g >.sXiXBXFXHXNXyXN.<.<.k.z.z.v.n.n.b.b.b.b.b.Q.Q.T.Q.b.b.b.b.b.n.n.v.v.x.z.z.k. . .! I L i 0 9 1 * % % % * * = * o                                                                                                                                                                                                                                                                                                                                                                                                       ",
"                                                                                                                                                                                                              = z O.a a :.pXiXcXFXLXNXyXM.<.<.z.z.x.v.n.b.b.b.b.b.Q.Q.T.R.R.T.Q.b.b.b.n.n.n.v.v.x.z.z.k. . .I I i y 9 9 9 * % % * = = = o                                                                                                                                                                                                                                                                                                                                                                                                       ",
"                                                                                                                                                                                                              + g @.: : ,.pXiXaXNXLXFXdX~.N.<.k.z.x.v.n.b.b.b.b.Q.Q.R.R.R.R.R.Q.b.b.b.b.b.n.n.v.v.z.z.k. . .! I L i 0 q 9 * % % * * * p + .                                                                                                                                                                                                                                                                                                                                                                                                     ",
"                                                                                                                                                                                                              O g @.a ; =.wXiXaXBXHXHXzX.XN.k.k.z.x.v.n.b.b.b.Q.Q.R.R.R.R.R.R.Q.Q.b.b.b.b.b.n.n.v.x.z.z.k. . .I I N t 9 9 * * * * * ; ; * O                                                                                                                                                                                                                                                                                                                                                                                                     ",
"                                                                                                                                                                                                              . h @.z q @.'.iXaXBXLXLXBX XN.k.z.z.x.v.n.b.b.b.Q.Q.R.R.R.R.R.R.R.Q.Q.b.b.b.b.b.n.n.v.x.z.k. . .! I L i 0 q 9 * * * * ; q ; * O                                                                                                                                                                                                                                                                                                                                                                                                   ",
"                                                                                                                                                                                                                : @.z w z '.iXaXBXHXPXNX XN.z.z.z.x.v.n.b.b.b.Q.R.R.R.R.R.R.R.R.Q.Q.Q.Q.Q.b.b.n.n.n.v.z.z.k. .) I I i 0 q ; ; ; ; ; ; w a p +                                                                                                                                                                                                                                                                                                                                                                                                   ",
"                                                                                                                                                                                                                + =.x ; a 2.pXaXBXFXLXNXyX~.N.z.z.x.v.n.b.b.b.R.R.R.R.R.R.R.R.R.R.Q.Q.Q.Q.Q.b.n.n.n.v.v.z.z.<. .I I k w w ; a l 0 w w k k a *                                                                                                                                                                                                                                                                                                                                                                                                   ",
"                                                                                                                                                                                                                + @...w a >.sXiXBXFXLXFXdX.XN.z.z.x.v.n.b.b.Q.R.R.R.R.R.R.R.R.R.R.Q.Q.Q.Q.Q.b.b.b.n.n.v.z.k. . .*.*.*.#.#.1.,.#.#.#.*.o...z p O                                                                                                                                                                                                                                                                                                                                                                                                 ",
"                                                                                                                                                                                                                + z @.a a ,.sXiXBXFXPXPXzX.XN.N.z.x.v.n.b.b.Q.R.R.R.R.R.R.R.R.R.R.Q.Q.Q.Q.Q.Q.b.b.v.K.z.N.<.*.<.<.<.1.1.1.1.1.1.<.<.#.#...z a +                                                                                                                                                                                                                                                                                                                                                                                                 ",
"                                                                                                                                                                                                                O a +.a w @.sXiXBXFXLXIXnX XN.N.K.K.v.n.b.qXR.R.R.R.R.R.R.R.R.R.R.R.R.Q.R.Q.b.G.K.K.K.<.<.1.2..X2.<.<.1.1.<.1.1.*.#.#.o.L d a * O                                                                                                                                                                                                                                                                                                                                                                                               ",
"                                                                                                                                                                                                                . a +.k w ..'.iXcXNXPXPXNX X~.N.K.K.v.n.b.qXR.R.R.R.R.R.R.R.R.W.R.R.b.b.G.K.K.<.<.XXdXXX2.2.]..X2..X2.<.#.c 1.#.c #...k d w q * O                                                                                                                                                                                                                                                                                                                                                                                               ",
"                                                                                                                                                                                                                O a @.z w ..'.pXfXNXHXPXFXyX.XN.K.K.v.n.b.qXqXR.R.R.R.R.R.W.W.E.J.J.J.K.N..X2.1.].XX].2..X].<.#.1.2.1.1.#.<.*.l c k w w q * * + o O                                                                                                                                                                                                                                                                                                                                                                                             ",
"                                                                                                                                                                                                                  : @...w k 1.pXfXBXHXLXPXdX.XN.K.K.v.v.b.b.b.Q.R.R.W.W.0X5XJ.K.<.N.1..XXXXX2..X].1.#.<..X.X2.2.1.#.#.#.#.#.l z ..d ; ; * + @ + @ o                                                                                                                                                                                                                                                                                                                                                                                             ",
"                                                                                                                                                                                                                  + +.@.w w :.pXfXBXFXLXLXcX.XN.K.K.v.v.b.b.qXE.W.0XE.J.K.<.N.~.<..X2.].XX.X.XXX].2.XX].1.<.1.1.#.#...w l z ,.,.p ; * + + o @ * $ o                                                                                                                                                                                                                                                                                                                                                                                             ",
"                                                                                                                                                                                                                  O @.@.l w ,.{.iXBXFXPXPXnX].N.K.K.v.v.J.qXqXJ.J.K.<.<..X.X.X.X].XX.X]..X<..X].<.1.2.#.1.#.#.w : :.a ; q ; : * O O o o @ $ * $ $ @ o                                                                                                                                                                                                                                                                                                                                                                                           ",
"                                                                                                                                                                                                                  + z #.l w +.].dXBXNXLXIXNX X.XK.K.K.K.J.J.K.N..X<.<.1.].].].].]..X1..XXX1.].].#.1.#.#.o.k ..w a g * + + o o o @ * @ @ @ $ $ % % $ @                                                                                                                                                                                                                                                                                                                                                                                           ",
"                                                                                                                                                                                                                  O a ,.l w ..].dXcXNXLXIXVXyX.XA._._.N.<.<.*..X1..XdXXXSX]..X.X1.dX1.2.dX1.1.#.#.1...o.w ; ; + @ o * p q % * @ & 1 % % % % % % % % $ o                                                                                                                                                                                                                                                                                                                                                                                         ",
"                                                                                                                                                                                                                  O ; ,.c l x '.iXcXNXLXIXPXzX.XN.<.*.#.1..X2.dX2.].dX].1.#.dX].1..X1.2.#.#.#.#.:.k ; ; + * q t 9 1 A P A y t t 3 1 4 4 4 & % % & & % o                                                                                                                                                                                                                                                                                                                                                                                         ",
"                                                                                                                                                                                                                    : #.#.l x 2.iXcXNXFXPXPXzX~.<.*..X].2.dXc ].].].1.].2.<.2.1.1.<.<.2.#.#.+.p + * 9 0 y N P $._ P _ _ J B N m r e 3 3 < < % & & & * @ .                                                                                                                                                                                                                                                                                                                                                                                       ",
"                                                                                                                                                                                                                    : @.#.l c 1.iXcXNXFXPXIXNXpX].&.dX].1.dX.X1.]..Xc 1.2.]..Xc 1.#.c +.; + * d P P T ) | q.M.Z.M.t.} _ T C B n r e 5 3 2 2 % % & & & & X                                                                                                                                                                                                                                                                                                                                                                                       ",
"                                                                                                                                                                                                                    + @.#.l l :.pXfXNXFXIXIXHXdXpX].2.#.2.].c a 1..X2.1...l ,.; a * q i u 9 I %.t.9.B.D.I.I.F.B.q.8.7./ R J B M b 6 5 5 3 2 < < % & & 4 $                                                                                                                                                                                                                                                                                                                                                                                       ",
"                                                                                                                                                                                                                    O +.,.l l ,.sXBXNXFXIXIXHXiX'. X.X*.#.2.].#.2.l c 2.: ; ; w d o.&.u.t.y.A.+X@X$XU.I.P.P.F.c.e.0.5./ Q Y V M b r 5 5 3 2 2 < < < 4 4 & o                                                                                                                                                                                                                                                                                                                                                                                     ",
"                                                                                                                                                                                                                    O @.,.x ..2.fXNXFXPXPXIXPXpX:..X#.].1.l l ,.,.: + * * ..&.&.u.^.).=X&X6X6X6X$XU.U.P.P.P.c.c.c.0.5.4.' Y C B n v r 5 3 3 2 < < < % 4 7 @                                                                                                                                                                                                                                                                                                                                                                                     ",
"                                                                                                                                                                                                                    + z 2.1.2.].VXVXNXNXFXIXPXdX X1.z x 1.z ; ; + * L o.L u.*X=X=X6X7X6X6X6X6X,XU.U.U.I.P.P.F.c.c.q.5.4.~ E C B M b r e 5 3 2 < < 4 < 4 4 % X                                                                                                                                                                                                                                                                                                                                                                                   ",
"                                                                                                                                                                                                                      : sX'.sX2.dXBXfXfXBXPXPXyX@.+.,.z z p * w i d ~.[.m.*X9X7X6X6X6X6X6X,X,X$XU.U.U.I.P.P.P.c.c.e.0.5./ ' E C B n v r e 3 3 2 < 4 4 4 4 & @                                                                                                                                                                                                                                                                                                                                                                                   ",
"                                                                                                                                                                                                                      p 2.1.2.2.'.sXpXiXBXHXPXfX+.p ..; + q i _ &.M.*X7X5X6X6X6X6X6X6X6X,X,X,X,XU.U.U.U.I.P.P.F.c.e.0.5./ ~ E C B M v r e 3 3 2 < 4 4 4 4 & @ .                                                                                                                                                                                                                                                                                                                                                                                 ",
"                                                                                                                                                                                                                      : ,.,...#.+.2.sXpXfXFXIXBX:.a i d 0 _ %.A._.(.=X=X$X6X6X6X6X6X6X,X,X,X,X,XU.U.U.U.I.P.P.F.c.c.q.5.4.~ U E V M n r e 5 3 2 2 < < 4 4 4 & X                                                                                                                                                                                                                                                                                                                                                                                 ",
"                                                                                                                                                                                                                      + O.,.w w a '.sXpXfXFXLXFXsX:.$.$.I %.N.V.A.H.+X$X$X,X6X6X6X6X,X,X,X,X,X,X$XU.U.U.I.I.P.F.c.c.e.0.5./ R E C B n v r 5 3 3 2 < < < < 4 4 $ X                                                                                                                                                                                                                                                                                                                                                                               ",
"                                                                                                                                                                                                                      O g +.w ; a 1.sXiXBXFXLXLXiX~.&.%.t.m.m.V.A.H.I.+X$X$X,X6X6X,X,X,X,X,X,X,X,XU.U.U.I.I.P.F.C.c.e.0.5./ ~ E C V M v r e 5 3 2 < < < < 4 4 & o                                                                                                                                                                                                                                                                                                                                                                               ",
"                                                                                                                                                                                                                      O p ..k ; d :.pXiXBXFXLXLXcX~.&.%.t.t.m.B.A.D.I.+X$X$X,X,X,X,X,X,X,X,X,X,X,X$XU.U.U.I.P.P.F.c.e.q.5.4./ R K V M n r r 5 3 3 2 < < < % % 4 @                                                                                                                                                                                                                                                                                                                                                                               ",
"                                                                                                                                                                                                                        = ..k w w :.fXiXBXFXLXLXBX[.&.%.t.t.m.B.V.H.I.I.U.$X,X6X6X,X6X,X,X,X,X,X,X,XU.U.U.I.P.P.F.c.c.e.0.5./ ' Y C B n v r r 5 3 2 < < < # # 4 & $                                                                                                                                                                                                                                                                                                                                                                             ",
"                                                                                                                                                                                                                        O ..k a w :.iXfXBXFXLXLXNX X~.%.t.t.m.m.V.F.H.I.U.$X,X6X6X,X6X,X6X,X,X,X,X,XU.U.U.U.P.P.P.C.c.e.w.5.4.' E C V M b r r 5 5 2 2 < < % # % & $                                                                                                                                                                                                                                                                                                                                                                             ",
"                                                                                                                                                                                                                        O g z d a ,.pXcXBXFXLXLXHXyX~.t.t.9.l.l.V.F.H.I.U.U.$X6X,X,X,X6X6X,X,X,X,X,XU.U.U.U.P.P.P.C.c.e.w.5.4.~ R E C B n v r 6 5 3 2 < < < % % 4 & X                                                                                                                                                                                                                                                                                                                                                                           ",
"                                                                                                                                                                                                                        + a ..k d +.sXBXcXFXHXLXLXhX!.u.t.9.q.l.V.F.H.I.U.U.$X6X,X,X,X6X6X,X,X,X,X,X$XU.U.U.P.P.P.F.c.c.e.0.5./ ' Y C B n b r e 6 5 2 2 < < % % 4 & X                                                                                                                                                                                                                                                                                                                                                                           ",
"                                                                                                                                                                                                                        O p +.k a ..pXBXcXNXHXLXLXcX[.M.t.9.q.l.B.F.H.I.U.$X$X,X6X6X6X6X6X6X,X,X,X,X$XU.U.U.U.P.P.F.c.c.e.w.5.4.~ E D V B n v r e 5 3 2 < < % % & 4 @ X                                                                                                                                                                                                                                                                                                                                                                         ",
"                                                                                                                                                                                                                        . q +...d z '.cXBXBXFXLXLXMX X~.t.t.l.l.B.F.D.I.I.U.U.,X,X6X6X6X6X6X,X,X,X,X$XU.U.U.U.P.P.P.c.c.e.w.5.4.~ R Y C V n b v r 5 3 2 2 < < % & 4 & X                                                                                                                                                                                                                                                                                                                                                                         ",
"                                                                                                                                                                                                                        . ; @...k z 2.fXBXBXFXLXLXFXyX!.u.t.q.l.B.V.F.I.I.U.U.U.,X,X6X6X,X6X,X,X,X,X,XU.U.U.U.P.P.P.c.c.c.e.0.8./ ' E C V M n v r 5 5 3 2 < < % % & 7 X                                                                                                                                                                                                                                                                                                                                                                         ",
"                                                                                                                                                                                                                          * ..@.k z :.iXBXBXFXLXLXHXhX[.u.t.y.m.B.V.F.I.I.U.U.U.,X,X,X,X,X,X,X,X,X,X,XU.U.U.U.U.P.P.F.c.c.e.0.8.4.~ R Y C B n v r r 5 3 2 2 2 < % & 7 $ X                                                                                                                                                                                                                                                                                                                                                                       ",
"                                                                                                                                                                                                                          O z @.d k ,.pXcXBXFXLXLXHXcX{.~.i.y.m.B.V.F.H.I.U.U.$X,X,X,X,X,X6X,X,X,X,X,XU.U.U.U.U.P.P.F.c.c.e.q.0.8.~ ' Y C B n n v r 5 3 2 2 2 4 < % & & o                                                                                                                                                                                                                                                                                                                                                                       ",
"                                                                                                                                                                                                                          . d ..k k ,.sXcXBXFXHXLXLXvX|.!.i.y.m.B.V.F.D.I.U.U.U.,X,X,X,X6X6X,X,X,X,X,X$XU.U.U.U.P.P.P.C.c.c.e.0.8.4.~ E E C B n b r e 5 3 2 2 2 4 % & 4 @ X                                                                                                                                                                                                                                                                                                                                                                     ",
"                                                                                                                                                                                                                          . p @...k +.'.cXBXNXHXLXLXNXtX!.M.m.m.m.V.F.F.I.I.U.U.,X,X,X6X,X,X,X,X,X,X,X$XU.U.U.U.P.P.P.F.c.c.e.0.0.3.~ R Y C B n b v r 5 3 2 2 2 < < % 4 & @                                                                                                                                                                                                                                                                                                                                                                     ",
"                                                                                                                                                                                                                          O ; @...k ..'.iXcXmXHXLXLXZXgX[.M.M.m.m.B.F.F.I.I.U.U.U.,X,X6X,X,X,X,X,X,X,X$XU.U.U.U.U.P.P.F.c.c.e.q.0.8./ ' E D V M n v r e 5 2 2 2 2 < % 4 & $ X                                                                                                                                                                                                                                                                                                                                                                   ",
"                                                                                                                                                                                                                          . * +...d ..'.iXcXmXFXLXLXHXhX[.~.M.m.m.B.F.F.H.I.U.$XU.,X,X6X,X,X,X,X,X,X,X$XU.U.U.U.U.P.P.P.C.c.e.e.0.8.4.~ R E C B M b v r 5 3 2 2 2 < < % & & $                                                                                                                                                                                                                                                                                                                                                                   ",
"                                                                                                                                                                                                                          . ; ....d ..2.iXcXmXFXLXLXLXvX}.!.M.m.m.B.B.F.H.I.U.$XU.$X,X,X,X,X,X,X,X,X,X$XU.U.U.U.U.U.P.P.C.c.c.e.0.0.8.~ ' E D C B n v r r 5 2 2 2 < < < % & @                                                                                                                                                                                                                                                                                                                                                                   ",
"                                                                                                                                                                                                                            = ..@.k k :.iXcXmXFXHXLXLXMX|.!.M.m.m.B.V.F.F.I.U.$XU.U.,X,X,X,X,X,X,X,X,X,X,XU.U.U.U.U.P.P.F.C.c.e.q.0.8.4.~ R E C B n n v r 5 5 2 2 2 2 < < & * o                                                                                                                                                                                                                                                                                                                                                                 ",
"                                                                                                                                                                                                                            O ..@.L d +.pXcXBXNXHXLXLXNXgX/.M.M.m.B.V.F.F.I.I.$X$X$X,X,X,X,X,X,X,X,X,X,X,X$XU.U.U.I.P.P.P.C.c.e.e.0.0.3./ ' Y D V B n b r r 5 5 2 2 2 < % & & $                                                                                                                                                                                                                                                                                                                                                                 ",
"                                                                                                                                                                                                                            O g ..k d +.{.kXcXmXHXLXLXHXhX[.~.M.m.m.B.F.D.H.I.+X$X$X,X,X,X,X,X,X,X,X,X,X,X$XU.U.U.U.P.P.P.C.c.c.e.q.0.8./ ' R D C B M n v r r 5 3 2 2 < < % 4 $ .                                                                                                                                                                                                                                                                                                                                                               ",
"                                                                                                                                                                                                                            O p ..k d o.'.cXcXmXHXLXLXHXcX}.!.M.m.m.B.B.F.D.I.+X$X$X$X,X,X,X,X,X,X,X,X,X,X$X$XU.U.U.P.P.P.C.C.c.e.e.0.8.4./ ' E D V B n b v r 6 3 2 2 2 < < 4 * .                                                                                                                                                                                                                                                                                                                                                               ",
"                                                                                                                                                                                                                            O ; ..L d ..~.cXcXBXHXLXLXLXvX|./.M.m.m.B.V.F.D.I.U.$X$X$X,X,X6X,X,X,X,X,X,X,X,X$XU.U.U.U.P.P.P.C.C.c.e.q.0.4.4.' R Y C V M b v r 5 5 2 2 2 < < 4 * - -                                                                                                                                                                                                                                                                                                                                                             ",
"                                                                                                                                                                                                                            O + @.L d L :.iXcXBXNXHXLXLXMXgX/.M.M.m.B.B.F.D.I.I.$X$X$X,X,X,X,X,X,X,X,X,X,X,X$X$XU.U.U.P.P.P.C.C.C.e.e.0.8.4./ ' E D C B n b v 6 5 2 2 2 < < 4 4 = -                                                                                                                                                                                                                                                                                                                                                             ",
"                                                                                                                                                                                                                              * ....L L :.pXcXBXNXHXLXLXZXhX[.~.M.B.B.V.F.D.I.I.#X$X$X$X,X,X,X,X,X,X,X,X,X,X,X$XU.U.U.U.P.P.P.C.C.e.e.q.0.4.4.' R Y C V M b v e 5 3 2 2 2 < < 4 7 o                                                                                                                                                                                                                                                                                                                                                             ",
"                                                                                                                                                                                                                              * d ..L L &.{.cXBXNXHXLXLXHXcX}.!.M.M.B.V.F.D.I.I.+X$X$X$X,X,X,X,X,X,X,X,X,X,X,X,X$XU.U.U.P.P.P.C.C.c.e.e.0.8.4.~ ' E D V M n v r 5 5 2 2 2 < < < 4 & X                                                                                                                                                                                                                                                                                                                                                           ",
"                                                                                                                                                                                                                              o d @.L L +.'.hXBXNXHXLXLXHXvX|./.M.M.B.V.F.F.I.I.U.$X$X$X$X,X,X,X,X,X,X,X,X,X,X,X$XU.U.U.U.P.P.P.C.C.e.e.0.0.4.4.' R D C B n b r r 5 5 2 2 2 < < 4 4 @                                                                                                                                                                                                                                                                                                                                                           ",
"                                                                                                                                                                                                                              . g ..L L o.'.iXcXmXFXHXLXLXbXgX/.M.M.B.V.F.F.D.I.I.$X$X$X$X,X,X,X,X,X,X,X,X,X,X,X$X#XU.U.U.P.P.P.C.C.e.e.e.0.8.4.~ ' E C V M b v e 5 5 2 2 2 2 < 4 4 % .                                                                                                                                                                                                                                                                                                                                                         ",
"                                                                                                                                                                                                                              . p ..L L o.~.iXcXNXFXHXLXLXZXgX[.~.M.B.V.V.F.D.I.I.#X$X$X$X,X1X,X,X,X,X,X,X1X,X,X$X#XU.U.U.L.P.P.P.C.C.e.e.q.0.3.4.' ' Y C B n v r 6 5 5 2 2 2 2 < 1 % o                                                                                                                                                                                                                                                                                                                                                         ",
"                                                                                                                                                                                                                              O ; ..L d L :.yXcXmXNXHXLXLXZXhX X/.M.B.B.B.F.D.I.I.U.$X$X$X,X1X,X,X1X1X1X,X,X1X,X,X$X#XU.U.U.P.P.P.C.C.e.e.e.0.0.3.4.' E D Z M b r e 5 5 3 3 2 2 < 2 1 @                                                                                                                                                                                                                                                                                                                                                         ",
"                                                                                                                                                                                                                                + @.L d L :.pXcXBXNXHXLXLXHXxX|./.M.m.B.V.F.D.I.I.U.$X$X$X$X,X1X1X1X1X,X1X,X1X1X1X$X#XU.U.U.U.P.P.P.C.C.a.a.e.0.8.4.' R Y Z S M m r 5 5 3 3 2 2 2 2 4 % X                                                                                                                                                                                                                                                                                                                                                       ",
"                                                                                                                                                                                                                                * ....A L &.{.cXBXNXHXLXLXHXvX|./.M.M.B.V.F.D.L.I.U.#X$X$X1X,X,X1X1X1X1X1X,X,X1X,X$X#X#XU.U.U.U.P.P.P.C.C.a.a.0.0.3./ ' Y D Z S m r e 5 5 2 2 2 2 < 4 4 X                                                                                                                                                                                                                                                                                                                                                       ",
"                                                                                                                                                                                                                                * g @.L L o.'.cXBXNXFXHXLXLXbXgX[.Z.M.B.B.F.F.D.I.I.#X$X$X1X,X,X1X1X1X1X1X1X1X1X,X1X$X$X#XU.U.U.U.P.P.C.C.C.a.q.0.8.4./ R Y Z S m v r 5 5 2 2 2 2 < < 4 & $                                                                                                                                                                                                                                                                                                                                                     ",
"                                                                                                                                                                                                                                O g +.L L ..'.hXBXNXNXHXLXLXMXgX[./.M.B.B.B.F.D.I.I.#X$X$X$X1X1X1X1X6X6X1X1X1X1X1X1X1X1X$X#XU.U.U.L.P.P.C.C.B.a.0.0.3./ ' Y Z Z m v r 5 5 5 3 3 2 2 2 < 7 $                                                                                                                                                                                                                                                                                                                                                     ",
"                                                                                                                                                                                                                                O g +...L ..~.iXBXNXNXHXLXLXZXhX[./.M.B.B.V.F.F.L.I.+X#X$X$X1X1X1X6X6X6X1X1X1X<X1X1X1X1X1X$X#XU.U.U.L.L.C.C.C.a.q.0.8.4.' R D Z M b r 6 5 5 3 3 2 2 2 4 p @                                                                                                                                                                                                                                                                                                                                                     ",
"                                                                                                                                                                                                                                O a @...L o.:.iXBXmXNXHXLXLXHXxX X/.M.M.B.V.F.D.L.I.+X#X$X$X1X1X1X6X6X6X6X6X<X<X<X1X1X1X1X1X$X#XU.U.L.L.P.C.C.a.e.0.8.3./ ' Y Z B m v r 5 5 3 3 2 2 2 4 p & $                                                                                                                                                                                                                                                                                                                                                   ",
"                                                                                                                                                                                                                                  : @...L ..:.pXcXmXNXHXLXLXLXvX|./.M.M.B.B.F.D.L.I.I.#X$X$X1X1X<X6X6X6X6X6X6X<X<X<X<X1X1X1X1X$X#XU.U.L.L.C.C.C.a.0.0.8.4.' R D Z M b r 6 5 5 3 2 2 2 < 4 7 $                                                                                                                                                                                                                                                                                                                                                   ",
"                                                                                                                                                                                                                                  O @.@.L ..,.sXcXmXNXHXLXLXLXbXyX/.M.m.B.B.F.F.D.I.I.#X$X$X1X1X1X6X6X6X7X7X8X8X6X6X6X<X<X1X1X1X#X#XU.L.L.P.C.C.a.q.0.8.3.' ' Y Z B n v r 5 5 3 3 2 2 < 4 p @                                                                                                                                                                                                                                                                                                                                                   ",
"                                                                                                                                                                                                                                  O z @...L +.{.cXmXNXHXHXLXLXZXgX[.~.m.m.B.F.S.D.L.I.U.#X$X1X1X1X<X6X6X8X8X8X8X8X8X6X6X<X<X<X1X$X#X#XL.L.L.P.C.B.a.0.0.3./ ' Y Z Z m v r 5 5 5 3 2 2 2 4 p *                                                                                                                                                                                                                                                                                                                                                   ",
"                                                                                                                                                                                                                                  + d @...L +.'.cXBXNXFXHXLXLXHXhX[./.M.m.B.Z.S.D.L.I.+X#X$X$X1X1X<X6X8X8X8X8X8X8X8X8X8X8X<X<X1X1X$X#X#XL.L.L.S.C.a.q.0.8.3.' R D Z M b r r 5 5 3 3 2 2 4 4 & @                                                                                                                                                                                                                                                                                                                                                 ",
"                                                                                                                                                                                                                                  O q @...L ..~.cXBXmXFXHXLXLXHXvX|./.M.i.B.B.S.D.D.I.+X#X$X1X1X1X<X6X8X8X8X8X8X8X8X8X8X8X7X<X<X1X1X#X#X#XL.L.S.C.a.e.0.8.4.' ' Y Z B m v r 5 5 3 3 3 2 < 4 7 @                                                                                                                                                                                                                                                                                                                                                 ",
"                                                                                                                                                                                                                                  . q @...L ..>.iXBXmXNXHXLXLXHXvX|./.M.i.M.B.S.D.D.I.+X#X$X$X1X1X<X6X8X8X8X8X8X8X8X8X8X8X8X7X<X1X1X$X#X#XL.L.P.C.a.a.0.0.3.' ' Y Z S m v r 5 5 5 2 2 2 2 4 p $                                                                                                                                                                                                                                                                                                                                                 ",
"                                                                                                                                                                                                                                  . ; z @.L ..:.pXBXmXFXHXLXLXLXMXgX/.M.i.M.B.Z.S.D.L.+X#X#X$X1X<X<X<X7X8X8X8X8X8X8X8X8X8X8X7X<X1X1X$X#X#XL.L.P.S.C.a.0.0.3./ ' Y Z Z M v r 6 5 5 2 2 2 < 4 p & o                                                                                                                                                                                                                                                                                                                                               ",
"                                                                                                                                                                                                                                    * z ..L L :.pXBXmXNXHXLXLXLXZXgX[.~.M.M.B.Z.S.D.L.+X+X#X$X1X1X<X<X7X8X8X8X8X8X8X8X8X8X8X8X<X<X1X1X#X#XU.L.L.C.C.a.0.0.8.4.' R D Z M b r e 5 5 2 2 2 2 4 4 7 $                                                                                                                                                                                                                                                                                                                                               ",
"                                                                                                                                                                                                                                    + z ..L L +.sXcXBXNXHXHXLXLXHXhX}.~.i.M.B.Z.S.D.D.I.+X#X$X1X<X<X3X7X8X8X8X8X8X8X8X8X8X8X8X3X<X1X1X#X#XU.L.L.S.C.a.a.0.8.4./ R D Z B m v e 5 5 2 2 2 2 4 4 7 $                                                                                                                                                                                                                                                                                                                                               ",
"                                                                                                                                                                                                                                    O g ..L L +.{.cXBXmXFXHXLXLXHXvX|.!.i.i.Z.Z.S.D.D.L.+X#X$X1X1X<X<X7X8X8X8X8X8X8X8X8X8X8X8X7X<X1X1X#X#XU.L.L.P.C.a.a.0.0.4./ ' Y Z Z m v r 6 5 5 2 2 2 < 4 7 & $                                                                                                                                                                                                                                                                                                                                             ",
"                                                                                                                                                                                                                                    O a ....L +.'.cXBXmXFXHXJXLXLXbX|.!.i.i.M.Z.Z.D.D.L.+X#X-X>X1X<X<X7X8X8X8X8X8X8X8X8X8X8X8X8X<X1X1X$X#X#XL.L.P.C.C.a.0.0.3./ ' Y Z Z m v r 6 5 5 2 2 2 < 4 4 4 $                                                                                                                                                                                                                                                                                                                                             ",
"                                                                                                                                                                                                                                    O q @...L ..'.cXBXBXNXHXJXLXLXMXgX/.M.i.M.Z.Z.D.D.L.+X#X-X>X<X<X<X7X8X8X8X8X8X8X8X8X8X8X8X8X<X1X1X1X#X#XU.L.P.C.C.a.0.0.4./ ' Y Z Z n v r 6 5 5 2 2 2 < < 4 7 &                                                                                                                                                                                                                                                                                                                                             ",
"                                                                                                                                                                                                                                    O * @...k ..>.iXBXBXmXFXHXLXLXZXhX[.~.i.i.Z.Z.D.D.D.+X+X#X-X<X<X<X7X8X8X8X8X8X8X9X8X8X8X8X8X3X<X1X1X#X#X#XL.L.C.C.a.0.0.3.3.' Y C V n v r 6 5 3 3 2 2 2 < < 7 & X                                                                                                                                                                                                                                                                                                                                           ",
"                                                                                                                                                                                                                                    O * ....L ..:.pXcXBXmXFXHXLXLXZXxX}.~.i.i.Z.Z.S.D.D.oX+X#X-X>X<X<X7X8X8X8X8X8X8X8X8X8X8X8X8X7X<X1X1X#X#X#XL.L.C.C.a.q.0.3.3.' Y D V n v v e 5 5 3 2 2 2 < < 7 7 $                                                                                                                                                                                                                                                                                                                                           ",
"                                                                                                                                                                                                                                      * d @...L +.sXcXmXNXNXHXLXLXHXvX|./.i.i.M.Z.S.D.D.oX+X#X-X>X<X<X7X7X8X8X8X8X8X8X8X9X8X8X8X7X<X1X1X#X#X#XL.L.C.C.a.y.0.8.3.' Y D V B b v r 5 5 3 2 < < < # 4 7 & X                                                                                                                                                                                                                                                                                                                                         ",
"                                                                                                                                                                                                                                      + a @...k +.{.cXBXmXFXHXLXLXHXbXgX/.M.i.i.Z.Z.D.D.oX+X+X#X>X<X<X3X7X8X8X8X9X9X9X9X8X8X8X8X3X<X1X1X#X#X#XL.L.C.C.a.a.0.3.3.' Y D V B n v r 6 5 3 2 < < < # < 7 7 X                                                                                                                                                                                                                                                                                                                                         ",
"                                                                                                                                                                                                                                      O a ....k @.'.iXBXmXFXHXJXLXLXZXgX[.~.i.i.Z.Z.D.D.^.+X+X#X-X>X<X<X3X7X8X8X8X8X8X8X8X8X8X8X3X<X1X1X#X#XL.L.P.C.C.a.e.0.4.3.' Y D V B n v r 6 5 3 2 2 < > > # 7 7 -                                                                                                                                                                                                                                                                                                                                         ",
"                                                                                                                                                                                                                                      O p ....k ..>.iXBXmXFXFXJXLXLXZXxX X!.i.i.M.Z.Z.D.^.oX+X#X-X>X<X<X<X7X7X8X8X8X8X8X8X8X8X7X3X<X1X-X#X#XL.L.P.C.a.a.q.0.4.3.' E D C B n v r e 5 2 2 < < < > # 7 7 - -                                                                                                                                                                                                                                                                                                                                       ",
"                                                                                                                                                                                                                                        * ....k k :.pXBXmXNXFXHXLXLXHXvX|.!.i.i.i.Z.Z.D.D.oX+X#X-X>X>X<X<X<X7X7X7X8X8X8X8X8X7X3X<X<X1X#X#XoXL.L.P.C.a.e.0.0.4.3.' E Y C B M v r r 5 3 2 2 < < > > 4 7 7 -                                                                                                                                                                                                                                                                                                                                       ",
"                                                                                                                                                                                                                                        O z @.k d +.{.cXBXNXFXHXJXLXHXbXyX/.i.i.i.Z.Z.D.D.^.+X+X%X-X>X>X<X<X3X3X7X7X8X8X8X8X3X3X<X1X-X#X#XL.L.P.C.C.e.e.0.0.3.4.' E D C B M b r r 6 5 2 2 < < > # > 7 7 $                                                                                                                                                                                                                                                                                                                                       ",
"                                                                                                                                                                                                                                        O a ..k d +.'.iXmXmXFXHXJXLXLXMXgX[.u.p.i.M.Z.D.D.D.oX+X+X%X-X>X>X<X<X<X3X7X7X7X7X3X3X<X1X1X#X#XoXL.L.C.C.C.e.e.0.0.4.4.' E D C B M n r e 6 5 2 2 < > > > > < 7 & X                                                                                                                                                                                                                                                                                                                                     ",
"                                                                                                                                                                                                                                        O : ..L d ..2.iXcXBXFXHXJXLXLXZXhX[.f.p.t.i.Z.Z.S.D.D.L.+X+X#X-X-X>X<X<X<X3X3X7X3X<X<X<X1X#X#X#XL.L.S.C.C.a.e.e.0.8.4./ ' R D C V M n v r 5 5 2 2 < > > > # > 4 4 @                                                                                                                                                                                                                                                                                                                                     ",
"                                                                                                                                                                                                                                          + ....d d :.pXaXcXmXFXHXLXJXHXvX X~.p.p.i.M.Z.Z.S.D.D.oX+X+X%X#X#X-X>X<X<X<X<X<X<X<X1X-X#X#XoXL.L.C.C.C.e.e.0.0.8.4./ ' R Y C V M n v r 5 5 2 2 2 < > > # > < 7 & .                                                                                                                                                                                                                                                                                                                                   ",
"                                                                                                                                                                                                                                          O g ..d d +.'.iXkXmXFXHXJXLXHXvXtX!.p.r.t.i.Z.Z.Z.S.D.D.oX+X+X+X#X#X-X>X1X<X<X<X<X1X-X#X#X#XL.L.P.C.C.a.e.e.0.0.4.4.~ ' R E D C B n v r r 5 5 2 2 < > > # > # 4 & X                                                                                                                                                                                                                                                                                                                                   ",
"                                                                                                                                                                                                                                          O a ..k u @.'.pXiXBXmXHXHXLXHXMXgX!.p.%.r.t.i.B.B.Z.S.D.D.oXoX+X+X#X#X#X-X>X1X1X-X-X#X#X#XL.L.L.C.C.C.a.e.e.0.0.4.4.~ ' ' Y D V B n v r 6 6 5 2 2 < > > > # # 4 4 $ X                                                                                                                                                                                                                                                                                                                                 ",
"                                                                                                                                                                                                                                          O ; ..z u d :.pXuXkXmXFXHXJXJXNXhX[.u.%.%.r.y.i.B.B.Z.S.D.D.L.oXoXoXoX#X#X#X#X#X#X#X#X#XoXL.L.P.C.C.a.e.e.e.0.0.3.4./ ' ' Y D V B n v r 5 6 5 2 2 < < < > # # & 4 & X                                                                                                                                                                                                                                                                                                                                 ",
"                                                                                                                                                                                                                                            + ....d d :.`.pXaXcXmXHXHXHXZXhX}.f.%.` } r.y.y.y.B.B.S.S.D.D.L.L.oXoXoX+X#X#X#XoXoXoXL.L.L.C.C.a.e.e.e.e.0.0.3.4./ ' ' Y D V M b v r 5 5 5 3 2 < < < > # # # < 4 @ X                                                                                                                                                                                                                                                                                                                               ",
"                                                                                                                                                                                                                                            O a ..d d +.'.eXuXkXmXNXHXHXHXcX|.f.%.` ` r.t.y.y.y.B.B.B.S.S.D.L.L.L.L.L.oXoXoXoXL.L.L.L.C.C.C.a.a.a.a.a.0.0.3.3.' ' R D Z B n v r r 5 5 5 3 2 < < < < # # # % & # X X                                                                                                                                                                                                                                                                                                                             ",
"                                                                                                                                                                                                                                            O p ..d w ..>.wXpXaXkXmXHXHXHXvXtX~.%._ ) } r.r.y.y.y.a.B.B.S.S.S.D.L.L.L.L.oXoXoXL.L.L.L.C.C.a.a.a.e.a.y.0.8.3./ ' ' ( D Z B n v r 6 5 6 5 3 2 < < < # # # # # % & & X                                                                                                                                                                                                                                                                                                                             ",
"                                                                                                                                                                                                                                            O + ..z w d :.`.eXuXkXmXNXHXHXmXyX!.&.( ( ) } 8.8.0.q.y.a.B.B.S.S.S.S.S.S.L.L.oXL.L.L.L.S.S.a.a.a.e.q.0.0.0.3.3.' ' ( ( D C B n v r 6 5 6 5 2 2 < > < # # # # # # % 4 @ X                                                                                                                                                                                                                                                                                                                           ",
"                                                                                                                                                                                                                                              + z z a a +.'.{.pXiXkXmXHXHXNXhX[.&.( T Q ` 8.8.8.0.q.a.a.B.B.B.C.S.S.S.S.D.L.L.L.D.S.S.C.a.a.0.0.0.0.8.3.3.' ' ( Y D Z Z M n v r 6 5 5 3 2 2 < > < # # # # # # # & & $                                                                                                                                                                                                                                                                                                                           ",
"                                                                                                                                                                                                                                              + a z a w ..>.`.eXuXkXmXFXHXHXkX{.f._ Y T Q ` 8.8.8.0.y.a.a.a.a.B.Z.S.S.S.S.S.S.S.S.S.Z.a.a.0.0.8.8.3.3.3.` ' Y D Z Z B M n v v 6 5 5 5 3 3 2 < > > # # # # # # # & & & X                                                                                                                                                                                                                                                                                                                         ",
"                                                                                                                                                                                                                                              + : ..d q d :.'.wXuXaXBXNXHXHXcXtXf.$.( T Q ` 8.8.8.0.y.y.y.a.a.a.s.Z.Z.s.s.Z.s.s.s.a.a.y.y.p.8.3.3.p.d.' ` ( D Z Z B M n v v 6 6 6 6 6 3 3 2 < > > # # # # # # # # & 7 & X                                                                                                                                                                                                                                                                                                                       ",
"                                                                                                                                                                                                                                                + ..g a a =.'.`.pXuXkXmXFXHXmXyX!.&.( ( ( ` %.r.8.r.y.y.y.y.y.a.a.a.a.a.a.s.s.a.y.y.p.p.r.3.3.` ` ` ` %.` D Z B B M m m v v 6 6 6 8 6 8 4 4 < < > # # # # # # # # & = = o .                                                                                                                                                                                                                                                                                                                     ",
"                                                                                                                                                                                                                                                + g g a a @.>.`.eXuXkXmXFXHXNXhX{.f.$.( _ } r.r.r.r.p.p.y.y.y.y.y.y.y.y.y.y.y.y.0.8.3.` ' ' ' ( ( _ D $.( D B S S m m v v m r 6 6 8 8 8 3 4 2 < < # # # # # # # # & & = = $ .                                                                                                                                                                                                                                                                                                                   ",
"                                                                                                                                                                                                                                                + p z a a z ;.`.wXuXaXmXFXHXHXcXtX!.&.$._ %.%.r.r.r.r.r.r.r.r.r.r.0.p.p.0.r.3.3.` ` ' ' Y D D D D D Z B S S S S S m m m m m r 8 8 8 8 8 8 8 4 < < > # # # # # # # @ @ $ = = @ X                                                                                                                                                                                                                                                                                                                 ",
"                                                                                                                                                                                                                                                + : z a p d -.'.wXpXaXcXNXFXHXNXhX{.f.&.$.$.%.%.%.} ` 3.3.3.3.3.3.3.3.3.` ` ' ' ' ( Y D D D Z Z Z Z S S m m S S S S S S A A m s s s 8 8 8 8 4 < < < # # # # # # # # @ @ & = = $ X                                                                                                                                                                                                                                                                                                               ",
"                                                                                                                                                                                                                                                  * z g a a +.g.`.rXaXkXmXFXHXHXvXtX'.f.&.$.$.$._ _ ` ` ` ` ` ` ` ' ' ' ' R Y D D D D Z Z Z Z S S S S S S S S S G G G G G G G F F f s s 8 8 4 4 < < < # # # # # # # @ @ * & 7 & $ X                                                                                                                                                                                                                                                                                                             ",
"                                                                                                                                                                                                                                                  + h z a a O.>.`.eXaXkXmXFXHXHXFXkX{.g.:.$.$._ _ ( ( ( ( ( ( ( ( ( Y D D D D Z D D D D S S S S G G G G G G G @.=.=.-.=.=.=.@.G G F F s s 8 8 4 < < < < # # # # # # @ @ # % & 4 4 @ .                                                                                                                                                                                                                                                                                                           ",
"                                                                                                                                                                                                                                                  + p z a a g :.`.wXuXkXmXFXHXHXFXcXuX`.f.:.$.( X.( ( ( ( ( ( ( D D Z Z Z Z D S S S S X.X.$.$.X.X.X.X.+.=.-.;.;.g.g.g.>.;.;.-.=.@.G F F s s 8 8 4 < < < > # # # # # # @ # # # # 4 & X X                                                                                                                                                                                                                                                                                                         ",
"                                                                                                                                                                                                                                                  O : z g a g -.'.wXpXaXlXmXFXFXFXmXaXeX'.:.$.o.X.X.X.P P D D D Z Z D S S S P X.X.$.$.$.-.-.-.-.-.-.;.;.g.h.h.wXwXeXeXwXh.h.>.;.-.@.G F F s s 8 8 4 < < < > # # # # # # # # @ @ % 4 & $ X                                                                                                                                                                                                                                                                                                       ",
"                                                                                                                                                                                                                                                  . = g g a g +.>.`.eXaXkXBXDXGXDXmXkXuX`.g.-.$.o.X.X.X.S S S S S S G X.X.$.$.$.-.-.;.g.g.g.g.h.h.h.h.wXeXrXuXuXaXaXaXuXrXwXh.g.;.-.@.G F F s s 8 8 4 < < < < # % # # # # # @ @ @ % & & @ X                                                                                                                                                                                                                                                                                                     ",
"                                                                                                                                                                                                                                                    + a g a d @.;.'.wXuXaXlXmXDXmXmXlXuX`.g.;.$.$.X.X.X.X.X.X.X.X.$.$.$.-.-.;.g.g.h.h.h.wXwXwXwXeXrXrXaXaXlXlXlXlXlXlXkXuXrXwXh.g.;.=.O.F F A s s 8 8 4 4 2 < < < % % # % # # @ @ @ # # 7 & $                                                                                                                                                                                                                                                                                                   ",
"                                                                                                                                                                                                                                                    O h g a a ..-.>.`.eXaXaXkXBXBXlXkXuXeX`.>.-.$.+.+.+.$.$.$.-.-.-.;.;.g.g.h.h.wXwXrXrXrXrXuXuXaXkXlXlXUXDXDXDXDXDXDXlXkXuXrXwXh.;.-.=.G F F A s s 8 8 3 4 2 2 2 < % % % # # # # # @ @ & p 7 $ X                                                                                                                                                                                                                                                                                               ",
"                                                                                                                                                                                                                                                    O h g a a g =.>.`.wXrXaXaXkXkXkXaXuXeX`.g.;.-.-.-.-.-.-.;.;.g.g.g.h.h.h.wXwXrXrXuXuXaXaXaXkXlXlXUXDXDXDXKXKXKXDXDXDXlXaXuXwXh.g.-.-.@.G G F A s s 8 8 4 4 2 < 2 < % % % # # # # # @ @ & 7 7 & .                                                                                                                                                                                                                                                                                             ",
"                                                                                                                                                                                                                                                    O p g a a d @.:.>.`.wXuXuXaXaXaXuXrXwX`.g.>.;.;.;.;.;.g.g.g.g.h.h.h.h.wXwXrXrXrXuXaXkXkXlXlXUXDXDXKXKXKXKXKXKXKXDXDXlXkXuXrXh.g.;.-.=.O.G G F s s s 8 8 4 4 3 1 < < % % % # # # # # @ X & 7 7 & X                                                                                                                                                                                                                                                                                           ",
"                                                                                                                                                                                                                                                    O : g d a d ..-.>.h.wXeXrXuXuXuXrXeXwXh.h.g.>.>.>.>.g.g.g.g.h.h.h.`.wXeXrXrXrXuXaXkXlXlXlXUXUXDXDXKXKXKXKXKXKXKXDXDXlXkXuXrX`.h.g.;.-.+.O.G G F s s s s 8 8 8 4 2 < < < % # # # # # # @ @ @ 4 p 7 @                                                                                                                                                                                                                                                                                         ",
"                                                                                                                                                                                                                                                    . p g d d d z +.:.>.h.wXwXeXeXeXwXwX`.h.g.>.>.>.>.>.g.g.g.h.h.h.`.wXwXrXrXrXuXaXaXlXlXlXlXlXUXDXDXKXKXKXKXKXKXKXDXDXlXkXuXrXwXh.g.;.-.-.=.@.G F F s s s s s e 8 3 2 < < < % % # # # # @ @ @ & 7 p p $ .                                                                                                                                                                                                                                                                                     ",
"                                                                                                                                                                                                                                                    . p d d d d g O.=.;.>.h.wXwXwXwX`.h.h.>.>.>.>.;.;.;.>.g.g.h.h.h.wXwXeXrXrXuXuXaXkXkXlXlXlXlXlXDXDXDXDXDXDXDXDXDXmXlXlXkXuXrXwX`.h.g.;.-.-.+.O.G F F m s s s y 8 3 2 < 4 4 < < % % # # # @ @ @ @ 7 f p * X                                                                                                                                                                                                                                                                                   ",
"                                                                                                                                                                                                                                                    X = d d d d d ..@.-.;.>.`.h.h.h.>.>.>.>.>.>.;.;.;.;.>.g.g.h.h.h.wXwXeXrXrXuXuXuXaXkXkXlXlXlXlXlXmXDXDXDXDXDXDXmXlXlXlXkXaXuXrXwX`.h.g.;.-.-.+.O.G F F m s s s y 8 4 3 < < 4 4 < < % # # # # # @ % 7 p p & o                                                                                                                                                                                                                                                                                 ",
"                                                                                                                                                                                                                                                    o = s d d d a g O.=.-.;.>.>.>.>.>.>.>.;.;.;.;.;.;.;.;.g.g.g.h.h.h.wXwXeXrXrXuXuXuXkXkXkXlXlXlXlXlXlXDXDXmXlXlXlXlXlXlXkXkXaXuXrXeXwXh.g.;.-.-.+.O.G F F m s s s y 8 3 3 < < < < < < % # % % # # # @ & p f 7 X                                                                                                                                                                                                                                                                               ",
"                                                                                                                                                                                                                                                    . p s d d d a d g O.=.-.-.-.;.;.;.;.-.-.-.-.-.;.;.;.;.>.g.g.h.h.h.wXwXwXrXrXrXuXuXkXkXkXkXlXlXlXlXlXlXlXlXlXlXlXlXlXlXlXlXlXkXuXuXeXwXh.g.;.-.-.+.O.G F F m s s s y 8 4 2 < < < < 4 < < < % % # # # # 4 s F & X                                                                                                                                                                                                                                                                             ",
"                                                                                                                                                                                                                                                    o p g d d a d d g g O.O.=.=.=.=.=.=.=.=.=.=.-.-.;.;.;.;.g.g.g.h.h.h.wXwXeXrXrXrXuXuXkXkXkXkXlXlXlXlXlXlXlXlXlXlXlXlXlXlXlXlXlXkXaXuXrXwXh.g.;.-.-.+.X.G F A s s s y e 8 4 4 4 4 < < < < < 4 % # # % # % 4 f f 7 $                                                                                                                                                                                                                                                                           ",
"                                                                                                                                                                                                                                                    o p g s a a a s g g g F O.O.O.=.=.=.=.=.=.=.=.-.;.;.;.;.;.g.g.h.h.h.`.wXeXeXrXrXuXuXjXkXkXkXlXlXlXlXlXlXlXmXmXmXlXmXDXDXDXmXlXlXlXaXuXeX`.h.g.;.-.+.@.G F A A s s s s 8 8 8 4 4 2 < < < 4 4 < % % % # # % 4 p f p @                                                                                                                                                                                                                                                                         ",
"                                                                                                                                                                                                                                                    X p g s s a p p s h g g g g F G G G G O.=.=.=.=.-.;.;.;.;.g.g.h.h.h.`.wXeXeXrXrXuXuXjXkXkXkXlXlXlXlXmXmXDXDXDXDXDXDXDXDXDXDXDXDXmXlXaXuXeX`.h.g.;.-.+.X.G F A A s s y y 8 8 8 4 3 2 2 2 < < < < < < % % # % & 7 g 7 X                                                                                                                                                                                                                                                                       ",
"                                                                                                                                                                                                                                                    X p f s a p p p p s h h h g g g F F G G G O.=.=.-.-.;.;.;.g.g.g.h.h.h.`.eXeXrXrXuXuXjXkXkXlXlXlXmXmXDXDXDXDXDXDXDXDXKXKXKXKXKXDXDXlXkXaXrXeX`.g.;.-.$.X.X.G F A m s s y y 8 8 6 3 3 3 2 2 < < < 4 < < % # # % & s f & X                                                                                                                                                                                                                                                                     ",
"                                                                                                                                                                                                                                                    & p f s s p p p p p p p p f f f g f g F G G @.=.-.-.-.;.;.;.g.g.g.h.`.`.eXeXrXrXuXjXkXlXlXlXlXmXDXDXDXDXDXDXKXKXKXKXKXKXKXKXKXKXKXDXlXkXuXeX`.h.;.-.-.$.X.X.G A A m s s y 8 8 6 5 3 3 3 3 2 2 < < 4 < < % % # % 4 p p & .                                                                                                                                                                                                                                                                   ",
"                                                                                                                                                                                                                                                    $ f f s p p p p p p p p p p s f f f g F G G @.=.-.-.-.;.;.;.g.g.h.h.`.`.eXrXuXuXjXjXkXlXlXlXlXmXDXDXKXKXKXKXKXKXKXKXKXJXJXJXJXJXKXDXmXlXuXrX`.h.g.-.-.$.o.X.G A S A m m y s 8 8 8 5 5 3 3 3 3 3 3 < < < < % % # % 4 p s $                                                                                                                                                                                                                                                                   ",
"                                                                                                                                                                                                                                                    & f s s p p 7 = = 7 7 7 7 p p p f f g F G G @.=.=.-.-.;.;.;.g.g.h.`.`.eXeXrXrXuXjXkXkXlXlXlXmXDXDXKXKXKXKXJXJXJXJXJXJXJXJXJXJXJXKXKXmXkXuXrX{.'.g.:.$.$.$.X.X.S S S m m s y y y 8 8 5 5 3 3 4 4 3 3 1 < < < % % % % % f p o                                                                                                                                                                                                                                                                 ",
"                                                                                                                                                                                                                                                  . = s s p p p = = = = 7 7 7 p p s f f g F G G @.=.=.-.;.;.;.g.g.g.h.`.`.eXrXuXuXjXjXkXlXlXlXmXmXDXKXKXJXJXJXJXJXJXJXJXJXJXJXJXJXJXKXKXmXaXeXeX`.'.f.:.$.$.$.o.X.X.S S S m m y y r y e e 5 5 3 3 4 4 4 3 2 2 < < < % % % 7 s p @                                                                                                                                                                                                                                                               ",
"                                                                                                                                                                                                                                                  o p f s p p q = = = = = = 7 p p s f g g F G O.@.=.-.-.;.;.g.g.g.h.`.`.{.eXrXrXuXjXkXkXlXlXmXmXDXKXKXJXJXJXJXJXJXJXJXJXJXJXJXJXJXKXDXmXlXaXrXeX`.f.f.:.$.$.$.X.X.X.S S S m m m m m y y y y e 5 8 8 3 3 3 3 2 2 < < % % % % 7 s p $                                                                                                                                                                                                                                                             ",
"                                                                                                                                                                                                                                                  o p f s p q 4 = = 4 4 = 4 7 p s f f g F G G O.+.=.-.-.;.;.g.g.g.h.`.`.{.eXrXrXuXjXkXlXlXlXmXAXKXKXJXJXJXJXJXJXJXJXJXJXJXJXJXJXJXFXmXlXaXuX{.{.'.f.f.&.$.$.$.X.X.P S S S m S m m m y y y y y e 5 5 3 3 3 3 3 2 2 < < % % % % 7 F &                                                                                                                                                                                                                                                             ",
"                                                                                                                                                                                                                                                  o p f s p p 4 = = 4 4 = 4 7 p f f g F G G O.=.=.-.-.;.;.;.g.g.h.`.`.{.eXrXrXuXjXjXkXlXlXmXAXDXKXKXJXJXJXJXJXJXJXJXJXJXJXJXJXJXFXDXlXaXuXeXh.'.f.f.u.&.$.$.$.X.( P P S N N S m m m m m y r y e e 5 3 3 3 3 3 3 2 < < < % % # % f p &                                                                                                                                                                                                                                                           ",
"                                                                                                                                                                                                                                                . * s s s p p 4 4 = = 4 4 7 p s f g F G G O.+.=.-.-.;.;.;.g.g.h.`.`.{.{.eXrXrXuXjXjXkXlXlXmXAXKXKXKXJXJXJXJXJXJXJXJXJXJXJXJXKXDXDXlXkXuXrX{.g.f.f.u.d.%.$.$.$.( ( P P Z S N N N N m m m y y r r e e 5 5 3 3 3 3 2 2 2 < < < # # 4 7 7 X                                                                                                                                                                                                                                                         ",
"                                                                                                                                                                                                                                                o = s s p p 4 4 4 = 4 7 7 p f f g F G G O.+.=.-.-.;.;.;.g.g.h.`.`.`.{.eXrXrXuXjXjXjXkXlXlXmXDXKXKXKXJXJXJXJXJXJXHXHXHXKXKXDXDXmXlXkXuXtXrX'.f.f.f.u.&.%._ _ _ ( ( P P P Z N N N M M m m m y r r r e e 5 5 3 3 3 3 3 2 2 < < < # # & f @                                                                                                                                                                                                                                                         ",
"                                                                                                                                                                                                                                                o p p s p p 4 4 4 4 4 7 p f f g F G O.O.=.=.-.-.;.;.;.g.g.h.`.`.`.{.{.eXrXrXuXjXjXkXlXlXlXmXmXKXKXKXKXHXHXHXHXHXKXKXKXDXDXmXlXlXjXrXrXrX}.!.f.f.f.&.%.%._ _ _ ( ( ( P P J Z B N M M N n v v y r r r e e 5 5 5 3 3 3 3 2 < < < # # # p p &                                                                                                                                                                                                                                                       ",
"                                                                                                                                                                                                                                              . @ p p s p p 4 4 4 4 7 p p f g F G O.O.=.=.-.-.;.;.;.g.g.h.`.`.`.{.{.eXrXrXuXjXjXjXkXkXlXlXmXmXmXAXAXAXAXAXAXAXAXAXmXmXlXlXkXjXjXjXtX|.}.}.[.f.u.&.%.%.%.` _ _ ( ( ( Y Y J Z Z B M M M M n v v y r r r e e 5 5 3 3 3 3 2 2 < < > # # 4 p p X                                                                                                                                                                                                                                                     ",
"                                                                                                                                                                                                                                              o = p s s p p 4 4 7 7 p p f g g G O.O.=.=.-.-.;.;.;.g.g.h.`.`.`.`.{.eXrXrXuXuXjXjXkXkXkXlXlXlXlXlXlXlXlXlXvXlXlXkXhXhXjXjXlXvXjXjXjXgX}.!.[.!.p.%._ %.%.` ` _ _ ( ( ( Y Y P J Z Z V B M M n n b v v r r r e 5 5 5 3 3 3 2 2 < < > # # # 7 f o                                                                                                                                                                                                                                                     ",
"                                                                                                                                                                                                                                              o = p s s p q q 4 p p p p f F G O.@.=.=.-.-.;.;.;.g.g.h.`.`.`.{.eXeXeXrXtXtXuXjXjXjXjXjXkXkXkXkXkXkXhXhXhXjXjXjXjXjXjXjXxXhXjX}.4X|.2X/.!./.u.%.%.r.j.p.` _ _ _ ' Q R T Y Y Y J Z V B B M M n n b v v r r r e 5 5 5 3 3 3 2 2 < > # # # % f 7 o                                                                                                                                                                                                                                                   ",
"                                                                                                                                                                                                                                            . o p s s s p p p p p p s f g G O.@.=.=.-.-.;.;.;.g.g.h.`.`.`.{.eXeXeXrXrXrXtXtXtXjXjXjXjXjXjXjXjXjXjXjXjX2X2X4X4X4X4X4XgXgX4X}.!././.!.!./.!.p.i.u.p.%.` ` ( Q Q ~ Q Q R T Y Y Y J C V B B M M n n b v v r r e e 5 5 3 3 3 3 2 2 > > # # # p f =                                                                                                                                                                                                                                                   ",
"                                                                                                                                                                                                                                            . = p s s p p p p p s s f g F O.@.=.=.-.-.;.;.;.>.g.h.`.`.`.{.eXeXeXrXrXrXtXrXrXtXtXtXtXtXtX4X2X4X4X4X4X4X4X4X4X4X4X}.4X4X/./.2XxX/.!.i./.[.!.}./.i.r.' ` ` ` ` ~ ~ ~ ~ Q R T E Y Y C C B B M M M n n b v v r r e e 5 5 5 3 3 2 2 < > > # # & p h .                                                                                                                                                                                                                                                 ",
"                                                                                                                                                                                                                                            o p s s s p p p p p s f g F O.@.=.=.-.-.;.;.;.g.g.h.h.`.`.`.eXeXeXrXrXrXrXrXtX}.}.}.}.}.}.}.}.}.4X4X4X4X4X4XOXOXOXOXOX^.4X2X/././././.i./.i.i.4Xi.i.p.8.8.8.} ` ` ^ ~ ~ ~ Q R T Y Y K C B B B B M M n n b v v r r e 5 5 5 3 3 3 2 < < > # # # & F +                                                                                                                                                                                                                                                 ",
"                                                                                                                                                                                                                                          . * p s s p p p p p p s g F O.@.=.=.-.-.;.;.>.g.g.h.`.`.`.`.eXeXrXrXrXrXrX}.}.}.}.}.}.}.}.}.}.}.4X4XOXOXOXOXOXOXOXOXOX%X^.^.OX4X2X/.2X2X/.4X/.i.p.i.Z.p.p.y.8.8.8.4./ / ~ ~ ~ R R E E C C C B B B B M n n b v v r r e e 5 5 5 3 3 2 2 > > > # # @ s p &                                                                                                                                                                                                                                               ",
"                                                                                                                                                                                                                                          o = p s s p p p p p s f g G O.=.=.-.-.;.;.>.g.h.`.`.`.`.`.eXeXrXrXrXrX}.}.}.}.}.}.}././././././.OXOXOXOXOXOXOXOXOXOX%X2XOX^.^.%X4X/.4X%XS.s.s.s.i.Z./.r.y.y.0.8.8.8.8./ / ~ ~ ~ R T Y E C C C B B B B M n b v v m r r r e 6 5 5 2 2 2 < > < % % @ = h p .                                                                                                                                                                                                                                             ",
"                                                                                                                                                                                                                                        o @ 7 p p p p p p p s f g O.O.=.=.-.-.;.>.>.g.h.`.`.wXwXwXeXeXeXrXrX{.}.}.}.}.}.[././././././.^.^.OXOXOXOXOXOXoXoXoXoX+X-XOXOX2X%X^.^.S.S.S.S.S.Z.Z.%X^.y.y.y.y.0.0.8.8.8.` / ~ ~ Q R E E C C C C V B B M N n b v m v r r r 6 6 5 3 3 2 < > < < < # $ p g .                                                                                                                                                                                                                                             ",
"                                                                                                                                                                                                                                        o * p s s p p p p p s g F O.@.=.-.-.;.>.g.g.`.`.`.wXwXeXeXeXrXrXrX{.}.}.}.}.[./././././././.^.^.OXOXOXOXOXOXoXOX+XOXoXoX^.oX^.^.%X^.;XoXD.D.D.D.S.S.Z.S.Z.y.y.y.y.y.0.0.8.8.` / ~ ~ R R E D C C Z C V B M M n b b m v r e r 6 6 5 3 3 2 2 > < < < % @ = f &                                                                                                                                                                                                                                             ",
"                                                                                                                                                                                                                                        o = p f s p p p p p s g O.O.=.=.-.;.>.g.h.`.`.`.wXwXeXeXeXrXrXrXrX}.}.[.[./.!./.!.j././.^.^.^.oXOXOXOXOXOXOXoXoX+X+X+XoXoXoXoX>X%XoX+XoXL.D.D.D.S.S.oXoXS.B.a.a.y.y.0.0.0.8.3.` ~ ~ R R E Y D C C C Z B B M n b b b m r r e 6 6 5 5 3 2 2 < < < < % # % p 7 o                                                                                                                                                                                                                                           ",
"                                                                                                                                                                                                                                        o 7 s s p p p p p p f F O.@.=.-.;.>.>.h.`.`.`.wXwXeXeXeXrXrXrXrX}.}.}./.!.!.j.j.j.j./.^.^.^.^.oXOXOXOXOXOXOXoXoX+X#X#X#X#XoXoX-X-X+XoXL.L.L.D.D.S.S.^.D.Z.B.B.B.a.y.y.0.0.8.8.4./ ~ ' R R Y Y D C C C B B n M n b b m r r e 6 6 6 5 3 2 2 < < > < < % % = f *                                                                                                                                                                                                                                           ",
"                                                                                                                                                                                                                                      . * p f s p q p p p s g O.@.=.-.;.>.g.h.`.`.`.wXeXeXeXrXrXrXrXrXrX}.}.[.!.j.j.j.s.s.s./.^.^.^.^.oXOXOXOXoXoXoX+X%X-X#X#X#X#X#XoXoXoX+X+X+XoXL.L.L.D.D.D.S.S.S.B.B.a.a.y.y.0.0.8.8.4./ ~ R R R Y Y C C C Z B n n n b b m v r e 6 6 6 5 3 3 2 2 < < > > % % @ f = @                                                                                                                                                                                                                                         ",
"                                                                                                                                                                                                                                      o * p f s p p p p s s F @.=.-.;.>.g.h.`.`.wXwXeXrXpXpXpXuXtXtXtXrX}.[./.j.j.i.i.i.s.s./.^.^.^.^.oXoXOXoX+X#X%X%X-X-X-X#X#X#X#X#X#X#X+X+X+X+X+XoXL.L.L.L.D.D.S.S.B.B.B.a.y.q.0.0.8.3.` ` ~ R R Y Y Y C C Z B M n n b b v v r e e 6 6 5 5 3 2 2 < < > > > % # p p *                                                                                                                                                                                                                                         ",
"                                                                                                                                                                                                                                      o = f g p p p p s s g O.=.-.;.>.g.h.`.`.wXwXeXeXpXpXuXuXuXuXtXtX}.[.!.j.i.i.i.i.s.s.Z.^.^.^.^.oXoXoXoXoX%X-X-X-X-X-X-X#X#X#X#X#X#X#X#X#X#X#X+X+XoXL.L.L.L.D.S.S.C.B.B.B.a.y.q.0.8.8.3./ ~ R R Y E Y C C V B M n n b b b m v r e 6 6 5 5 3 2 < < > > > > # # = p = o                                                                                                                                                                                                                                       ",
"                                                                                                                                                                                                                                    . @ p g s p p p p s s g O.=.-.;.>.g.`.`.wXwXeXeXrXpXuXuXuXuXuXtXrX}.!.j.f.i.i.i.i.i.Z.Z.^.^.^.^.oXoXoXoX#X-X-X-X-X-X-X-X#X#X#X-X#X#X#X#X#X#X#X+X+X+X+XoXoXL.L.D.S.S.S.Z.B.a.a.y.0.8.8.3./ ~ ~ R Y E Y C C V B M M n n b b v v r e 6 5 5 3 3 2 2 < > > > > # # # f 7 o                                                                                                                                                                                                                                       ",
"                                                                                                                                                                                                                                    . * s g s q p p p s g O.@.=.;.>.g.`.`.wXwXeXeXrXpXuXuXuXuXuXuXtX{.[.j.f.i.i.i.i.i.s.s.Z.S.S.^.oXoXoXoXoX#X#X-X-X-X-X-X-X1X>X1X1X-X-X-X#X#X#X#X#X+X+X+X+X+XoXoXL.D.S.S.S.B.B.a.y.0.0.8.8.4.~ ~ ' R E Y J C C Z B M n n b b v v r e 5 5 5 3 3 2 2 < < > > > > # @ p p *                                                                                                                                                                                                                                       ",
"                                                                                                                                                                                                                                    o = s g s p p p p s g O.=.-.;.>.h.`.wXwXeXrXpXpXuXuXuXuXuXuXuXtX}.!.f.i.i.i.i.i.i.s.s.Z.S.S.D.oXoXoXoXoX#X#X-X-X-X>X1X1X1X1X1X1X1X1X1X-X-X-X#X#X#X#X#X+X+X+X+XL.L.S.S.S.B.B.a.a.0.0.8.8.3./ ~ ' R Y E Y C C Z B B n n b v v r r e 5 5 5 3 3 2 2 < < > > > > # @ 4 p 7                                                                                                                                                                                                                                       ",
"                                                                                                                                                                                                                                    X = f g p a p p s g ..@.=.;.>.g.`.wXwXeXeXpXuXuXaXaXaXhXjXjXyX|.[.j.f.i.i.i.i.i.i.s.s.Z.S.S.D.oXoXoXoXoX#X#X-X-X1X1X<X<X<X<X1X1X1X1X1X1X-X-X-X#X#X#X#X#X+X+X+X+XL.D.S.S.C.B.a.a.y.0.0.8.8.` ~ ' R R E Y C C V B M n n b v v r r e 5 5 5 3 3 3 2 2 < > > > > # # % p p o                                                                                                                                                                                                                                     ",
"                                                                                                                                                                                                                                    o * g g p p p p s g O.=.-.;.>.'.`.wXeXeXrXuXuXuXaXaXaXhXjXjXtX}.!.f.i.i.i.i.i.i.i.s.s.Z.S.S.L.oXoXoXoXoX#X#X-X-X<X<X<X<X<X<X<X<X<X<X<X1X1X>X-X-X-X-X#X#X#X#X+X+XL.L.D.S.S.B.B.a.a.0.0.8.8.4./ ~ ' R E Y C C V B M n n b v v r r e 5 5 5 5 5 3 3 2 < > > > > # # @ p p @                                                                                                                                                                                                                                     ",
"                                                                                                                                                                                                                                  . + p g g p p p a s g @.=.-.>.>.`.`.wXeXpXuXuXaXaXkXkXhXhXhXjX|.[.f.i.i.i.i.i.i.i.s.s.Z.Z.S.S.L.oXoXoX#X#X#X#X-X1X<X<X<X<X<X<X<X<X<X<X<X<X1X<X-X-X-X-X-X-X#X#X+X+X+XL.D.S.S.C.B.a.a.q.0.8.8.3./ ` ~ R E Y C C Z B M n n b v r r r r 5 5 5 5 5 3 3 2 < > > > > # # @ 4 p 7                                                                                                                                                                                                                                     ",
"                                                                                                                                                                                                                                  o * p g g p p p s d ..@.=.;.>.'.`.wXeXpXuXuXaXkXkXkXkXkXhXhXgX}.!.f.i.i.y.i.y.y.a.s.s.Z.S.S.S.oXoXoXoX#X#X#X#X-X<X<X<X3X3X3X3X3X3X<X<X<X<X<X1X1X-X-X-X>X$X-X-X-X#X+X+XL.S.S.C.B.B.a.y.0.0.8.8.` / ~ R E Y D C C Z B n n b v r r r r 5 5 5 3 3 3 3 2 < > > > > # # @ * p p o                                                                                                                                                                                                                                   ",
"                                                                                                                                                                                                                                  . = p O.g p p p s g ..@.-.>.>.`.wXeXpXuXuXaXaXkXkXkXkXkXkXhXgX}.f.i.i.i.y.y.y.a.a.s.Z.Z.S.S.D.oXoX+X#X#X#X-X-X1X<X3X3X3X3X3X3X3X3X3X<X<X<X<X<X1X1X1X1X>X-X-X-X-X#X#X+XL.D.S.S.B.B.a.y.0.0.8.8.` / ~ ' R E D Z C V B n n b v r r r e 5 5 5 3 3 3 3 2 < < > > > # # # @ p f @                                                                                                                                                                                                                                   ",
"                                                                                                                                                                                                                                  . = s z f p p p s g O.=.:.>.'.`.wXpXuXuXuXaXaXkXkXkXkXkXkXhXtX[.u.i.i.y.y.y.a.a.s.Z.Z.S.S.S.^.oXoX+X#X#X-X-X>X<X<X3X3X3X3X3X3X3X7X3X3X3X3X<X<X<X1X<X1X1X>X$X-X-X#X#X+XL.L.S.S.C.B.a.y.q.0.8.8.4./ ~ R R E D D C V M n n b v r r e e 6 5 5 3 3 3 3 3 2 < > > > > % % @ 4 f =                                                                                                                                                                                                                                   ",
"                                                                                                                                                                                                                                  . = s g g p p p s g O.=.;.>.`.wXeXpXuXuXaXaXkXkXcXcXcXcXkXhX|.!.u.p.i.i.i.y.a.a.s.Z.S.S.S.^.oXoXoX+X#X#X-X>X1X<X<X3X3X3X7X7X7X7X8X8X8X7X8X7X<X<X<X<X<X<X1X>X-X-X-X#X+XI.L.S.S.C.B.a.a.q.0.8.8.4./ ~ ' R E Y C V V M n b b v r r r e 6 5 3 3 3 3 3 2 < < > > > > % % % = h p                                                                                                                                                                                                                                   ",
"                                                                                                                                                                                                                                  O = h g s p p p a g O.=.;.'.wXwXpXuXuXaXaXkXkXkXmXmXmXcXkXjX}.!.u.i.i.i.i.y.a.a.Z.Z.S.S.S.^.oXoXoX+X#X-X-X>X1X<X<X<X3X7X8X8X8X8X8X8X8X8X8X7X7X<X<X<X<X<X1X>X>X$X-X#X#X+XL.D.S.C.B.B.a.q.0.0.8.4./ ~ R R E D Z V B n b v v v r r e e 6 5 3 3 3 3 2 2 2 < > > > > % & % * h h o                                                                                                                                                                                                                                 ",
"                                                                                                                                                                                                                                  O : h ..s p p p a g O.=.>.`.wXeXpXuXaXaXkXkXlXlXmXmXmXmXcXjX}.f.u.i.i.i.i.y.a.a.Z.S.S.S.S.oXoXoXoX+X#X-X-X>X1X<X<X3X7X8X8X8X8X8X8X8X8X8X8X8X7X7X7X<X<X<X<X>X>X$X-X#X#X+XL.D.S.S.B.B.a.q.0.0.8.4./ ~ R U Y D C V M n n v v v r r 6 6 6 5 3 3 3 3 2 2 2 < < > > < % & % @ f f @                                                                                                                                                                                                                                 ",
"                                                                                                                                                                                                                                . + = h g a p p s a g O.-.>.`.sXpXuXaXaXkXkXkXlXmXmXNXNXmXlXjX[.f.u.p.i.i.i.y.s.s.Z.S.S.S.D.^.oXoXoX+X#X-X-X>X1X<X<X3X7X8X8X8X8X8X8X8X8X8X8X8X8X7X7X7X7X<X<X<X>X>X$X-X#X+XoXL.S.S.B.B.a.y.0.8.8.7./ ~ R U E D C V M n n v v v r r 6 5 5 5 3 3 3 3 2 2 < < < > > < < % % @ p f =                                                                                                                                                                                                                                 ",
"                                                                                                                                                                                                                                  o = h g a p p a s g @.-.>.`.eXuXuXaXaXkXkXBXmXmXmXFXNXmXlXjX[.f.u.p.i.i.i.i.s.Z.Z.S.S.S.D.^.oXoXoX+X#X-X-X-X1X<X<X3X7X8X8X8X8X8X8X8X8X8X8X8X8X7X7X7X7X<X<X<X>X>X-X-X#X+XoXL.S.S.B.B.a.y.0.8.8.7./ ~ ~ U E D C B M n n b v v r r 5 5 5 3 3 3 3 2 2 < < > > > > > < % % @ 7 g =                                                                                                                                                                                                                                 ",
"                                                                                                                                                                                                                                  + p a g p p p a s g @.:.>.wXpXuXaXaXaXkXlXmXmXmXmXFXFXmXkXtX[.f.u.p.i.i.i.i.s.Z.Z.S.S.S.S.D.oXoXoX+X#X-X-X>X<X<X<X3X7X8X8X8X8X8X8X8X8X8X8X8X8X8X7X7X7X7X<X<X1X>X-X-X#X+XoXL.S.S.B.B.a.y.y.0.8.8.` ~ ~ U E C C B n n n v v r r r 5 5 5 3 3 3 3 2 2 < < > > > > > # % % @ $ F @                                                                                                                                                                                                                                 ",
"                                                                                                                                                                                                                                . + p g g p p p a d g @.:.'.wXpXiXaXaXkXkXcXmXmXmXNXFXNXNXkXtX/.f.p.p.i.i.y.s.s.Z.Z.Z.S.S.S.^.oXoXoX+X+X-X-X-X>X<X<X3X7X8X8X8X8X9X9X9X9X8X8X8X8X8X8X8X8X7X<X<X<X>X-X-X#X+X+XL.D.S.S.B.a.y.y.0.8.4./ ~ R R E C C B n n b v r r r r 5 5 5 3 3 3 2 2 < < < < < > > > # % % @ % g =                                                                                                                                                                                                                                 ",
"                                                                                                                                                                                                                                . @ p g g p q p p a g O.:.'.sXiXaXaXkXkXcXBXmXmXNXFXFXNXNXkXtX/.f.p.p.i.i.y.i.s.Z.Z.Z.S.S.S.D.^.oXoX+X+X-X-X-X<X<X<X3X7X8X8X9X9X9X9X9X9X9X9X9X8X8X8X8X8X7X7X<X<X>X-X-X#X+X+XL.D.S.S.B.a.y.y.8.8.7./ ~ R T E C V B n n b v r r r 6 5 5 5 3 3 2 2 2 < < < < < > > > # # % @ * f p                                                                                                                                                                                                                                 ",
"                                                                                                                                                                                                                                . o p g z p q p p a g O.-.'.eXiXaXkXcXcXcXmXmXmXFXKXKXFXNXkXtX/.f.p.p.y.i.i.i.s.s.Z.Z.S.S.S.D.^.oXoX+X+X-X-X>X1X<X<X3X7X8X9X9X9X9X9X9X9X9X9X9X9X8X8X8X8X7X7X<X<X>X>X$X-X#X+XL.D.S.S.B.a.y.0.8.8.3./ ' R E J C V B n n v v r r r 5 5 5 3 3 2 2 2 2 < > > < < > > > # # % # % f h                                                                                                                                                                                                                                 ",
"                                                                                                                                                                                                                                . o p g ..p q p a s g O.-.'.eXiXkXkXcXBXmXmXmXFXFXKXKXFXNXlXtX[.f.p.p.y.y.y.i.i.s.Z.Z.Z.S.S.S.D.oXoXOX+X+X-X>X>X<X3X3X7X8X9X9X9X9X9X9X9X9X9X9X9X9X8X8X8X8X7X7X<X>X>X$X#X+X+XL.D.S.C.B.a.y.q.8.8.` ` R R Y J Z B n n n v v r r 6 5 5 5 3 3 2 2 2 < < > > < < > > > # # # # @ g p                                                                                                                                                                                                                                 ",
"                                                                                                                                                                                                                                . o = g g p q p a s g O.-.'.pXiXkXkXcXBXmXmXmXNXFXHXHXKXNXlXtX[.~.i.p.y.i.i.y.i.s.Z.Z.Z.S.S.S.D.^.oXOX+X+X%X-X>X3X3X3X7X8X9X9X9X9X9X9X9X9X9X9X9X9X9X8X8X8X7X7X<X>X>X$X#X+X+XL.D.S.B.a.y.y.0.8.8.` ` R T Y C Z B n n b v r r r e 5 5 3 3 2 2 < < < < < < > > > > > # # # # @ f p                                                                                                                                                                                                                                 ",
"                                                                                                                                                                                                                                . o = h g a q q p s s ..-.'.pXiXkXkXcXBXmXmXNXFXHXHXHXHXNXcXtX[.!.i.p.p.y.i.y.i.s.s.Z.Z.S.S.S.D.^.oXoX+X+X%X-X>X3X3X3X7X8X9X9X9X9X9X9X9X9X9X9X9X9X9X8X8X8X7X7X<X>X>X-X#X+XL.L.S.S.B.a.y.y.0.r.8.` ' R Y Y Z Z M n b v v r r e 6 5 3 3 2 2 < < < < < < < > > > > > # # # # @ p h o                                                                                                                                                                                                                               ",
"                                                                                                                                                                                                                                  o : s ..p q q p s s O.-.'.pXaXkXcXcXBXmXmXNXFXHXHXHXHXKXmXyX}.!.i.p.p.y.y.i.i.s.s.Z.Z.S.S.S.S.^.oXoX+X+X-X-X>X<X3X3X7X8X9X9X9X9X9X9X9X9X9X9X9X9X9X8X8X8X7X7X<X>X-X-X+XoXL.D.S.S.Z.B.y.y.r.8.3.` ( ( Y Z Z B n n b b v r r e e 5 3 3 2 2 < < < < < < < > > > # > # # # # @ 7 g .                                                                                                                                                                                                                               ",
"                                                                                                                                                                                                                                  O = s O.d p q p s s ..-.'.pXiXkXcXcXBXmXmXNXFXHXHXHXHXKXmXjX}.!.f.p.p.p.i.i.y.i.s.Z.Z.Z.Z.S.S.^.oXoX+X+X%X-X>X>X3X3X7X8X9X9X9X9X9X9X9X9X9X9X9X9X9X8X8X7X7X3X<X>X-X-X+XoXL.D.S.S.Z.s.y.r.8.3.` ` ( Y Y C Z M n n b v v r r 5 6 5 3 2 2 2 < < < < < < > > > > # # # # # # @ 7 h $                                                                                                                                                                                                                               ",
"                                                                                                                                                                                                                                  + * s O.g p q q p s F =.'.uXaXkXcXBXmXmXNXNXFXHXHXHXHXHXmXhX X!.f.p.p.p.p.y.y.y.s.s.Z.Z.Z.S.S.^.^.oXoX+X%X-X-X>X3X3X7X8X9X9X9X9X9X9X9X9X9X9X9X9X9X8X8X8X7X<X>X>X-X#X+XL.D.S.S.B.a.y.0.8.` ` ' ( Y D Z C B n n b v v r r 5 5 6 5 3 2 2 2 2 < < < < > > > > > # # # # # # # 7 f =                                                                                                                                                                                                                               ",
"                                                                                                                                                                                                                                  O * p O.g p p p p s g +.g.iXaXkXcXBXmXmXNXNXFXHXHXHXHXHXMXkX|.!.f.u.p.p.p.p.y.i.y.s.s.B.B.Z.S.D.^.^.oX+X%X-X-X>X>X3X7X7X9X9X9X9X9X9X9X9X9X9X9X9X9X9X8X8X7X3X>X-X#X+XoXD.S.S.B.a.y.0.8.3./ ' R Y D C V V B n n v v v r r 5 5 5 5 3 2 2 2 2 < < < < > > > > > # > > # # # # 4 f =                                                                                                                                                                                                                               ",
"                                                                                                                                                                                                                                  O ; q @...p p p p s d @.>.pXaXkXcXBXBXmXmXNXFXHXHXJXHXHXAXcX|.[.f.u.p.p.p.p.y.i.i.y.s.s.B.Z.Z.S.D.^.oX+X%X%X-X>X>X3X3X7X7X9X9X9X9X9X9X9X9X9X9X9X9X8X7X7X3X<X>X%X+XoXL.S.B.a.y.0.0.8.4.~ ' R E E C V V B B M n b v v r r 5 5 5 5 3 2 2 2 2 < < < > < > > > > # # > > # # # # g 7                                                                                                                                                                                                                               ",
"                                                                                                                                                                                                                                  . = p O.g p p p p p d O.>.pXkXkXcXBXBXmXNXNXHXHXJXJXHXHXAXvXtX[.!.f.u.p.p.p.p.p.y.i.y.a.s.B.Z.S.S.^.^.OX+X%X%X-X>X>X3X3X3X7X7X9X9X9X9X9X9X9X9X9X7X7X7X3X3X>X-X+XoXD.S.a.0.0.8.8.4./ ~ ' R E Y D C V V B B M n b v v r r 5 5 5 3 3 2 2 2 2 < < < < > > > > > # # > > # # # # p 7 &                                                                                                                                                                                                                             ",
"                                                                                                                                                                                                                                  . * p g ..p q q p p d ..;.eXkXcXcXmXmXmXNXNXHXHXHXJXHXHXZXvXjX{.!.f.u.p.p.p.r.p.y.y.y.a.a.s.Z.Z.S.^.^.oX+X%X%X-X-X>X3X3X3X3X7X7X7X9X9X9X9X9X9X7X7X3X>X>X>X-X+XoXS.B.q.0.5.4./ / / ~ ' R E E Y D C V V B B M n b v v r r 5 5 5 3 3 3 2 2 2 < < < < > > > > > # # # > # # # # 4 p &                                                                                                                                                                                                                             ",
"                                                                                                                                                                                                                                  . + p g @.p q q q p s F -.eXaXkXcXmXmXmXNXNXFXHXHXJXHXHXZXvXhX{.!.f.u.p.p.p.r.r.p.y.y.y.a.s.B.Z.Z.S.^.^.oX+X%X%X-X>X>X>X3X3X3X3X7X7X7X7X7X3X3X3X>X>X;X%X+XoXD.Z.y.0.5.4./ / / ~ / ~ ' ' R E E Y C C V B B M n b v v r r e 5 5 3 3 3 2 2 2 < < < < > > > > > > # # # > # # # % p *                                                                                                                                                                                                                             ",
"                                                                                                                                                                                                                                  . O p g @.a q q q p s g -.`.iXkXcXmXmXmXNXNXFXHXHXJXHXHXHXmXhX|.!.f.u.p.p.p.r.r.r.0.y.y.y.i.s.Z.Z.Z.^.^.^.OX+X%X%X;X>X>X>X>X3X3X3X3X>X>X>X>X-X-X+XoXD.S.Z.a.0.0.5.4.4./ / / / / ~ ~ ' ' R E E Y C C V B B B n b v v r r e 5 5 3 3 3 2 2 2 < < < < < > > > > > # # # # # # # # p &                                                                                                                                                                                                                             ",
"                                                                                                                                                                                                                                  . O : g O.d q q q p p d +.'.iXkXcXmXmXmXmXNXNXHXHXJXJXHXHXMXhXtX[.!.f.u.p.p.p.r.r.r.0.y.y.y.i.s.Z.Z.Z.^.^.^.^.OX+X%X%X;X>X>X-X;X-X%X%X%XoXoXS.S.B.a.q.0.0.8.8.5.4.4.4.4./ / / / ~ / ~ ' R R E Y Y C B B B M M b v v r r r 5 5 5 3 3 3 2 2 2 < < < < > > > > > # # # # # # # # 7 7 *                                                                                                                                                                                                                           ",
"                                                                                                                                                                                                                                    O * g @.g q q q q p d O.>.uXkXcXcXmXmXmXNXNXHXHXHXHXHXHXZXcXgX}.!.f.u.p.r.r.r.8.8.r.r.y.y.y.i.s.Z.Z.S.^.^.^.^.^.OX+XoXoXoXoXoXoXD.S.B.a.a.0.0.0.0.8.5.8.5.5.5.5.4.4.4./ / / / / ~ ~ ' R E E E Y C V B B B M n b v r r e e 6 5 5 3 4 2 2 2 < < < > > > > > > > # > > > # # # 4 p $                                                                                                                                                                                                                           ",
"                                                                                                                                                                                                                                    . * d +...* q q q p s ..:.eXiXkXcXmXmXMXNXNXHXHXHXHXLXHXZXvXjX}.!.f.u.p.r.r.r.8.8.8.8.r.y.y.y.i.M.Z.Z.Z.^.^.^.^.^.^.S.S.S.Z.s.y.y.0.0.8.8.8.4.4.8.8.8.8.8.8.8.8.5.4.4.4./ / / / ~ ~ ' ' R R E Y C C B B B M n b v r r r e e 5 5 5 4 3 2 2 < < < > > > > > > > # # > > # # # # s &                                                                                                                                                                                                                           ",
"                                                                                                                                                                                                                                    . + a +...q * q q p a g =.'.uXkXcXBXBXmXMXNXNXHXHXHXLXHXZXbXhX}.!.f.u.p.r.r.%.} 8.8.8.r.p.p.y.y.i.i.i.i.Z.Z.Z.Z.s.s.y.y.0.0.0.8.8.8.4.4.4.4.8.8.0.0.0.0.0.0.5.8.8.4.3.4.4.4.4./ / ~ ~ ' R E E Y J C B B B B M n b v r r e e 6 5 5 3 3 3 2 2 < < > > > > > > # # # # > # # # # p =                                                                                                                                                                                                                           ",
"                                                                                                                                                                                                                                    . o q ..@.t * q q q t d @.>.pXkXcXcXBXmXMXNXNXHXHXHXHXHXZXbXhX|.!.f.u.p.%.%.%.` ` 8.8.8.r.r.p.p.p.p.p.i.p.p.p.r.8.8.8.3.4.3.3.4.3.3.4.4.8.0.0.0.0.0.0.0.0.0.8.5.8.8.3.4.4.4.4./ / / ~ ' ' R R E E C V V V B M M n v v v r e 6 6 6 5 3 3 2 2 < < > > > > > > # # # # > # # # # 7 p *                                                                                                                                                                                                                         ",
"                                                                                                                                                                                                                                      . = z +.d * q q q q d ..:.eXiXcXcXBXmXMXNXNXFXHXHXHXHXZXbXhXtX!.f.u.p.%.%.} ` ` ` 8.r.r.r.r.r.r.r.r.r.8.8.3.` / / ` ` ` 4.4.3.8.8.0.0.0.0.0.0.0.0.0.y.y.0.0.8.8.8.3.3.3.4.4.4./ / ~ ' ' R R T E Y C Z V V V M M n v v r r e y 6 6 5 3 2 2 < < < < > > > > > # # # # # # # # & s $                                                                                                                                                                                                                         ",
"                                                                                                                                                                                                                                      . * d +.g ; ; q q q a ..-.'.iXkXcXcXBXmXMXNXNXFXFXHXHXZXMXhXtX[.f.u.&.%.%.} ` ` ` ` ` ` r.r.r.3.` ` ` ` / / ~ ~ / ` 4.8.8.8.8.0.0.0.0.0.0.0.0.q.q.y.y.y.y.0.0.8.8.3.3.3.4.4.4.4./ ~ ~ ' ' R R T E J C V V V Z M n b v v r r e 6 8 5 3 3 2 2 < < < < > > > > > # # # # # # # # p &                                                                                                                                                                                                                         ",
"                                                                                                                                                                                                                                      O * a @...q * q q q a g @.>.pXiXkXcXcXvXmXmXNXNXFXNXNXMXvXhXtX[.f.u.&.%.$.` ` _ _ ` ` ` ` ` ` ` ` ' ' ~ ~ ~ / ~ ` 3.8.8.8.8.8.0.0.0.0.0.0.y.y.a.a.a.y.y.y.y.0.0.8.8.8.3.3.4.4.4.4.4./ / ~ ~ R R T E J C C V Z B M n b v v v r y 6 6 5 2 2 2 < < < < > < > > > > # # > # # # # p 7 *                                                                                                                                                                                                                       ",
"                                                                                                                                                                                                                                      O + p ..@.t * ; q q q d ..:.eXiXiXkXcXcXvXmXmXNXmXmXmXvXcXhX X!.f.&.&.$._ _ _ ( ( ( ( ( ( ( ( ( ' ' ' ' ~ ' / ` 4.8.8.8.8.8.8.0.0.0.0.0.y.y.a.a.a.a.a.a.a.y.y.0.0.8.8.8.8.8.8.8.8.3.4./ ~ ` ' ' ( R T J J J Z Z N M n b v v r r y 6 5 2 2 2 < < < < < < > > > > # # > > # # % 4 p @                                                                                                                                                                                                                       ",
"                                                                                                                                                                                                                                        O = g +.a * ; 9 q q d g +.'.pXiXiXkXcXcXcXcXvXcXcXcXcXhXtX{.~.f.&.$._ ( ( ( ( Y Y Y Y Y ( ( ( ' ' ' ' ' ` ` 3.3.8.8.8.8.8.0.0.0.0.0.y.y.a.a.a.a.a.a.a.a.a.a.y.y.0.0.8.8.8.8.8.8.8.8.4.` ` ` ` ` ` ( T T Y J Z Z B N m b v r r y 8 5 3 2 2 2 < < < > < > > > > # # > > # # % % f *                                                                                                                                                                                                                       ",
"                                                                                                                                                                                                                                        . * a +.d ; * 9 q q a d @.>.eXiXiXiXiXhXkXkXkXhXiXiXiXtXeX'.f.:.&._ P P P J J J J Y Y Y Y ( ( ( ' ' ' ' ` ` 3.3.8.8.8.8.0.0.0.y.y.y.y.a.a.a.B.B.B.B.B.Z.Z.B.a.a.y.y.0.0.8.8.8.8.8.8.8.8.8.8.` ` ` ` ( T Y Y J Z B M m m v r r y 8 5 5 3 2 2 2 < < < < < > > > # # > > # # # % p = *                                                                                                                                                                                                                     ",
"                                                                                                                                                                                                                                        . + p @...q * 9 q q q a F -.'.sXpXpXiXiXtXtXtXtXtXtXtX{.'.f.:.&.$.P P J J J J J J Y Y Y E Y ( ( ' ' ` ' ` ` ` 8.8.8.8.8.0.0.y.y.y.y.a.a.B.B.Z.Z.S.S.S.D.D.S.S.Z.a.a.y.y.0.0.0.y.0.0.8.8.8.8.8.` ` ` ` ( T Y J Z B M n n m v r y 6 8 5 3 2 2 2 < < < < < < < > > # # > # # # % 7 p *                                                                                                                                                                                                                     ",
"                                                                                                                                                                                                                                        . O : z +.q * ; q q q t d @.>.'.`.{.pXeX{.{.{.{.{.'.'.~.f.:.$.o.P P J J J J J J J Y Y Y Y Y R ( ' ` ' ' ' ` ` 8.8.8.8.0.0.y.y.y.a.a.s.B.Z.S.D.D.D.D.D.^.oXoXD.S.Z.B.a.a.a.y.y.y.y.y.0.8.8.8.8.8.` ` ` ( ( Y J Z B M M n b v r e 6 6 5 3 3 2 2 < < < < < < > > > # # > > # # % & f *                                                                                                                                                                                                                     ",
"                                                                                                                                                                                                                                          . * d +.d ; ; q q q q a F +.:.g.'.'.'.'.'.'.'.g.f.:.:.:.$.o.P S S Z J V J J J J J Y Y Y E Y ( ( ( ` ` ` ` 3.8.8.8.0.y.y.y.y.a.B.Z.S.S.D.D.^.^.oX+X+X+X+X+X+XoXD.S.S.Z.B.a.a.a.y.y.0.0.8.8.8.8.` ` ` ( T Y Y J V B M m b v r r y 6 5 3 3 3 3 2 < < < < < > > > # # > > > # % % p &                                                                                                                                                                                                                     ",
"                                                                                                                                                                                                                                          . + p @...q ; ; q q q p d ..+.:.:.>.>.f.:.:.:.:.&.$.$.$.$.X.P A A N N V Z J J J J Y Y Y Y Y R ( ` ` ` ` ` 8.8.8.0.y.y.y.a.a.B.S.D.D.^.oXoX+X+X%X-X-X-X-X-X-X+XoXD.D.S.S.B.B.B.a.y.y.y.0.8.r.8.` ` ` ( R T Y J Z V M M b b v r e 8 5 5 3 3 3 2 2 < < < < > > > # # > > > # # % 7 7 *                                                                                                                                                                                                                   ",
"                                                                                                                                                                                                                                          . O : ..@.q * * * q q q s d ..+.+.+.&.-.&.$.$.$.$.$.$.o.X.P L A S N V V V Z J J Y Y Y Y E R ( ` ` ` ` ` 3.8.8.r.0.y.y.a.B.Z.S.D.^.+X+X+X%X-X;X>X>X>X>X>X>X>X-X+XoXL.D.S.S.B.B.B.a.y.y.0.0.8.8.` ` ` Q R T Y Y Z V N M n b v r e e 6 5 3 3 3 2 < < < < < < > > > > # > > # # % 4 p %                                                                                                                                                                                                                   ",
"                                                                                                                                                                                                                                            . * d +.q * * * q q q p s s g ....X.o.o.o.o.o.o.o.X.X.P P L L A N N V B Z J J J Y E E Y ( ( ` ` ` ` ` 8.8.r.p.y.y.a.B.S.S.D.oX+X%X-X;X>X>X>X3X3X7X3X3X<X<X>X-X+XoXD.D.S.B.B.B.a.y.y.0.8.8.8.8.` ` ` ( R T Y J V Z M n b v r e y e 5 3 3 3 2 2 < < < < < > > > > > > > # # % % p &                                                                                                                                                                                                                   ",
"                                                                                                                                                                                                                                            . O p @.d * * ; q q q q p p s s d A L ..X.X.o.o.o.o.X.X.P L L A Z P Z V V J J Y T T R R ( ( ` _ ` ` r.r.r.0.y.y.s.Z.S.D.^.oX+X%X>X>X3X3X3X7X7X7X7X7X7X7X3X>X-X#X+XD.D.S.B.B.B.B.y.y.y.8.8.8.8.` ` ' Q R T Y J C Z M n n v y r e e 5 5 3 3 3 2 < < < < < < < > > # > > # # % % p 4 *                                                                                                                                                                                                                 ",
"                                                                                                                                                                                                                                            . O = ....q * q q q 4 4 q q p s u d A L X.X.o.o.o.o.X.X.P P P P P P P J J J J Y Y T R R ( ( _ ` ` 3.r.r.p.y.y.s.B.S.D.^.+X+X%X;X>X3X7X7X7X7X7X7X7X7X7X7X<X>X-X#X+XL.D.S.S.B.B.B.y.y.y.0.8.8.8.` ` ` Q ( T T Y Z V B M n v y r r e 5 5 3 3 3 2 2 < < < < < < > > # > > > # # % 4 7 *                                                                                                                                                                                                                 ",
"                                                                                                                                                                                                                                              . * d +.d * q 1 1 1 4 4 q p p u d A ....X.X.o.X.X.o.o.o.o.o.X.X.P P P J P J Y T T R R ( ` _ ` ` r.r.p.p.y.s.Z.Z.D.^.oX+X%X;X>X3X7X7X7X7X7X7X7X7X7X7X7X<X>X-X#X+XoXD.D.S.B.B.B.y.y.y.0.8.8.8.3.` ` ' ( T T Y J V B M n v y r r e 6 5 5 5 3 3 2 < < < < < < < > > > > > # # % 4 p *                                                                                                                                                                                                                 ",
"                                                                                                                                                                                                                                              . O q @...q * 1 1 1 1 4 q p p s d d A ....X.o.o.o.$.$.&.&.$.$.$.o.P P P P ( ( T R ( ( ( _ ` ` r.r.p.i.i.i.Z.Z.S.^.^.+X%X-X>X3X3X7X7X7X7X7X7X7X7X7X7X3X<X>X>X-X#X+XD.D.S.B.B.B.B.y.y.0.8.8.8.8.` ` _ Q R T Y J V V M n n v r r e e 5 5 5 3 3 2 2 < 2 < < < < > > # > > # # % 4 p &                                                                                                                                                                                                                 ",
"                                                                                                                                                                                                                                                O * g ..t * * * * * 1 q q p p u d A ....o.+.$.$.:.:.:.f.:.:.&.$.o.( ( ( ( ( ( Q ( ` _ ` } r.r.r.p.i.i.s.Z.Z.D.^.oX+X%X;X>X3X3X7X7X7X7X7X7X7X7X7X7X3X<X>X>X-X%X+XD.D.S.C.B.B.B.y.y.q.0.8.8.8.` ` ` Q R T T Y C V B M n v v r r e 6 5 5 3 3 2 2 < 2 < < < < > > > > > > # # % 4 4 $                                                                                                                                                                                                               ",
"                                                                                                                                                                                                                                                O + p z d ; * * * * 1 q q q p d d A ..X.+.&.:.:.f.~.~.~.~.f.:.&.$.$._ _ _ _ _ ` ` ` ` ` 8.r.r.p.p.i.i.Z.Z.S.D.^.oX+X%X;X>X3X3X7X7X7X7X7X7X7X7X7X7X3X<X>X>X-X%X+XoXD.S.C.B.B.B.y.y.y.0.8.8.8.3.` ` ' R R T Y K V V M M n v r r r e 5 5 3 3 2 2 < 2 < < < < < > > > > > # # % 4 7 $                                                                                                                                                                                                               ",
"                                                                                                                                                                                                                                                  O + d z q * * * * 1 9 q q t d d ..X.+.&.:.:.f.!.'.'.{.{.'.~.f.&.&.$._ _ } } ` ` ` ` } r.r.r.p.y.y.i.Z.Z.S.D.^.oX+X%X;X>X>X3X7X7X7X7X7X7X7X7X7X7X3X<X>X>X;X%X+X+XD.S.S.B.B.B.m.y.y.0.8.8.8.3.` ` ) Q R T Y J Z V M M n v r r r e 5 5 3 3 3 2 < < < < < < < > > > > > > # % % p $                                                                                                                                                                                                               ",
"                                                                                                                                                                                                                                                  . + q d a q * % % 1 9 q q u d d ..@.+.:.:.~.'.'.{. X XtX X{.~.f.u.&.%.%.%.%.%.` ` } 8.r.r.p.p.y.y.i.Z.Z.S.D.^.oX+X%X%X>X>X3X3X7X7X7X7X7X7X7X7X7X3X<X>X>X>X-X#X+XD.D.A.Z.B.B.m.y.y.0.8.8.8.8.` ` ` Q R T T Y C V B M n v v r r e 6 5 3 3 3 2 2 < 2 < < < < < > > > > > # % % p & o                                                                                                                                                                                                             ",
"                                                                                                                                                                                                                                                    O * a a q ; * * 1 9 q q u d F ..+.:.:.'.'.{.{.tXtXyXjXyX X[.~.f.u.&.%.%.%.%.} } %.r.r.r.p.p.y.y.s.Z.Z.S.D.D.^.oX+X%X;X>X3X3X7X7X7X7X7X7X7X7X7X3X<X>X>X;X-X+X+X^.D.S.Z.B.B.B.y.y.q.0.8.8.8.` ` ` ' Q R T Y C V B M n n v r r e 5 5 5 3 3 2 2 < 2 < < < < < > > > > > # # % 4 7 @                                                                                                                                                                                                             ",
"                                                                                                                                                                                                                                                      + q a a 9 * 1 1 q q t d d ..@.,.:.f.'.{.pXyXhXhXzXhXhXgX X!.f.f.&.&.%.%.%.%.%.r.r.r.r.p.p.y.i.s.Z.Z.S.D.D.^.oX+X%X-X;X>X3X7X7X7X7X7X7X7X7X7X3X<X<X>X;X-X+X+XoXD.S.Z.B.B.B.y.y.q.0.8.8.8.` ` / ` Q R R Y J V V M M n v r r r e 5 5 3 3 3 2 2 2 < < < < < < > > > > # # % % p @                                                                                                                                                                                                             ",
"                                                                                                                                                                                                                                                      O ; a a q 9 * 1 q 0 u d d ..+.:.:.'.{.pXiXhXcXvXvXvXvXhXyX{.!.f.u.u.&.%.%.%.%.%.r.r.r.p.t.y.y.s.Z.Z.Z.S.D.^.^.+X+X%X;X>X>X3X7X7X7X7X7X7X7X7X3X<X>X>X>X;X%X+XoXD.D.Z.B.B.a.y.y.0.0.0.8.8.8.` / ~ ~ R T T J Z V B M n b v r r r e 5 5 3 3 2 2 2 < < < > < < > > > > > # % % p *                                                                                                                                                                                                             ",
"                                                                                                                                                                                                                                                      O * a a w 9 1 q q q u d g ..+.:.~.{.pXiXhXcXvXnXbXbXbXvXhX|.[.f.u.u.p.&.%.%.%.%.r.r.r.r.p.p.y.i.B.Z.Z.S.D.^.^.^.+X%X-X>X>X3X7X7X7X7X7X7X7X7X3X<X>X>X>X-X%X+XoXD.D.Z.B.B.B.y.y.0.0.8.8.8.8.` ` ` ~ R R T Y C V B M M n v r r r e 5 5 5 3 3 2 2 2 < < < < > > > > > > # # % 4 4 @                                                                                                                                                                                                           ",
"                                                                                                                                                                                                                                                        + : a a 9 9 q 9 q t d g ..+.:.~.{.pXiXcXcXvXMXMXMXMXvXhXtX[.!.f.u.&.&.%.%.%.%.%.r.r.r.p.p.y.i.s.B.Z.S.S.D.^.^.+X+X%X;X>X>X3X7X7X7X7X7X7X7X3X3X>X>X>X-X%X+XoXD.D.Z.B.B.a.a.y.q.q.0.8.8.8.| ` / ~ Q R T Y K V V M M n v r r r r 5 5 5 3 3 2 2 2 < < > > > < > > > > # # % 4 p @                                                                                                                                                                                                           ",
"                                                                                                                                                                                                                                                        O * a a q 9 9 q q t a d ..+.:.~.{.tXiXcXvXMXMXMXMXMXMXcXyX{.!.f.u.u.p.%.%.%.%.%.r.r.r.p.y.y.y.i.B.Z.Z.Z.D.D.^.^.+X%X-X>X>X3X7X7X7X7X7X3X3X3X>X>X>X>X-X%X+XoX^.D.Z.B.B.a.y.y.y.q.0.8.8.8.| ` / ~ Q R T T J Z V B M n b v r r r 5 5 5 3 3 2 2 2 2 < < < < < < > > > > # % % p @                                                                                                                                                                                                           ",
"                                                                                                                                                                                                                                                        . + a d q q q q q q u d ..+.:.g.{.yXhXvXMXZXMXZXMXMXMXcXhX|.[.~.u.u.p.p.%.%.%.%.r.r.r.p.p.y.y.i.B.B.Z.S.D.^.^.^.(.+X%X;X>X>X3X7X3X3X3X3X3X3X>X>X>X>X-X%X+XoX^.D.Z.Z.B.a.y.y.y.q.0.8.8.8.8.| ` ~ ~ R R T Y C Z V M M n v r r r e 5 5 5 3 3 2 2 2 2 < < < < < < < > > % % % q = @                                                                                                                                                                                                         ",
"                                                                                                                                                                                                                                                          + p d a 0 q q q q u d ..@.:.>.'.iXkXvXMXNXMXZXMXMXMXbXhXtX[.!.f.u.&.p.%.%.%.%.r.r.r.r.p.y.y.y.i.B.Z.S.S.D.D.^.^.+X%X%X;X>X3X3X3X3X3X3X3X>X>X>X>X>X-X%X+XoX^.D.S.Z.B.a.y.y.y.0.0.8.8.8.8.| ` / ~ Q R T T J Z V M M n n v r r e 5 5 5 3 3 2 2 2 2 < < < < < < < < > # % % 4 4 @                                                                                                                                                                                                         ",
"                                                                                                                                                                                                                                                          O ; g a q 0 q q q u d ..@.:.>.'.pXzXvXMXNXZXAXZXNXNXMXvXyX}.!.f.u.u.p.%.%.%.%.r.r.r.r.p.y.y.y.i.B.B.Z.S.D.D.^.^.+X+X%X;X>X>X3X3X3X3X3X3X>X>X>X>X>X>X-X+XoX^.D.S.Z.s.a.y.y.y.0.0.9.7.8.8.] ` / ~ Q R T Y J Z V B M M n v r r r 5 5 5 3 3 2 2 2 2 < < < < < < < < > < % % % p @                                                                                                                                                                                                         ",
"                                                                                                                                                                                                                                                          . * a d q q q q q t d ..@.-.:.'.pXhXcXMXMXZXZXZXZXNXMXvXhX|.[.~.u.u.p.%.%.%.%.%.r.r.r.p.y.y.y.y.i.B.Z.S.Z.D.^.^.^.+X%X-X;X>X3X3X3X3X3X>X>X>X>X>X>X-X-X+XoX^.D.S.Z.B.a.a.y.y.y.9.9.8.8.8.| ` ^ ~ Q Q R T Y C V V M M n v r r e 6 5 5 5 3 3 2 2 2 2 < < < < < > < > < % % % p *                                                                                                                                                                                                         ",
"                                                                                                                                                                                                                                                            + p d a q q q q t d d ..+.:.'.sXiXcXmXMXZXZXZXZXZXMXbXhXtX[.!.f.u.p.p.%.%.%.%.r.r.r.p.y.y.y.y.i.B.Z.Z.S.D.^.^.^.oX+X%X;X>X>X3X3X3X3X>X>X>X>X>X>X-X%X+XoX^.D.S.Z.B.a.y.y.y.y.q.0.8.8.8.7./ ^ ~ ~ Q R T Y C Z V M M n v v r e e 5 5 5 5 3 2 2 2 2 < < < < < < < < < % % % 4 4 @                                                                                                                                                                                                       ",
"                                                                                                                                                                                                                                                            + q g a q q q q t u d ..+.:.~.{.iXcXBXMXNXZXZXZXZXZXMXcXyX{.!.f.u.&.&.%.%.%.%.r.r.r.r.t.y.y.y.i.B.Z.Z.S.Z.D.D.^.^.+X%X%X;X>X3X3X>X>X>X>X>X>X>X;X-X-X+X+X^.D.D.Z.B.a.y.y.y.y.q.0.8.8.8.] ` / ^ ~ Q R T T J Z V B M M n v r r e 6 5 5 5 3 2 2 2 2 2 < < < < < < < < % % % 1 p @                                                                                                                                                                                                       ",
"                                                                                                                                                                                                                                                            O * g d t q q q t u d ..@.-.>.'.pXkXvXMXMXZXZXZXZXZXZXvXhX X[.~.u.&.%.%.%.%.%.%.r.r.r.r.y.y.y.y.B.B.Z.Z.Z.D.D.^.^.+X+X%X;X>X>X>X>X>X>X>X>X>X>X>X-X%X%X+X^.D.D.S.B.B.y.y.y.y.q.0.9.7.8.8.` / ^ ~ Q Q T Y J C V V M M n v r r r 5 5 5 5 3 3 2 2 2 2 < < < < < > < < < % % % p $                                                                                                                                                                                                       ",
"                                                                                                                                                                                                                                                              * a d a q q q q u d ..@.+.:.'.pXhXcXmXMXZXZXAXZXZXZXvXhXtX[.~.f.u.%.%.%.%.%.%.r.r.r.r.y.y.y.y.i.B.Z.Z.Z.D.D.^.^.^.+X%X%X;X>X>X>X>X>X>X>X>X>X;X;X%X%X+X^.D.D.S.B.B.y.y.y.y.q.9.9.7.8.] ] / ^ ~ Q Q R T Y C V V M M n b r r r e 5 5 5 5 3 2 2 2 2 2 < < < < > < < # % % % p = @                                                                                                                                                                                                     ",
"                                                                                                                                                                                                                                                              + p d a q q q q t d d ..+.:.'.sXiXcXvXMXMXZXZXAXZXZXMXzXyX[.!.f.u.%.%.%.%.%.%.r.8.r.0.y.y.y.y.i.B.Z.Z.S.Z.D.D.^.^.+X+X%X-X;X>X>X>X>X>X>X>X>X;X;X%X%X+XoXD.D.S.B.B.B.y.y.y.t.9.9.7.8.7.] / ^ ~ ~ Q R T Y J Z V M M N b v r r e 5 5 5 5 3 2 2 2 2 2 < < < < > > < # % % % 4 7 @                                                                                                                                                                                                     ",
"                                                                                                                                                                                                                                                              O = g d a q q q t d d ..+.:.g.'.tXcXvXMXMXMXZXZXZXZXZXvXgX{.!.f.u.%.%.%.%.%.%.8.8.8.r.0.y.y.y.i.B.Z.Z.Z.Z.S.D.^.^.oX+X%X%X>X>X>X>X>X>X>X>X>X;X;X%X%X+XoXD.D.S.B.B.y.y.y.y.y.9.8.9.8.7.] ` ^ ^ ~ Q R T Y J Z V V M N n v r r r 5 5 5 5 3 3 2 2 2 2 < < < < > > < < # % % % p @                                                                                                                                                                                                     ",
"                                                                                                                                                                                                                                                                * d d a q q q t a d ..@.,.:.'.pXhXcXmXMXMXZXZXZXZXZXbXhX|.[.f.u.%.%.%.%.r.%.r.8.8.r.0.y.y.y.y.i.B.Z.Z.S.D.D.^.^.^.+X%X%X;X>X>X>X>X>X>X>X;X;X-X%X%X+X+XD.D.A.Z.B.m.y.y.y.y.q.9.7.8.7.] ` / ~ ~ ~ R R T Y C V V M M n v r r r e 5 5 5 5 3 2 2 2 2 < < < < < > < < # % % % p *                                                                                                                                                                                                     ",
"                                                                                                                                                                                                                                                                + p d a t q q t u d F @.+.:.'. XiXcXvXMXMXZXZXZXZXZXbXhXtX[.~.u.%.%.%.%.%.%.8.8.8.r.r.y.y.y.y.i.B.Z.Z.S.Z.D.D.^.^.(.+X%X%X>X>X>X>X;X;X;X;X;X;X%X%X+X+X^.D.S.Z.B.m.y.y.y.y.q.9.9.8.7.4.` / ~ ~ ~ Q R T Y C Z V M M n n v r r e 6 5 5 5 3 3 2 2 2 2 < < < < > < < # % % % 4 4 @                                                                                                                                                                                                   ",
"                                                                                                                                                                                                                                                                O ; d a t q q q t d d ..+.:.g.{.iXcXvXMXMXZXZXZXZXZXCXvXgX}.!.u.r.%.%.%.%.r.r.r.8.r.0.y.y.y.y.i.B.Z.Z.S.D.D.D.D.^.^.+X%X%X;X>X>X;X;X;X;X;X;X;X-X%X+X+X^.D.D.S.B.B.y.y.y.y.t.9.9.7.8.] ` ` / ~ ~ Q R T Y J Z V B M M n v y r r e 5 5 5 3 3 2 2 2 2 < < < < > > > < # % % 1 p @                                                                                                                                                                                                   ",
"                                                                                                                                                                                                                                                                O * g d t q q q t a d ..@.+.:.'.tXhXvXbXMXZXZXZXZXZXZXvXgX|./.f.p.%.%.%.%.%.r.r.r.r.t.y.y.y.y.y.m.B.Z.Z.S.D.D.D.^.^.+X+X%X%X;X>X;X;X;X;X;X;X;X-X%X+X+X(.D.D.S.B.B.y.y.y.y.q.9.0.8.8.7.] ` / ^ ~ ~ R T T J C V V M M n v v r r e 6 5 5 5 3 2 2 2 2 < < < < < > > < # % % % p %                                                                                                                                                                                                   ",
"                                                                                                                                                                                                                                                                  + a d a t w w t u d ..X.+.:.'.{.iXcXvXMXZXCXCXZXZXZXbXhX|.[.f.p.%.%.%.} %.%.r.r.p.p.y.y.y.y.y.i.B.Z.Z.S.D.D.D.D.^.+X+X%X%X;X;X;X;X;X;X;X;X;X-X%X+X+X(.D.D.A.B.B.y.y.y.y.y.q.0.8.8.7.] ] / ^ ~ ~ R R T Y Z Z Z B N M n v y r y e 6 5 5 3 2 2 2 2 2 < < < < > > < # % % % q = @                                                                                                                                                                                                 ",
"                                                                                                                                                                                                                                                                  + p d d t w w w w d d ..+.:.~.{.yXzXvXbXZXCXCXZXZXZXCXxXgX[.~.u.%.%.%.} %.} r.r.p.p.y.y.y.y.y.m.B.B.Z.S.S.D.D.D.^.(.+X%X%X=X;X;X;X;X;X;X;X;X-X%X%X+X+X^.D.S.Z.B.B.y.y.y.y.t.9.9.8.7.7.] ` / ~ ~ Q R T Y J C Z B M M n v v r r e 6 5 5 3 2 2 2 2 2 < < < < > < < > # % % 4 q $                                                                                                                                                                                                 ",
"                                                                                                                                                                                                                                                                  O ; d a w w w 0 w d d ..o.&.:.'.tXhXcXvXCXZXZXZXZXZXCXvXgX}.!.u.%.%.} } } } r.r.r.t.y.y.y.y.y.i.B.B.Z.Z.S.D.D.D.^.^.+X+X%X%X;X;X;X;X;X;X;X;X-X=X%X+X+X^.D.D.Z.B.B.m.m.m.y.t.9.9.8.8.8.7.` / ^ ~ Q R T T J Z V Z M N n n v r r e 6 5 5 5 3 2 2 2 2 < < < < < > < < # % % % p %                                                                                                                                                                                                 ",
"                                                                                                                                                                                                                                                                    * a d w w w 0 t u d L o.$.:.'. XgXvXvXbXZXZXZXZXZXCXvXhX|./.f.p.%.} } } } %.r.r.t.y.t.y.y.y.y.B.B.Z.Z.S.D.D.D.^.^.+X+X%X%X;X;X;X;X;X;X;X;X;X-X%X+X+X(.D.D.A.B.B.m.m.y.y.y.9.0.8.8.7.] ` / ^ ~ ~ R R T Y Z Z Z M N N n v y r e e 5 5 5 3 2 2 2 2 < < < < < > < < > % % % p =                                                                                                                                                                                                 ",
"                                                                                                                                                                                                                                                                    + a d a w 0 t t u d k ..o.:.~.{.yXzXvXbXZXZXZXZXZXCXvXzX|.[.~.p.%.} } } } r.r.r.t.t.y.y.y.y.m.m.B.Z.Z.S.S.D.D.D.^.(.+X%X%X;X;X;X;X;X;X;X-X-X;X%X%X+X(.^.D.A.Z.B.m.m.m.y.y.9.9.9.7.7.5.] ` ^ ~ ~ R R T Y J C Z B M N n v v r r e 6 5 5 3 2 2 2 2 < < < < < > < < > % % % 4 4 $                                                                                                                                                                                               ",
"                                                                                                                                                                                                                                                                    + ; d d w 0 t t w u d ..o.+.:.'.pXhXvXbXZXZXZXZXZXZXCXxXgX[.!.u.%.%.} } } %.r.r.t.t.y.y.y.y.m.m.B.B.Z.Z.S.D.D.D.^.^.+X+X%X;X;X;X;X;X;X;X;X;X;X-X%X+X+X(.D.D.S.B.m.m.y.y.y.q.9.9.7.7.5.] ` / ^ ~ Q R T Y J Z Z B M M n b v r r e 6 5 5 3 2 2 2 2 2 < < < < > > < < # % % 4 p *                                                                                                                                                                                               ",
"                                                                                                                                                                                                                                                                    O * d d w 0 t t w u i L ..+.:.'. XhXcXbXMXZXZXZXZXZXCXvXgX|./.u.r.%.} } } } r.r.r.t.y.t.y.y.m.m.B.B.Z.Z.S.D.D.D.^.^.+X+X%X=X;X;X;X;X;X;X;X;X;X;X%X%X+X(.D.D.A.B.B.y.y.y.y.q.9.9.7.7.7.] / / ^ ~ Q Q T T J C Z V M M n n v r r y e 5 5 5 3 2 2 2 2 < < < < > > > < # % % % p &                                                                                                                                                                                               ",
"                                                                                                                                                                                                                                                                      + a d u w 0 t w u d k ..o.&.~.{.yXzXvXMXZXZXZXZXZXCXvXhX|./.~.t.%.} | } } %.r.r.t.t.t.y.y.i.m.B.B.Z.Z.S.D.D.D.^.^.+X+X%X=X;X;X;X;X;X;X;X;X;X;X%X%X+X(.^.D.A.Z.B.m.y.y.y.q.9.9.7.8.] ] ` / ^ ~ ~ Q R T Y K Z V B M n n v y r y e 6 5 5 3 2 2 2 2 2 < < < < > > > # % % % 4 4 @                                                                                                                                                                                             ",
"                                                                                                                                                                                                                                                                      + q d a w 0 w u u u d ..o.+.:.'.tXhXvXbXMXZXZXZXZXZXCXxX2X[.~.u.%.} } } } } r.r.t.t.t.y.y.i.m.B.B.Z.Z.Z.S.D.D.^.^.(.+X%X%X;X;X;X;X;X;X;X;X;X;X=X%X+X+X^.D.A.Z.B.m.y.y.y.y.9.9.8.7.7.] ` / ^ ~ ~ Q R T T K Z V V M M n b v r r e 6 5 5 3 2 2 2 2 2 < < < < > < < > # # % 4 p *                                                                                                                                                                                             ",
"                                                                                                                                                                                                                                                                      O * k d w 0 t w u u d L ..+.:.'. XhXcXvXMXZXZXZXZXZXCXxXgX X!.u.r.} | } } } r.r.r.t.t.t.y.y.m.B.B.Z.Z.Z.S.D.D.^.^.(.+X+X%X=X;X;X;X;X;X;X;X;X;X=X%X%X+X^.^.D.Z.B.m.y.y.y.y.q.0.8.7.8.] ] / ^ ~ ~ Q R U T K C Z V M M n n v r r e 6 5 5 5 3 2 2 2 2 < < < < < > < > # # % * p &                                                                                                                                                                                             ",
"                                                                                                                                                                                                                                                                        + a k u w t w u u i L ..+.:.~.{.yXzXvXMXZXZXZXZXZXCXvXgX|./.f.p.%.} } } } %.r.r.t.t.t.y.y.i.B.B.B.Z.Z.S.D.D.^.^.^.+X+X%X=X;X;X;X;X;X;X;X;X;X=X%X%X+X(.^.D.A.Z.B.y.y.y.y.q.9.9.7.8.7.] ` / ^ ~ Q Q U T E C C V M M n n v y r e e 6 5 5 3 2 2 2 2 2 2 < < < > < > # # % % p 4 @                                                                                                                                                                                           ",
"                                                                                                                                                                                                                                                                        + a k a w 0 t u u i d ..o.&.:.'.tXhXvXbXZXZXZXZXZXCXbXzX|.[.~.p.%.} } | } } r.r.t.t.t.y.y.y.B.B.B.Z.Z.S.D.D.^.^.^.+X+X%X=X;X;X;X;X;X;X;X;X;X;X%X%X+X(.^.D.A.Z.B.m.y.y.y.t.9.9.7.8.] ] ` / ~ ~ ~ Q U U E K C V M M M n v v r r e 6 5 5 3 2 2 2 2 2 2 2 < < > < > # # % % 4 p $                                                                                                                                                                                           ",
"                                                                                                                                                                                                                                                                        O ; k k w w 0 w u d d L ..+.:.'. XhXcXbXCXZXZXZXZXCXCXxXgX[.!.u.%.} } } } } r.r.t.t.t.y.y.i.m.M.B.Z.Z.Z.D.D.^.^.(.(.+X%X%X;X;X;X;X;X;X;X;X;X;X=X%X+X(.(.D.D.A.B.m.y.y.y.t.9.8.7.7.] ] ` / ^ ~ ~ Q U U T K C V B M M n n v r r e e 5 5 3 3 2 2 2 2 2 2 < < > > < > # # % = p *                                                                                                                                                                                           ",
"                                                                                                                                                                                                                                                                        O + k k w w 0 w u u d L ..o.:.~.{.yXzXvXbXCXCXCXCXZXCXvXgX|./.i.r.%.} } } } r.r.r.t.t.y.y.y.m.m.B.Z.Z.Z.Z.D.^.^.(.(.(.+X%X=X;X;X;X;X;X;X;X;X;X=X%X%X+X(.D.D.A.B.m.y.y.y.t.t.8.9.7.8.] ` / ^ ~ ~ ~ Q U T E C C V M M n n v r r r e 6 5 5 3 2 2 2 2 2 2 < < < > < # # # % # s =                                                                                                                                                                                           ",
"                                                                                                                                                                                                                                                                          + a k d w w w u u i L ..o.&.:.'.tXhXvXbXCXCXCXCXZXCXvXhX|./.f.p.%.} } | } r.r.r.t.t.t.y.y.m.m.B.B.Z.Z.Z.D.^.^.^.(.(.+X%X=X*X;X;X;X;X;X;X;X;X;X%X%X+X(.^.D.A.B.B.y.y.y.y.t.9.9.7.8.] ` ` ^ ^ ~ ~ Q R T E K C V B M M n v r r r e 6 5 5 3 3 2 2 2 2 2 2 < < > < # # % % @ p p *                                                                                                                                                                                         ",
"                                                                                                                                                                                                                                                                          + q k k u w w u u i d L ..+.:.'. XhXxXvXCXCXCXCXZXCXbXxX2X[.!.u.%.} } } } } r.r.r.t.t.y.y.y.i.M.B.Z.Z.Z.D.^.^.^.(.(.+X%X=X*X;X;X;X;X;X;X;X;X;X=X%X+X(.^.D.A.Z.B.m.y.y.y.t.9.9.7.7.| ] ] ^ ^ ^ ~ Q R T T K C Z V M M n n v r r e 6 5 5 5 3 2 2 2 2 2 2 < < > < > # # % @ 4 s =                                                                                                                                                                                         ",
"                                                                                                                                                                                                                                                                          O * k k u u u u u i d L L o.&.~.{.yXzXvXbXCXCXCXCXCXCXxXgX X!.u.r.} } } } } %.r.r.r.t.t.y.y.i.B.B.Z.Z.Z.Z.^.^.^.^.(.+X%X%X=X;X;X;X;X;X;X;X;X;X;X=X+X(.(.^.D.Z.B.m.y.y.y.y.9.0.7.7.| ] ] / ^ ^ ~ Q R T T Y C Z V M M M n v r r r 5 5 5 5 3 2 2 2 2 2 2 < < < < < # # % # @ g 4                                                                                                                                                                                         ",
"                                                                                                                                                                                                                                                                            + d ..d u t u u i i k L o.&.:.[.tXhXvXbXCXCXCXCXZXCXvXgX|./.f.p.%.} } } } } 8.r.r.t.t.y.y.y.B.B.Z.Z.Z.Z.D.^.^.^.(.+X+X%X=X;X;X;X;X;X;X;X;X;X;X=X%X+X(.^.D.A.B.m.y.y.y.y.q.9.9.7.8.] ] ` ^ ^ ~ Q Q R T Y K C V B M M n b v r r e 5 5 5 3 3 2 2 2 2 2 2 < < < < < # % # X g p $                                                                                                                                                                                       ",
"                                                                                                                                                                                                                                                                            + a z k u t u u i i d L ..o.:.!.|.hXxXvXCXCXCXCXZXCXbXxX2X[.~.p.%.} } } } } %.r.r.t.t.t.y.y.m.M.B.Z.Z.A.D.^.^.^.(.(.+X%X=X*X;X;X;X;X;X;X;X;X;X=X%X+X(.(.D.A.Z.B.m.y.y.y.q.9.9.7.8.| ] ` ^ ~ ~ ~ Q R T T J C V B M M n n v r r e 5 5 5 3 3 2 2 2 2 2 2 < < < < < > % % @ p s *                                                                                                                                                                                       ",
"                                                                                                                                                                                                                                                                            O ; z L u w u i i i d L L o.&.~.{.yXzXvXCXCXCXCXCXCXCXxXgX X!.u.r.} } } } } } %.r.t.t.t.y.y.y.m.M.Z.Z.Z.D.^.^.^.(.(.+X%X=X*X;X;X;X;X;X;X;X;X;X=X%X+X+X(.D.D.Z.B.m.y.y.y.t.q.9.7.7.| ] ] / ^ ~ ~ Q R T Y J C Z V M M n n v r r r 5 5 5 5 3 3 3 2 2 2 2 < < > < < # # % @ & g 4                                                                                                                                                                                       ",
"                                                                                                                                                                                                                                                                              + z ..u w u u i i d L L o.&.:.'.yXzXvXbXCXCXCXZXZXCXvXgX|./.i.p.} { { } } } %.r.r.t.t.y.y.y.y.m.B.Z.Z.A.A.^.^.(.(.+X+X=X=X;X;X;X;X;X;X;X;X;X=X%X%X+X(.D.D.A.B.m.y.y.y.y.9.9.7.7.| ] ] ` ^ ~ ~ Q Q T T Y C Z V B M M n v r r e e 6 6 5 5 3 3 3 2 2 2 < < < < < < # % # X F p                                                                                                                                                                                       ",
"                                                                                                                                                                                                                                                                              + a ..d w t u i i d L L X.$.:.!.|.hXxXvXCXCXCXZXZXCXvXhX|.[.~.p.%.` { ` } } %.r.r.t.t.y.y.y.y.m.M.B.Z.Z.D.^.^.(.(.(.+X%X=X*X;X;X;X:X;X;X;X;X=X=X%X+X(.^.D.A.Z.m.m.y.y.y.9.9.9.7.7.] ] ` ^ ^ ~ ~ Q R T Y J C V B M M n b v r e e e 6 5 5 3 3 3 2 2 2 2 < < < < < # & % @ s s *                                                                                                                                                                                     ",
"                                                                                                                                                                                                                                                                              + q ..k w t u i i i k L L o.:.~. XyXzXvXbXCXCXZXCXCXbXxXgX[.!.u.r.` ` { } } } r.r.r.t.t.y.y.y.m.M.B.Z.Z.A.D.^.^.(.(.+X%X=X*X;X;X;X:X:X;X;X;X;X=X%X+X(.(.D.A.Z.B.m.y.y.y.q.9.9.7.7.| ] ] ^ ^ ^ ~ Q R T T J C V V M M n b v r r e e 6 5 5 3 3 3 2 2 2 2 < < < < < # & & @ 7 g 4                                                                                                                                                                                     ",
"                                                                                                                                                                                                                                                                              O ; z ..u w u i i i d L L o.&.:.{.yXzXvXnXCXCXCXZXCXCXxXgX|./.i.p.{ ` ` } } } %.r.r.r.t.y.y.y.y.m.M.Z.Z.Z.D.^.^.(.(.+X%X%X;X;X;X;X:X:X;X;X;X;X=X%X+X(.(.^.D.A.B.m.y.y.y.y.9.9.7.7.| ] ] ` ^ ^ ~ Q R T T Y C Z V M M n n v y r e e 6 5 5 3 3 3 2 2 2 2 < < < < < # # & # @ O.7                                                                                                                                                                                     ",
"                                                                                                                                                                                                                                                                                + k ..d w t u i i d L L o.$.:.'.|.hXxXvXbXCXCXZXCXCXvXgX|.[.~.p.%.` ` } } } } r.r.r.t.t.y.y.y.m.M.B.Z.Z.S.^.^.(.(.+X+X%X=X;X;X;X:X:X:X:X:X*X;X=X%X+X(.(.D.A.B.m.y.y.y.y.t.9.9.7.7.] ] ` ^ ^ ~ Q Q R T Y K C V B M M n v y r r e 6 5 5 5 3 3 3 2 2 2 < < < < < # # & % @ g s *                                                                                                                                                                                   ",
"                                                                                                                                                                                                                                                                                + a ..k w t u i i i A L X.o.:.~. XyXzXvXbXCXZXZXCXCXvXxXgX[.!.u.%.` ` ` } } } 8.8.r.9.t.y.y.y.i.m.M.Z.Z.A.D.^.(.(.+X+X%X=X*X;X;X:X:X:X:X:X*X;X=X%X+X(.(.D.A.Z.B.m.y.y.y.t.9.9.7.7.] ] ] ^ ^ ~ ~ Q U T T K C V B M M n b v r r e e 6 5 5 3 3 3 2 2 2 2 < < < < < # % % @ p g =                                                                                                                                                                                   ",
"                                                                                                                                                                                                                                                                                + ; ....u t u i i i A L L o.&.:.{.yXzXvXnXCXCXCXZXZXCXxXgX X/.u.p.} ` ` } } } } 8.9.9.t.y.y.y.m.m.M.B.Z.A.A.^.^.(.(.+X%X=X*X:X:X;X;X:X:X:X:X;X=X=X+X+X(.D.D.A.B.m.y.y.y.y.9.9.7.7.] ] ] ^ ^ ~ ~ Q U U T E C C V M M n b v r r e e 6 5 5 3 3 3 2 2 2 2 < < < < < # # % @ & F 7                                                                                                                                                                                   ",
"                                                                                                                                                                                                                                                                                  + z ..i u i i i i d L L X.$.:.'.tXhXxXvXbXCXCXZXZXCXvXgX|.[.~.p.%.` ` } } | } 8.8.9.9.t.y.y.y.m.m.B.Z.Z.A.^.^.(.(.+X%X%X;X;X:X:X:X:X:X:X:X*X;X=X+X+X(.(.D.A.B.m.y.y.y.y.q.9.7.7.] ] ] / ^ ^ ~ Q W U T E C C V B M N n v r r r e 6 5 5 3 3 3 3 2 2 2 < < < > < # # % # X F p                                                                                                                                                                                   ",
"                                                                                                                                                                                                                                                                                  + d ..k w u i i i d L L L o.:.~. XgXxXvXbXCXCXCXCXCXvXhX|.[.~.u.%.` ` ` } } } r.r.r.t.t.y.y.y.y.m.M.Z.Z.A.^.^.(.(.+X%X%X=X:X:X:X:X:X:X:X:X:X;X=X+X+X(.(.D.A.B.m.m.y.y.y.q.9.7.7.7.] ] / ^ ^ ~ ~ W U T Y K C V B M M n b v r r e e 5 5 5 3 3 3 2 2 2 2 < < > < # # % % @ f s &                                                                                                                                                                                 ",
"                                                                                                                                                                                                                                                                                  + p ..L u t u i i d A L L o.&.f.{.yXzXvXbXCXCXCXCXCXCXxXgX X!.u.r.{ ` { { } } %.r.r.r.9.y.y.y.y.m.M.Z.Z.A.^.^.^.(.(.%X%X=X;X:X:X:X:X:X:X:X:X;X=X=X@X+X(.D.A.A.B.m.y.y.y.y.9.9.7.7.] ] / / ^ ~ ~ W U T T K C V V M M M n v r r e e 5 5 5 3 3 3 2 2 2 2 < < < < < # # & @ 7 g 7                                                                                                                                                                                 ",
"                                                                                                                                                                                                                                                                                  O ; ....u w u i i i d L L X.$.:.'.tXhXxXnXCXCXCXCXCXCXxXgX|./.f.u.%.{ { { { } } 8.r.r.t.t.y.y.y.y.m.M.Z.A.^.^.^.(.(.%X%X=X;X:X:X:X:X:X:X:X:X:X;X=X+X+X(.^.D.A.B.m.y.y.y.y.9.9.7.7.] ] ] ^ ^ ~ ~ Q U U T Y K C V M M M n b r r e e 5 5 5 3 3 3 2 2 2 2 2 < < < < > # & # @ ..p                                                                                                                                                                                 ",
"                                                                                                                                                                                                                                                                                    + k ..i w u i i i d L L L o.:.~. XyXzXvXbXCXCXCXCXCXvXgX|.[.~.u.%.%.{ { { } } 8.8.8.9.t.y.y.y.y.m.M.Z.Z.A.^.^.(.(.+X%X=X;X*X:X:X:X:X:X:X:X:X;X=X%X+X(.(.D.A.Z.B.m.y.y.y.q.9.7.7.7.] ] / ^ ~ ~ Q Q R T Y J J V V M M M n v r r e 5 5 5 5 3 3 3 2 2 2 2 < < < < # # & # @ g s *                                                                                                                                                                               ",
"                                                                                                                                                                                                                                                                                    + a ..k u u u i d d d L L o.&.~.{.yXzXvXbXCXCXCXCXCXvXhX2X[.!.u.%.%.%.{ { { | } 8.r.9.t.y.y.y.y.m.M.Z.Z.A.A.^.(.(.(.%X=X;X:X:X:X:X:X:X:X:X:X&X=X=X+X+X(.^.D.A.B.m.y.y.y.q.9.9.7.7.] ] / ^ ^ Q ~ Q U T T J J Z V M M n n v r r e e 5 5 5 3 3 3 2 2 2 2 < < < < < # % % $ p f =                                                                                                                                                                               ",
"                                                                                                                                                                                                                                                                                    + ; ..L u w u i d d i d L o.$.:.'.tXhXxXnXCXCXCXCXCXCXxXgX|.!.f.p.%.%.` { { | } 8.8.8.9.t.y.y.y.i.M.M.Z.A.A.^._.(.(.%X%X*X:X:X:X:X:X:X:X:X:X*X;X=X%X+X(.(.D.A.B.m.m.m.y.q.9.9.7.7.] ] / ^ ~ ~ ~ Q R T T Y J Z Z B M M n v v r e e 5 5 5 3 3 3 2 2 2 2 < < < < < # % % @ & F 7                                                                                                                                                                               ",
"                                                                                                                                                                                                                                                                                      + z ..u w i i d d i d L ..+.:.'. XhXxXvXbXCXCXCXCXCXvXgX|.[.~.u.%.%.} { { | } } 8.8.9.t.t.y.y.y.m.M.Z.Z.A.^.^.(.(.%X%X=X*X:X:X:X:X:X:X:X:X:X*X=X%X@X(.(.D.A.B.m.m.m.y.q.q.9.7.7.] ] / ^ ~ ~ ~ Q U T T Y J Z Z V M M n b v r r e 5 5 5 3 3 3 3 2 2 2 2 < < < < < % & # X F p                                                                                                                                                                               ",
"                                                                                                                                                                                                                                                                                      + a ..d w t i i d d d L L o.&.~.{.yXzXvXbXCXCXCXCXCXvXzX2X[.!.u.%.%.} { { { | } 8.8.8.r.t.y.y.y.m.M.Z.Z.A.^.^.(.(.+X%X=X*X:X:X:X:X:X:X:X:X:X*X=X=X@X(.(.H.A.A.B.m.m.m.q.q.9.7.7.7.] / / ^ ~ ~ Q R T T Y J J Z V M M n n v r r e e 5 5 5 3 3 3 2 2 2 2 < < < < < < & # X f s &                                                                                                                                                                             ",
"                                                                                                                                                                                                                                                                                      + p z k w t u i d d i d L o.&.:.{.tXhXxXnXCXCXZXZXCXbXxXgX}.!.u.%.{ { { { { } } 8.7.8.9.t.t.y.y.i.M.Z.Z.A.A.^._.(.(.%X=X*X*X:X:X:X:X*X*X:X:X*X;X=X+X+X(.(.D.A.B.m.m.m.y.q.9.7.7.7.] / / ^ ~ ~ Q Q T T Y J J Z V M M M n v r r e e e 5 5 3 3 3 2 2 2 2 < < < < < < < % @ 7 g 7                                                                                                                                                                             ",
"                                                                                                                                                                                                                                                                                      O * z k u w u i d d i d L ..$.:.'.|.hXxXnXCXZXZXZXZXCXvXgX|.!.f.u.%.{ { { { { } } 7.7.9.r.t.y.y.y.m.M.Z.A.A.^.^.(.(.%X=X=X*X:X:X:X:X:X*X:X:X:X;X=X+X+X(.(.D.A.V.B.m.m.y.q.9.9.7.7.] ] / ^ ~ ~ Q Q R T T Y J Z V B M M n v v r r e e 5 5 3 3 3 2 2 2 2 2 < < < < < < & @ $ F p                                                                                                                                                                             ",
"                                                                                                                                                                                                                                                                                        + d k u 0 t i i d d d L L o.:.~.{.yXzXvXbXCXZXZXZXCXvXhX|.[.~.u.%.{ ) { { { | } } 7.8.r.t.t.y.y.i.M.M.Z.A.^.^.(.(.).=X=X*X*X:X:X:X:X*X:X:X:X*X=X=X+X(.(.D.A.A.B.m.m.m.y.9.9.7.7.] ] / / ^ ~ Q Q Q T T Y J J Z V M M n b v r r e e 5 5 5 3 3 3 2 2 2 2 2 < < < < < 4 # X f s &                                                                                                                                                                           ",
"                                                                                                                                                                                                                                                                                        + a k d u t u i d d d L L o.&.f.{.tXzXvXbXCXZXZXZXCXbXxXgX[.!.u.%.{ { { { { { | } 8.8.r.t.t.y.y.i.M.M.Z.A.A.^.(.(.(.=X=X*X*X*X:X:X:X*X*X:X:X*X;X=X+X+X(.(.D.A.B.B.m.m.q.q.9.9.7.7.] / / ^ ~ Q Q Q T T Y J J Z V B M n n v r r r e e 5 5 3 3 3 2 2 2 2 2 < < < < < 4 & X p g p                                                                                                                                                                           ",
"                                                                                                                                                                                                                                                                                        + : z k u t u i d d d A L ..+.:.'.tXhXvXnXCXZXZXZXZXCXxXgX X!.u.%.{ { { { { { { | } 8.r.t.t.y.y.y.m.M.M.A.A.^._.(.(.%X=X*X*X*X:X:X:X:X:X:X:X*X&X=X@X@X(.(.D.A.A.B.m.m.q.q.9.9.7.7.] / / / ~ Q Q Q Q T T J J Z V B M M n v v r r e 5 5 5 3 3 3 2 2 2 2 2 < < < < < < & @ & F p                                                                                                                                                                           ",
"                                                                                                                                                                                                                                                                                          * z k u w u u d d d A L L o.:.'. XiXxXvXCXZXZXZXZXCXvXhX|.[.~.u.} _ ) { { { { | } 8.r.r.t.t.t.y.m.M.M.Z.A.^._.(.(.%X=X=X*X*X:X:X:X:X:X*X:X:X&X=X=X@X(.(.H.A.A.B.m.m.l.q.q.9.7.7.] / / ^ Q Q Q Q Q T T J J J Z V M M n v v r r e 5 5 5 3 3 3 3 2 2 2 2 < < < < < < < @ X F s                                                                                                                                                                           ",
"                                                                                                                                                                                                                                                                                          + a k d w u u i d d d A L o.&.~.{.yXzXvXbXZXZXZXZXZXbXzX|.[.~.u.%.{ ) ) { { { | } 8.8.r.t.t.t.t.y.M.M.M.A.A.^.(.(.).=X=X*X*X:X:X:X:X*X*X:X:X*X&X=X=X@X(._.D.A.B.m.m.m.q.q.9.7.7.] / ^ ^ Q Q Q ! Q T T T J J Z V B M n n v r r r e 5 5 5 3 2 3 2 2 2 2 2 4 < < < < < # X p f 7                                                                                                                                                                         ",
"                                                                                                                                                                                                                                                                                          + p z k w t u i i i i d L X.+.:.'.yXhXxXbXCXZXZXZXZXbXxXgX[.!.u.%.{ _ ) { { { { | } 8.r.t.t.t.t.y.M.M.M.A.A.^._.(.(.%X=X=X*X*X:X:X:X*X*X:X:X&X&X=X=X%X(.(.H.A.V.B.m.m.q.q.9.7.7.] / ^ ^ Q Q Q Q Q T T T K J Z V B M M n v r r e 5 5 5 5 3 3 3 2 2 2 2 2 2 < < < < & % @ = g p                                                                                                                                                                         ",
"                                                                                                                                                                                                                                                                                          O ; z k w w u u i i i d A ..+.:.'.|.yXxXvXCXZXZXZXZXCXvXgX X!.u.%.{ _ ) ` ` { ` | } } r.r.t.t.t.i.M.M.M.A.A._._.(.(.%X=X=X*X*X:X:X5X*X:X:X:X*X&X=X=X=X@X(.H.A.A.B.m.m.m.q.9.9.7.] / / ^ ^ Q Q Q Q T T T J J Z V B M M n b r r r e 5 5 5 3 3 3 2 2 2 2 2 2 2 < < < < & @ o F s                                                                                                                                                                         ",
"                                                                                                                                                                                                                                                                                            * d k u w w u d i i i A L o.&.~.{.yXzXvXbXZXZXZXZXZXvXhX|.[.~.u.%._ ) ) ` { { { | } 8.r.t.t.t.t.y.M.M.Z.A.A._.(.(.).=X=X*X*X*X5X5X5X:X:X:X*X&X=X=X=X+X(._.D.A.B.m.m.m.q.q.9.7.] ] / ^ ^ Q Q Q Q Q T T Y J J Z V M M n b v r r e 5 5 5 3 3 3 3 2 2 2 2 2 2 < < < < < # X f f =                                                                                                                                                                       ",
"                                                                                                                                                                                                                                                                                            + a k d 0 0 u u i i i d L X.$.:.{.tXhXvXbXCXZXZXZXZXbXxXyX[.~.u.%._ ) ) ` { { ` | } 8.r.t.t.t.t.y.M.M.M.A.A._._.(.).=X=X*X*X*X5X:X:X:X*X:X:X&X&X=X=X@X(.(.D.A.V.m.m.m.q.q.9.7.7.] / ^ ^ ~ Q Q Q Q T T Y J J Z Z M M M n v r r r e 5 5 5 3 3 3 2 2 2 2 2 4 < < < < < # o p g p                                                                                                                                                                       ",
"                                                                                                                                                                                                                                                                                            + : z k 0 0 u u i i i d L ..o.:.'.tXhXxXnXCXZXZXZXZXCXvXgX X!.u.%._ ) ) ` { { { | | } r.t.t.t.t.t.M.M.M.A.A._._.(.).).=X*X*X*X:X:X:X*X*X*X*X&X&X=X=X=X).(.H.A.V.B.m.m.m.q.9.7.7.] / ^ ^ ^ Q Q Q Q T T Y J J J V B M M n b v r r e 5 5 5 3 3 3 2 2 2 2 2 2 < < < < < % $ & g p                                                                                                                                                                       ",
"                                                                                                                                                                                                                                                                                              * z L w 0 0 u i i i i A L o.&.~. XyXzXvXbXZXZXZXZXZXvXhX|.[.f.%._ ) ) ) ` ` { } | } r.r.t.t.t.t.y.M.M.Z.A.A._._.(.).=X*X*X*X*X:X:X*X*X*X*X*X&X=X=X=X@X(.(.A.A.B.m.m.l.q.9.9.7.] ] ^ ^ ^ Q Q Q Q T T T Y J J Z V M M n v r r r e 5 5 5 5 3 3 3 2 2 2 2 2 < < < < < < @ X g f                                                                                                                                                                       ",
"                                                                                                                                                                                                                                                                                              + a L u 0 0 t i i i i A L o.$.:.{.tXhXvXbXZXZXZXZXZXbXzXyX[.~.p.%._ ) ` ` ` { { | } %.r.p.t.t.t.i.M.M.Z.A.A._._.(.).=X=X*X*X*X:X*X:X*X*X*X*X&X&X=X=X@X(.H.D.A.B.m.m.m.q.q.9.7.7.] ^ ^ ~ Q Q R Q T T T Y J J Z V M M M n v r r e e 5 5 5 3 3 3 2 2 2 2 < < < < < < 4 # X f f 7                                                                                                                                                                     ",
"                                                                                                                                                                                                                                                                                              + p z d 0 0 t i i i i d L X.$.:.'.tXhXcXnXMXZXZXZXZXbXxXgX}.!.u.%._ _ ) ` ` ` } | | } r.p.t.t.t.i.m.M.M.A.A._._.(.).).=X*X*X*X*X*X:X:X*X*X*X&X&X=X=X@X).(.H.A.V.B.m.m.q.q.9.7.] ] ^ ^ ~ Q Q R T T T T T J J Z Z B M M n v r r e e 5 5 5 3 3 3 2 2 2 2 2 < < < < < < & @ = g p                                                                                                                                                                     ",
"                                                                                                                                                                                                                                                                                              O ; z k 0 0 t u i i i i A ..o.:.'. XiXzXvXbXZXZXZXZXbXvXgX|.!.u.%._ _ ) ` ` ` { } | } %.r.p.t.t.t.m.M.M.A.A._._.(.).).=X=X*X*X*X*X:X:X*X*X*X*X&X=X=X=X).(.H.A.A.B.m.m.q.q.9.7.7.] / ^ ^ ~ Q R R T T T T J J Z Z B M M n v r r r e 5 5 5 3 3 3 2 2 2 2 2 < < < < < < & $ o F p                                                                                                                                                                     ",
"                                                                                                                                                                                                                                                                                                * d L u 0 t u i i i i A L o.&.f.{.yXzXvXbXMXZXZXZXZXvXhX|.[.~.%.%.) ) ) ) ) ` } | | } r.p.t.t.t.i.M.M.A.A._._.(.(.).=X=X*X5X5X*X5X5X5X*X:X*X*X=X@X=X@X(.H.A.A.B.m.m.m.q.9.7.7.] ] ^ / ) Q Q R R T T T Y J Z Z V M M M n v r r e 5 5 5 3 3 3 3 2 2 2 2 2 < < < < < < & X f f =                                                                                                                                                                   ",
"                                                                                                                                                                                                                                                                                                + a k i 0 0 t u i i i d L X.$.:.[.tXhXvXnXMXZXZXZXZXnXzXgX[.~.u.%._ _ ` ) ` ` } { | } %.p.t.t.t.t.M.M.A.A.A._._.(.).=X=X*X*X5X5X*X*X5X5X:X*X*X=X@X=X@X(._.D.A.V.m.m.m.q.9.9.7.] ] ^ / ) Q Q R R T T T Y J Z V V M M M n v r r e 5 5 5 5 3 3 3 2 2 2 2 2 2 < < < < < & $ 7 g p                                                                                                                                                                   ",
"                                                                                                                                                                                                                                                                                                + : z k w 0 t u i i i d A ..o.:.'. XiXzXvXbXMXZXZXZXbXvXgX X!.u.%._ _ ` ) ) ` { { | | %.r.t.t.t.t.m.N.M.A.A._._.(.(.).=X&X*X*X5X5X5X5X5X*X*X*X&X=X=X@X(.(.D.A.A.m.m.m.q.q.9.7.| ] ^ / / ) Q R R T T Y J J Z V V M M M n b v r r 5 5 5 5 3 3 3 2 2 2 2 2 < < < < < < & $ & g p                                                                                                                                                                   ",
"                                                                                                                                                                                                                                                                                                  * z k u 0 0 u i i i i A L o.&.~.{.yXzXvXnXMXMXZXZXMXvXhX|.[.f.%.} _ _ ) ) { { } | | } r.t.t.t.t.m.N.M.A.A._._.(.(.).=X&X*X*X*X5X5X5X5X*X*X*X&X=X@X@X+X(.H.A.A.B.m.m.q.q.9.7.7.] ` / / ) Q R T T U E K J Z V V M M M n b v r r e 5 5 5 3 3 3 3 2 2 2 2 < < < < < < < & X g f                                                                                                                                                                   ",
"                                                                                                                                                                                                                                                                                                  * a k u 0 0 u d i i d d L X.&.:.{.tXzXcXnXMXMXZXZXMXbXzXyX[.~.&.%._ _ ` ) { { { | | } %.p.p.t.t.i.M.M.A.A._._.(.(.).=X=X*X*X*X*X*X*X*X*X&X&X&X=X@X@X@X(._.D.A.V.m.m.m.q.9.9.7.] ] ^ ^ ) Q R T T U E K K Z Z V B M M n n v r r e 5 5 5 3 3 3 3 2 2 2 2 2 < < < < < % & X p f 7                                                                                                                                                                 ",
"                                                                                                                                                                                                                                                                                                  + p z d 0 0 t u i i i d A ..+.:.'.tXiXcXnXbXMXZXZXZXbXxXgX X!.u.%._ _ _ ) { { { | | } %.r.t.t.t.t.N.M.M.A.A._.(.(.).).=X&X*X*X*X*X*X*X*X&X&X=X=X@X@X@X).(.H.A.V.m.m.m.q.9.9.7.] ] ^ ^ ~ Q R T E U E K K J C V B M M M n v r r r 5 5 5 5 3 3 3 2 2 2 2 2 < < < < < < & @ = g p                                                                                                                                                                 ",
"                                                                                                                                                                                                                                                                                                  O ; z k w 9 t u d d d i d ..o.:.~.{.yXzXvXbXMXMXZXZXbXvXhX|.[.f.%._ _ _ ) ) { { } | } %.%.r.t.t.t.m.N.M.A.A._._.(.).).=X=X*X*X*X*X*X*X5X*X&X&X=X@X@X@X).(.H.A.V.B.m.m.q.q.9.7.7.] ^ ^ ~ Q R T E E E E K K C V V B M M n b r r r e 5 5 5 3 3 3 2 2 2 2 2 2 < < < < < & & X F p                                                                                                                                                                 ",
"                                                                                                                                                                                                                                                                                                    + k k u 0 0 u d d d d i L ..+.:.{.tXzXvXnXMXMXZXZXMXvXhXtX[.~.&.%._ _ _ ) { { { | } } %.t.t.t.t.t.M.M.M.A._._.(.(.).=X=X&X*X*X*X*X*X5X5X&X&X=X=X@X@X@X(.H.A.A.V.m.m.y.q.9.7.7.] ^ ^ ~ Q Q T T E U E K K Z V V B M M n n v r r r 5 5 5 3 3 3 3 2 2 2 2 2 < < < < > & & X f f =                                                                                                                                                               ",
"                                                                                                                                                                                                                                                                                                    + a k d 0 0 t u u u u i A ..+.:.'.tXhXvXnXMXMXMXZXMXnXzXyX{.~.u.%._ _ ) ) { { { } } } %.t.t.t.t.i.M.M.M.A.A._.(.(.).).=X&X*X*X*X*X*X5X5X*X&X&X=X@X@X@X(.H.D.A.V.m.m.l.q.9.9.7.] ^ ^ ~ Q Q R T T U E K K J Z V B M M M n v y r e 5 5 5 5 3 3 3 2 2 2 2 2 < < < < < % & $ 7 g p                                                                                                                                                               ",
"                                                                                                                                                                                                                                                                                                    + : z k w 0 0 w u u u i d ..+.:.'. XiXzXvXbXMXMXMXMXbXvXgX X!.u.%._ _ _ _ { { { { } } %.t.t.t.t.t.m.N.M.A.A._._.(.).).=X=X&X*X*X5X5X5X5X*X&X&X=X@X@X@X).H.H.A.V.B.m.m.q.q.9.7.] ] ^ ~ ~ Q R T T U E K K K C V V B M M n n v r r e 5 5 5 3 3 3 2 2 2 2 2 < < < < < # & & & g p                                                                                                                                                               ",
"                                                                                                                                                                                                                                                                                                    . * z k w 0 0 w u u u i d ..@.,.~.{.yXzXvXnXMXMXMXMXMXvXhX|.[.f.%.%._ _ _ ) { ` { } } %.%.t.t.t.t.m.N.M.A.A._._.(.).).).=X&X*X5X5X5X*X*X&X&X&X&X=X@X@X+X(.H.A.V.B.m.m.q.q.9.7.| ] ^ ^ Q Q R T T E U E K J Z Z V V M M n n v y r e 5 5 5 3 3 3 3 2 2 2 2 2 < < < < # & & X g f                                                                                                                                                               ",
"                                                                                                                                                                                                                                                                                                      + a ..d w 0 t u u u d d L X.+.:.'.tXhXcXnXMXMXMXMXMXvXzXyX[.~.&.%._ _ _ _ ) ) { } } %.%.t.t.t.t.m.N.M.M.A.A._._.(.).).=X=X&X&X&X&X&X*X*X&X&X&X=X@X@X@X(.H.A.V.V.m.m.m.9.9.9.7.] ^ ^ ~ Q Q T T T E E E J J C V V M M M n v v r e 5 5 5 3 3 3 3 2 2 2 2 2 < < < < # % & $ f f =                                                                                                                                                             ",
"                                                                                                                                                                                                                                                                                                      + p ..k w 9 0 w u u u i d ..+.:.'.tXiXzXvXbXMXMXZXMXnXxXyX X!.u.%._ _ ) ) ) ) { { %.%.%.t.t.t.t.m.N.N.M.A.A.A._.(.).).=X=X&X&X&X&X&X&X&X&X&X&X&X=X@X@X).H.H.A.V.B.m.m.q.q.9.7.| ^ ^ ~ Q Q T T T E U E J J Z V V B M M n v v r e e 5 5 5 3 3 3 2 2 2 2 2 < < < < < % & $ = g p                                                                                                                                                             ",
"                                                                                                                                                                                                                                                                                                      O ; z ..w q 0 t u u u i d L o.:.~.{.yXzXvXnXbXMXMXMXbXvXhX|.!.f.%._ _ ) ) ) ) { { } %.%.%.t.t.t.m.m.N.M.M.A.A._.(.).).@X=X=X&X&X&X&X&X&X&X&X&X&X=X@X@X+XH.H.A.V.B.m.m.q.q.9.7.| ] ^ ~ Q Q T T T T E E E J Z V V B M M n n v r r e 5 5 5 3 3 3 2 2 2 2 2 2 < < < < % & & X F p                                                                                                                                                             ",
"                                                                                                                                                                                                                                                                                                        + k ..a 0 0 t u u u i d L X.&.f.{.tXhXcXnXbXMXMXZXMXvXzX|.[.~.&.%._ ) ) _ ) { { } %.%.%.%.t.t.t.t.N.N.M.A.A.A._.(.).).=X=X&X&X&X&X&X&X&X&X&X=X=X@X@X+X(.H.A.V.V.m.m.y.q.9.7.| ] ^ ~ Q Q R T T T U E E J J Z V V M M M n b y r e 5 5 5 3 3 3 3 2 2 2 2 2 < < < < # % & X h h =                                                                                                                                                           ",
"                                                                                                                                                                                                                                                                                                        + a ..k 0 0 t u u u i d d ..+.:.'.pXhXcXvXbXMXMXZXMXnXzXyX{.~.u.%._ ) ) ) ) { { } %.%.%.t.t.t.t.t.m.N.M.A.A.A._.(.).).@X=X&X&X&X&X&X5X5X&X&X&X=X@X@X+X(.H.H.V.V.m.m.m.q.9.7.7.] ^ ^ Q Q R T T T U E E J J Z V V M M M n n v r r 5 5 5 5 3 3 3 2 2 2 2 2 < < < < < % & $ 7 f 7                                                                                                                                                           ",
"                                                                                                                                                                                                                                                                                                        O ; ....w q 0 t u u d d d ..+.:.'. XiXcXvXnXbXMXMXMXbXvXgX X!.u.%._ ) ) ) _ { { { } %.%.%.%.t.t.t.m.N.M.M.A.A.H._.(.).@X=X=X&X&X&X&X5X5X5X&X&X=X@X@X@X).H.H.A.V.B.m.m.y.9.9.7.] ^ ^ Q Q Q T E T U U K K J Z V V B M M n n v r r e 5 5 5 3 3 3 2 2 2 2 2 < < < < < % & & $ g p                                                                                                                                                           ",
"                                                                                                                                                                                                                                                                                                          + z @.u 9 0 0 u u u i d L o.&.~.{.yXzXvXnXbXMXMXZXMXvXhX|.[.~.%._ _ ) ) _ { { { } } %.%.t.t.t.t.m.N.M.M.A.A.H.H.(.).).@X=X&X&X&X&X&X5X&X&X&X&X=X@X@X@XH.H.A.V.V.m.m.q.q.9.7.| ] ^ ~ Q Q R T E T U E K J Z Z V V M M n n b y r e 5 5 5 3 3 3 3 2 2 2 2 2 < < < < < % & X g f $                                                                                                                                                         ",
"                                                                                                                                                                                                                                                                                                          + a ..k 0 0 0 t u u i d A ..+.:.'.tXhXcXvXbXMXMXZXMXnXzXyX[.~.&.%._ ) ) _ _ { { | | } %.t.t.t.t.t.m.N.M.A.A.A.H._.).).@X=X=X&X&X&X&X5X5X&X&X&X=X@X@X@X(.H.J.A.V.B.m.l.q.9.9.| ] ^ ~ Q Q R T T T U E E Y J C V V B M M n v v r e 5 5 5 3 3 3 3 2 2 2 2 2 < < < < < % & @ p f =                                                                                                                                                         ",
"                                                                                                                                                                                                                                                                                                          + a ....w 0 0 t t u u i d L +.:.'.pXiXcXvXnXbXMXZXMXbXcXyX X!.u.%._ ) ) ) ) { { { | } %.r.t.t.t.t.m.N.M.M.A.A.H.H.(.).@X@X=X&X&X&X&X5X5X&X&X&X&X@X@X@X@XH.H.A.V.B.m.m.9.9.9.7.] ^ ^ Q Q R T T T E U E J J Z V V V M M n b v r e e 5 5 5 3 3 3 2 2 2 2 2 < < < < < < % @ = f p                                                                                                                                                         ",
"                                                                                                                                                                                                                                                                                                          O * ..@.w q q 0 w u u i d L o.:.~.{.yXzXvXnXbXMXMXZXMXvXhX|.!.f.&._ _ ) ) _ ) { { { | } %.t.t.t.t.t.N.N.M.A.A.H.H._.).).@X=X&X&X&X&X&X&X&X&X&X&X@X@X@X@XH.H.D.A.V.m.m.q.9.9.7.] ^ ^ ~ Q Q R T T T U E E J Z V V V M M M n v y r e 5 5 5 3 3 3 3 2 2 2 2 2 < < < < < # & $ f p                                                                                                                                                         ",
"                                                                                                                                                                                                                                                                                                            + z @.d 0 q 0 w u u i d A ..+.:.{.tXzXcXnXbXMXMXZXMXnXzX|.[.~.&.%._ _ _ _ ) ) { { | } %.r.t.t.t.t.m.N.M.A.A.H.H._.(.).@X=X=X&X&X&X&X&X&X&X&X&X@X@X@X@X).H.H.A.V.m.m.q.q.9.7.] ] ^ ~ Q Q R T T T E E E J J Z V V M M M n n v r e 5 5 5 5 3 3 3 3 2 2 2 2 2 < < < < # & X p f &                                                                                                                                                       ",
"                                                                                                                                                                                                                                                                                                            + a ..z 0 q 0 0 u u i d d ..+.:.'.tXhXcXvXbXbXMXZXMXbXxXyX[.~.&.%._ ) ) ) ) { { { | } %.%.r.t.t.t.m.N.M.A.A.A.H.H.(.).).@X=X&X&X&X&X&X5X&X&X&X&X@X@X@X@XH.H.H.V.B.l.l.9.9.7.7.] ^ ^ Q Q R T T T E U K J J Z V V B M M M n v r r e 5 5 5 5 3 3 3 2 2 2 2 2 < < < < % % $ 7 f 7                                                                                                                                                       ",
"                                                                                                                                                                                                                                                                                                            O : ..@.w q q 0 t u d d d L o.:.'. XiXzXvXnXbXMXMXZXbXvXgX X!.u.%._ ) ) ) ) { { { { | } %.r.t.t.t.m.N.M.A.A.A.H.H._.).).@X=X&X&X&X&X5X5X&X&X&X&X@X@X@X@XH.H.J.A.V.l.l.9.9.9.7.] ^ ^ Q Q Q R U U U U U K J J Z V B M M M n b v r e 5 5 5 5 3 3 3 2 2 2 2 2 < < < < < # @ $ f p                                                                                                                                                       ",
"                                                                                                                                                                                                                                                                                                              + z +.u q 9 0 0 u u i d L X.&.~.{.yXzXvXvXbXMXMXZXMXnXzX|.[.f.&._ _ ) ) ) ) { { { } } %.%.t.t.t.m.N.N.M.A.A.A.H._.(.).@X=X&X&X&X&X&X5X&X&X&X&X@X@X@X@XH.H.H.A.V.l.l.q.9.9.7.] ] ^ ~ Q Q R U U T U K K J J Z V Z B M M n b v r e e 6 5 5 3 3 3 3 2 2 2 2 2 < < < < # & X f f $                                                                                                                                                     ",
"                                                                                                                                                                                                                                                                                                              + a @.k 0 q 9 0 u u u d A ..+.:.'.tXhXvXvXnXMXMXMXMXnXxXyX[.~.&.$._ ) ) ) ) ) { { } } } %.%.t.t.t.N.N.N.A.A.A.H.H.(.).).=X=X&X&X&X&X5X5X&X&X&X=X@X@X@X@XH.H.A.V.V.l.l.9.9.7.7.] / ~ Q Q R R E T U U K K J J V V B M M n n v y r e 5 5 5 5 3 3 3 2 2 2 2 2 < < < < % % @ p f =                                                                                                                                                     ",
"                                                                                                                                                                                                                                                                                                              O : ....0 q 9 0 0 u u i d ..+.:.'.pXiXcXvXnXbXMXMXMXbXvXgX X~.&.%._ ) ) ) ) ) ) { { } } %.t.t.t.t.m.N.M.A.A.A.H._.(.).).@X=X&X&X&X&X&X&X&X&X&X@X@X@X@X@XH.H.A.V.V.l.l.q.9.7.7.] / ^ ~ ~ Q R U U T T T K J J Z Z V M M M n b m y e 5 5 5 5 3 3 3 2 2 2 2 2 2 < < < < # @ & f p                                                                                                                                                     ",
"                                                                                                                                                                                                                                                                                                              O * z +.w q q 0 0 u u i d L @.:.~.{.yXzXcXnXbXMXMXMXbXvXzX X!.u.%._ _ ) ) ) ) ) { { } } %.%.t.t.t.m.N.M.M.A.A.H.H._.).).@X=X&X&X&X&X&X&X&X&X&X&X@X@X@X@XH.H.A.A.V.l.l.q.9.9.7.] ] ^ ^ ~ Q Q W U U T T K K J Z V Z V M M n n m r e e 6 5 5 3 3 3 3 2 2 2 2 2 < < < < # & o f f X                                                                                                                                                   ",
"                                                                                                                                                                                                                                                                                                                + g @.d q q q 0 t u u i L ..+.:.{.tXzXcXvXnXMXMXMXMXnXzX|.[.~.&.%._ ) ) ) ) ) { { } | } %.t.t.t.m.N.N.N.A.A.H.H._.).).@X@X=X&X&X&X&X&X&X&X&X&X@X@X@X@X).H.H.V.V.l.l.l.q.9.7.7.] / ^ ~ Q Q U U U T T T K J J Z Z V M M n n v y r e 5 5 5 5 3 3 3 3 2 2 2 < 2 2 < < # & X p f &                                                                                                                                                   ",
"                                                                                                                                                                                                                                                                                                                O a @.k 0 q q 0 t u u i d ..+.:.'.pXiXcXvXnXbXMXMXMXnXxXyX[.~.&.%._ ) ) ) ) ) ) { { } } %.t.t.t.t.m.N.M.A.A.A.H._.(.).).@X=X=X&X&X&X&X&X&X&X&X@X@X@X@X@XH.H.J.V.V.l.l.q.9.9.7.] / ^ W Q Q W U U T T T K J J Z V V M M M n v y r e 5 5 5 5 5 5 3 3 2 2 2 2 2 2 < < % % $ 7 f 7                                                                                                                                                   ",
"                                                                                                                                                                                                                                                                                                                O ; ..@.0 q q 0 t t u i d L o.:.'. XiXzXvXnXbXMXMXMXbXvXgX X!.u.%._ ) ) ) ) ) ) { { | } %.r.t.t.t.m.N.M.M.A.A.A._.(.(.).@X=X&X&X&X&X&X5X&X&X&X&X@X@X@X@X).H.J.A.V.l.l.q.q.9.7.] ] ^ ^ ~ Q Q W U T T T K K J J Z Z B M M n b v r e e 5 5 5 5 5 3 3 2 2 2 2 2 2 < < < # $ $ f p .                                                                                                                                                 ",
"                                                                                                                                                                                                                                                                                                                O + z +.w q q q t t u u d L o.&.~.{.yXzXvXnXnXMXMXMXbXvXzX|.[.f.%._ ) ) ) ) ) ) { { | } %.r.t.t.t.t.m.M.M.A.A.A.H._.(.).@X@X=X&X&X@X&X5X&X&X&X&X&X@X@X@X).H.H.F.V.V.l.q.q.9.9.7.] / ^ ~ Q Q W W W T T K K J J Z Z V M M n n m r r e 5 5 5 5 5 5 3 3 2 2 2 2 2 2 < < # & X f p @                                                                                                                                                 ",
"                                                                                                                                                                                                                                                                                                                  O a @.k q q q 0 t t u i A ..$.:.'.tXhXvXnXnXMXMXMXMXnXzX|.[.~.&.%.) ) ) ) ) { { { | | %.r.t.t.t.t.m.m.M.A.A.A.H._.(.).).@X=X&X&X@X&X5X5X5X5X&X@X@X@X@X@XH.H.J.V.V.l.l.q.q.9.7.] / ^ ^ ~ Q W U U T T T K J J Z Z V M M M n v y r e e 5 5 5 5 5 3 3 2 2 2 2 2 2 < < % % @ 7 f =                                                                                                                                                 ",
"                                                                                                                                                                                                                                                                                                                  O : ....0 q q 0 0 t u u d L +.:.'.tXiXzXvXnXbXMXMXMXnXxXyX[.~.u.%._ ) ) ) ) { { { | | } r.t.t.t.t.m.m.N.V.A.A.A._._.).).@X=X&X&X@X&X5X5X5X5X5X@X@X@X@X@XH.H.H.V.V.m.l.l.q.9.7.] ] ^ ^ ^ Q W U U T U T K J J Z Z Z M M M n b v r e e 6 5 5 5 5 3 3 2 2 2 2 2 2 < < < # @ & f p                                                                                                                                                 ",
"                                                                                                                                                                                                                                                                                                                  O * z @.0 q q 0 0 t u u d L o.:.~.{.yXzXvXnXnXMXMXMXbXvXgX X!.u.%._ ) ) ) ) ) { { { | } %.r.t.t.t.m.m.N.V.A.A.A.H._.(.).).@X&X&X&X@X5X5X5X5X5X@X@X@X@X@X@XH.H.A.V.V.l.l.9.9.7.7.] / ^ W Q W U U U T T T J J Z Z Z V M M n n v r e e 6 5 5 5 5 3 3 3 2 2 2 2 2 < < < # & o f p X                                                                                                                                               ",
"                                                                                                                                                                                                                                                                                                                    + d @.a q q 9 0 t t u i L o.&.:.{.tXhXzXvXnXMXMXMXbXvXzX|.!.f.%._ ) ) ) ) ) { { { | } %.r.t.t.t.t.m.N.M.A.A.A.H._.(.).).@X@X@X@X5X5X5X5X5X5X5X@X@X@X@X@XH.H.J.V.V.l.l.q.q.7.7.] / ^ ^ ~ Q U U U T T T J J Z V V V M M M n v y r e e 5 5 5 5 5 3 3 3 3 2 2 2 < < < # & X p p &                                                                                                                                               ",
"                                                                                                                                                                                                                                                                                                                    O p ..k 0 q 9 0 0 0 u u A ..+.:.'.tXiXzXvXnXbXMXMXbXnXzXyX[.~.&._ ) ) ) ) ) { { { | | %.r.t.t.t.t.m.m.N.A.A.A.H.H._.).).@X@X@X&X5X5X5X5X5X5X&X@X@X@X@X@XI.H.H.V.V.l.l.l.q.9.7.] ] / ^ ^ Q Q U U E T Y Y J Z Z V V B M M n v v r e e 6 5 5 3 5 3 3 3 3 2 2 2 < < < % % $ = f 7                                                                                                                                               ",
"                                                                                                                                                                                                                                                                                                                    O ; z ..w q q 0 0 t t u d ..o.:.'.pXiXzXvXvXbXbXMXbXnXxXgX X~.u.%.) ) ) ) ) { { { } } } %.t.t.t.t.m.m.N.A.A.A.H.H._.(.).@X@X@X&X5X5X5X5X5X5X5X@X@X@X@X@X@XH.H.F.V.V.l.l.q.q.7.7.] / ^ ^ ~ Q U U T T Y Y J Z Z V V B M M n b v r e e e 5 5 3 5 3 3 3 3 3 2 2 < < < < # @ $ f p X                                                                                                                                             ",
"                                                                                                                                                                                                                                                                                                                    . + z ..w q q 9 0 0 t u d L o.&.~.{.yXhXzXvXnXbXbXbXbXvXzX X!.u.%._ ) ) ) ) { { { | | } %.t.t.t.t.t.m.N.A.A.A.H.H._.(.).).@X@X@X&X5X5X5X5X5X5X&X@X@X@X@X@XY.H.H.V.V.l.l.l.q.9.7.] / / ^ ~ Q R U U T T Y J J Z V V V M M n n v y r e e 6 5 5 5 5 3 3 3 2 2 2 2 < < < # & X p p $                                                                                                                                             ",
"                                                                                                                                                                                                                                                                                                                      O a ..d 0 q 9 0 0 t u i A X.&.:.{.tXiXzXvXnXbXbXbXbXvXzX|.[.~.%._ ) ) ) ) { { { | } } %.t.t.t.t.t.m.N.M.A.A.A.H._._.(.).).@X@X@X@X5X5X5X5X5X5X@X@X@X@X@XY.H.H.V.V.l.l.l.9.9.7.] ] ^ ^ ~ Q R U U T T Y J J Z V V V B M M n n v r e e 6 5 5 5 5 3 3 3 3 2 2 2 2 < < % % @ 7 p =                                                                                                                                             ",
"                                                                                                                                                                                                                                                                                                                      O : z k 0 q 9 0 0 t t u A ..+.:.'. XyXzXvXnXbXbXbXbXnXzXyX[.~.&.%.) ) ) ) { { { { } | %.t.t.t.t.t.m.N.N.A.A.A.A.H._.(.).).@X@X@X5X@X5X5X5X5X5X@X@X@X@X@XY.H.H.J.V.m.l.l.9.9.7.7.] / ^ ^ Q Q U U E T Y J J Z V V V B M M n n v r r e e 6 5 5 5 5 3 3 3 2 2 2 2 2 2 % # @ & p p X                                                                                                                                           ",
"                                                                                                                                                                                                                                                                                                                      O * z ..0 q q 0 0 0 t u d ..o.:.~.{.tXzXxXvXbXbXbXbXnXxXgX X!.u.%._ ) ) ) { { { { } } } %.t.t.t.t.m.m.N.A.A.A.H.H.H.(.).).@X@X@X5X@X5X5X5X5X5X@X@X@X@X@XY.H.H.H.V.V.l.l.l.9.7.7.] [ / ^ Q Q U U U T E K J Z Z V V V B M n n v y r e e 6 5 5 5 3 3 3 3 2 2 2 2 2 2 < # & X p f o                                                                                                                                           ",
"                                                                                                                                                                                                                                                                                                                        + a z u 9 q 9 0 0 t u i L o.&.f.{.tXhXzXvXnXbXbXbXbXvXzX|.!.f.%._ ) ) ) ) { { { } } } %.t.t.t.t.y.m.N.A.A.A.H.H.H.(.).).@X@X@X@X&X&X5X5X5X5X5X@X@X@X@XY.H.H.H.V.V.l.l.l.q.9.7.] ] / ^ ~ Q R U U U E E J J Z V V V B M M n b y r e e e 5 5 5 5 3 3 3 3 2 2 2 2 2 < % & X 7 s &                                                                                                                                           ",
"                                                                                                                                                                                                                                                                                                                        + p k d 9 q 9 0 0 t t i A ..$.:.'.tXyXzXvXnXbXbXbXbXnXzX|.[.~.&._ ) ) ) ) { { { | | } %.t.t.t.t.m.m.N.M.A.A.A.H.H.H.(.).).@X=X@X&X&X5X5X5X5X5X@X@X@X@X@XY.H.H.V.V.m.l.l.9.9.7.] ] / ^ ^ ~ R U U E U E J J Z V V V B M M n n v r e e e 5 5 5 5 5 5 3 3 2 2 2 2 2 2 % % $ & p p                                                                                                                                           ",
"                                                                                                                                                                                                                                                                                                                        + ; d d 0 q 9 9 0 t t u d ..+.:.'. XyXzXxXnXbXbXbXbXnXxXgX[.~.u.%._ ) ) ) { { { { } | %.%.t.t.t.t.m.m.N.A.A.A.H.H.H.(.).).@X=X@X&X@X&X&X@X5X5X5X@X@X@X@X@XH.H.J.V.x.l.l.l.q.9.] ] / ^ ^ ~ Q U U E U E E K C V V V V M M M n b r r e e e 5 5 5 5 5 3 3 3 2 2 2 2 2 < # @ @ s p o                                                                                                                                         ",
"                                                                                                                                                                                                                                                                                                                        O + d k 0 9 9 9 0 0 t u d L o.&.~.{.tXzXzXvXbXbXbXbXbXvXzX X!.u.%._ ) ) ) { { { { | | } %.t.t.t.t.m.m.N.M.A.A.H.H._.(.(.).@X@X@X&X&X&X&X&X@X5X@X@X@X@X@X@XY.H.H.V.V.m.l.l.9.9.7.] / ^ ^ ~ Q U U E U U E K C Z V V V B M M n b y r r e e 5 5 5 5 5 3 3 3 2 2 2 2 2 < # % X p s *                                                                                                                                         ",
"                                                                                                                                                                                                                                                                                                                          + a d u 9 q 9 0 0 t u i L X.$.f.'.tXiXzXvXnXbXbXbXbXnXzX|.[.~.%._ ) ) ) { { { { | | } %.r.t.t.t.m.m.N.M.A.A.H.H.H._.(.).@X=X=X@X@X@X&X&X@X5X5X@X@X@X@X@XY.H.H.V.V.m.l.l.9.9.7.] [ / ^ ^ Q R U U E U E J K C V V V B M M n n v r r r e 5 5 5 5 5 3 3 3 2 2 2 2 2 < % # @ 7 s 7                                                                                                                                         ",
"                                                                                                                                                                                                                                                                                                                          + q d u 9 q 9 0 0 t t i A ..$.:.'.|.yXzXxXnXnXbXbXbXnXxXyX[.~.&.%._ ) ) ) { { { | | } %.r.t.t.t.t.m.N.M.A.A.A.H.H._.(.).).@X@X=X@X@X&X@X@X5X5X5X@X@X@X@XY.H.H.A.V.x.l.l.9.9.7.] ] / ^ ^ ~ Q U U E E E K K C V V V B M M n n v r r r e 5 5 5 5 5 3 3 3 3 2 2 2 2 < < # @ & s p o                                                                                                                                       ",
"                                                                                                                                                                                                                                                                                                                          O * d d 0 q 9 0 0 0 t u d L o.:.!.{.tXzXzXvXnXbXbXbXnXxXgX X!.u.%._ ) ) ) ) { { | | | } %.t.t.t.t.m.m.N.V.A.A.H.H.H.(.).).@X@X@X@X@X@X@X@X5X5X5X@X@X@X@X@XH.H.J.V.x.l.l.l.q.9.7.] [ / ^ ~ Q U U E E E E K C C V V V M M n n v y r r e e 5 5 5 5 5 3 3 3 3 2 2 2 2 < # # @ s s o                                                                                                                                       ",
"                                                                                                                                                                                                                                                                                                                            + d d w 9 9 9 0 0 u u d L o.&.f.{.tXhXzXvXnXbXbXbXbXvXzX|.!.f.%._ ) ) ) ) { { { | | } %.t.t.t.t.m.m.N.M.A.A.H.H.H.(.).).@X@X@X@X@X@X@X@X@X5X5X@X@X@X@X@XH.H.H.V.V.l.l.l.9.9.7.] ] ^ ^ ~ Q U U U E E E K K C V V V B M M n b v r r r e 5 5 5 5 5 5 3 3 3 2 2 2 2 < # # @ p s *                                                                                                                                       ",
"                                                                                                                                                                                                                                                                                                                            + a d u 9 q 9 0 0 t u i A X.$.:.'.tXyXzXxXnXbXbXbXbXnXzX|.[.~.%._ _ ) ) ) { { { | | } %.t.t.t.t.m.m.N.M.A.A.A.H.H.H.(.).@X@X@X@X@X@X@X@X@X5X5X@X@X@X@X@XH.H.H.J.V.x.l.l.9.9.7.] ] / ^ ~ W U W U E E E E K C V V V B M M n n v r r e e 5 5 5 5 5 5 3 3 3 3 2 2 2 < % # @ & s p                                                                                                                                       ",
"                                                                                                                                                                                                                                                                                                                            O ; d d 0 q q 0 0 t u u A L +.:.'. XyXzXxXvXnXbXbXbXnXxXgX[.~.u.%._ ) ) ) ) { { { | | %.r.t.t.t.t.m.m.N.A.A.A.H.H.H.(.).).@X@X@X@X@X@X@X@X5X5X@X@X@X@X@XY.H.H.J.V.x.l.l.q.9.7.| ] / ^ ~ ~ W U U U E E E K C V V V V M M n n b r r e r 5 5 5 5 5 5 5 5 3 3 2 2 2 < < # @ % p s o                                                                                                                                     ",
"                                                                                                                                                                                                                                                                                                                            . * d d 0 q q q 0 t u u d L o.:.~.{.tXhXzXvXnXbXbXbXbXvXzX X!.u.%._ ) ) ) ) { { { | | } %.t.t.t.t.m.m.N.N.A.A.H.H.H.H.).).).@X@X@X@X@X@X@X@X@X@X@X@X@X@XY.H.H.J.V.V.l.l.q.9.7.7.] / ^ ^ ~ W U U U E E E K C V V V Z M M M n b y r r e e 5 5 5 5 5 5 5 3 3 3 2 2 < < # @ @ p s $                                                                                                                                     ",
"                                                                                                                                                                                                                                                                                                                              * a d u q q 9 0 0 t u i L o.&.:.'.tXhXzXvXnXbXbXbXbXnXzX|.[.~.%._ _ ) ) ) { { { | | } %.t.t.t.t.t.m.N.M.A.A.A.H.H.H.).).).@X@X@X@X@X@X5X@X@X@X@X@X@X@XY.H.H.H.V.V.l.l.q.9.7.7.] ] ^ ^ ~ W W U U E E E K C Z V V V M M M n n v r r e e 6 5 5 5 5 5 5 5 3 3 2 2 < < # # @ 4 s 4                                                                                                                                     ",
"                                                                                                                                                                                                                                                                                                                              + p k d 9 q q 9 0 t u u A ..+.:.'. XyXzXxXnXbXbXbXbXnXxXyX[.~.&.} _ ) ) ) { { { | | | %.t.t.t.t.t.m.m.N.A.A.A.H.H.H.).).).@X@X@X@X5X5X5X@X@X@X@X@X@X@X@XH.H.H.V.V.l.l.q.9.9.7.5.] ^ ^ ~ W W U U U E E E K C V V V B M M n b v r r r e 6 6 5 5 5 5 5 5 3 3 2 2 < > > # @ % p p X                                                                                                                                   ",
"                                                                                                                                                                                                                                                                                                                              O * g d 0 q q 9 0 t u u d ..o.:.~.{.tXzXxXvXnXbXbXbXbXvXgX X!.u.%._ ) ) ) { { { { | | } %.t.t.t.t.m.m.N.M.A.A.H.H.H.H.).).@X@X@X@X@X5X5X5X@X@X@X@X@X@X@XY.H.H.F.V.l.l.q.9.9.7.7.] / ^ ~ ~ W U U E U E K K C V V V B M M n n v r r r e e 6 5 6 5 5 5 5 3 3 2 2 < < > # # @ 7 s X                                                                                                                                   ",
"                                                                                                                                                                                                                                                                                                                              . * d d w q q 9 0 0 t u d L o.&.f.{.yXhXzXvXnXbXbXbXbXvXzX|.!.u.%._ ) ) ) ) { { { | } } %.t.t.t.t.y.m.m.N.A.A.A.H.H.H.).).).@X@X@X@X@X@X5X@X@X@X@X@X@XY.Y.H.H.J.V.V.l.l.q.9.7.7.] / ^ ^ ~ W U U U E E E K C V V V B M M n n b v r r r e 6 6 5 5 5 5 5 5 2 3 2 < > < > # @ 4 s &                                                                                                                                   ",
"                                                                                                                                                                                                                                                                                                                                + p g d 9 q q 9 0 t u i A ..$.:.'.tXyXzXxXnXbXbXbXbXnXzXyX[.~.%._ _ ) ) ) { { { { } | %.%.t.t.t.t.m.m.N.N.A.A.H.H.H.H.).).@X@X@X@X@X@X@X5X@X@X@X@X@X@XY.H.H.H.V.V.l.l.q.9.9.7.] ] / ^ ~ W U U U E E E K C V V V M M M n n b v r r r e 6 6 5 5 5 5 5 5 3 3 2 2 2 < > # # # s p X                                                                                                                                 ",
"                                                                                                                                                                                                                                                                                                                                + : g d 0 q 9 9 0 t t i A ..+.:.'. XyXzXzXvXnXbXbXbXnXxXgX[.~.u.%._ ) ) ) ) { { { } } } %.t.t.t.t.m.m.N.M.V.A.A.H.H.H.H.).).@X@X@X@X@X@X@X@X@X@X@X@X@X@XY.H.H.V.V.l.l.q.9.9.7.] ] / ^ ~ W W U E U E K K C V V B M M M n n b v r r r r 6 6 5 5 5 5 5 5 3 3 2 2 2 2 > > # # 4 f #                                                                                                                                 ",
"                                                                                                                                                                                                                                                                                                                                . * g d t q 9 9 0 t t u d L o.&.~.{.yXhXzXvXnXbXbXbXbXvXzX X!.u.%._ _ ) ) ) { { { { } | %.%.t.t.t.t.m.m.N.V.V.A.H.H.H.H.).).@X@X@X@X@X@X@X@X@X@X@X@X@XY.Y.H.J.F.V.l.l.q.9.9.7.] ] / ^ W ~ Q U U U E K K V V V M M M M n n b v r r r r 6 6 6 6 6 5 5 5 5 3 3 2 2 2 > > # # # s 7 $                                                                                                                               ",
"                                                                                                                                                                                                                                                                                                                                  * a d u 9 9 9 0 t t t i L X.&.:.'.tXhXzXvXnXbXbXbXbXnXzX|.[.~.%.{ _ ) ) ) ) ) { { } } } %.t.9.t.t.m.m.N.N.V.A.H.H.H.H.).).@X@X@X@X@X@X@X@X@X@X@X@X@X@XY.H.H.H.V.V.l.l.9.9.7.7.] / ^ ^ ~ Q R E E E K C V V V M M M M M n b v r r r r 6 6 6 6 6 5 5 5 5 3 3 3 2 , > > > # @ 7 p &                                                                                                                               ",
"                                                                                                                                                                                                                                                                                                                                  + p g d q 9 9 0 t t t u A ..$.:.'. XyXzXxXvXnXbXbXbXnXxXyX[.~.u.%._ ) ) ) ) { { { { } } %.t.t.9.t.y.m.N.N.V.A.H.H.H.H.H.).@X@X@X@X@X@X5X5X@X@X@X@X@X@XY.I.H.H.V.V.l.l.9.9.7.7.] [ ^ ^ ~ Q U E E E K C C V B M M M M M n b v r r r r r 6 6 6 6 6 5 5 5 5 3 3 2 2 , > > # @ & p 7 X                                                                                                                             ",
"                                                                                                                                                                                                                                                                                                                                  O = g d 0 9 9 0 0 t t i d L o.:.~.{.yXhXzXxXnXnXbXbXbXxXgX X!.u.%._ _ ) ) ) ) { { { | } } t.t.9.9.t.m.m.m.N.V.A.H.H.H.H.H.).@X@X@X@X5X5X@X@X@X@X@X@XY.Y.H.H.H.V.V.l.l.9.9.6.7.] [ / ^ Q Q U U U K K C C V B M M n M n n n v v r r r r 6 6 6 6 6 5 5 5 5 6 3 3 2 , , > # # X 4 f X                                                                                                                             ",
"                                                                                                                                                                                                                                                                                                                                  O * d d t 9 9 9 0 t t t i L o.&.f.{.tXyXzXxXnXnXbXbXbXvXzX|.!.f.%.{ _ ) ) ) ) ) { { { | | %.t.%.9.9.m.m.N.N.V.A.A.H.H.H.H.).@X@X@X@X@X5X5X@X@X@X@XY.Y.Y.H.J.G.V.V.l.l.9.9.6.7.[ [ / ^ Q W U U U K K C C V B M M M M n n n v v v v v r r 6 6 6 6 6 5 5 5 5 6 3 2 , 2 > > # @ # p 7 $                                                                                                                           ",
"                                                                                                                                                                                                                                                                                                                                    + p d u q 9 9 0 t t t i A X.$.:.'.|.yXzXxXvXnXbXbXbXnXzXyX[.~.&.%._ ) ) ) ) ) ) { { { | } 9.%.9.9.t.m.m.m.N.V.A.H.H.H.H.H.@X@X@X@X5X5X5X5X@X@XY.Y.H.H.H.J.J.V.V.l.l.9.9.6.7.[ [ ^ ^ W W U E U K K C C V B M M M M n n n v v v v v r r 6 6 6 6 6 6 5 5 5 5 3 3 2 2 , > > # # 7 f 7                                                                                                                           ",
"                                                                                                                                                                                                                                                                                                                                    O : g d q 9 9 0 t t t i A L o.:.~. XyXzXxXvXnXbXbXbXnXxXgX[.~.u.%._ ) ) ) ) ) ^ ^ [ { | | 7.%.7.9.9.m.m.m.N.V.V.A.H.H.H.H.).@X@X@X@X@X@X@XY.Y.Y.H.J.H.J.J.G.V.V.l.l.q.9.6.7.] / ^ ^ W U U E U K K C C V V M M M n n n n b v v v v r r r e 6 6 6 6 6 5 5 5 5 3 2 2 2 < > # # # f p X                                                                                                                         ",
"                                                                                                                                                                                                                                                                                                                                    . * g d 0 9 9 9 t t t i i L o.&.~.{.yXhXzXxXnXnXbXbXbXvXzX X!.u.%._ ) ) ) ) ) ^ ^ [ { | | | %.%.9.9.t.m.m.N.V.A.A.H.H.H.H.H.H.@X@X@X@X@X@XY.H.H.J.J.J.J.J.G.V.x.l.l.q.9.7.] [ ^ ^ ! W U U E U E K C C V V B M M n n n n b v v v m v v r r r 6 6 6 6 6 6 5 5 3 2 2 2 2 < < % # p f &                                                                                                                         ",
"                                                                                                                                                                                                                                                                                                                                    . @ s d t q 9 9 0 t t i i A X.$.:.'.tXyXzXxXnXnXbXbXbXnXzX|.[.~.%._ ) ) ) ) ) ^ ^ ^ [ { | | | %.7.9.9.m.m.m.V.V.A.H.H.H.H.H.H.H.Y.H.H.H.H.H.H.H.J.J.J.J.G.V.V.x.l.l.9.9.7.7.[ ^ ^ ^ W U E E E E K K C V V B M M M n n n n v v m m v v v r r r r 6 6 6 6 6 5 5 5 3 2 2 2 < < # 4 f p o                                                                                                                       ",
"                                                                                                                                                                                                                                                                                                                                      O q g d 0 9 9 0 t t t i A ..$.:.'. XyXzXzXvXnXnXbXbXnXxXyX[.~.&.{ _ ) ) ) ^ ^ ^ ^ ) { { | | } 7.9.9.l.m.m.N.V.A.A.A.H.H.H.J.H.H.H.H.H.H.H.H.H.J.J.G.G.V.V.x.l.l.w.9.6.7.7.] / ^ W W U E U E K K K C V V B B B n n n n n v v v m m v v r r r r r 6 6 6 6 6 6 6 3 2 2 2 < < & & & g $                                                                                                                       ",
"                                                                                                                                                                                                                                                                                                                                      O * g d 0 9 9 0 t t t i A L o.:.~.{.yXhXzXxXnXnXbXbXnXxXgX X!.u.%._ ) ) ) ^ ^ ^ ^ ^ { { { | } | 9.9.9.9.m.m.N.V.A.V.G.H.J.J.H.H.H.H.H.H.J.H.J.J.G.V.V.V.V.x.l.l.w.6.6.7.5.[ / ^ W W E E E K K K K C V V B B B M n n n n n v v m m v v v v v v v r r 6 6 6 6 6 5 2 2 2 2 < < # X F 7                                                                                                                       ",
"                                                                                                                                                                                                                                                                                                                                      . @ d d 0 9 9 0 t t t i i L o.&.f.'.tXyXzXxXvXnXnXbXbXvXzX|.!.f.%._ ) ) ) ^ ! ! ^ ^ ^ { { | | | 7.9.9.9.l.m.m.N.V.V.V.G.G.J.J.J.J.H.H.J.J.J.G.G.V.V.V.V.V.x.l.w.w.6.5.7.] / / ^ W W E E E K K K C C V V V B B M n M n n n n n v m m m v v v v v v v r r 6 6 6 6 3 3 3 2 < < & $ f f &                                                                                                                     ",
"                                                                                                                                                                                                                                                                                                                                        O p d u 9 9 0 t t t i i A X.$.:.'. XyXzXzXvXnXnXbXbXvXzXyX[.~.%.{ _ ) ) ^ ! ! ^ ^ ) ^ { } | | | 7.9.9.9.l.m.m.N.V.V.V.V.V.V.J.J.J.H.J.J.G.G.V.V.V.V.V.x.l.l.w.6.6.5.[ ] / ^ W W W E E E K K K K C C V V B B B B B B M M n n n m m m b b v v v v v r r r e 6 6 6 5 3 2 2 < % # 7 g =                                                                                                                     ",
"                                                                                                                                                                                                                                                                                                                                        O * d d 9 9 0 0 t t t i A L o.:.~.{.yXhXzXvXnXnXnXbXnXxXgX{.~.u.%._ ) ! ^ ^ ^ ^ ^ ) ^ { | | | | | 7.9.9.9.l.m.m.m.V.V.V.V.G.V.V.V.V.V.V.V.V.V.V.x.x.c.c.l.w.w.6.5.5.[ / / ^ W W U E E E E K K K K C Z Z V V V V V V B B B M n n n m n b v v v v v v r r r r 6 6 5 3 3 2 < % & @ F 7                                                                                                                     ",
"                                                                                                                                                                                                                                                                                                                                        O + d d 0 9 0 0 0 t t i d L o.&.~.{.tXyXzXxXvXnXnXbXbXvXhX X!.u.%._ ) ) ^ ! ^ ! ! ^ ) ) { | | | | 7.7.9.9.9.l.m.m.m.V.V.V.V.V.V.V.V.V.V.V.V.V.x.x.c.l.l.w.w.6.5.5.5.[ / ^ W W W U E E E E K K K K K K J J Z Z C C C V B B B B n n n n n b b b v v v v r r r 6 6 5 5 2 2 < % & @ f p $                                                                                                                   ",
"                                                                                                                                                                                                                                                                                                                                        O o p d t 9 9 0 0 t t t i A X.$.:.'.|.yXzXzXvXnXnXbXbXvXzX|.[.f.%._ ) ) ) Q ! ^ ! ! ^ ) { { { { | | 7.7.9.9.9.l.m.m.m.m.V.V.V.V.V.V.V.x.x.l.l.l.l.l.w.w.6.6.5.5.5.5.[ / / ^ W W W U E E U U E E E E E Y J J J C C C C C B B B M n n M n n n b b b v v v r r 6 6 5 5 2 2 < < % # p f =                                                                                                                   ",
"                                                                                                                                                                                                                                                                                                                                          o ; d u 9 9 0 0 0 t t i A L $.:.'. XyXhXzXvXnXnXnXbXvXzXyX[.~.u.%.) ) ) ) ! ! ! ! ! ) ) ^ { { | | 7.7.7.9.9.9.m.m.m.m.l.l.l.l.l.l.l.l.l.l.w.w.w.w.6.6.5.5.5.5.5.5.[ / / ^ W W W W W W U U E E E T T T Y Y J K C C C C C B B B B B M n n n b b v v v v v r 6 6 6 5 2 2 2 < % & & f 7                                                                                                                   ",
"                                                                                                                                                                                                                                                                                                                                          O + d d 9 9 0 0 t t t i d L o.:.~.{.tXgXzXxXvXnXnXnXvXxXgX X!.u.%._ ) ) Q ! ! ! ! ! ! ) ) ^ ^ { | | 7.7.7.9.9.q.q.l.l.l.l.l.l.l.w.w.w.w.w.w.6.6.5.5.5.5.5.5.5.5.5.[ [ [ / ^ ^ ^ ^ W W W W R R R U U E T Y E E K C C C C C B B B M n n n n n b b v v v r r r 6 6 5 2 2 2 < % & & f p o                                                                                                                 ",
"                                                                                                                                                                                                                                                                                                                                          O o d d 0 9 q 0 t t t u i L X.&.f.'.|.yXzXxXvXnXnXnXnXxXgX|.!.f.%._ _ ) ! Q ! ! ! ! ! ^ ) ^ ^ { ] | ] | 7.7.7.9.9.9.9.w.w.w.w.6.6.6.6.6.6.6.6.5.5.5.5.5.5.5.5.5.5.5.[ [ ] [ / / / ^ W W W Q Q W U U U E E E E E E E C C C V B B B M n n n n b b v v v r r r 6 6 3 2 2 2 < < < & p f =                                                                                                                 ",
"                                                                                                                                                                                                                                                                                                                                            O q d u 9 9 0 t t t u i A ..$.:.'. XyXhXzXxXvXnXnXnXvXhX|.[.~.&.%._ Q Q Q R ! ! ! ! ! ^ ^ ^ ^ ^ ] | ] | 7.7.7.5.5.5.6.6.6.6.6.6.6.6.6.6.6.5.5.5.5.5.5.6.6.6.6.6.5.5.5.[ ] [ ] ] / / ^ ^ ^ ~ ~ W W W W U E E E E E C C C C B B B B n n n n b b v v v r r r 6 6 6 5 2 2 < < & & 7 f 7                                                                                                                 ",
"                                                                                                                                                                                                                                                                                                                                            O * d d 9 9 0 t t t u i A L o.:.~.{.tXgXzXxXvXnXnXnXvXxXyX[.~.u.%.) Q Q Q Q R ! ! ! ! Q Q Q ^ ^ ^ ^ ] ] ] ] ] ] 5.5.5.5.5.5.5.6.6.6.6.6.6.5.5.6.6.w.w.w.w.w.6.6.6.6.6.5.5.[ ] ] ] [ / / / ^ ^ ~ W W W W U E E E E C C C C V V B B n n n n b b v v v v r r 6 6 6 5 2 2 < < & # & g p X                                                                                                               ",
"                                                                                                                                                                                                                                                                                                                                            O + d d 0 9 q 0 t t t i A L o.&.f.[.|.yXzXxXvXvXbXbXnXvXgX X!.u.%._ _ Q Q R R ! ! ! W W Q Q W Q ~ ^ ^ / / / [ [ [ [ 5.5.5.5.5.6.6.6.5.6.6.6.w.w.w.w.w.w.w.w.w.w.w.w.6.9.6.6.5.5.5.5.] ] ] / / / / W W W W W U E E E C C C V V B B M n n n b b b v v v v r r y 6 5 3 3 2 < % & @ f f &                                                                                                               ",
"                                                                                                                                                                                                                                                                                                                                            O + p d u q 9 9 t t t i i A X.$.:.'. XyXgXxXvXvXbXnXbXvXhX|.!.f.%._ _ _ Q R R R ! W W W ! ! W W W W ! ^ ^ / ] [ [ [ 5.5.5.5.6.6.5.6.6.w.w.w.w.w.w.l.l.l.l.l.l.l.l.w.w.9.9.9.6.6.6.5.5.5.5.] ] / / / W W W U U E E E K C C C V B B M M n n b b b b v v r r r 6 6 5 2 2 2 < < % % 7 f =                                                                                                               ",
"                                                                                                                                                                                                                                                                                                                                              O q d d q 9 9 t t t u i A L o.:.!.{.tXyXzXvXvXbXbXbXvXzXtX[.~.&.} ) _ Q Q R W W W W W W W W W W W ! ^ ^ / ] [ [ [ 5.5.5.5.6.6.6.w.w.w.w.w.l.l.l.z.z.z.x.x.z.z.z.l.l.l.l.q.w.6.6.6.5.5.7.5.] ] / / / W W W U U E E K K C C V V B M M M n n b b v v r r r r e 6 5 2 2 2 < < & & & f 7                                                                                                               ",
"                                                                                                                                                                                                                                                                                                                                              O * d d 9 9 q 0 t t t i A L X.&.~.{.tXgXzXcXvXbXbXbXbXxXgX[.~.u.%._ ) Q Q R R W W W W W W W W W W ^ ^ ^ / / ] ] ] 5.5.5.6.6.w.w.w.w.w.l.l.z.l.z.x.x.x.x.x.x.x.x.z.z.l.l.l.w.w.w.6.5.5.7.7.5.] ] / ^ / W W U U E E E K K C C V B B M M n n b b b v r r r e 6 6 5 3 2 2 < < % & @ h 7 o                                                                                                             ",
"                                                                                                                                                                                                                                                                                                                                              . + s g u q 9 9 t t t i A L X.$.~.{.tXhXzXcXvXbXMXMXbXvXhX X!.u.%._ ) ! Q R R W W W W W W W W W W ^ ^ ^ [ ] ] [ 7.5.6.6.w.w.w.w.w.l.l.l.z.x.x.x.x.x.v.G.v.x.x.x.x.x.x.l.l.l.w.9.9.9.9.5.7.5.5.] ] / / W W W U R E E K K C C V B M M M n n b b v v r r r r e 6 6 3 2 2 < < % & @ p p &                                                                                                             ",
"                                                                                                                                                                                                                                                                                                                                                O p g d 9 q 9 t t t i N L P $.~.{.tXhXzXcXvXbXbXMXbXbXzX|.!.f.%._ ) ) ! R W W W W W W W W W W W ^ ^ [ ] ] ] ] 7.6.6.9.w.w.l.l.l.z.x.x.x.x.v.G.G.G.G.G.G.v.v.x.x.x.x.x.l.l.l.l.q.w.9.9.7.7.7.] ] ] / ^ ^ W W R U E E K C C V Z M M n n n b b b v v r r r e 6 5 3 2 < < % % & @ = f =                                                                                                             ",
"                                                                                                                                                                                                                                                                                                                                                o * g F 0 9 q 0 t t u i A L $.~.{.tXhXzXcXvXbXMXMXMXbXcXgX[.f.&._ ) ) ! R W W W W W W W W W W ^ / / [ ] | ] | 7.9.9.q.l.l.l.x.x.x.x.x.G.G.G.G.G.G.G.G.G.G.G.v.x.x.x.x.x.x.l.l.l.q.9.9.9.7.7.7.] ] ] / ^ ^ Q Q U E E K K C V V M M n n n b b b v v r r r r 6 5 3 2 < < # % & @ @ g =                                                                                                             ",
"                                                                                                                                                                                                                                                                                                                                                . o s ..u 0 0 9 t t t i i L o.f.{.tXhXcXvXvXbXMXZXZXMXvXhX}.~.u.%._ ) ! R R W W W W W W W W W / / / ] | 7.| 7.9.9.l.l.l.x.x.x.x.G.G.G.G.J.J.J.J.J.J.J.G.G.G.G.n.v.v.x.x.x.l.l.l.l.9.9.9.9.7.7.7.] ] ] / ^ W W U E E K C C V V B M n n n b b v v r r r r r 5 5 3 2 < > # # & @ @ f 7 $                                                                                                           ",
"                                                                                                                                                                                                                                                                                                                                                . o p ..d 0 0 0 t t t i i A o.:.{.tXhXcXvXvXbXMXMXZXMXvXhX|.!.u.%._ ) ! ! R W W W W W W ! ! ^ / ] [ | | 7.9.9.9.l.l.m.V.V.G.G.G.G.J.J.J.J.J.J.J.J.J.J.J.J.G.G.G.G.G.v.x.x.x.l.l.l.q.9.9.9.7.5.7.5.] ] / / W W W U U K K C V V M M n n b v v v v r r r r 6 6 3 3 < < > # # # @ @ 7 p $                                                                                                           ",
"                                                                                                                                                                                                                                                                                                                                                  o = F ..t 9 0 0 t t i i A X.:.'.tXhXcXcXvXmXMXMXZXMXvXzXtX!.u.%.{ ) ) ! R W ! W W W W ^ ^ / [ ] ] | | 7.9.9.l.l.m.V.V.G.G.G.J.J.J.J.J.J.Y.Y.Y.Y.Y.Y.Y.Y.b.G.G.G.G.G.x.x.x.l.l.l.l.w.9.9.9.5.7.5.] ] / / W W W U U K C C V V M M n n n v v v v v r r r 5 5 3 2 < < # # # # @ @ * g $                                                                                                           ",
"                                                                                                                                                                                                                                                                                                                                                  . * d @.u 0 9 0 t t i i A P &.'.tXhXcXcXvXmXMXMXMXMXbXxXyX[.f.%.{ ) ) ! R W W W W W ^ ^ / [ ] ] ] | 7.9.9.l.l.m.N.V.V.G.J.J.J.J.J.J.J.E.E.E.E.Y.Y.Y.Y.Y.Y.b.b.n.G.G.V.V.x.x.l.l.l.w.9.9.9.7.7.7.] ] ] / ^ W W U E K C C V B M M n n b v v v v v r r 5 5 5 3 2 < < # # # & @ @ o g &                                                                                                           ",
"                                                                                                                                                                                                                                                                                                                                                  . o s @.A t 9 9 t t i i A L $.!.tXhXcXcXvXMXMXMXMXMXbXvXgX[.f.%._ ) ) ! ! W W W W W ^ / [ [ ] ] | 7.7.9.l.l.m.N.V.V.V.J.J.J.J.J.J.Y.Y.E.E.E.E.E.E.Y.Y.Y.Y.b.b.G.G.G.G.x.x.x.l.l.l.l.9.9.9.9.5.7.] ] ] / ^ W W U E K C V V M M M n n b v v v v r r 5 5 5 5 4 2 < < # # # @ @ @ o h 7 o                                                                                                         ",
"                                                                                                                                                                                                                                                                                                                                                  . o p ....t 9 t t t i i A L $.'.yXzXcXcXvXMXMXMXMXMXMXvXgX X~.%._ ) ) ! ! W W W W ^ ^ [ ] ] | | 7.7.9.9.l.m.m.N.V.V.G.J.J.J.J.Y.Y.E.E.E.E.E.E.E.E.T.Y.Y.Y.b.G.G.G.G.v.x.x.x.l.l.l.l.9.9.9.9.5.7.5.] ] [ ^ W W U E K C V B M M M n n b b v v v r r 5 5 5 5 3 < < # # @ $ @ @ @ o 7 h X                                                                                                         ",
"                                                                                                                                                                                                                                                                                                                                                    . = F @.t 9 t t t i i A L $.'.iXcXcXcXvXMXMXMXNXNXMXbXhX X~.&._ ) ) ! ! W W W W ^ / [ ] | | | 7.7.9.9.l.m.m.V.V.G.J.J.J.J.J.Y.E.E.E.E.E.E.E.E.E.Y.Y.Y.Y.b.G.G.G.G.v.x.x.V.x.l.l.l.w.9.9.9.6.5.5.] ] [ ^ W W U U K C V B M M n n n n n v v v r r e 5 3 3 < < # # @ X X @ @ @ o = g X                                                                                                         ",
"                                                                                                                                                                                                                                                                                                                                                    . * g +.u 0 t t t i i A L $.'.hXcXcXvXvXMXNXNXNXNXZXbXzX|.~.&._ _ ) ! ! ! W W ! ^ / [ ] | | 7.7.7.9.9.l.m.m.V.V.G.J.J.J.J.J.Y.E.E.E.E.E.E.E.E.E.E.T.Y.Y.b.G.G.n.G.n.v.V.V.x.l.l.l.l.9.w.9.6.5.5.[ [ ] / ^ W W U K Z V B M M M N N m m m v v r e 5 2 2 < < % # $ @ X X X X o X & p -                                                                                                         ",
"                                                                                                                                                                                                                                                                                                                                                    . * g @.d 0 t t t i i d L $.{.hXzXvXvXvXMXNXNXNXNXZXMXxXtX!.&.%._ ) ! ! ! W W ! ^ [ [ ] | | 7.7.9.9.9.l.m.m.V.V.G.J.J.J.J.J.Y.E.E.E.E.E.E.E.E.E.E.T.T.Y.Y.b.G.n.G.n.v.V.V.V.x.l.l.l.w.w.6.6.6.5.5.] ] [ ^ ! W U K C V B M M M N m m m m r r e 5 2 2 < < % # @ $ @ X X X X X . - 7 &                                                                                                         ",
"                                                                                                                                                                                                                                                                                                                                                    . * d @.A 0 t t t i u d A $.{.zXcXvXvXvXMXNXNXNXMXMXMXvXyX[.u.%.) ) ! ! ! W ! ! ^ [ [ [ | | | 7.9.9.9.l.l.m.V.V.G.J.J.J.J.J.Y.E.E.E.E.E.E.E.E.E.E.T.T.Y.Y.b.b.G.n.G.v.v.V.x.x.l.l.l.w.w.9.9.6.7.7.] | | ^ ! R T K C V V M M N N m y r e e 5 3 2 < < # # # @ @ X X X X X X . . o p -                                                                                                         ",
"                                                                                                                                                                                                                                                                                                                                                    X * s +.A 0 0 t t u u d A $.{.hXvXvXvXvXMXMXNXNXNXMXZXbXhX[.f.%.) ) ! ! ! W ! ! ^ / [ ] ] | | 7.9.9.9.l.l.l.m.V.V.G.J.J.J.J.Y.E.E.E.E.E.E.E.E.E.E.E.Y.Y.b.b.b.G.n.G.G.G.G.V.x.l.l.l.l.9.9.9.6.7.7.7.| | ) Q T J K V M M M b b r e e 5 5 3 2 2 < % # # @ X X X X X X X . . . . . h $                                                                                                         ",
"                                                                                                                                                                                                                                                                                                                                                    o * d @.A t 0 t t u u d A +.'.hXvXvXcXvXmXMXNXNXNXMXMXbXzX X~.%._ ) ! ! ! ! ! ^ ^ / / [ ] | | 7.7.9.9.9.l.l.l.x.V.G.G.J.J.J.Y.E.E.E.E.E.E.E.E.E.E.E.Y.Y.Y.Y.Y.b.G.G.G.G.G.x.x.x.l.l.l.w.9.9.7.7.7.| { ) ! K J J B n n b r r e 5 3 3 2 2 < < % # # @ X X X X X X X . . . . . . X 7 &                                                                                                         ",
"                                                                                                                                                                                                                                                                                                                                                    . * s ..A 0 0 t t u u u A X.'.kXvXvXcXvXvXMXMXNXNXMXMXMXxX|.!.&._ ) ! ! ! ^ ! ! ! ^ ^ / ] ] | | 7.7.9.9.l.l.l.x.V.G.G.J.J.J.Y.E.E.E.E.E.E.E.E.E.E.E.T.T.T.T.T.Y.G.G.G.G.G.V.x.x.x.l.l.9.9.9.7.7.| ^ ! T K K B M b r r e e 5 3 3 2 < < > > # # @ @ X X X X X X X . . . . . . . X = = .                                                                                                       ",
"                                                                                                                                                                                                                                                                                                                                                    . @ s O.F q 0 t t t u u d ..f.yXcXcXcXcXvXvXMXMXMXMXMXMXvXyX[.&._ _ ! ! ! ^ ! ! W ^ ^ [ [ | | | 7.9.9.9.l.l.l.N.V.V.G.G.J.J.Y.Y.E.E.E.E.W.W.E.W.W.W.W.E.E.T.T.T.Y.Y.Y.J.G.G.V.x.x.l.l.9.9.7.] ^ U K K K V M b y r e e 3 3 3 2 < % # # # # @ @ @ X X X X X X . . . . . . . . . . = =                                                                                                         ",
"                                                                                                                                                                                                                                                                                                                                                    . o s @.F q 9 0 t t u t d ..:.tXcXcXhXcXcXvXvXvXMXMXMXbXvXgX[.f._ _ ! ! ! ^ ! ! ! ! ^ ^ [ ] | | 7.7.9.9.l.l.l.l.x.V.G.G.J.J.Y.Y.E.E.E.W.W.W.W.W.W.W.W.W.W.W.W.W.E.Y.Y.G.G.v.x.l.l.q.9.7.[ W W U K K V M n y r e e 3 3 2 < < % # # @ # @ @ @ X X X X X X X X . . . . . . . . . . & -                                                                                                         ",
"                                                                                                                                                                                                                                                                                                                                                    . o p O...t 9 0 y t t t u A +.{.hXhXhXhXzXcXcXvXvXvXbXbXvXhX{.f.$._ ! ! ! ! W W ! ! ^ ^ [ ] | | | 7.9.9.9.l.l.l.x.V.G.G.J.J.J.Y.E.E.E.W.W.0X0X0X0X0X0X0X0XW.W.E.Y.G.n.v.x.z.l.6.5.[ [ ^ W U E K K V M n y r e 9 3 2 < < % % # # @ @ $ $ X X X X X X X X X . . . . . . . . . . . O -                                                                                                         ",
"                                                                                                                                                                                                                                                                                                                                                    . o 4 g ..t 0 0 y t t t u d X.'.iXhXiXhXhXhXzXcXcXvXvXvXvXhX X~.%._ ! ! ! ! ! W ! W ! ^ [ ] ] | | 7.7.9.9.l.l.l.x.V.G.G.G.J.J.T.E.E.W.W.W.0X0X0X0X0X0X0XW.E.Y.G.n.x.z.z.k.6.[ [ [ ^ W W W E K K Z B n y r e 3 2 2 1 % % # # # @ @ X X X X X X X X X . X . . . . . . . . . . . . O $                                                                                                         ",
"                                                                                                                                                                                                                                                                                                                                                      X = g ..t 0 0 0 y y y t u ..g.tXhXyXyXgXhXhXhXzXzXxXxXxXhX X~.%.) Q ! ! ! ! ! W ! ! ! ^ [ ] | | | 7.9.9.l.l.l.l.x.V.G.G.J.J.Y.E.E.W.0X0X0X0X0X0X5XW.Y.G.G.v.x.z.k.6.6.6.[ [ [ ^ ^ W W U E J V V N y r e 3 3 2 2 < % # # # @ @ X X X X X X X X . . . . . . . . . . . . . . . . . o                                                                                                         ",
"                                                                                                                                                                                                                                                                                                                                                      . @ d ..u 9 0 0 y y y t i A :.{.tXtXtXyXyXgXgXhXhXhXzXzXgX|.~.&._ ! Q ! ! ! W W ! ! ! ^ [ [ ] | | 7.9.9.9.l.l.l.x.V.G.G.J.J.Y.E.E.W.W.0X5XW.E.Y.J.G.x.x.z.z.k.w.6.6.6.[ [ ] [ ^ ^ ! T K J V N m y e e 3 3 < < % # # # @ @ @ X X X X X X X X . . . . . . . . . . . . . . . . . . .                                                                                                         ",
"                                                                                                                                                                                                                                                                                                                                                      X @ p F d 9 0 0 y y e y y d o.'. XtX X|.|.tXtXyXgXgXgXgX2X X!.u._ ! Q ! R W W W ! ! ! ^ ^ [ ] | | 7.6.9.9.l.l.l.x.V.G.G.J.J.Y.Y.E.E.E.E.Y.J.G.v.x.x.z.z.l.k.w.6.6.6.6.5.[ ] [ ^ ! T J K B N r y e 3 3 2 < % # # # @ @ @ @ X X X X X . . . X . . X X X X . . . . . . . . . . . .                                                                                                           ",
"                                                                                                                                                                                                                                                                                                                                                      . @ q d d q 9 9 y y e y y y P f.'.{.[.{. X X X|.|.|.|.|.|.[.!.u.{ ! R Q R W W W ! ! ! ^ ^ [ ] ] ] 7.7.6.9.l.l.l.x.V.G.G.J.J.J.J.J.J.G.G.G.x.x.x.l.x.l.l.k.w.6.6.6.6.6.7.| { ) ! K J B M y e e 3 3 2 < % % % # # @ @ X X X X X X X . . . X X X X o o X X . . . . . . . . . . . .                                                                                                           ",
"                                                                                                                                                                                                                                                                                                                                                      . o 4 d d 9 9 9 9 e e y y y A $.f.!.!.!.[.[.[.[. X X X X[.[.!.u.%._ Q Q R W W W ! ! ^ ^ [ [ ] ] ] 7.7.6.9.9.l.l.x.V.V.V.G.G.G.G.G.x.x.x.x.x.x.l.l.l.l.l.w.6.6.6.6.6.] ] { ! T K V M y r e 3 2 2 < % % % % # @ @ @ X X X X X X X X X X X $ $ $ $ o o X X . . . . . . . . . . .                                                                                                             ",
"                                                                                                                                                                                                                                                                                                                                                      . o = p u 9 9 9 e y e e y y N X.:.f.~.~.!.!.!.[.[.[.[.[.[.!.~.u.%.) Q Q R W ! W ^ ^ ^ ^ [ [ [ ] ] ] 7.6.9.9.l.l.l.l.x.x.x.x.x.l.l.l.l.x.x.l.l.l.l.l.l.w.w.6.6.9.7.] ^ ! U K K N b r e 9 3 2 < % % % # # @ @ @ X X X X X X X X $ $ $ * & & & * $ X X . . . . . . . . . . . . .                                                                                                             ",
"                                                                                                                                                                                                                                                                                                                                                        o * q t 0 9 9 9 e e e y y y P $.:.f.f.f.~.~.!./.!.!.!.!.~.M.u.%.) R R R W W Q ^ ^ ^ ^ [ [ [ ] ] ] ] 7.7.9.9.9.l.l.l.l.l.9.l.l.l.l.l.l.l.l.l.l.l.l.l.w.9.9.9.7.[ ! K K K N i y y 9 3 2 2 < % % % @ @ @ @ @ X X X X X X X $ & & = = & & * @ o X . . . . . . . . . . . . . . .                                                                                                             ",
"                                                                                                                                                                                                                                                                                                                                                        . @ q t q 9 9 9 e e e e y y A o.&.&.&.&.u.f.~.~.~.~.~.~.~.u.t.{ ! R R W W ! ^ ^ ^ ^ ^ ^ ^ [ [ ] ] ] | | 7.7.7.9.7.| 7.7.7.7.9.9.6.6.9.9.9.q.l.l.l.l.q.q.9.7.! K K K N y y 0 9 9 1 1 < % % # @ @ @ @ @ @ @ @ @ @ @ # % & & 4 4 4 & @ o o X . . . . . . . . . . . . . . . .                                                                                                               ",
"                                                                                                                                                                                                                                                                                                                                                        . @ q q q q 9 9 e e e e y y N P $.&.&.&.&.&.u.u.u.u.M.M.u.u.t.{ ! ! ! ! ! ! ^ ) ^ ^ ^ ! ! ^ ^ [ [ | | | | | | ] [ [ [ [ [ [ [ [ [ [ [ [ 9.l.m.m.m.m.m.9.| ) K N y y e 9 9 1 2 1 % % % # # # @ @ @ @ @ @ @ % % & 4 4 4 4 & & @ @ o X . . . . . . . . . . . . . . . . . .                                                                                                                 ",
"                                                                                                                                                                                                                                                                                                                                                        . o = q q q 9 9 9 e e e 0 y y P P $.$.$.%.&.&.u.u.u.u.u.u.t.%.{ ! ! ! ! ! ! ! ! ! ! R R R ! ! ^ ) ) ) ) { { ) ) ^ ! W W ! W W W W [ 7.9.m.m.m.m.q.7.{ ! I K N y e 9 1 1 1 1 % % % % @ @ @ # @ @ @ @ % % & & 4 4 4 & % @ @ X X X . . . . . . . . . . . . . . . . . . .                                                                                                                   ",
"                                                                                                                                                                                                                                                                                                                                                          X * q q q 9 9 9 9 e e 0 e y N P X.$.$.$.%.%.%.&.p.t.t.t.r.%.{ ) ! ! R T U K T T T T T T T Q Q Q Q ! ) ) ) ! ! ! ! W K K K ! { | 9.m.B.m.9.| ^ ! K V M y y e 9 1 1 1 < % % % % @ @ @ @ @ @ # # % % & & % % % # @ @ X X . . . . . . . . . . . . . . . . . . . .                                                                                                                         ",
"                                                                                                                                                                                                                                                                                                                                                          . @ q q q 9 9 q 9 9 9 e e r y N P ( _ _ $.%.%.%.%.%.%.r.%.%.` ) Q T T K K K K K J J J P P J J K K K J J T T T R R ! ! ) { } t.y.t.7.{ ! K K M N y y e 9 9 1 1 % & % % * % # @ @ @ @ @ @ @ @ # % % @ @ @ @ o X X X . . . . . . . . . . . . . . . . . . . . .                                                                                                                           ",
"                                                                                                                                                                                                                                                                                                                                                          . o 4 q q q q q 9 1 3 9 e y y N S P ( _ _ $.%.%.%.%.%.%.%.%._ _ Q T K J K K K K K J J P P P K J J K J J J T T _ _ _ %.r.%.{ ) ! K K M y y y 0 9 9 3 1 1 1 1 % % % % % @ @ @ @ @ @ @ @ @ @ @ @ @ o o X X X . . . . . . . . . . . . . . . . . . . . . . .                                                                                                                               ",
"                                                                                                                                                                                                                                                                                                                                                            o & q q q q q 1 1 3 3 9 y y y N P P ( _ _ %.%.%.%.%.%.%.%.} _ ( J J K K V V V V N N N V V V V V J P P P P _ _ _ _ P K K N N y y y y e 9 3 1 1 1 % % * * % @ @ @ @ @ @ @ @ @ @ $ $ @ o o X X X X . . . . . . . . . . . . . . . . . . . . . . . .                                                                                                                                     ",
"                                                                                                                                                                                                                                                                                                                                                            . $ q q q q q 1 1 1 3 9 e y y N N P P ( _ _ $.%.%.%.%.%.%.%._ ( P P K V N N N N N N N N N N N N S P P P P P N N b y e e e 0 e 9 9 1 1 % * % % % @ @ @ @ @ @ @ @ @ @ @ X $ X X X X X X . . . . . . . . . . . . . . . . . . . . . . . . . . .                                                                                                                                         ",
"                                                                                                                                                                                                                                                                                                                                                            . @ 4 q q 9 9 1 1 1 3 9 9 y y i N N P P _ _ _ %.%.%.%.%.%.&.$.( P P N N N N m i y b b b i i m N N N i y y y e 3 3 3 3 1 1 1 < < % % % @ @ @ @ @ @ @ @ @ @ @ o o X X X X X X X X . . . . . . . . . . . . . . . . . . . . . . . . . . .                                                                                                                                               ",
"                                                                                                                                                                                                                                                                                                                                                            . o = q 9 9 9 q 4 1 1 3 9 y y y i N P P P ( $.%.%.%.&.%.%.&.$.o.P S A N i y y y y y y y y y y y y e e 3 1 1 1 2 1 < % % % % # # # @ @ @ @ @ @ @ @ o o o o o X X X X X X . . . . . . . . . . . . . . . . . . . . . . . . . . . . .                                                                                                                                                   ",
"                                                                                                                                                                                                                                                                                                                                                              X * q q 9 9 1 4 1 1 3 9 y y y y i N S P P $.$.&.&.&.&.&.&.$.$.X.S A A y y y e e e y e e e 9 3 1 1 1 1 4 < < % % % @ @ # @ @ @ @ @ @ @ @ @ @ o o o o o X X . . . . . . . . . . . . . . . . . . . . . . . . . . . . . . . .                                                                                                                                                         ",
"                                                                                                                                                                                                                                                                                                                                                              . o q 9 9 9 1 4 1 1 3 9 y y y y y i A A P X.$.$.&.&.&.&.&.$.$.X.X.A A i y e e 9 3 3 3 3 1 2 1 4 4 & & & % % % # @ @ @ @ @ @ @ @ @ @ @ o X o o X X X . . . . . . . . . . . . . . . . . . . . . . . . . . . . . . . . .                                                                                                                                                             ",
"                                                                                                                                                                                                                                                                                                                                                              . o 4 q 9 9 1 1 1 1 9 9 9 9 y e y y i A A P $.$.$.&.$.$.$.$.$.o.X.A A s e 3 1 1 1 1 1 1 < < % % % % % % # @ @ @ @ @ @ @ X X X X X X X X X X X . . . . . . . . . . . . . . . . . . . . . . . . . . . . . . . . .                                                                                                                                                                   ",
"                                                                                                                                                                                                                                                                                                                                                                X * q 9 9 9 9 q 9 1 9 9 9 y e y y y i A A X.X.$.$.$.$.&.&.$.o.X.F d s 9 3 1 1 4 < < % % % % % % # @ @ @ @ @ @ @ @ X X X X X X X X X . . . . . . . . . . . . . . . . . . . . . . . . . . . . . . . . .                                                                                                                                                                           ",
"                                                                                                                                                                                                                                                                                                                                                                . o q 9 9 9 9 q 9 1 9 3 9 9 9 y y y y y A A A X.o.+.$.$.$.+.X...F s e 4 < 4 4 % % % % # # # @ @ @ @ @ @ @ @ o o o X X X X X X . . . . . . . . . . . . . . . . . . . . . . . . . . . . . . . . .                                                                                                                                                                                 ",
"                                                                                                                                                                                                                                                                                                                                                                  . 4 q 9 9 9 1 1 1 1 3 9 3 9 9 9 9 9 e t i A F X.@.+.+.+.@...F d s q 4 4 % % % % # @ @ @ @ @ @ @ @ $ $ $ o X o X X X X X . . . . . . . . . . . . . . . . . . . . . . . . . . . . . . . .                                                                                                                                                                                       ",
"                                                                                                                                                                                                                                                                                                                                                                  . * q q 9 9 1 1 1 1 3 3 3 3 9 3 3 3 1 9 t s d F ..X.X.X...F F d s p 4 4 % % % % @ @ @ @ @ $ $ $ $ $ o o X o X X X X . . . . . . . . . . . . . . . . . . . . . . . . . . . . . . .                                                                                                                                                                                             ",
"                                                                                                                                                                                                                                                                                                                                                                  X @ q q 9 1 1 1 1 1 3 3 3 1 3 3 3 1 1 9 q t s s A F F G F F g g s p 4 & % % % @ @ @ $ $ $ $ $ @ o o o X . . . . . . . . . . . . . . . . . . . . . . . . . . . . . . . . .                                                                                                                                                                                                     ",
"                                                                                                                                                                                                                                                                                                                                                                    . q q q q 1 1 1 1 1 3 1 3 3 3 1 1 1 4 4 q s s s s d F F g g s p 7 = & & & $ @ @ $ $ $ $ o o o o X . . . . . . . . . . . . . . . . . . . . . . . . . . . . . . . .                                                                                                                                                                                                           ",
"                                                                                                                                                                                                                                                                                                                                                                    . * q q q 9 1 1 1 1 1 1 1 1 1 1 1 1 4 4 4 4 q p s s s s s p p 7 7 & & & $ $ $ $ o o o o o X X X . . . . . . . . . . . . . . . . . . . . . . . . . . . . . .                                                                                                                                                                                                                 ",
"                                                                                                                                                                                                                                                                                                                                                                      o * q q 9 9 1 1 1 1 1 2 1 1 1 4 4 4 4 4 4 4 4 7 p p p 7 7 7 & & & & & $ $ o o o o X . X . . . . . . . . . . . . . . . . . . . . . . . . . . . . .                                                                                                                                                                                                                         ",
"                                                                                                                                                                                                                                                                                                                                                                      o + q q 9 9 1 1 1 1 2 1 1 1 1 1 1 4 4 4 4 & 4 4 4 4 4 & & & & & $ $ $ o X X X X X . . . . . . . . . . . . . . . . . . . . . . . . . . . . .                                                                                                                                                                                                                               ",
"                                                                                                                                                                                                                                                                                                                                                                        o q q q 9 9 1 1 1 1 1 1 1 1 1 1 4 & & % & & & @ & & $ $ $ o o o X X X O O X X O . . . . . . . . . . . . . . . . . . . . . . . . .                                                                                                                                                                                                                                       ",
"                                                                                                                                                                                                                                                                                                                                                                        o * q q q 9 1 1 1 1 1 1 1 % % % % % % % @ @ $ $ $ $ $ o o X X X X X X O O O X . . . . . . . . . . . . . . . . . . . . . .                                                                                                                                                                                                                                               ",
"                                                                                                                                                                                                                                                                                                                                                                          o p p q 9 1 1 1 1 1 % % * % % % @ @ @ $ @ o X X o X o X X X X X X X X X X X O . . . . . . . . . . . . . . . . .                                                                                                                                                                                                                                                       ",
"                                                                                                                                                                                                                                                                                                                                                                          . * p q q 1 % % % % % * @ @ @ @ @ o o o o o X X o o X X X X X X X X O O X . . . . . . . . . . . . . . . .                                                                                                                                                                                                                                                             ",
"                                                                                                                                                                                                                                                                                                                                                                            O * q q 4 * % & % % @ @ @ @ o o o o o o o X X o o X O X O - - - - - - X . . . . . . . . . . . .                                                                                                                                                                                                                                                                     ",
"                                                                                                                                                                                                                                                                                                                                                                              o * p q = = & * @ @ @ o o o o o o o o o X X o o - - - - - - - - o X . . . . . . . . .                                                                                                                                                                                                                                                                             ",
"                                                                                                                                                                                                                                                                                                                                                                              . + q p = = * $ @ @ o o o o o o o o o o O O o - - - - - - o X X . . . . . . . .                                                                                                                                                                                                                                                                                   ",
"                                                                                                                                                                                                                                                                                                                                                                                . = = = = * @ @ @ o o o o o o o o o o O X X o o - X X . . . . . . . .                                                                                                                                                                                                                                                                                           ",
"                                                                                                                                                                                                                                                                                                                                                                                  . + = & * $ $ $ o o X o o o o o o X X . . . . . . . . . .                                                                                                                                                                                                                                                                                                     ",
"                                                                                                                                                                                                                                                                                                                                                                                    O o + $ o o $ o o o o o X . . . . . . . . . .                                                                                                                                                                                                                                                                                                               ",
"                                                                                                                                                                                                                                                                                                                                                                                        O o . . . . . . . . . . . . . . .                                                                                                                                                                                                                                                                                                                       ",
"                                                                                                                                                                                                                                                                                                                                                                                              . . . .     .                                                                                                                                                                                                                                                                                                                                     ",
"                                                                                                                                                                                                                                                                                                                                                                                                                                                                                                                                                                                                                                                                                                                                                ",
"                                                                                                                                                                                                                                                                                                                                                                                                                                                                                                                                                                                                                                                                                                                                                ",
"                                                                                                                                                                                                                                                                                                                                                                                                                                                                                                                                                                                                                                                                                                                                                ",
"                                                                                                                                                                                                                                                                                                                                                                                                                                                                                                                                                                                                                                                                                                                                                ",
"                                                                                                                                                                                                                                                                                                                                                                                                                                                                                                                                                                                                                                                                                                                                                ",
"                                                                                                                                                                                                                                                                                                                                                                                                                                                                                                                                                                                                                                                                                                                                                ",
"                                                                                                                                                                                                                                                                                                                                                                                                                                                                                                                                                                                                                                                                                                                                                ",
"                                                                                                                                                                                                                                                                                                                                                                                                                                                                                                                                                                                                                                                                                                                                                ",
"                                                                                                                                                                                                                                                                                                                                                                                                                                                                                                                                                                                                                                                                                                                                                ",
"                                                                                                                                                                                                                                                                                                                                                                                                                                                                                                                                                                                                                                                                                                                                                ",
"                                                                                                                                                                                                                                                                                                                                                                                                                                                                                                                                                                                                                                                                                                                                                ",
"                                                                                                                                                                                                                                                                                                                                                                                                                                                                                                                                                                                                                                                                                                                                                ",
"                                                                                                                                                                                                                                                                                                                                                                                                                                                                                                                                                                                                                                                                                                                                                ",
"                                                                                                                                                                                                                                                                                                                                                                                                                                                                                                                                                                                                                                                                                                                                                ",
"                                                                                                                                                                                                                                                                                                                                                                                                                                                                                                                                                                                                                                                                                                                                                ",
"                                                                                                                                                                                                                                                                                                                                                                                                                                                                                                                                                                                                                                                                                                                                                ",
"                                                                                                                                                                                                                                                                                                                                                                                                                                                                                                                                                                                                                                                                                                                                                ",
"                                                                                                                                                                                                                                                                                                                                                                                                                                                                                                                                                                                                                                                                                                                                                ",
"                                                                                                                                                                                                                                                                                                                                                                                                                                                                                                                                                                                                                                                                                                                                                ",
"                                                                                                                                                                                                                                                                                                                                                                                                                                                                                                                                                                                                                                                                                                                                                ",
"                                                                                                                                                                                                                                                                                                                                                                                                                                                                                                                                                                                                                                                                                                                                                ",
"                                                                                                                                                                                                                                                                                                                                                                                                                                                                                                                                                                                                                                                                                                                                                ",
"                                                                                                                                                                                                                                                                                                                                                                                                                                                                                                                                                                                                                                                                                                                                                ",
"                                                                                                                                                                                                                                                                                                                                                                                                                                                                                                                                                                                                                                                                                                                                                ",
"                                                                                                                                                                                                                                                                                                                                                                                                                                                                                                                                                                                                                                                                                                                                                "
};
