/* XPM */
static char *_5ef097802424890f2d02b248775fce2FHTvMRWGOkTFuXQx[] = {
/* columns rows colors chars-per-pixel */
"360 546 256 2 ",
"   c None",
".  c #010301",
"X  c #050B02",
"o  c #0A0C03",
"O  c #0A0805",
"+  c #140C04",
"@  c #0C1303",
"#  c #0D1C02",
"$  c #0B1306",
"%  c #121404",
"&  c #121C03",
"*  c #131C0B",
"=  c #191809",
"-  c #191B12",
";  c #0B1013",
":  c #241B0A",
">  c #2A1A11",
",  c #0E2201",
"<  c #0E2A03",
"1  c #122403",
"2  c #1B2403",
"3  c #162A02",
"4  c #1A2D02",
"5  c #19240B",
"6  c #1C3303",
"7  c #1C3605",
"8  c #1C2513",
"9  c #1E3213",
"0  c #242B03",
"q  c #2B2C05",
"w  c #262709",
"e  c #223504",
"r  c #243C04",
"t  c #2A3608",
"y  c #33340C",
"u  c #35390A",
"i  c #272917",
"p  c #342B17",
"a  c #2A3518",
"s  c #383816",
"d  c #332C0A",
"f  c #2C3422",
"g  c #373925",
"h  c #312E24",
"j  c #443A1B",
"k  c #4D2F17",
"l  c #463A26",
"z  c #513728",
"x  c #59321E",
"c  c #264203",
"v  c #2B4403",
"b  c #2D4A03",
"n  c #2B460A",
"m  c #324C04",
"M  c #364809",
"N  c #355204",
"B  c #3A5405",
"V  c #3C5A05",
"C  c #3B5709",
"Z  c #3A4516",
"A  c #345015",
"S  c #3E620B",
"D  c #394627",
"F  c #3B4E2D",
"G  c #1E4404",
"H  c #435C0A",
"J  c #445B06",
"K  c #44461B",
"L  c #465817",
"P  c #50520A",
"I  c #456206",
"U  c #4A6506",
"Y  c #45630A",
"T  c #4B640A",
"R  c #4C6A0B",
"E  c #4B6A07",
"W  c #536B05",
"Q  c #536C0B",
"!  c #57690A",
"~  c #55720B",
"^  c #5B740B",
"/  c #59770A",
"(  c #4B6814",
")  c #5B6C14",
"_  c #586B18",
"`  c #5A7616",
"'  c #4D720D",
"]  c #637B0C",
"[  c #65780A",
"{  c #627415",
"}  c #647A1B",
"|  c #657917",
" . c #6F720D",
".. c #494726",
"X. c #4A5627",
"o. c #53582A",
"O. c #474936",
"+. c #585935",
"@. c #4F4E34",
"#. c #6E5033",
"$. c #5A6737",
"%. c #556A29",
"&. c #677A26",
"*. c #6A7134",
"=. c #645C12",
"-. c #525847",
";. c #59684E",
":. c #66775A",
">. c #6E704D",
",. c #6F7766",
"<. c #6D5B48",
"1. c #896E2F",
"2. c #90704F",
"3. c #98785B",
"4. c #5D8314",
"5. c #5C830E",
"6. c #6A8509",
"7. c #76890A",
"8. c #6C8313",
"9. c #678818",
"0. c #768A18",
"q. c #6B941A",
"w. c #77941B",
"e. c #79930B",
"r. c #79A61B",
"t. c #6A8624",
"y. c #768827",
"u. c #799826",
"i. c #758738",
"p. c #799835",
"a. c #6D8B2D",
"s. c #7CA427",
"d. c #7EA333",
"f. c #5C8830",
"g. c #7A8A4C",
"h. c #768769",
"j. c #788B6F",
"k. c #7EA042",
"l. c #878A0A",
"z. c #869719",
"x. c #909410",
"c. c #97A51A",
"v. c #8BAC19",
"b. c #B6B919",
"n. c #A8AC16",
"m. c #869928",
"M. c #879B34",
"N. c #8F952C",
"B. c #86A62B",
"V. c #98A728",
"C. c #88B728",
"Z. c #89A835",
"A. c #97A936",
"S. c #8CB436",
"D. c #95B73A",
"F. c #95B629",
"G. c #A9B427",
"H. c #B5BB2A",
"J. c #A8B639",
"K. c #A9B131",
"L. c #A59828",
"P. c #98C539",
"I. c #9AC72C",
"U. c #A5C839",
"Y. c #A8D539",
"T. c #B5C933",
"R. c #BBCF2A",
"E. c #C7C825",
"W. c #C5CA34",
"Q. c #CED238",
"!. c #C1C51E",
"~. c #859649",
"^. c #899956",
"/. c #8B8E54",
"(. c #AA8B58",
"). c #99BA43",
"_. c #90AA53",
"`. c #A7BA45",
"'. c #B2BC47",
"]. c #879779",
"[. c #8E916E",
"{. c #AF926F",
"}. c #98A767",
"|. c #9BA676",
" X c #96B071",
".X c #A8B679",
"XX c #A5AB75",
"oX c #C5A373",
"OX c #9CC646",
"+X c #9BC154",
"@X c #A6C84A",
"#X c #B9C549",
"$X c #A9D649",
"%X c #B4DB44",
"&X c #ABCB52",
"*X c #BDCA54",
"=X c #BDCD5A",
"-X c #B6C954",
";X c #ACD653",
":X c #B5D359",
">X c #BCD15C",
",X c #B4D858",
"<X c #BBE646",
"1X c #B9E758",
"2X c #B4E54F",
"3X c #B0D16A",
"4X c #BDE662",
"5X c #9EC165",
"6X c #C3CD4F",
"7X c #C5EC53",
"8X c #C3EA68",
"9X c #C7F668",
"0X c #CEF873",
"qX c #C3D962",
"wX c #C3BB2F",
"eX c #909985",
"rX c #97A888",
"tX c #99AE8D",
"yX c #ABB786",
"uX c #B4BB8A",
"iX c #A8B798",
"pX c #B6B998",
"aX c #A9AA8D",
"sX c #B1B9A5",
"dX c #AB9C88",
"fX c #CEB390",
"gX c #CEB9A0",
"hX c #B7C48A",
"jX c #BBC696",
"kX c #ADC792",
"lX c #B8C7A8",
"zX c #B8CDB1",
"xX c #C4CB9A",
"cX c #C7D19B",
"vX c #C5CAA7",
"bX c #CBD5A7",
"nX c #D3DBAC",
"mX c #D1D7A8",
"MX c #C9D6B8",
"NX c #D4DCB3",
"BX c #D5DAB9",
"VX c #CDCAB2",
"CX c #EAD3B1",
"ZX c #D5E3AD",
"AX c #D6E3B5",
"SX c #CAE3BB",
"DX c #E9CBA2",
"FX c #C8DBC4",
"GX c #D6DAC4",
"HX c #D3CFCB",
"JX c #E6DBC6",
"KX c #D8E5C8",
"LX c #D5E8D1",
"PX c #E5EAD3",
"IX c #F0E9D0",
"UX c #FCF6E5",
/* pixels */
"                                                                                                                                                                                                                                                                                                                                                                                                                                                                                                                                                                                                                                                                                                                                                ",
"                                                                                                                                                                                                                                                                                                                                                                                                                                                                                                                                                                                                                                                                                                                                                ",
"                                                                                                                                                                                                                                                                                                                                                                                                                                                                                                                                                                                                                                                                                                                                                ",
"                                                                                                                                                                                                                                                                                                                                                                                                                                                                                                                                                                                                                                                                                                                                                ",
"                                                                                                                                                                                                                                                                                                                                                                                                                                                                                                                                                                                                                                                                                                                                                ",
"                                                                                                                                                                                                                                                                                                                                                                                                                                                                                                                                                                                                                                                                                                                                                ",
"                                                                                                                                                                                                                                                                                                                                                                                                                                                                                                                                                                                                                                                                                                                                                ",
"                                                                                                                                                                                                                                                                                                                                                                                                                                                                                                                                                                                                                                                                                                                                                ",
"                                                                                                                                                                                                                                                                                                                                                                                                                                                                                                                                                                                                                                                                                                                                                ",
"                                                                                                                                                                                                                                                                                                                                                                                                                                                                                                                                                                                                                                                                                                                                                ",
"                                                                                                                                                                                                                                                                                                                                                                                                                                                                                                                                                                                                                                                                                                                                                ",
"                                                                                                                                                                                                                                                                                                                                                                                                                                                                                                                                                                                                                                                                                                                                                ",
"                                                                                                                                                                                                                                                                                                                                                                                                                                                                                                                                                                                                                                                                                                                                                ",
"                                                                                                                                                                                                                                                                                                                                                                                                                                                                                                                                                                                                                                                                                                                                                ",
"                                                                                                                                                                                                                                                                                                                                                                                                                                                                                                                                                                                                                                                                                                                                                ",
"                                                                                                                                                                                                                                                                                                                                                                                                                                                                                                                                                                                                                                                                                                                                                ",
"                                                                                                                                                                                                                                                                                                                                                                                                                                                                                                                                                                                                                                                                                                                                                ",
"                                                                                                                                                                                                                                                                                                                                                                                                                                                                                                                                                                                                                                                                                                                                                ",
"                                                                                                                                                                                                                                                                                                                                                                                                                                                                                                                                                                                                                                                                                                                                                ",
"                                                                                                                                                                                                                                                                                                                                                                                                                                                                                                                                                                                                                                                                                                                                                ",
"                                                                                                                                                                                                                                                                                                                                                                                                                                                                                                                                                                                                                                                                                                                                                ",
"                                                                                                                                                                                                                                                                                                                                                                                                                                                                                                                                                                                                                                                                                                                                                ",
"                                                                                                                                                                                                                                                                                                                                                                                                                                                                                                                                                                                                                                                                                                                                                ",
"                                                                                                                                                                                                                                                                                                                                                                                                                                                                                                                                                                                                                                                                                                                                                ",
"                                                                                                                                                                                                                                                                                                                                                                                                                                                                                                                                                                                                                                                                                                                                                ",
"                                                                                                                                                                                                                                                                                                                                                                                                                                                                                                                                                                                                                                                                                                                                                ",
"                                                                                                                                                                                                                                                                                                                                                                                                                                                                                                                                                                                                                                                                                                                                                ",
"                                                                                                                                                                                                                                                                                                                                                                                                                                                                                                                                                                                                                                                                                                                                                ",
"                                                                                                                                                                                                                                                                                                                                                                                                                                                                                                                                                                                                                                                                                                                                                ",
"                                                                                                                                                                                                                                                                                                                                                                                                                                                                                                                                                                                                                                                                                                                                                ",
"                                                                                                                                                                                                                                                                                                                                                                                                                                                                                                                                                                                                                                                                                                                                                ",
"                                                                                                                                                                                                                                                                                                                                                                                                                                                                                                                                                                                                                                                                                                                                                ",
"                                                                                                                                                                                                                                                                                                                                                                                                                                                                                                      x #.#.#.#.1.1.#.#.                                                                                                                                                                                                                        ",
"                                                                                                                                                                                                                                                                                                                                                                                                                                                                                                    1.1.3.{.oXoXoXoX{.(.3.1.#.#.                                                                                                                                                                                                                ",
"                                                                                                                                                                                                                                                                                                                                                                                                                                                                                                  2.3.(.fXDXDXDXDXDXDXfXfXoX{.(.2.#.#.                                                                                                                                                                                                          ",
"                                                                                                                                                                                                                                                                                                                                                                                                                                                                                                (.{.oXfXDXCXDXDXCXCXCXCXCXCXDXfXfXoX{.3.2.#.                                                                                                                                                                                                    ",
"                                                                                                                                                                                                                                                                                                                                                                                                                                                                                              [.XXoXDXCXCXDXCXCXJXIXIXIXIXIXIXCXCXDXgXfXfX{.(.2.#.                                                                                                                                                                                              ",
"                                                                                                                                                                                                                                                                                                                                                                                                                                                                                              fXfXxXIXCXfXDXJXIXIXIXIXIXIXUXIXUXIXCXCXCXCXCXDXDX{.(.2.#.                                                                                                                                                                                        ",
"                                                                                                                                                                                                                                                                                                                                                                                                                                                                                              mXmXCXCXDXgXJXIXgXCXJXCXCXIXUXUXIXIXCXCXCXCXCXIXIXIXCXgX{.2.2.                                                                                                                                                                                    ",
"                                                                                                                                                                                                                                                                                                                                                                                                                                                                                              mXCXfXuXfXCXIXdX3.gXUXJXCXIXIXIXvXJXCXDXDXDXDXCXJXIXIXUXIXDXfX{.<.2.                                                                                                                                                                              ",
"                                                                                                                                                                                                                                                                                                                                                                                                                                                                                            mXCXCX2...(.DXvX#.<.VXUXIXIXUXVX{.XXCXDXDXDXfXfXoXDXCXIXUXUXUXIXIXDXdX{.#.                                                                                                                                                                          ",
"                                                                                                                                                                                                                                                                                                                                                                                                                                                                                            CXCXfX2.#.(.CX[.p l [.gXCXIXIXdX<.fXDXDXDXfXoX{.fXfXfXfXDXCXIXUXUXUXIXCXgX{.(.#.                                                                                                                                                                    ",
"                                                                                                                                                                                                                                                                                                                                                                                                                                                                                          BXCXDXoX{.(.fXfX#.> z k #.(.CXCX2.#.(.fXoXfX{.{.gXCXfX{.oXoXfXDXCXIXUXUXUXIXIXDXfX3.2.                                                                                                                                                                ",
"                                                                                                                                                                                                                                                                                                                                                                                                                                                                                      <.aXpXdX{.(.DXDXDX{.k 2.2.2.#.(.CX{.#.k #.1.{.3.3.{.IXDX3.3.{.{.{.oXoXfXCXIXUXUXUXUXIXCXfX{.<.                                                                                                                                                            ",
"                                                                                                                                                                                                                                                                                                                                                                                                                                                                                      : l <.l p >.dXgXfX2.#.dXgXfX2.fXfX(.1.#.k 2.(.#.2.gXCX{.x 2.2.3.3.(.2.(.fXCXJXIXUXUXUXUXIXCXfX{.2.#.                                                                                                                                                      ",
"                                                                                                                                                                                                                                                                                                                                                                                                                                                                                        + + + + . h g @.k z {.UXpXfXCXDX1.2.#.#.dX{.#.dXJXgX#.x x x #.2.2.#.3.DXCXfXfXCXIXIXIXUXUXIXCXfX3.2.#.                                                                                                                                                  ",
"                                                                                                                                                                                                                                                                                                                                                                                                                                                                                            o + O O O . O = l >.,.[.JX3.#.#.x #.dXfXdXPXUX[.k : > > x #.#.x (.DXfX2.3.{.DXDXCXIXIXIXIXCXDX{.3.x x                                                                                                                                               ",
"                                                                                                                                                                                                                                                                                                                                                                                                                                                                                              + = = + O - h - i + h g z @.#.x 3.fX{.JXUXVX3.z : > : k x k {.VXgX2.x #.{.{.{.{.fXCXDXgXDXDXgX{.3.#.#.p                                                                                                                                           ",
"                                                                                                                                                                                                                                                                                                                                                                                                                                                                                              % i > = - h ;.:.-.-.-.<.i > > z dXdXaXJXIXVXdXz z #.z > z {.JXJX{.k > x #.2.#.#.{.DXgX{.oXfXdX{.{.3.<.#.k                                                                                                                                         ",
"                                                                                                                                                                                                                                                                                                                                                                                                                                                                                            o - i - = - l :.3.eXsXHXeX-.i % + z z ,.dXpXdX3.#.{.fX{.2.{.CXUXpX@.+ : k x x k z {.CX{.2.2.3.3.3.3.3.2.#.@.l                                                                                                                                       ",
"                                                                                                                                                                                                                                                                                                                                                                                                                                                                                          O - > > = = h -.-.,.eXaXiXeX;.O.i w w w % l l O.j #.fXoXoXfXCXIXHX[.O.= + > d d > #.{.dX#.#.2.2.2.2.3.2.#.#.#.@.h                                                                                                                                     ",
"                                                                                                                                                                                                                                                                                                                                                                                                                                                                                          - > h = % i g -.-.;.,.,.].,.-.D a a Z u u t y $ 2 ..[.{.3.fXIXIXgX<.3.<.g > > + > 2.dX<.k z #.#.#.#.2.2.#.x #.@.l >                                                                                                                                   ",
"                                                                                                                                                                                                                                                                                                                                                                                                                                                                                        + > h - + = h -.-.-.;.,.,.:.-.O.Z u n n M C L A Z t s i @.<.[.aXBX3.<.pXJXeX2.#.z @.VXaXl > k z z k #.2.2.x z z z z h +                                                                                                                                 ",
"                                                                                                                                                                                                                                                                                                                                                                                                                                                                                      O - i i = O 8 g -.-.-.;.;.;.-.O.Z Z Z n v v M N L L X.L Z w p i g O.l l gXJXIXaXdXdXfXVX[.+ + > p k p #.2.#.x z z z l p +                                                                                                                                 ",
"                                                                                                                                                                                                                                                                                                                                                                                                                                                                                    O = > h = % - h -.-.-.-.;.;.-.@...Z Z Z M M m m m m A L L ( L L K w 5 % i >.aXgX>.VXJXVXVX<.l > + + : > #.<.k > p k z l p +                                                                                                                                 ",
"                                                                                                                                                                                                                                                                                                                                                                                                                                                                                    + > h - % = i F -.-.-.;.;.-.-.O.D Z Z A A L H H C B B M M C L L ( L Z a * i -.-.eXVXJXdXdX{.[.dXz > + l <.#.: + > k @.k > :                                                                                                                                 ",
"                                                                                                                                                                                                                                                                                                                                                                                                                                                                                  O - h i - = - g -.-.-.;.;.;.-.-.F D Z Z A L ( _ ` _ _ Y V m N M C H H L A n 2 @ = i ,.>.<.<.<.JXJXCX3.<.3.{.@.= + : z z k > :                                                                                                                                 ",
"                                                                                                                                                                                                                                                                                                                                                                                                                                                                                . - i h > = - h -.-.;.;.;.;.;.-.O.D Z Z M M C ( _ &.t.t.t.` Q H C m m m m m v t 2 % o X - + + <.VXJXVXdXdXfX{.z : + > z z > > +                                                                                                                                 ",
"                                                                                                                                                                                                                                                                                                                                                                                                                                                                                + > p = - - h O.-.;.;.:.:.:.;.-.F D Z Z M M C H T _ } t.t.y.t.9.` T V N v v r e 4 3 & @ o o O h <.dX3.dXgXgX2.#.2.<.@.<.k > > +                                                                                                                                 ",
"                                                                                                                                                                                                                                                                                                                                                                                                                                                                              O - h > = = > O.-.;.;.:.:.,.;.-.-.F Z Z n M M C C H T ~ ` | 9.9.t.y.} ` T B b r e 0 2 1 & % o O o - l @.3.vXdX<.>.VXJXHXdXz > > +                                                                                                                                 ",
"                                                                                                                                                                                                                                                                                                                                                                                                                                                                            O = h i : + - g -.;.:.:.,.,.:.;.-.O.D Z n n n M N C H Y E E ~ / / / | } ` ` ( H M t e 4 1 & & @ o . . O > h g -.<.3.VXUXPXdXp 3.@.>                                                                                                                                 ",
"                                                                                                                                                                                                                                                                                                                                                                                                                                                                            = i h : = = h -.;.:.,.,.,.,.,.;.-.F D a a n n M M C C I Y U E E E E W Q Q ( ( ( L M t 4 1 & # @ o X . . . O O h @.dXgXHXHXeXdXgX3.+                                                                                                                                 ",
"                                                                                                                                                                                                                                                                                                                                                                                                                                                                          O - h i = = i O.;.,.,.,.,.,.,.,.-.O.D a a a t n M A C C H Y Y U U U I I I I H H H A M t 4 1 & @ @ X X X X . . . . + + -.,.eX3.aXJX<.                                                                                                                                  ",
"                                                                                                                                                                                                                                                                                                                                                                                                                                                                          O g h > = i -.,.,.,.,.eXeXj.,.;.-.F f a a t r n b A C C H Y Y Y Y I J J J V B m M M t e 4 1 & @ o X X X X . . . . . . . - - l sXgX<.                                                                                                                                  ",
"                                                                                                                                                                                                                                                                                                                                                                                                                                                                          - h i > - g ,.sXsXsXrXaXeXeX,.;.O.D f a a t r r n M C C H H H H H H V V B B m b v r e 4 1 & # @ X X X X . . . . . . . . . O h ,.[.l                                                                                                                                   ",
"                                                                                                                                                                                                                                                                                                                                                                                                                                                                          ; > > - = i -.dXLXHXPXHXsXeX,.-.F f a a a a t t n M N C C C C H H V V B N m b v r e 4 4 1 & @ @ X X X . . . . . . X . . O O O i > >                                                                                                                                   ",
"                                                                                                                                                                                                                                                                                                                                                                                                                                                                          O = = + + + O g ;.eXaXHXiXeX;.O.D a 9 8 9 e t r r n b M M N C C C B B N m b v r e 6 4 1 & # @ @ X X X . . . . . . X X O                                                                                                                                               ",
"                                                                                                                                                                                                                                                                                                                                                                                                                                                                            O - + o O O . - - h g -.O.-.g a 9 , 1 1 5 4 7 e e r v v M m m m m m m b v r e 6 4 1 1 & # @ X X X . . . . . . . X O                                                                                                                                                 ",
"                                                                                                                                                                                                                                                                                                                                                                                                                                                                            O = = + o O . . . . O O $ $ 8 9 < < < < , , 1 3 4 6 e e c v b b b b b v r e 6 4 3 1 & # @ @ X X X . . . . . . . X O                                                                                                                                                 ",
"                                                                                                                                                                                                                                                                                                                                                                                                                                                                            o = i + O + ; ; O . . . X X 5 a F A A 7 6 < , , 1 1 4 6 6 e r r r v r r 6 6 4 4 1 1 # # @ @ X X . . . . . . . . X o                                                                                                                                                 ",
"                                                                                                                                                                                                                                                                                                                                                                                                                                                                            O i i = > l -.g h ; O . . X $ * 9 F F g.( C G 7 , < , 1 3 4 6 6 6 e 6 6 4 4 4 1 1 & # # @ X X X . . . . . . . X X X                                                                                                                                                 ",
"                                                                                                                                                                                                                                                                                                                                                                                                                                                                          O = p p % g ,.sXHXeX,.g - X X $ X X $ 5 a ;.%.f.( C G 7 , , 1 1 3 3 3 3 3 1 1 1 & # # # @ @ X X X . . . . . . . X X X                                                                                                                                                 ",
"                                                                                                                                                                                                                                                                                                                                                                                                                                                                          + p O.= + O.3.sXPXUXHXsX-.8 $ * 8 * 8 o X @ a A g.f.f.( N G 7 , , , , , , , , # # # # # @ X X X . . . . . . . . O X .                                                                                                                                                 ",
"                                                                                                                                                                                                                                                                                                                                                                                                                                                                          - g p = > <.eXiXHXLXPXVXj.g $ @ # 8 9 O.a i $ $ @ D F g.f.f.S G 7 < , , , # # # # # # @ @ X X X . . . . . . . X O .                                                                                                                                                   ",
"                                                                                                                                                                                                                                                                                                                                                                                                                                                                        O h l i + l ,.dXsXHXHXVXaX,...a 5 5 # # 8 F F :.F i * * $ F %.g.f.S A 6 < , , # # # # # @ X X X . . . . . . . . X X .                                                                                                                                                   ",
"                                                                                                                                                                                                                                                                                                                                                                                                                                                                        > O.l = > -.eXiXsXHXHXsX[.>.$.o.L K Z 0 1 # a X.>.@.;.D i * 5 , X.$.%.%.n 7 3 , # # # @ @ X X X . . . . . . . . X X .                                                                                                                                                   ",
"                                                                                                                                                                                                                                                                                                                                                                                                                                                                      + h O.p : h ,.eXsXVXHXGXaXh.$.o.L P =.=.o.Z q @ & # a f ;.-.;.D $ $ 5 8 D F n 7 3 , # # @ @ X X . . . . . . . . . X X .                                                                                                                                                   ",
"                                                                                                                                                                                                                                                                                                                                                                                                                                                                      = l l > > -.eXiXsXHXHXVX|.>.X.P P P =.=.{ =.=.o.s Z Z Z 5 F F :.-.D i X X * , 9 7 , # @ @ X X X . . . . . . . . X X X .                                                                                                                                                   ",
"                                                                                                                                                                                                                                                                                                                                                                                                                                                                    + p @.p > l ,.dXsXVXHXHXsX[.*.o.P P =.=. . .1.z.N.N.y.N.m.&.L 0 X D F +.F 8 - X X @ @ X X X X X X . . . . . . . . X X X X                                                                                                                                                   ",
"                                                                                                                                                                                                                                                                                                                                                                                                                                                                  O > O.l d p <.eXiXsXHXHXGXaX2.$.P P P =.=. . . .l.l.z.z.z.N.N.M._ M y a $ f g f a $ X X X X X X X . . . . . . . . . X . . X                                                                                                                                                   ",
"                                                                                                                                                                                                                                                                                                                                                                                                                                                                  O h l p > l 3.dXsXVXHXHXlX|.>.=.P P P =. . . . .l.l.l.l.l.l.N.N.A.&.&.L 0 & * * i 8 @ X . X . . . . . . . . . . . . . . . .                                                                                                                                                   ",
"                                                                                                                                                                                                                                                                                                                                                                                                                                                                . > l l : p <.eXaXsXHXHXVXpX/.*.=.P =.=.=. . . . .l.l.l.l.l.x.x.N.z.z. .&._ K q & & & & @ X X . . . . . . . . . . . . . . . X                                                                                                                                                   ",
"                                                                                                                                                                                                                                                                                                                                                                                                                                                                = h O.p > l 3.aXsXVXGXGXVX|.>.$.=.=.=.=. . . . .l.l.l.l.l.l.l.x.x.z.l. . . .=.=.K y q & % o X . . . . . . . . . . . . . . X X                                                                                                                                                   ",
"                                                                                                                                                                                                                                                                                                                                                                                                                                                                > l l p p <.eXaXsXVXGXGXpX[.*.=.=.=.=. . . . .l.l.l.l.l.l.l.l.l.l.l.l.0.0. . . ._ P K u 2 & o o . . . . . . . . . . . . X X X                                                                                                                                                   ",
"                                                                                                                                                                                                                                                                                                                                                                                                                                                              + h O.p p O.3.aXsXVXGXGXVXaX2.*.=.=.=. . . . .l.l.l.l.l.l.l.l.l.l.l.l. . . . . .! ! P P M t w & o X . . . . . . . . . . . X X                                                                                                                                                     ",
"                                                                                                                                                                                                                                                                                                                                                                                                                                                            + i @.l p g <.eXaXsXVXGXGXvX[.*.=.=.=. . . . .l.l.l.l.l.l.l.l.l.l.l.l.7. . .[ [ ! W P P P u q 0 = % o X X . . . . . . . . X X X                                                                                                                                                     ",
"                                                                                                                                                                                                                                                                                                                                                                                                                                                            = l z p p O.[.dXsXVXGXGXVXyX/.*.=.=. . . . .l.l.l.l.l.l.l.l.l.l.l.l.l.7. . .[ ! W P P P M u q 0 = % o o X X . . . . X X X X X                                                                                                                                                       ",
"                                                                                                                                                                                                                                                                                                                                                                                                                                                          O p l l p s >.eXaXsXVXGXGXvX}.1. . . . . . .l.l.l.l.l.l.l.l.l.x.l.l.l.l. . . . .! ! P P J M t q 0 & % o o X X X X X X O O X                                                                                                                                                           ",
"                                                                                                                                                                                                                                                                                                                                                                                                                                                          > l @.p p @.3.aXpXVXGXGXBXuX/.*. . . . .1.l.l.l.x.x.x.x.x.x.x.x.x.l.l.l. . . . .! ! P P P u t 0 w = % @ o o o X X X X o                                                                                                                                                               ",
"                                                                                                                                                                                                                                                                                                                                                                                                                                                        + > O.l p p >.dXiXsXMXGXJXvXXX~.&. . . .1.l.l.l.x.x.x.x.x.x.x.x.x.x.l.l.l. . . . .! ! P P M u q 0 = & @ $ o o o o X o o o                                                                                                                                                               ",
"                                                                                                                                                                                                                                                                                                                                                                                                                                                        + l O.p p @.[.aXsXvXGXJXBXpX(.1. . . .1.l.l.l.x.x.x.x.x.x.x.x.x.x.x.x.l.l.7. . . .! P P P u t q 0 & % @ $ o o o o o o o o                                                                                                                                                               ",
"                                                                                                                                                                                                                                                                                                                                                                                                                                                      o p @.l p l >.dXiXsXVXJXJXVXXX/.&. . .1.l.l.x.x.x.x.c.x.x.x.x.x.x.x.x.x.l.l.7. . . .W P P P u q 0 2 = % @ @ o o o o o o X                                                                                                                                                                 ",
"                                                                                                                                                                                                                                                                                                                                                                                                                                                      = l O.p p @.[.aXsXVXGXJXJXgX}.N.1.1.l.l.x.x.x.x.c.n.n.n.n.n.x.x.x.x.x.x.x.l.7. . . .W P P P u q 0 w = % @ o o o o o $ o X                                                                                                                                                                 ",
"                                                                                                                                                                                                                                                                                                                                                                                                                                                    . i O.l p s >.dXpXlXVXJXJXVX.XN.1.1.l.l.x.x.x.c.n.n.n.n.n.n.n.n.n.n.x.x.x.x.l.7. . . .W P P P u q 0 2 & % @ @ @ @ o $ $ o X                                                                                                                                                                 ",
"                                                                                                                                                                                                                                                                                                                                                                                                                                                    > l @.p p +.[.aXsXVXGXJXBXgX(.N.1.l.x.x.x.x.c.n.n.n.n.n.n.n.n.n.n.n.c.c.x.x.l.7. . . .W P P P u q 0 2 & % @ @ $ $ $ $ $ X                                                                                                                                                                   ",
"                                                                                                                                                                                                                                                                                                                                                                                                                                                  = p @.l d j >.dXpXvXVXJXPXnX.X~.N.l.l.x.x.x.n.n.n.n.b.b.b.n.n.n.n.n.n.n.c.x.x.l.l.7. . .! P P P u q 0 = & % @ @ $ $ $ = $ X                                                                                                                                                                   ",
"                                                                                                                                                                                                                                                                                                                                                                                                                                                  + ....j p @.[.aXsXVXGXJXJXxX}.N.l.l.x.x.x.c.n.n.b.b.b.b.b.b.b.b.b.n.n.n.c.x.x.l.l.7. . .! P P M u q 0 = = % % $ $ $ = = o .                                                                                                                                                                   ",
"                                                                                                                                                                                                                                                                                                                                                                                                                                                O g @.l d j >.dXpXVXGXJXJXnX.X~.N.l.x.x.x.c.n.n.b.b.b.b.b.b.b.b.b.b.b.n.n.c.x.x.x.l.7. . .! P P M u 0 w & & % % $ $ $ * % O X                                                                                                                                                                   ",
"                                                                                                                                                                                                                                                                                                                                                                                                                                                > @.@.j d +.[.aXgXVXGXPXJXxX}.N.x.x.x.x.c.n.n.b.b.b.b.b.b.b.b.b.b.b.b.n.n.n.x.x.x.l.7. . .! P P u q 0 w = % % @ $ $ = * $ O                                                                                                                                                                     ",
"                                                                                                                                                                                                                                                                                                                                                                                                                                              + p +.z k j >.dXpXVXGXPXIXBXuX(.N.x.x.x.c.n.n.b.b.b.b.b.b.b.b.b.b.b.b.b.b.n.n.c.x.x.l.7. . .! P P u q 0 : = % % @ $ = = * $ o                                                                                                                                                                     ",
"                                                                                                                                                                                                                                                                                                                                                                                                                                              : ..#.k d +.[.aXgXVXJXIXJXvX{.N.N.x.x.c.n.n.n.b.b.b.b.b.b.b.b.!.!.b.b.b.b.n.n.c.x.x.l.7. . .! P P u q 0 = = % % @ $ % = * o o                                                                                                                                                                     ",
"                                                                                                                                                                                                                                                                                                                                                                                                                                            : j #.j k j >.dXgXVXGXPXIXJXuX(.N.N.L.c.n.n.n.b.b.b.b.b.!.!.!.!.R.!.b.b.b.b.n.n.c.x.x.l.l. . .! P P u q 0 & & % % @ @ % = % o o                                                                                                                                                                     ",
"                                                                                                                                                                                                                                                                                                                                                                                                                                            > @.#.k k +.{.pXgXVXJXIXIXVXXX~.N.N.L.n.n.n.b.b.b.!.!.!.!.!.E.E.E.!.b.b.b.b.n.n.c.x.x.x.l. . .! P P t 0 2 & % % @ @ % @ $ $ o                                                                                                                                                                       ",
"                                                                                                                                                                                                                                                                                                                                                                                                                                          o l #.@.k z 2.dXgXVXBXJXIXCXfX(.N.N.L.L.n.n.b.b.H.!.E.!.!.E.E.E.E.E.R.b.b.b.b.b.n.c.x.x.x.l. . .! P M q 0 2 & % % % % @ @ @ $ o                                                                                                                                                                       ",
"                                                                                                                                                                                                                                                                                                                                                                                                                                          h #.#.k k #.[.pXvXBXJXIXIXmXXX~.L.L.L.n.n.n.b.H.!.E.E.E.E.E.E.E.E.E.E.b.b.b.b.n.n.n.c.x.x.l. . .! P u q 0 & & % % % % @ @ $ $ o                                                                                                                                                                       ",
"                                                                                                                                                                                                                                                                                                                                                                                                                                        > O.<.z k ..2.pXgXVXGXPXIXJXfX(.L.L.L.n.n.n.b.H.E.E.E.E.E.E.E.E.E.E.E.R.!.b.b.b.n.n.n.c.x.x.l. . .P P u q 0 & & % % % % @ @ $ o o                                                                                                                                                                       ",
"                                                                                                                                                                                                                                                                                                                                                                                                                                        > >.>.z x <.{.gXVXBXJXIXIXmXXX(.L.L.L.n.n.b.H.!.E.E.E.E.E.E.E.E.E.E.E.!.b.b.b.b.b.n.n.c.x.x.l. .! P P u q 0 & & % % % % @ % $ o                                                                                                                                                                         ",
"                                                                                                                                                                                                                                                                                                                                                                                                                                      > <.{.3.2.2.{.pXVXVXJXPXIXJXxX}.(.L.L.n.n.n.b.H.E.E.E.E.E.E.E.E.E.E.E.E.!.b.b.b.b.b.n.n.c.x.x.7. .! P P u q 0 2 & % % % % % % $ o                                                                                                                                                                         ",
"                                                                                                                                                                                                                                                                                                                                                                                                                                    + g >.2.{.{.dXVXCXVXJXJXIXIXnXXX/.N.K.L.L.G.H.b.!.!.E.E.E.E.E.E.E.E.E.E.E.!.!.b.b.b.b.n.n.c.x.x.l. .! P P t q 0 2 & @ @ % % = = $ O                                                                                                                                                                         ",
"                                                                                                                                                                                                                                                                                                                                                                                                                                    + ..<.<.3.3.fXCXBXJXJXIXIXIXVX{.1.&.1.L.L.K.H.wXwXE.E.E.E.E.E.E.E.E.E.E.E.!.b.b.b.b.b.n.n.c.x.x.l. .! P M q 0 2 = & % @ % % * = o o                                                                                                                                                                         ",
"                                                                                                                                                                                                                                                                                                                                                                                                                                  O p @.#.k #.2.dXgXVXGXPXIXIXGXgXXX2.1.2.*.1.1.L.L.K.wXQ.E.Q.E.E.E.E.E.E.E.!.!.!.!.b.b.b.n.n.c.x.l.l. .! P M t 0 2 & & % % % = * = o .                                                                                                                                                                         ",
"                                                                                                                                                                                                                                                                                                                                                                                                                                  = p @.p d k #.{.aXgXVXJXIXIXgXdX{.(.fX{.3.3.2.*.N.L.L.K.wXW.Q.Q.Q.Q.Q.E.E.!.!.!.!.!.b.b.n.n.c.x.l.l. .! P M t 0 2 & & % % % * * = X                                                                                                                                                                           ",
"                                                                                                                                                                                                                                                                                                                                                                                                                                  + l l d : k 2.[.dXsXVXPXIXnX|./.XX(.3.(.3.fX2.{.(.(.1.1.1.L.K.W.W.Q.Q.E.E.!.!.!.!.!.b.b.n.n.c.x.l.l. .! P M q 0 2 & & % % % * * % O                                                                                                                                                                           ",
"                                                                                                                                                                                                                                                                                                                                                                                                                                o p l j d p <.[.dXaXlXGXPXBXaXXX/.2.2.#.3.{.(.*.{.3.(.{.(.2.(.N.N.L.K.H.wXE.!.!.!.!.b.b.b.n.n.c.x.l.7. .=.P u t 0 & & & % = * - = $ O                                                                                                                                                                           ",
"                                                                                                                                                                                                                                                                                                                                                                                                                              o : l l p d @.[.aXaXsXVXJXIXgX>.#.<.@.{.#.2.3.#.2.{.{.{.fXoXoX{.(.(.(.1.N.L.K.b.H.H.H.b.b.b.n.n.c.x.l. . .P P u t 0 = = & % = = - * o                                                                                                                                                                             ",
"                                                                                                                                                                                                                                                                                                                                                                                                                              % p ..j p j >.aXpXgXVXGXPXGX[.O.l <.z <.<.#.{.#.#.(.3.2.{.(.{.{.{.{.{.(.(.2.L.L.L.L.G.H.b.b.n.n.c.x.l. . .P P u q 0 2 = = & = = - = o                                                                                                                                                                             ",
"                                                                                                                                                                                                                                                                                                                                                                                                                            . : ....j s +.|.pXgXVXGXPXPXVX[.s j j s @.z p #.<.2.(.2.#.3.2.#.{.(.{.{.oX(.(.(.oX(.L.L.L.L.n.n.n.x.x.l. .=.P P u q 0 w = & = & = = % o                                                                                                                                                                             ",
"                                                                                                                                                                                                                                                                                                                                                                                                                            = s @.l s ..2.aXvXVXGXJXPXPXpX/.+.j d % p > : j <.z ..2.2.3.2.2.{.(.2.{.3.(.{.oXoX(.3.2.(.(.L.L.L.x.l.l. .! P K u q 0 w = & & = = * $ o                                                                                                                                                                             ",
"                                                                                                                                                                                                                                                                                                                                                                                                                          O - ....j j +.aXvXVXBXGXPXPXBXaX/.*.$.K u u y d w : : d 3.@.#.2.3.2.2.3.(.2.(.{.3.(.(.{.{.{.oXoX(.1.1.1. . .=.P M y 0 0 w = = = = = = $ .                                                                                                                                                                             ",
"                                                                                                                                                                                                                                                                                                                                                                                                                          O s ....j ..[.pXVXVXGXPXPXKXxX^.*.*.&._ | &.&.%.K s K p w > d #.x #.2.2.2.3.{.(.2.(.{.oX(.2.(.(.(.2.2.1.*.=.P P u q 0 0 2 = = = * = = o                                                                                                                                                                               ",
"                                                                                                                                                                                                                                                                                                                                                                                                                        . > l ..j j <.dXvXvXBXGXPXPXBX.X/.*.&.y.y.m.N.A.M.M.~.~.%.u ..K d d z #.#.2.2.2.2.(.{.3.2.3.3.1.3.(.3.(.3.1.1.=.P j d 0 : = = = = * - = o                                                                                                                                                                               ",
"                                                                                                                                                                                                                                                                                                                                                                                                                        % p ..l j @.3.pXVXVXGXPXPXPXxX}.i.&.y.y.m.m.V.A.`.`.>X>XM.M._.~.%.K s w l #.#.#.#.*.#.#.2.2.(.(.3.(.2.3.(.3.1.1.#.#.k : : : = = = = - = o                                                                                                                                                                               ",
"                                                                                                                                                                                                                                                                                                                                                                                                                      o = ....j ..<.dXgXVXVXGXPXPXBXuX/.i.y.y.y.m.B.V.D.J.@X-XqX>XqX8X-X).M.*.$.j d : l +.@.#.>.*.*.#.2.2.3.3.1.2.(.2.2.2.2.<.z d w : : : : : +                                                                                                                                                                                 ",
"                                                                                                                                                                                                                                                                                                                                                                                                                      = g @...j +.[.aXvXVXGXPXPXPXbXXX~.y.y.0.m.m.B.A.J.U.@X%X%X7X7X7X7X6X*X&X_.&.L 0 w p = l l K #.#.#.#.2.2.2.2.3.3.1.2.2.2.2.#.d q : : : = +                                                                                                                                                                                 ",
"                                                                                                                                                                                                                                                                                                                                                                                                                    % p ....j ..>.|.vXvXBXGXPXPXGXjX}.i.y.0.w.z.B.V.D.J.U.@X%X%X7X7X7X7X7X7X7X>X@Xm.} _ L Z w q : s p j o.k #.#.#.1.2.1.#.#.2.2.#.#.j d d w : +                                                                                                                                                                                 ",
"                                                                                                                                                                                                                                                                                                                                                                                                                    % l ....j @.[.pXvXVXGXPXPXPXVXyX/.i.y.w.z.z.V.F.J.U.U.%X%X%X7X7X7X7X7X7X7X7X7XqX`.D.m.{ P M q = : : p d p #.#.#.#.#.#.1.1.1.#.*.#.j j p w +                                                                                                                                                                                 ",
"                                                                                                                                                                                                                                                                                                                                                                                                                  O a ....j l >.dXpXvXBXKXPXPXGXxX}.~.y.y.z.z.B.V.F.J.U.Y.Y.%X<X7X7X7X7X<X7X7X7X7X7X7X%X#XV.m.| P u t w = : p l p d x #.#.#.x x #.#.#.#...s : +                                                                                                                                                                                 ",
"                                                                                                                                                                                                                                                                                                                                                                                                                  - s ..K s @.[.pXvXVXBXKXPXPXNXuX^.M.y.u.z.m.V.F.J.U.U.Y.%X%X<X<X<X<X<X<X<X<X<X<X<X%X%XY.Y.U.U.m.8._ L q & % = + : p z k k x ..#.#.#.o...s =                                                                                                                                                                                   ",
"                                                                                                                                                                                                                                                                                                                                                                                                                + w ..K s ..<.aXlXVXBXKXPXPXKXvXXX~.p.u.u.z.B.V.F.U.U.Y.Y.Y.<X<X7X7X<X<X<X<X<X<X<X<XY.Y.Y.U.U.U.U.F.M.y.L t t w = % = h <.z ..j k j K j j p =                                                                                                                                                                                   ",
"                                                                                                                                                                                                                                                                                                                                                                                                              o % g ..K Z o.[.pXvXMXGXPXPXPXNXuX}.~.p.m.m.B.V.F.D.U.U.Y.Y.Y.<X7X7X7X<X<X<X<X<X<X<XY.Y.Y.Y.I.I.I.F.F.B.M.&._ L K t & o % = > p d w d d p p i +                                                                                                                                                                                   ",
"                                                                                                                                                                                                                                                                                                                                                                                                              % p ..K j ..>.dXvXvXBXKXPXPXPXbX.X^.M.u.m.m.B.F.D.U.U.Y.%XY.<X<X<X7X7X7X<X<X<X<X<X<XY.Y.Y.Y.I.I.I.v.v.r.w.9.} _ L u 2 = o o o % = = : : : : % o                                                                                                                                                                                   ",
"                                                                                                                                                                                                                                                                                                                                                                                                            o - s ..K K +.[.pXvXVXBXKXPXPXAXjX}.~.M.m.m.B.B.F.D.U.U.Y.Y.Y.<X<X7X7X7X7X<X<X<X<X<X%XY.Y.Y.I.I.I.F.v.v.e.6.9.` ' H M u w = & % o o + % % % % % o                                                                                                                                                                                   ",
"                                                                                                                                                                                                                                                                                                                                                                                                            O s ....K ..>.aXvXvXBXKXPXPXKXbX.X_.M.M.m.m.B.F.F.U.U.Y.Y.%X<X7X7X7X7X7X7X<X<X<X<X<XY.Y.Y.Y.I.I.I.F.v.r.w.6.5.~ R H M M t 2 5 & % @ % % % % % o                                                                                                                                                                                     ",
"                                                                                                                                                                                                                                                                                                                                                                                                          . i l ..K K +.[.pXvXVXGXKXPXPXAXjX}.~.M.M.m.B.V.F.D.U.U.Y.%X%X<X7X7X7X7X7X7X<X<X<X<X%XY.Y.Y.U.I.I.I.C.v.r.q.6.` ' Y C m v r 6 4 1 & & % % % % % o                                                                                                                                                                                     ",
"                                                                                                                                                                                                                                                                                                                                                                                                          % i ..K K ..>.|.xXVXBXKXPXPXPXbXyX_.M.M.m.m.B.F.F.J.U.U.Y.%X<X<X7X7X7X7X7X7X<X<X<X<X%XY.Y.Y.U.I.I.F.v.v.w.q.5./ R S N m v r 6 4 5 5 & & % % % % o                                                                                                                                                                                     ",
"                                                                                                                                                                                                                                                                                                                                                                                                        o = ....K K +.[.uXvXVXBXKXPXPXKXxX X~.M.M.m.B.B.F.D.U.U.Y.Y.%X<X<X7X7X7X7X7X<X<X<X<X<XY.Y.Y.Y.I.I.I.F.v.r.w.6.5.~ E V N b c 7 6 4 5 1 & & & & % $ o                                                                                                                                                                                     ",
"                                                                                                                                                                                                                                                                                                                                                                                                        % s ..K s ..>.|.jXVXBXKXPXPXPXNXuX}.~.M.m.B.B.F.F.D.U.U.Y.Y.Y.%X<X7X7X7X7X<X<X<X<X<X%XY.Y.Y.I.I.I.F.v.v.r.q.6./ ' I V N b c 7 6 4 3 1 & & & & % $                                                                                                                                                                                       ",
"                                                                                                                                                                                                                                                                                                                                                                                                      O i ....s K +.[.pXvXMXGXKXPXPXKXbX.X_.M.M.m.B.B.F.D.U.U.U.Y.Y.<X<X<X7X7X7X<X<X<X<X<X<X%XY.Y.Y.I.I.I.F.v.v.w.q.6./ E I B m v r 6 6 4 1 1 & & & * % $                                                                                                                                                                                       ",
"                                                                                                                                                                                                                                                                                                                                                                                                      + g @...K ..>.aXvXVXBXGXKXPXPXBXjX}.~.M.m.m.B.B.F.D.U.U.Y.Y.Y.<X<X<X<X7X7X<X<X<X<X<X%XY.Y.Y.I.I.I.I.F.v.v.w.6.5.~ U V B m v r 6 6 4 1 1 1 & * * % o                                                                                                                                                                                       ",
"                                                                                                                                                                                                                                                                                                                                                                                                    o p O...K K +.[.pXvXMXBXKXPXPXKXbX.X_.M.M.m.B.B.F.D.J.U.U.Y.Y.Y.<X<X<X<X<X<X<X<X<X<X<X%XY.Y.Y.I.I.I.F.v.v.r.q.6./ ~ I V N m v r 6 4 4 1 1 1 & & * $ X                                                                                                                                                                                       ",
"                                                                                                                                                                                                                                                                                                                                                                                                    = g @.K K ..>.|.vXvXBXGXKXPXPXBXjX X~.M.M.B.B.B.F.D.U.U.%X%XY.<X<X7X<X<X<X<X<X<X<X<X%XY.Y.Y.Y.I.I.I.F.v.v.r.q.6./ R I V N b r e 0 4 4 1 1 1 & & * $ .                                                                                                                                                                                       ",
"                                                                                                                                                                                                                                                                                                                                                                                                  o > @...K K +.[.pXvXMXBXKXPXPXKXbXhX_.~.M.B.B.B.F.D.U.U.U.%X%X%X<X7X7X<X<X<X<X<X<X<X%X%XY.Y.Y.Y.I.I.I.v.v.r.w.6.5.~ E H B m v r e 0 4 1 1 1 1 1 5 * o                                                                                                                                                                                         ",
"                                                                                                                                                                                                                                                                                                                                                                                                  o l @...K X.>.|.lXvXBXBXKXPXPXAXxX.X_.M.M.B.B.F.F.D.U.U.%X%X%X<X<X7X7X<X<X<X<X<X<X<X%XY.Y.Y.Y.I.I.I.F.v.v.r.q.6./ ' I V N b v r e 4 4 1 1 1 1 5 5 * $                                                                                                                                                                                         ",
"                                                                                                                                                                                                                                                                                                                                                                                                o i ..o.K ..$.[.pXvXMXBXKXPXPXKXbXhX}.~.M.B.B.F.F.D.U.U.@X%X%X%X<X<X7X7X<X<X<X<X<X<X<X%XY.Y.Y.Y.I.I.I.v.v.v.r.q.6./ E I V N b v r e 4 3 1 1 1 1 5 5 * X                                                                                                                                                                                         ",
"                                                                                                                                                                                                                                                                                                                                                                                                = p @.....o.>.aXvXVXBXGXKXPXPXAXxX.X_.M.M.B.B.F.F.D.U.U.$X%X%X%X<X<X<X<X<X<X<X<X<X<X<XY.Y.Y.Y.Y.I.I.F.v.v.r.e.6.5.~ E S B N b r r 6 4 3 1 1 1 1 5 5 % X                                                                                                                                                                                         ",
"                                                                                                                                                                                                                                                                                                                                                                                              o : ........+.[.pXVXMXBXKXPXPXPXnXhX}._.M.B.B.B.F.D.U.U.U.%X%X%X<X<X<X<X<X<X<X<X<X<X%X%XY.Y.Y.Y.I.I.I.F.v.v.r.q.6./ ' E V N b v r e 6 4 1 1 1 1 1 5 * @                                                                                                                                                                                           ",
"                                                                                                                                                                                                                                                                                                                                                                                              = s ....K ..>.aXvXMXBXGXKXPXPXAXxX.X_.M.M.B.B.F.F.D.U.U.$X%X%X%X<X<X<X<X<X<X<X<X<X<X%XY.Y.Y.Y.Y.I.I.I.F.v.r.r.q.6./ ' I V N b v r e 6 4 1 1 1 1 1 5 & $                                                                                                                                                                                           ",
"                                                                                                                                                                                                                                                                                                                                                                                            + > l ..K K +.[.vXVXMXBXKXPXPXPXnXhX}._.M.m.B.B.F.D.D.U.U.%X%X%X%X<X<X<X<X<X<X<X<X<X<XY.Y.Y.Y.Y.I.I.I.F.v.v.r.w.q.5./ E I V N b c r 6 6 3 1 1 1 1 1 * % X                                                                                                                                                                                           ",
"                                                                                                                                                                                                                                                                                                                                                                                            + l ....K o.>.pXvXMXBXKXKXPXPXKXcX.X_.Z.M.B.B.F.F.D.U.U.$X%X%X%X<X<X<X<X<X<X<X<X<X<X<X%XY.Y.Y.U.I.I.I.C.v.v.r.q.9.5.~ Y S V m b c r 6 6 3 1 1 1 1 1 5 @ X                                                                                                                                                                                           ",
"                                                                                                                                                                                                                                                                                                                                                                                          o i ....K K $.[.lXVXMXGXKXPXPXPXNXhX}._.M.B.B.B.F.D.D.U.U.$X%X%X%X<X<X<X<X<X<X<X<X<X<X<X%XY.Y.Y.I.I.I.I.v.v.r.r.q.6./ ' Y V N m v r r 6 4 3 1 1 1 1 5 5 $                                                                                                                                                                                             ",
"                                                                                                                                                                                                                                                                                                                                                                                          = s ..K K o.,.pXVXMXBXGXKXPXPXKXbX.X_.M.m.B.B.B.F.D.U.U.U.%X%X%X<X<X<X<X<X<X<X<X<X<X<X<X%XY.Y.Y.I.I.I.F.v.v.r.w.q.9./ ' Y V N m v r r 6 4 3 1 1 1 & & 5 $                                                                                                                                                                                             ",
"                                                                                                                                                                                                                                                                                                                                                                                        + w @...K ..<.|.vXVXMXGXKXPXPXPXAXhX}._.M.m.B.B.F.F.D.U.U.$X%X%X%X<X<X<X<X<X<X<X<X<X<X<X<XY.Y.Y.U.I.I.I.C.v.v.r.w.q.5./ R I V N b v r r 7 3 1 1 1 & # & * $                                                                                                                                                                                             ",
"                                                                                                                                                                                                                                                                                                                                                                                        = g ....K o./.aXvXVXGXKXKXPXPXKXbX.X_.M.M.m.B.Z.F.D.P.U.U.$X%X%X%X<X2X<X<X<X<X<X<X2X<X2X%XY.Y.Y.U.I.I.I.C.v.r.r.q.9.4.~ Y I V m b c r 6 6 3 1 1 1 & & * * @                                                                                                                                                                                             ",
"                                                                                                                                                                                                                                                                                                                                                                                      % i ....K ..>.|.vXvXMXGXKXPXPXPXBXjX X_.M.M.B.Z.F.F.D.U.U.$X%X%X%X2X<X2X<X<X<X<X<X<X<X<X2X%XY.Y.Y.I.I.I.I.C.v.r.w.q.9./ ' Y S B m v c r 6 4 3 1 1 1 & & 5 * $                                                                                                                                                                                             ",
"                                                                                                                                                                                                                                                                                                                                                                                      = s @...K +./.pXVXVXMXGXLXPXPXKXbXyX_.~.p.m.B.Z.S.D.P.U.U.$X%X%X2X<X2X2X<X1X1X<X<X<X<X<X<XY.Y.Y.Y.I.I.I.C.v.v.r.q.q.9./ ' Y V N b v c r 6 4 1 1 1 1 & * * $                                                                                                                                                                                               ",
"                                                                                                                                                                                                                                                                                                                                                                                    + i l ......>.|.vXVXVXGXKXPXPXPXKXjX X_.p.p.B.B.S.F.D.P.U.$X$X%X%X<X<X2X<X1X1X1X1X<X<X<X<X<XY.Y.Y.U.I.I.I.C.C.v.r.q.q.4./ R Y V N b v r r 6 4 1 1 1 & & * * o                                                                                                                                                                                               ",
"                                                                                                                                                                                                                                                                                                                                                                                    = s ....j o./.pXvXVXMXGXLXPXPXKXbXhX_.M.p.m.B.Z.S.D.D.U.U.$X%X%X2X2X2X<X1X1X1X1X<X<X<X2X2X%XY.Y.Y.U.I.I.I.C.v.r.r.q.9.4.' R I V N b c r 6 6 4 1 1 1 & & 5 * o                                                                                                                                                                                               ",
"                                                                                                                                                                                                                                                                                                                                                                                  o : ....j ..<.|.vXVXMXBXKXKXPXPXAXjX X_.M.M.M.B.S.S.D.P.U.@X$X%X2X2X2X2X1X1X1X1X1X<X<X<X2X2X%XY.Y.Y.U.I.I.C.C.v.r.r.q.9.5.' Y S V N b c r 6 4 4 1 1 1 & * - = X                                                                                                                                                                                               ",
"                                                                                                                                                                                                                                                                                                                                                                                  + g ....j ..3.aXvXMXBXGXKXPXPXKXNXhX}.~.M.M.Z.Z.S.D.D.U.U.$X$X%X2X2X<X1X1X1X1X1X1X1X2X2X2X2X%XY.Y.U.U.I.I.C.C.v.r.q.q.5./ ' I S B m v c r 6 4 3 1 1 1 & * 8 @                                                                                                                                                                                                 ",
"                                                                                                                                                                                                                                                                                                                                                                                  > l ..j j $.[.sXVXBXBXKXKXPXPXAXcX.X_.p.M.M.Z.Z.S.D.P.U.@X$X%X2X2X<X1X1X7X1X1X7X1X<X2X2X2X2X%XY.Y.U.I.I.I.C.C.r.r.q.q.4.' ' I V N b v c r 6 3 3 1 1 1 & 5 * o                                                                                                                                                                                                 ",
"                                                                                                                                                                                                                                                                                                                                                                                + i ..j s ..>.aXvXMXBXGXKXPXPXKXNXhX}.~.p.M.Z.Z.Z.D.D.P.@X$X$X%X2X2X2X1X7X7X7X7X7X1X2X2X2X2X%X$XY.Y.U.I.I.I.C.C.r.r.q.9.5.~ ' I V N b v r r 6 3 3 1 1 & & * = X                                                                                                                                                                                                 ",
"                                                                                                                                                                                                                                                                                                                                                                                + g ..j j +.[.pXVXMXGXKXLXPXPXKXbX.X_.M.p.M.Z.Z.D.D.P.U.@X$X$X%X2X2X1X1X7X7X7X7X7X1X1X2X2X2X%X$XY.U.I.I.I.I.C.C.r.r.q.9.5.' E I V N b v r 7 6 3 3 1 1 1 & 5 $ X                                                                                                                                                                                                 ",
"                                                                                                                                                                                                                                                                                                                                                                              o i l ..s K >.dXvXMXBXGXKXPXPXKXNXhX}.~.p.p.Z.Z.Z.D.D.P.@X$X$X%X2X2X1X1X7X7X7X7X7X7X1X1X2X2X2X2X%XY.Y.U.I.I.C.C.r.r.r.q.5.5.' E S V N b v r r 6 3 3 1 1 & 5 * $                                                                                                                                                                                                   ",
"                                                                                                                                                                                                                                                                                                                                                                              + p ..j s o.[.pXvXMXGXKXLXPXPXKXbX3X_.M.p.M.Z.Z.A.D.D.U.@X$X$X;X2X1X1X1X7X9X9X9X9X7X7X1X2X2X2X2X$XY.Y.U.I.I.I.C.r.r.q.q.5./ ' E S V N b v r r 6 3 3 1 1 1 5 * @                                                                                                                                                                                                   ",
"                                                                                                                                                                                                                                                                                                                                                                              + l l s j <.|.sXVXMXGXKXPXPXPXAXjX X_.p.p.M.Z.S.D.D.P.@X$X$X%X2X1X1X1X7X9X9X9X9X9X9X7X1X1X2X2X2X%X$XY.U.I.I.I.C.r.r.q.q.5./ ' Y S V m b c r 6 6 3 3 1 1 1 * # $                                                                                                                                                                                                   ",
"                                                                                                                                                                                                                                                                                                                                                                            + i ..j y ..>.aXsXvXMXKXKXPXPXKXnXhX}.~.p.p.Z.Z.A.D.D.OX@X$X$X;X1X1X1X1X8X9X9X9X9X9X9X9X7X1X1X2X2X%X$XY.U.I.I.C.C.s.r.q.q.5.' R I V N m v c r 7 6 3 3 1 1 1 * @ $                                                                                                                                                                                                   ",
"                                                                                                                                                                                                                                                                                                                                                                            = p ..s s +.[.aXlXVXMXKXKXPXPXAXcX.X_.p.p.M.Z.Z.D.D.P.@X$X$X;X1X1X1X1X8X9X9X9X9X9X9X9X9X9X1X1X2X2X2X$XY.U.I.I.C.C.s.s.q.q.4.' ' I V N b v r e 6 4 3 3 1 1 & * @                                                                                                                                                                                                     ",
"                                                                                                                                                                                                                                                                                                                                                                          + = l j s s >.|.iXlXMXGXKXPXPXKXNXhX}.~.p.p.M.Z.S.D.D.OX@X$X$X,X1X1X1X1X8X9X9X9X9X9X9X9X9X9X9X1X1X2X2X$XY.U.P.I.C.C.s.s.q.q.4./ R I V m b v r 7 6 3 3 1 1 1 5 * @                                                                                                                                                                                                     ",
"                                                                                                                                                                                                                                                                                                                                                                          + p ..s p ..,.rXiXlXMXGXKXPXPXKXvX.X^.p.p.p.Z.Z.D.D.).@X@X$X$X,X1X1X1X8X9X9X9X9X9X9X9X9X9X9X9X1X1X2X2X$XY.U.P.I.C.C.s.s.q.9.5.' R S N m v c r 6 6 3 3 1 1 & 5 * $                                                                                                                                                                                                     ",
"                                                                                                                                                                                                                                                                                                                                                                          : g l p s +.[.rXiXvXMXKXKXPXKXNXjX}.k.i.p.p.Z.S.D.D.OX@X$X$X;X1X1X1X1X9X9X9X9X9X9X9X9X9X9X9X7X1X1X2X2X$XY.U.P.I.C.C.s.r.q.9.4.' E S N m v c r 6 3 3 3 1 1 1 5 $ X                                                                                                                                                                                                     ",
"                                                                                                                                                                                                                                                                                                                                                                        + > l s p s >.[.aXpXvXMXKXKXPXKXbXyX^.p.a.p.M.Z.D.D.D.OX@X$X$X,X1X1X4X9X9X9X9X9X9X9X9X9X9X9X9X7X1X1X2X2X$XY.U.P.I.C.C.s.w.q.5.5.' Y V N b v r 7 7 3 3 3 1 1 5 * $                                                                                                                                                                                                       ",
"                                                                                                                                                                                                                                                                                                                                                                        + p l p d @.,.].aXlXvXMXKXKXKXAXjX Xg.a.a.p.Z.Z.D.D.OX@X@X$X;X1X1X1X8X9X9X9X9X9X9X9X9X9X9X9X9X9X1X1X2X2X$XY.P.P.I.C.C.s.q.q.5./ ' Y V N b c r 6 6 3 3 1 1 1 5 * ;                                                                                                                                                                                                       ",
"                                                                                                                                                                                                                                                                                                                                                                      + : l g p s +.[.].aXlXvXGXKXKXKXbXyX^.i.a.a.p.Z.A.D.D.OX@X$X$X,X1X1X4X9X9X9X9X9X9X9X9X9X9X9X9X9X4X1X1X2X%X$X$XP.P.C.C.s.r.q.9.4./ ' Y C N b c e 6 6 3 3 1 1 1 5 - ;                                                                                                                                                                                                       ",
"                                                                                                                                                                                                                                                                                                                                                                      + p g p p g >.[.rXiXlXMXGXKXKXAXjX Xg.t.t.y.p.Z.A.D.D.OX@X$X;X,X1X1X4X8X9X9X9X9X9X9X9X9X9X9X9X9X1X1X2X2X%X$X$XP.P.C.C.s.r.q.9.5.~ R Y C N n r e 6 6 3 3 1 1 1 5 * ;                                                                                                                                                                                                       ",
"                                                                                                                                                                                                                                                                                                                                                                      = h g p p @.,.].rXiXlXMXGXKXKXbXyX^.i.&.t.y.p.Z.Z.D.D.OX@X&X,X,X1X1X4X9X9X9X9X9X9X0X0X0X9X9X9X9X1X1X2X2X%X$X$XP.P.C.C.s.q.q.9.` ' R Y C M v r 7 6 4 4 3 1 1 5 5 @                                                                                                                                                                                                         ",
"                                                                                                                                                                                                                                                                                                                                                                    + > l g p g -.[.].aXiXlXMXKXKXBXjX|.g.&.&.&.y.p.Z.Z.S.D.P.@X&X,X,X1X1X8X9X9X9X9X9X9X0X0X0X9X9X9X4X1X1X2X2X$X$XU.P.P.S.C.s.q.q.4.` ' Y V N b v r 6 6 4 4 3 1 1 5 5 @                                                                                                                                                                                                         ",
"                                                                                                                                                                                                                                                                                                                                                                    + p g p p l >.[.rXiXsXVXMXGXKXMXuX[.i.&.` 9.a.p.Z.Z.S.D.P.@X&X;X,X1X1X4X8X9X9X0X0X0X9X9X9X9X9X9X1X1X2X2X$X$X$XP.P.I.C.s.s.q.q.4.` ' Y C N v c 7 6 6 4 4 4 1 1 2 5 @                                                                                                                                                                                                         ",
"                                                                                                                                                                                                                                                                                                                                                                  O > h g p p +.,.].rXiXlXMXGXKXKXlX|.g.&._ ` 9.a.p.B.Z.S.D.P.@X&X;X,X1X1X4X8X8X9X0X0X0X9X9X9X9X9X8X1X1X2X%X$X$XU.P.P.C.C.s.u.q.9.4.' R Y C N v r 7 6 4 4 4 3 1 1 2 & X                                                                                                                                                                                                         ",
"                                                                                                                                                                                                                                                                                                                                                                  + i l s p l ;.[.eXaXsXlXMXGXKXMXkX}.*._ _ ` 9.y.u.m.B.S.D.D.@X&X;X;X,X1X4X4X8X9X0X0X9X9X9X9X9X9X4X1X2X2X$X$XY.U.P.I.C.B.s.q.q.4.5.' ( S C b c r 6 6 4 4 3 1 1 1 2 #                                                                                                                                                                                                           ",
"                                                                                                                                                                                                                                                                                                                                                                O = h g p p O.,.].rXiXsXMXMXGXBXvXyX/.&.( R ` 9.t.u.u.B.S.D.D.OX$X$X;X,X1X1X4X8X9X9X9X9X9X9X9X9X4X1X1X2X2X%X$XY.P.P.C.C.s.s.q.9.4.` ' Y C C b c r 6 6 4 4 3 1 1 2 1 @                                                                                                                                                                                                           ",
"                                                                                                                                                                                                                                                                                                                                                                O i g g p g -.,.eXtXiXlXMXGXKXBXjX|.g._ T R _ 9.9.w.u.B.Z.S.D.OX@X$X$X;X1X1X4X8X9X9X9X9X9X9X9X9X1X1X1X2X%X$X$XU.P.P.C.C.s.w.q.9.4.' ( S C N n c r 6 6 4 4 3 1 1 5 1 @                                                                                                                                                                                                           ",
"                                                                                                                                                                                                                                                                                                                                                              o > h g p s O.>.[.eXiXsXvXMXKXKXMXuX^.*._ T R ` 9.9.q.u.s.B.S.D.P.OX@X$X$X,X1X1X8X8X9X9X9X9X8X4X4X1X1X2X2X$X$XY.P.P.C.C.s.s.q.q.4.` ' Y S C b v r 7 6 6 4 3 3 1 1 5 & @                                                                                                                                                                                                           ",
"                                                                                                                                                                                                                                                                                                                                                              + p g s p g +.,.].rXsXlXMXGXKXKXbXyX^.*.( R Q ` 9.9.q.w.s.B.Z.S.D.P.OX@X$X;X1X1X4X8X9X9X8X4X4X1X1X1X2X2X$X$X$XU.P.P.S.C.s.r.q.9.5.' ' Y C N b c r 6 6 4 3 3 3 1 1 5 *                                                                                                                                                                                                             ",
"                                                                                                                                                                                                                                                                                                                                                            O - p s p p ..;.,.].aXsXvXMXGXKXKXvXyXg.&.( ( _ ` 9.9.q.q.u.s.Z.S.D.P.OXOX$X;X1X1X1X1X1X4X4X1X1X1X2X2X;X$X$X$XU.P.P.C.C.s.s.q.q.4.5.' Y S C m v r e 6 6 4 3 3 1 1 5 8 $                                                                                                                                                                                                             ",
"                                                                                                                                                                                                                                                                                                                                                          . - i s s p s @.>.[.eXiXsXVXFXKXKXGXlX|.g.*._ _ } &.9.9.q.w.s.s.B.S.S.D.P.OX$X;X,X1X1X1X1X1X1X1X2X1X2X$X$X$X$XY.P.P.P.C.C.s.s.q.9.5./ ' Y C C b c r 7 6 6 4 4 3 1 1 8 5 @                                                                                                                                                                                                             ",
"                                                                                                                                                                                                                                                                                                                                                          = i g s s p g -.:.].eXiXlXMXFXGXGXGXlX|.g.*.%.%.&.t.t.9.q.u.s.s.B.S.S.D.P.OXOX$X;X,X1X1X1X1X2X1X;X;X;X$X$XOXP.P.P.P.C.C.s.s.q.q.4.5.' ( S C A b c r 7 6 4 4 4 3 1 5 5 *                                                                                                                                                                                                               ",
"                                                                                                                                                                                                                                                                                                                                                        $ - a s s p p ..-.,.].eXsXsXVXFXGXGXMXpX|.g.*.%.&.&.t.t.t.q.u.u.s.s.B.S.S.P.P.OXOX$X;X;X;X2X2X;X$X;X$X$X$XOXP.P.P.I.C.C.C.s.q.q.9.5.' ' Y S C m v c 7 6 6 4 4 4 3 1 5 8 $                                                                                                                                                                                                               ",
"                                                                                                                                                                                                                                                                                                                                                      . - i s s s s g @.;.,.].rXsXsXVXFXFXFXVXiX].g.*.%.%.&.t.t.t.a.u.u.s.s.s.S.S.D.P.P.OX$X$X$X$X$X;X$X$X$XOXOXP.P.P.P.P.C.C.s.s.s.q.q.4.5.' E S C N b c r 7 6 6 3 4 4 3 1 8 * $                                                                                                                                                                                                               ",
"                                                                                                                                                                                                                                                                                                                                                    X * i p s s s s l @.>.,.].rXiXsXzXMXMXMXlXiX].g.*.%.%.%.&.t.t.t.q.u.s.s.d.S.S.S.P.P.OXOXOXOXOX$X$X$X$XOXP.P.P.P.I.C.C.C.s.s.s.q.q.4.4.' ' Y C C b v r e 6 6 4 3 1 3 1 5 5 *                                                                                                                                                                                                                 ",
"                                                                                                                                                                                                                                                                                                                                                  X * i g s s s s s ..+.>.,.].rXiXsXlXzXzXzXsXtX[.g.*.%.%.%._ ` 4.9.t.q.u.s.s.Z.Z.S.D.P.P.OXOXOXOXOXOXOXP.P.P.P.C.C.C.C.C.s.r.r.q.q.9.5.` ' Y S B N b c r 7 6 6 3 3 1 1 1 5 8 =                                                                                                                                                                                                                 ",
"                                                                                                                                                                                                                                                                                                                                                  o i g g s p p p s ..-.;.,.].eXtXsXsXsXsXsXiXeXh.>.$.%.( ( _ _ ` 4.t.t.q.u.s.d.Z.S.S.D.P.P.P.P.P.P.P.P.P.P.C.C.C.C.C.C.s.r.r.q.q.9.5.` ' E S V N b c r r 6 6 4 3 3 1 1 1 i * $                                                                                                                                                                                                                 ",
"                                                                                                                                                                                                                                                                                                                                                $ i f g s a p p p g O.-.;.,.].eXrXiXsXsXsXsXtX].h.>.%.X.X.( ( ( ` ` 4.t.t.q.u.s.d.d.S.S.D.P.P.P.P.P.P.P.C.C.C.C.C.C.r.s.r.r.q.q.9.5.5.' E S V N N v c r 7 6 6 4 3 1 1 1 5 8 =                                                                                                                                                                                                                   ",
"                                                                                                                                                                                                                                                                                                                                            . = i f g a i i i i a g O.-.;.,.j.].eXrXtXtXtXrXeX].,.;.$.X.X.L ( ( ( ' ` 4.4.t.a.u.s.d.d.S.S.D.P.P.P.P.S.C.C.C.s.C.r.r.r.r.r.q.q.9.5.5.' ' Y S B N b c c e 6 6 3 3 1 1 1 1 5 8 $                                                                                                                                                                                                                   ",
"                                                                                                                                                                                                                                                                                                                                          O = i g g a a i i i i a g ..@.-.:.,.j.eXeXeXeXeXeXeXj.:.;.$.X.X.L L ( ( ( ' ` ` 4.t.a.u.u.d.d.Z.S.S.S.S.S.C.C.s.s.s.s.r.r.r.r.q.q.9.5.5./ ' E Y V N m b c r 7 6 4 4 3 1 1 1 5 8 * $                                                                                                                                                                                                                   ",
"                                                                                                                                                                                                                                                                                                                                        X * i a a a a i i i i i a g g O.-.;.,.,.j.j.].].].].j.h.:.;.;.+.X.X.A S S Y ( ' ' ` 4.4.t.q.u.s.d.d.d.Z.S.C.s.s.s.s.s.r.s.r.r.q.q.9.5.5./ ' E S V C N b v r 7 6 6 4 3 1 1 1 1 5 8 =                                                                                                                                                                                                                     ",
"                                                                                                                                                                                                                                                                                                                                      X o i a s a i i i i i i i a f g O.O.-.;.:.,.,.,.j.j.j.h.,.,.:.;.$.+.X.X.A S S S S Y ( ' ' ` 4.t.u.u.u.s.s.s.s.s.s.s.r.r.s.s.r.q.q.5.5.5./ ' E I V V N m v c r 7 6 6 3 3 1 1 1 1 5 * $                                                                                                                                                                                                                     ",
"                                                                                                                                                                                                                                                                                                                                    O = i i f a i i i i i 8 i i i h f g O.-.-.;.:.,.,.,.,.,.,.,.,.:.:.;.;.$.o.X.F S S C S S S ( ' ' ` 4.4.t.a.u.u.u.q.q.q.w.r.r.s.q.q.q.5.5./ ' ' E S V N N b c r r 7 6 4 3 1 1 1 1 5 8 - $                                                                                                                                                                                                                     ",
"                                                                                                                                                                                                                                                                                                                                . o - i i a a i i w 5 5 - - 8 i i i f f g O.-.-.;.;.:.:.,.,.,.,.,.,.:.:.:.;.;.$.%.X.F A C C S S S Y ( ' ' ` 4.9.q.q.q.q.q.q.q.q.q.q.q.4.5.5.' ' E Y S B N b v c r 6 6 4 3 3 1 1 1 1 5 8 *                                                                                                                                                                                                                       ",
"                                                                                                                                                                                                                                                                                                                              o % - i i a a i i w 5 - - - - 5 8 i i i f g D O.-.-.;.;.;.:.:.:.,.:.,.,.h.h.:.:.:.;.$.X.X.A A S S S S S S Y ( ' ' ` 4.4.4.9.9.q.q.q.4.4.4.5.' ' ' E I V B N b v r r 7 6 3 3 1 1 1 , 1 5 5 $                                                                                                                                                                                                                       ",
"                                                                                                                                                                                                                                                                                                                          . o % - i a a a i i i w 5 * * - - - 8 8 i i f f g F O.-.-.-.;.;.;.:.:.:.:.,.h.h.h.h.h.h.:.;.$.%.X.X.A A S S S S S Y Y ( ' ` 4.t.t.4.4.4.4.5.` ' ' ' ( Y S V N m b c r 7 6 6 3 3 1 1 , , 5 5 * $                                                                                                                                                                                                                       ",
"                                                                                                                                                                                                                                                                                                                        o % * i i i a a i i w 5 5 5 * 5 5 - - 8 8 i i f f g g F O.-.-.-.;.;.:.:.:.,.h.h.h.h.h.h.h.h.h.:.;.;.$.X.X.L A S C C S S S Y ( ` f.f.4.4.` ' ' ' ' ' ( Y S V N N b v r r 6 6 3 3 1 1 1 , # 5 8 - X                                                                                                                                                                                                                       ",
"                                                                                                                                                                                                                                                                                                                    o o = i i i a a a i i w 5 5 5 5 * 5 5 - 8 8 8 i i i f f f D F O.-.-.;.;.;.:.:.:.h.h.h.j.j.j.j.j.j.j.h.h.:.;.$.%.X.F A S A C C C Y ( ( ` ` ` ' ' ' ( ( Y S S V N N b v c r 6 6 6 3 3 1 , , , 5 8 8 ;                                                                                                                                                                                                                         ",
"                                                                                                                                                                                                                                                                                                                  o % - i i a a a i i i i w 5 5 5 5 5 5 5 8 8 8 i i i a f f f D F F -.-.;.;.:.:.:.,.h.h.j.j.j.j.j.j.j.j.j.j.j.h.h.;.;.$.X.L A A A A S S S %.%.( S S S S S S C C N m b v r r 7 7 6 3 3 1 1 , , , 5 8 - ;                                                                                                                                                                                                                         ",
"                                                                                                                                                                                                                                                                                                              o $ = - i i a a a i i i i w w 5 5 5 5 5 8 8 8 i i i a f f f f g D F F O.-.-.;.:.:.:.,.h.h.j.j.j.eXeXeXeXeXeXeXeXeXj.h.h.g.;.$.X.F A A A A A S ( S C C C C C C C C N b c r r r 7 7 7 3 3 1 1 , , , 5 8 - ;                                                                                                                                                                                                                         ",
"                                                                                                                                                                                                                                                                                                            o o - i i i i a a i i i i i i i i i i i i i i a a f f f f f f g D D F O.-.-.;.;.:.:.:.,.h.h.j.j.j.eXeXrXrXrXrXtXtXtXrXeXj.j.h.:.$.X.F F A A n A A A A N N N N N N m b c r r 7 6 7 7 4 3 3 , , , , , 5 8 ;                                                                                                                                                                                                                           ",
"                                                                                                                                                                                                                                                                                                          o % - i i g i i i i i i i i i i i i i i i i a f f f f f f g g D D F F F O.-.-.;.;.:.:.:.:.h.h.j.j.eXeXrXrXtXtXtXtXtXiXiXtXtXrXj.h.:.;.$.F F A A n A A n A n b b b b b c c r 7 6 6 7 7 3 3 1 , , , # , 5 5 $                                                                                                                                                                                                                           ",
"                                                                                                                                                                                                                                                                                                      X o % - i a a a i i i i i i i i i a a a a a f f g g g D D D D D D D F F F O.-.-.;.;.;.:.:.:.h.h.j.j.j.eXeXrXtXtXiXiXiXiXsXsXsXiXiXrXeXj.h.:.;.X.F A A A A A n n n n c c c c r 7 6 7 7 7 4 3 3 1 , , # , 5 5 * $                                                                                                                                                                                                                           ",
"                                                                                                                                                                                                                                                                                                    . o * i f f a i i i i i i i i i a a a f g g g g D D D F F F F F F F F O.O.O.+.-.-.;.;.;.:.:.:.h.h.j.j.j.eXeXrXtXtXiXiXsXsXlXzXlXlXsXiXtXrXeXj.h.:.;.+.F F A A n n n c c c r 7 7 6 6 7 7 4 3 3 1 , , , # , 5 5 $ X                                                                                                                                                                                                                           ",
"                                                                                                                                                                                                                                                                                                  X % - i g s s i w w i i i i i a a g g g g D D F F O.O.O.O.O.O.O.O.O.O.@.+.+.-.-.-.;.;.;.:.:.:.h.h.h.j.j.].].rXrXtXtXiXiXsXlXzXzXzXzXzXzXlXsXiXtXeXj.h.:.;.+.F F D A n n r 9 7 7 7 7 7 7 4 3 3 1 1 1 , , # # 5 5 $ .                                                                                                                                                                                                                           ",
"                                                                                                                                                                                                                                                                                                . o - a g g p i i i i i i i i a a g g D D F O.O.O.O.@.@.@.-.-.-.+.-.-.-.-.-.-.;.;.;.;.:.:.:.:.:.h.h.h.j.j.].eXrXrXtXtXiXiXsXlXzXzXzXzXzXzXzXzXzXlXsXtXrX].h.:.;.+.F D A n r 9 7 7 9 9 9 3 3 3 1 1 1 1 , # # * 5 * $                                                                                                                                                                                                                             ",
"                                                                                                                                                                                                                                                                                              o % = i g g p i i i i i i i i a g g D O.O.O.O.@.-.-.-.-.-.-.-.-.;.;.;.;.;.;.;.;.;.;.;.:.:.:.:.h.h.h.h.j.j.j.].rXrXrXtXtXiXiXlXlXzXzXzXzXFXFXFXFXFXFXzXzXsXiXrX].h.:.-.F F Z n 9 7 9 9 9 3 3 3 1 1 1 1 , , # # # 5 * $                                                                                                                                                                                                                             ",
"                                                                                                                                                                                                                                                                                            . = - i g g i i i i i i i a a a g D O.O.O.@.-.-.-.-.;.;.;.;.;.;.;.;.;.;.;.;.:.:.:.:.:.:.:.:.h.h.h.h.h.j.j.j.].].rXrXtXtXtXiXiXlXlXlXzXzXzXFXFXFXLXFXFXFXFXzXzXsXtXeXh.:.-.F D n a 9 9 9 4 3 3 3 1 , 1 , # # # # & 5 * X                                                                                                                                                                                                                             ",
"                                                                                                                                                                                                                                                                                          . + - i g g p i i i i i a a s g D O.O.@.-.-.-.-.;.;.;.;.;.;.;.:.:.:.:.:.:.:.:.:.:.:.:.:.h.h.h.h.h.h.j.j.].].].].rXrXrXtXtXiXiXkXlXlXlXzXzXzXFXFXFXFXLXFXLXFXFXFXzXsXtX].h.;.-.F D a a 9 9 4 3 3 1 1 , , # # # # # & 5 $ X                                                                                                                                                                                                                             ",
"                                                                                                                                                                                                                                                                                        O O - i g g g i i i i i a a g g O.O.@.-.;.;.;.;.;.>.:.:.:.:.:.:.:.:.:.:.:.:.:.h.h.h.h.h.h.h.h.h.h.j.j.j.].].].].rXrXtXtXtXtXiXiXkXlXlXzXzXzXzXFXFXFXLXLXLXLXLXLXFXFXzXiXrXj.:.;.F D D a 9 9 4 3 3 1 1 , # # # # # # & & @ X                                                                                                                                                                                                                             ",
"                                                                                                                                                                                                                                                                                      . O - i g g g i i i i i a g g D O.@.-.;.;.:.:.:.:.:.:.,.,.,.,.,.,.,.,.,.h.h.h.h.h.h.h.h.h.j.j.j.j.].].].].].|.|.rXtXtXtXtXiXiXiXiXlXlXlXlXzXzXzXzXFXFXFXFXFXLXLXFXFXFXzXsXtXeXh.:.-.F D a a 9 9 3 1 1 , , # # # # # # # * @ X                                                                                                                                                                                                                             ",
"                                                                                                                                                                                                                                                                                    . O = i h g g a i i i i p g D O.O.-.-.;.:.:.,.,.,.,.h.,.h.h.j.j.j.j.j.j.j.j.j.h.j.j.j.j.j.j.].].].].].].].].|.|.rXtXtXtXiXiXiXkXkXlXlXlXlXzXzXzXzXzXFXFXFXFXFXLXFXFXFXFXzXsXtXeXj.:.-.F D Z a 9 9 3 1 1 1 # # # # # # # # 5 @ X                                                                                                                                                                                                                             ",
"                                                                                                                                                                                                                                                                                    o = i g g g a i i i i a g l O.+.-.;.>.:.,.,.h.h.j.j.j.].].].].].].].].].].].].].].].].].].].].].].].|.|.|.|.rXtXtXtXtXiXkXkXkXlXlXlXlXlXzXzXzXzXzXzXzXFXFXFXFXFXFXFXFXMXzXsXtXeXj.:.;.O.D D a 9 9 5 1 1 , # # # # # # # & * $ X                                                                                                                                                                                                                             ",
"                                                                                                                                                                                                                                                                                  o % - h g g i i i i a a g l O.-.-.;.:.,.,.h.j.].].].].].].].].].].].].].].eX].].].].].].].].eX|.|.|.|.|.rXrXtXtXtXtXiXiXkXkXlXlXlXzXzXzXzXzXzXzXzXzXzXzXzXMXMXFXFXFXFXFXzXlXsXtX].j.:.;.O.D D a a 9 5 1 1 # # # # # # # # * * $                                                                                                                                                                                                                               ",
"                                                                                                                                                                                                                                                                                o + i i g g p i i i a a g ..O.-.;.>.:.,.h.[.].].].].].eXeXeXeXeXeXeXeXeXeXrXrXeX].].].|.rXrXrXrXrXrXrXrXtXtXtXtXtXtXiXkXkXlXlXlXlXzXzXzXzXzXzXzXMXzXzXzXzXzXzXzXzXzXzXzXzXzXlXiXrXj.h.:.-.O.D D a a 9 5 5 1 # # # # # # # # * - $                                                                                                                                                                                                                               ",
"                                                                                                                                                                                                                                                                              . o - i g g p i i p a p g g O.-.;.:.,.,.j.[.].].eXeXrXeXrXrXeXeXrXrXrXrXrXrXrXrXrXrXrXrXrXrXrXrXrXrXrXtXtXtXtXtXtXiXiXkXkXlXlXlXzXzXzXzXzXzXMXMXMXMXMXMXMXMXzXzXzXzXzXzXzXlXsXiXtXeXj.,.;.-.O.D D a a 9 5 5 5 & # # # # # # # * 8 $ X                                                                                                                                                                                                                             ",
"                                                                                                                                                                                                                                                                              o = i g g a i i p p p s g O.-.>.,.,.[.].].].eXrXrXrXrXtXtXrXrXtXtXaXaXtXrXrXrXrXrXrXrXrXtXtXtXtXtXtXtXtXtXtXtXyXiXkXkXkXkXlXlXzXzXzXzXMXMXMXFXFXFXFXFXFXFXFXMXzXzXzXzXzXzXlXiXiXrX].j.,.;.-.F D D a a 9 3 5 1 # # # # # # # # * - $ X                                                                                                                                                                                                                             ",
"                                                                                                                                                                                                                                                                            o % i g g g i w i p p s g O.-.>.,.[.].].eXeXrXrXtXtXtXtXaXaXaXaXaXiXiXiXaXtXtXtXtXtXtXtXtXtXtXtXtXtXtXtXtXtXtXiXiXkXkXkXlXlXzXzXzXzXMXMXMXMXFXFXFXFXFXFXFXFXFXFXMXzXzXzXzXzXlXiXtXeX].j.:.;.+.F D D a a 9 3 1 1 , # # # # # # # * * o                                                                                                                                                                                                                               ",
"                                                                                                                                                                                                                                                                          o o = i g g i w w i a a g O.-.;.,.[.eXeXeXrXtXaXaXiXiXiXiXiXiXiXiXiXiXiXiXiXiXaXaXtXtXtXtX|.|. X X XtXtXyXtXtXtXtXkXkXkXlXlXzXzXzXzXMXSXFXFXFXKXKXLXLXLXFXFXFXFXFXFXFXzXzXzXzXlXsXtXeX].h.:.;.+.F F D a a 9 3 1 1 # # # # # # @ @ = - $ X                                                                                                                                                                                                                             ",
"                                                                                                                                                                                                                                                                          o = i f g p i w i p a g ..-.;.,.[.eXeXrXrXaXaXiXiXiXiXsXsXsXiXsXsXiXiXiXiXiXiXiXyXyXtXtX|. X X X X X X X.X.X.XtXtXkXkXkXlXlXzXzXzXMXSXFXKXKXKXLXLXLXLXLXLXLXFXFXFXFXFXFXFXzXzXzXsXiXrX].h.:.;.-.F F D Z a 9 9 5 1 1 # # # # @ @ @ * - * X                                                                                                                                                                                                                             ",
"                                                                                                                                                                                                                                                                        O % w a g s i w i i p s g O.;.,.[.eXrXaXaXiXiXiXiXiXsXsXsXlXlXsXsXsXpXpXpXiXiXiXiXyXtXtX X X X}.}. X X X X X X X XyXkXkXkXkXlXzXzXzXMXFXKXKXKXLXLXLXLXLXLXLXLXLXLXLXFXFXFXFXFXMXzXlXiXtXeXj.,.;.-.@.F D n a 9 9 5 1 , , # # # @ @ @ * - * X                                                                                                                                                                                                                             ",
"                                                                                                                                                                                                                                                                        + = i g g i w i i a a g ..-.,.[.eXaXaXiXiXiXsXsXsXsXsXsXlXlXlXlXlXlXjXjXkXpXiXiXyXtX X X X}.}._._._._.}.}. X X X X X.XkXkXkXkXlXzXzXMXFXKXKXLXLXLXPXPXPXPXLXLXLXLXLXLXLXFXFXFXFXzXzXsXtXeXj.h.:.;.@.F D Z a 9 9 3 1 1 1 & # # @ @ # * 8 * X                                                                                                                                                                                                                             ",
"                                                                                                                                                                                                                                                                      . = i g ..s i i i i p s g @.>.[.eXaXiXpXpXsXsXsXsXlXlXlXlXlXlXlXlXlXlXjXjXkXiXyXyX X X}._.^.^.^.^.^.^.^._._._._._. X X X X.XkXkXkXlXzXzXMXFXKXLXLXLXLXPXPXPXPXPXLXLXLXLXLXLXLXFXFXFXzXlXiXeXj.h.:.;.+.F D Z a 9 9 4 3 1 1 & # # # # # & * * @                                                                                                                                                                                                                             ",
"                                                                                                                                                                                                                                                                    . + : i O.l p i i i i a g O.;.,.].aXpXsXsXsXsXsXlXlXlXlXlXlXvXzXlXlXlXlXjXkXyXyX.X X}.^.k.k.k.k.k.k.k.k.k.~._._._._._._. X X X.XkXkXkXjXzXzXMXSXKXLXLXLXLXPXPXPXPXPXLXLXLXLXLXLXLXFXFXMXlXiXrX].h.:.;.+.F D Z a a 9 9 4 1 1 1 & # # # # # & 5 $                                                                                                                                                                                                                             ",
"                                                                                                                                                                                                                                                                    O = i g ..g i i i i p g O.-.,.].aXpXsXsXsXlXlXlXlXvXzXzXvXMXMXvXzXlXlXjXkXkX.X X}.^.k.g.k.g.p.p.p.k.k.k.k.k.~._._._._._._. X X X5X5XkXkXjXlXzXMXSXKXLXLXLXLXLXLXLXLXLXLXLXLXLXLXLXLXFXMXlXiXrX].h.:.;.+.X.D Z a a t 9 4 2 1 1 & & # # @ @ & 5 @                                                                                                                                                                                                                             ",
"                                                                                                                                                                                                                                                                  . O i s ..g i i i i i s g +.:.[.aXpXsXlXlXlXlXlXvXvXMXMXMXMXMXMXMXvXvXjXkXkX.X}.^.g.g.p.p.p.p.p.p.p.p.p.d.d.d.~._._._._._._._._. X5X5X5X3XkXkXkXlXbXSXKXKXLXLXLXLXLXLXLXLXLXLXLXLXLXLXFXMXzXiXtX].h.:.;.+.X.F Z a a a e 9 5 1 1 & & # # @ @ & 5 $ X                                                                                                                                                                                                                           ",
"                                                                                                                                                                                                                                                                  O = i g O.a i i w i i s O.;.[.rXiXsXlXlXlXvXvXvXvXMXMXMXMXMXMXMXMXvXlXjXkX X_.g.g.p.p.p.p.p.p.p.p.p.p.p.d.d.d.Z.).).).).).).).)._. X5X5X5X5X3XkXkXjXzXSXSXKXKXLXLXLXLXLXLXLXLXLXLXLXLXFXMXzXiXrX].h.:.;.+.X.F Z a a a e 9 5 1 1 & & # # # @ # * # X                                                                                                                                                                                                                           ",
"                                                                                                                                                                                                                                                                . O - g O.g i w w i i a g +.,.rXiXsXlXvXvXvXvXvXMXMXMXMXMXMXGXGXMXMXbXjXyX X_.g.i.p.p.p.p.p.p.p.p.p.p.p.d.Z.Z.Z.).).).).).).+X+X+X+X+X+X+X5X5X5X5X3XkXkXjXzXSXSXFXLXLXLXLXLXLXLXLXLXLXLXFXzXlXiXrX].h.:.;.+.X.F D a a a t 9 5 1 1 & & # # # @ @ * * X                                                                                                                                                                                                                           ",
"                                                                                                                                                                                                                                                                . % p ....a w w w i i s O.>.].iXsXlXvXvXvXVXMXMXMXMXMXMXBXFXFXBXMXbXjXyX X^.g.i.p.p.p.u.u.u.u.p.p.p.p.d.d.Z.Z.).).).).).OX+X+X+X+X+X+X+X+X+X+X+X5X5X5XhXkXkXlXzXMXFXFXFXFXLXLXLXLXFXFXFXzXlXiXtXrX].h.:.;.+.X.F Z n a a 9 4 3 1 1 1 & # # # @ @ # * $                                                                                                                                                                                                                           ",
"                                                                                                                                                                                                                                                              . O - l @.g i w w w i a D -.h.aXsXlXlXvXvXVXMXMXMXMXMXFXGXKXGXKXMXbXjXyX}.^.g.i.p.p.p.u.u.u.u.u.u.p.p.d.d.Z.Z.S.).).).).OXOX+X+X+X+XOX+X+X+X+X+X+X+X5X5X5X5XhXkXkXlXzXMXMXMXFXFXFXMXzXzXzXlXiXtXtXeXj.h.:.;.+.X.F A n a a a 9 5 1 1 1 & # # # # @ # 8 = X                                                                                                                                                                                                                         ",
"                                                                                                                                                                                                                                                              . % p @...i w w w i i s O.:.].pXlXlXvXVXVXMXMXMXMXMXBXKXKXKXKXBXMXlXkX X^.g.i.p.p.p.p.u.u.u.u.s.s.s.d.d.d.Z.S.S.).).OXOXOXOXOX+X+X+X+XOX+X+XOX+X+X+X+X+X5X5X5XhXjXjXzXlXlXzXzXzXzXlXlXsXiXiXrXrXrX].h.:.;.$.+.X.F Z Z a a t 7 4 1 1 1 & # # # # @ & 8 * $                                                                                                                                                                                                                         ",
"                                                                                                                                                                                                                                                              . - g @.g = w w w i p D -.[.aXlXvXvXvXVXMXMXMXMXMXGXGXKXKXKXKXMXzXkX X^.g.i.p.p.p.p.p.u.u.s.s.s.d.d.d.Z.Z.S.S.D.D.OXOXOXOXOXOXOXOXOXOXOX@X@XOXOX+X+X+X+X+X X5X3XhXjXkXkXkXkXkXiXkXiXiXtXrXrXrX|.].j.h.:.;.$.X.X.F D Z a a t 7 4 3 1 1 1 & # # # @ @ 8 8 $                                                                                                                                                                                                                         ",
"                                                                                                                                                                                                                                                            . + i ..@.p w w w w i s O.:.rXsXvXvXvXvXMXMXMXMXBXGXKXKXKXKXGXBXMXkX.X_.g.i.p.a.p.p.p.p.s.s.s.d.d.Z.d.Z.Z.S.S.D.P.OXOXOXOXOXOXOX@XOX@XOX@X@XOXOXOXOX+X&X:X).+X5X_. X X X.XkXkXyXtXtXtXtX|.[.].|.[.h.g.g.>.$.$.+.X.F Z Z a a a 9 4 5 1 1 1 & & # # @ @ * 8 $                                                                                                                                                                                                                         ",
"                                                                                                                                                                                                                                                            O - s +...w = w w i i g -.[.aXlXvXvXMXMXMXMXMXMXGXKXKXKXKXKXGXMXlXyX}.~.p.p.a.p.p.p.p.s.s.s.d.Z.Z.Z.Z.S.S.S.D.P.P.OXOXOXOXOXOX@X$X$X@X@X@X@X@X@XOXOX+X:X&XOX).3X_. X3X_. X.XkX.X X X|.|.[.h.h.g.g.g.g.>.$.$.$.X.X.D Z Z a a a 9 4 5 1 1 1 1 & # # @ @ * 8 * X                                                                                                                                                                                                                       ",
"                                                                                                                                                                                                                                                          O + i ..@.s = w w w i p ..>.eXpXlXvXVXMXMXMXMXMXBXGXKXKXKXKXKXBXvXkX X^.p.a.a.a.p.p.p.p.s.s.d.Z.Z.Z.Z.S.S.S.D.P.P.OXOXOXOXOXOX@X@X;X;X;X;X;X$X@X@X@XOXOX+X+XOX).&X5X_.3X}._._.5X}.^. X}.^.g.g.g.g.g.g.*.*.$.$.%.X.X.A A n a a a 9 4 5 3 1 1 1 & # # @ @ @ 8 - o                                                                                                                                                                                                                       ",
"                                                                                                                                                                                                                                                          O = s @...w : w w w i s @.,.aXsXvXvXMXMXMXMXBXGXKXKXKXKXKXKXKXMXjX.X}.k.p.a.a.p.p.p.p.d.d.Z.Z.Z.Z.Z.S.S.D.D.P.OXOXOXOXOXOXOX$X@X$X;X;X;X;X;X;X;X$X@X@XOXOXOX&X&X&X3X_._._.~.k.~._._._.^.g.g.g.g.i.*.*.*.%.%.%.%.X.X.A A n a a t 9 9 5 5 5 1 1 & # # @ @ @ 8 8 o                                                                                                                                                                                                                       ",
"                                                                                                                                                                                                                                                        . O - g +.s w = w w w p ..-.[.iXlXvXVXMXMXMXBXBXKXKXKXKXKXKXKXBXvXyX X^.k.p.a.p.p.p.p.p.d.B.Z.Z.S.S.S.D.).).).OXOXOXOX$X@X$X$X$X$X;X;X;X;X;X;X;X;X$X$X$XOXOXOXOX+X).). X3X5X~.~._._._.p.i.a.i.a.*.&.&.&.%.%.%.%.X.X.X.A Z n n a a t 9 4 4 3 1 1 1 & & # @ @ 5 8 *                                                                                                                                                                                                                       ",
"                                                                                                                                                                                                                                                        O o i O.@.p = w w w w p ..>.].pXvXvXMXMXMXMXBXGXKXKXKXKXKXKXKXMXjX.X}.~.p.a.a.p.p.p.p.d.d.Z.Z.S.S.S.D.D.OXOXOXOXOXOX$X$X$X@X@X$X;X,X,X;X,X;X;X;X;X$X$X$X@XOX;X&XOXOX).).&X_._._._._.k.a.t.&.` &.&.&.%.%.%.%.%.X.X.X.A A Z n n a a 9 9 4 3 3 1 1 1 1 & # # @ * i -                                                                                                                                                                                                                       ",
"                                                                                                                                                                                                                                                        . = s @.l w = w w w i s +.,.aXsXvXvXMXMXMXMXBXKXKXKXKXKXKXKXSXlXyX X^.k.p.a.p.p.p.p.p.d.B.Z.Z.S.S.S.D.).OXOXOXOX@X$X$X$X;X;X;X;X,X,X2X2X2X2X;X;X$X$X$X$X$X@X;X&XOX&XOXS.S.Z._._.p._._._.i.a.a.&.&.&.%._ _ %.( ( L L A A A n n r t t 9 4 4 3 3 1 1 1 & & # # * f 8 X                                                                                                                                                                                                                     ",
"                                                                                                                                                                                                                                                      . O - l @.p : : w w w p ..-.[.iXlXvXVXMXMXMXBXBXKXKXKXKXKXKXSXMXjX.X^.g.p.a.a.u.p.p.p.p.d.Z.Z.S.S.S.S.D.).OXOXOXOX$X$X$X;X;X;X;X,X1X1X1X1X1X1X2X2X;X$X$X$X$X$X@X@XOXOXOXD.S.S.B.d.p._.~.~.i.a.a.a.} ` _ _ _ _ ( ( L L A A A n n r r t 7 4 4 3 3 1 1 1 & & # # & 8 8 $                                                                                                                                                                                                                     ",
"                                                                                                                                                                                                                                                      . + i @...w = : w w p s ..>.].pXvXvXMXMXMXBXBXKXKXKXKXKXKXKXNXlXyX}.^.g.i.a.a.p.p.p.p.d.B.Z.Z.S.S.S.D.).OXOXOX@X@X$X;X;X;X1X1X1X1X1X1X1X1X1X1X2X1X1X;X$X;X$X$X@X$X@XP.P.P.D.S.S.Z.p.p.p.p.a.` ` ` ` _ _ _ _ ( ( L L L A A A n n r r t 7 6 4 4 3 3 1 1 1 & # # # 8 i *                                                                                                                                                                                                                     ",
"                                                                                                                                                                                                                                                      O = s @.s w = w w w p s @.,.aXpXvXvXMXMXMXBXBXKXKXKXKXKXKXAXbXjX.X^.g.i.a.a.a.u.p.p.p.d.B.Z.Z.S.S.S.D.).OXOXOX@X$X$X;X;X,X1X1X1X1X4X1X1X1X1X1X1X1X1X2X;X$X;X$X$X@X@XOXP.P.D.D.S.Z.)._._.p.t.` ` ` _ _ _ _ _ ( ( ( L C C A M n n n r t e 6 4 4 5 3 1 1 1 & # # # 8 i -                                                                                                                                                                                                                     ",
"                                                                                                                                                                                                                                                    . O - l ..p : : w w w p g +.[.aXpXvXvXMXMXBXBXBXKXKXKXPXKXKXNXvXkX X^.g.i.a.a.a.u.p.p.d.d.Z.Z.S.S.S.D.).OXOXOX@X@X$X;X;X,X1X1X1X1X4X4X4X4X4X1X1X1X1X2X1X2X;X;X$X$X@X$X@XP.P.D.S.S.Z.).).d.q.a.t.9.` ` ~ ~ ' ' ( ( Y L C C M M n n n n r t e 6 4 4 3 3 1 1 1 # # & 8 f i o                                                                                                                                                                                                                   ",
"                                                                                                                                                                                                                                                    . O i ....w = w w w w p ..>.[.aXpXvXvXvXMXBXBXGXKXKXPXPXKXAXbXjX.X}.~.g.i.a.a.a.a.p.p.d.B.Z.Z.S.S.S.D.).OXOXOX@X$X;X;X;X,X1X1X1X1X4X4X4X4X4X4X1X1X1X1X1X2X2X$X$X$X$X@X@XOXP.D.S.S.).).Z.u.u.u.q.9.| ` ~ ~ Q ( T Y Y H C C M M M n n r r t e 6 4 4 5 3 1 1 1 & & & 5 f i $                                                                                                                                                                                                                   ",
"                                                                                                                                                                                                                                                    . % s @.p = = w w w w p O.>.rXiXpXlXvXvXMXBXBXGXKXKXKXKXKXAXbXhX X^.g.i.a.a.a.a.a.p.p.s.d.Z.Z.S.S.S.D.OXOXOX@X@X;X;X;X,X1X1X1X1X4X4X4X4X4X4X4X4X1X1X1X1X1X2X;X$X;X$X$X@XOXP.P.D.D.).OXZ.s.u.u.q.9.9./ / ~ ~ Q T Y Y H H C M M M n n n t t t 7 6 4 5 5 5 1 1 1 & & 1 i i $                                                                                                                                                                                                                   ",
"                                                                                                                                                                                                                                                    O = ....w = = = w w w s @.,.|.aXpXlXvXvXMXMXBXGXKXKXKXKXAXNXjXyX}.^.g.i.a.a.t.a.a.u.p.s.d.Z.Z.S.S.S.).OXOXOX@X;X;X;X,X1X1X1X1X4X4X8X8X8X4X8X4X4X4X1X1X1X1X2X;X;X;X$X$X@X@XP.P.D.D.D.S.Z.s.u.u.q.q.9.9./ ~ ~ Q R T Y H H C N M M n n n r t r e 6 4 4 5 5 1 1 1 & # & 8 i *                                                                                                                                                                                                                   ",
"                                                                                                                                                                                                                                                    o w ....w = = w w w w s @.>.[.aXpXpXlXvXMXMXBXBXKXKXKXKXAXbXhX X^.~.i.i.a.t.t.a.a.u.p.s.d.Z.Z.S.S.D.).OXOX@X@X;X;X;X,X1X1X1X4X4X8X8X9X9X8X8X8X9X4X1X1X1X1X1X2X;X$X$X$X@X@XOXP.P.D.D.S.Z.B.s.u.q.q.9.9./ / ~ ~ R T Y Y H C N m M n n n r r r e 6 9 4 5 5 1 1 1 & # & 5 a 8                                                                                                                                                                                                                   ",
"                                                                                                                                                                                                                                                  O % p @.s w = : 2 w w i s @.>.[.|.aXpXpXlXvXMXMXBXBXKXAXAXbXjXyX}.^.g.i.a.t.t.t.t.a.u.p.s.d.Z.Z.S.S.D.).OXOX@X&X;X;X,X1X1X1X4X4X8X9X9X9X9X9X9X9X9X9X4X1X1X1X1X2X;X$X;X$X@X@X@XOXP.D.D.S.Z.B.s.u.u.q.q.9./ / ~ ~ R T Y Y H V B N m n v v r r r e 6 4 4 5 5 1 1 1 & # & 5 f 8                                                                                                                                                                                                                   ",
"                                                                                                                                                                                                                                                  O % s ..p = 2 2 2 w w i s O.;.,.[.|.aXuXpXlXvXMXMXBXBXBXNXvXhX X^.g.g.i.a.t.t.t.t.a.u.u.s.d.Z.Z.S.D.).OXOX@X@X;X;X;X,X1X1X4X4X8X9X9X0X9X9X9X9X9X9X9X4X1X1X1X1X2X;X$X$X$X$X@X@XOXP.D.D.S.C.B.s.u.u.q.q.9.] / ~ ~ R T Y Y H V N N m m v v r r r e 7 4 4 5 5 5 1 1 & & & 5 a 8 X                                                                                                                                                                                                                 ",
"                                                                                                                                                                                                                                                  O = s g w = = 2 2 2 w i a ..+.>.h.[.|.rXyXpXjXlXvXMXMXmXbXjX.X}.^.g.i.a.t.t.t.t.t.a.u.u.s.d.B.Z.S.D.).OXOX@X&X;X;X,X1X4X4X4X4X9X9X9X0X9X9X0X0X9X9X9X9X9X1X1X1X2X;X$X$X$X$X@X@X@XOXD.D.S.C.B.s.s.u.q.q.9.4./ ~ ~ R T Y I V V N N m m b v v r r e 7 6 4 4 5 3 1 1 & & & 5 i 5 $                                                                                                                                                                                                                 ",
"                                                                                                                                                                                                                                                  o = s s w = = = 2 2 w w i s ..+.>.h.[.[.|.aXyXpXpXlXvXlXjXyX|.^.g.i.i.t.t.t.9.9.t.q.u.u.u.s.B.Z.S.D.).OX@X@X&X&X,X,X4X4X4X4X8X9X9X0X0X0X0X0X0X9X9X9X9X9X1X1X1X2X2X;X;X$X$X$X@X@XOXP.D.S.S.B.B.s.u.q.q.9.4./ ~ ~ R T I H V V N N m m b v v r r e e 6 4 4 4 4 1 1 1 & & & i 8 $                                                                                                                                                                                                                 ",
"                                                                                                                                                                                                                                                  + : s p : = = = = 2 w w i a D ..$.>.>.g.[.|.|.aXyXuXpXuXyX|.^.g.i.i.t.&.&.t.9.9.9.q.u.u.u.d.B.S.S.D.).OX@X&X&X;X,X1X4X4X8X8X9X9X0X0X0X0X0X0X0X9X9X9X9X9X1X1X1X1X2X;X;X;X$X$X$X@XOXP.D.D.S.Z.B.s.u.q.q.9.4./ ~ Q R T I V V B N N m m b v v r r r e 6 4 4 4 4 1 1 1 & & & 8 i X                                                                                                                                                                                                                 ",
"                                                                                                                                                                                                                                                  + w p d : = & 5 2 2 w w i a s D X.$.$.>.g.g.[.[.|.|.yX|.}.^.g.g.*.&.&.&.&.} } 9.9.9.u.u.u.B.B.Z.S.).).OX@X&X;X,X,X4X4X4X8X9X0X0X0X0X0X0X0X0X0X9X9X9X9X9X8X1X1X1X1X,X;X;X$X&X$X@XOXP.D.S.S.Z.B.s.u.q.q.9.4./ ~ R E Y I S V V N N m m b v v r r r e 6 4 4 4 4 1 1 1 & & & a 8 X                                                                                                                                                                                                                 ",
"                                                                                                                                                                                                                                                o % w p w w = & = 2 2 w i i a s Z ..X.o.$.*.>.>.g./.[.[.[./.g.g.*.&.&.&.} &.` } 9.9.9.a.u.u.d.B.Z.S.).).@X&X&X;X,X,X4X4X8X8X9X0X0X0X0X0X0X0X0X0X9X9X9X9X9X8X7X1X1X1X2X;X$X;X$X$X@XP.D.D.S.S.B.s.s.u.q.q.9.4./ ~ R E Y I V V V N N m m b v v c r r e 6 6 4 4 4 1 1 1 1 & 5 i 8 X                                                                                                                                                                                                                 ",
"                                                                                                                                                                                                                                                o = p p w = & & 2 2 5 w i i y s Z K X.X.o.$.$.$.>.>.>.g.>.>.>.*.%.%.%._ } ` ` ` 9.9.t.a.u.p.p.B.Z.S.).).@X&X&X:X,X,X4X4X8X9X0X0X0X0X0X0X0X0X0X0X9X9X9X9X9X8X7X1X1X1X,X;X$X$X$X$X@XP.P.D.S.Z.B.s.s.u.q.q.9.4./ ~ R E Y I V V V N N N m b v v c r r e 6 6 4 4 4 1 1 1 1 & 5 8 i *                                                                                                                                                                                                                 ",
"                                                                                                                                                                                                                                                + : p p 0 : = & 2 w w w i a a s Z ..X.X.o.o.%.%.$.$.$.$.$.$.%.%.%._ _ ` ` ` ` ` 9.9.t.a.u.p.p.Z.Z.).).).@X&X&X:X,X4X4X8X9X0X0X0X0X0X0X0X0X0X0X0X0X9X9X9X9X9X8X1X1X1X,X;X$X$X$X@X@XP.D.D.S.Z.B.s.u.w.q.9.9.4./ ~ R E Y I V V V N N m m b v v c r r e 6 6 4 4 4 3 1 1 1 1 & 8 i *                                                                                                                                                                                                                 ",
"                                                                                                                                                                                                                                                + i p d w 2 2 2 w w w w w y s s K ..X.X.o.o.o.o.o.o.o.X.X.X.L L L L ( _ _ _ ` ` ` 9.t.t.a.p.p.Z.Z.).).).@X&X&X:X,X4X4X8X9X0X0X0X0X0X0X0X0X0X0X0X0X9X9X9X9X8X8X1X1X1X2X;X$X$X$X@X@XP.D.S.C.Z.B.s.u.q.q.9.4.` ~ ~ R R Y Y V V C C N m m b v v c r r e 6 6 4 4 4 3 1 1 1 & & 8 g $                                                                                                                                                                                                                 ",
"                                                                                                                                                                                                                                              O = p p w w 2 2 2 w w w d y s s Z K ..X.X.o.o.X.X.X.X.L L K Z L L H H H ( ( ( _ ` ` 9.t.t.t.a.p.p.Z.Z.).).OX&X&X:X,X4X4X8X9X0X0X0X0X0X0X0X0X0X0X0X0X9X9X9X9X9X8X1X1X1X,X;X$X$X$X@X@XP.D.S.C.B.s.s.u.q.q.9.4.` ~ ' R R Y I V V C C N m m v v v c r r r 6 6 4 4 4 3 1 1 1 # & i i *                                                                                                                                                                                                                 ",
"                                                                                                                                                                                                                                              + : s s w w w w w w w d y s s Z ......X.o.o.o.X.X.X.L L K Z C C C C H H H Y Y ( ( ` ` } t.t.a.p.p.Z.Z.).).).@X&X;X,X4X4X4X8X0X0X0X0X0X0X0X0X0X0X0X0X9X9X9X9X9X8X1X1X1X;X%X$X$X$X@XP.P.S.S.Z.B.s.s.u.q.q.9.4./ ~ ' R R Y I V C C C N m m v v c c r e e 6 6 4 4 3 3 1 1 1 # * 8 8 *                                                                                                                                                                                                                 ",
"                                                                                                                                                                                                                                              + i s d w w w w w w y s s s ......o.o.o.o.o.o.o.X.L L K K Z C C C B H H H H H Y Y ( ' ` } t.t.a.p.p.Z.).).).OX&X;X:X4X4X4X8X9X0X0X0X0X0X0X0X0X0X0X0X9X9X9X9X9X8X1X1X,X;X;X$X$X@X@XP.D.S.C.Z.B.s.s.w.q.9.9./ / ~ ' R Y I I V C C N N m b v v c c r r r 6 6 4 4 4 3 1 1 , # # 5 i $                                                                                                                                                                                                                 ",
"                                                                                                                                                                                                                                            . = p s d w w w w w i s s ......@.+.+.$.$.$.$.$.$.o.X.L K K Z C C B B H H H H H I I Y ( ' ` ` ` t.t.a.p.Z.S.).).@X&X:X,X4X4X8X8X0X0X0X0X0X0X0X0X0X0X0X9X9X9X9X9X8X1X1X,X;X$X$X$X@X@XP.D.S.C.B.B.s.w.w.q.9.4.` ~ ~ R Y Y I S V C C N m b b v v n c t r e 6 6 4 4 4 3 1 1 , # # 8 8 o                                                                                                                                                                                                                 ",
"                                                                                                                                                                                                                                            + i s p w w w w w d y s ....@.+.$.>.>.>.>.>.>.*.*.$.%.X.L K C C M M B J H H H Y I I Y ( ( ' ` ` ` 4.9.t.p.Z.Z.).).@X;X:X,X4X4X8X9X0X0X0X0X0X0X0X0X0X0X9X9X9X8X8X1X1X1X,X;X$X$X$X@XP.D.S.S.Z.B.s.u.w.q.q.9.4.` ~ ' R Y I I V C N N m b b b v v n c r r e 6 6 4 4 3 3 1 , , # & 8 8 $                                                                                                                                                                                                                 ",
"                                                                                                                                                                                                                                            + p s p w w w w w i s ....@.+.>.>.>.,././.g.g.g.>.>.$.%.X.L L L M B B C H H H Y Y I Y ( ( ( ' ' ` ` ` 4.9.t.p.Z.S.).+X;X:X,X4X8X8X0X0X0X0X0X0X0X0X0X9X9X9X9X9X8X1X1X,X,X$X$X$X@X@XP.D.S.C.B.B.s.w.q.q.9.9.4./ ~ ' E Y I H V C N N m b b v v v n t r r e 6 6 4 4 3 3 1 , # # & i 8 =                                                                                                                                                                                                                 ",
"                                                                                                                                                                                                                                          o : s s d w w w w w y s ..o.+.>.>./.[.[.[.[.[.[././.g.>.$.%.X.L L C B V H H H H Y Y Y Y ( ( ( ' ' ' ~ ' / ` 4.9.q.p.Z.).OX@X:X,X4X8X8X0X0X0X0X0X0X0X0X9X9X9X8X8X4X1X,X,X;X$X$X@X@XP.D.D.S.Z.B.s.u.w.q.q.9.9.` ~ ~ ' R Y I V C B N m m b b v c n c t e r 6 6 6 4 4 3 3 1 , # # & i 8 X                                                                                                                                                                                                                 ",
"                                                                                                                                                                                                                                          + i s p d w w w w y s D O.+.>.,.[.[.|.|.|.|.|.|.|.}.^.g.>.$.o.L L H J H H H Y Y I Y Y R R ( ( ' ' ' ' ~ ~ / / / 4.9.q.s.Z.).OX&X:X4X4X8X0X0X0X0X0X0X9X9X9X8X9X4X1X,X,X;X$X&X$X@XOXP.D.S.Z.B.B.s.w.q.q.9.9.4.` ~ ' R Y Y I V C C N m b b v v v v r r e 7 7 7 7 4 3 3 1 1 , # # 5 f *                                                                                                                                                                                                                   ",
"                                                                                                                                                                                                                                          = s s y w w w w d s s ..@.;.>.[.|.aXyXuXuXuXyXyXXXXX|.^.g.$.%.L L H H H H H Y Y Y Y Y R ( ( ( ' ' ' ~ ~ / / / / / 4.4.9.q.s.Z.).OX&X:X4X4X8X8X8X9X9X9X9X8X9X8X1X,X,X;X$X$X$X@X@XP.D.S.S.Z.B.s.u.w.q.q.9.9.` / ~ R E Y I V V V N N m b b v v v c r e e 7 7 7 7 4 3 3 1 , , # # 5 i -                                                                                                                                                                                                                   ",
"                                                                                                                                                                                                                                        o : s s d w w w d y s D o.+.>./.[.aXuXpXjXjXjXjXjXuXyX|.[.g.*.%._ L L H H Y Y Y Y Y Y R R ( ( ' _ _ ` ` ` ` ` 4.4.4.4.4.4.9.9.q.u.d.S.OX&X,X,X4X4X8X8X8X8X8X8X1X,X,X,X$X$X$X@X@XP.P.D.S.C.B.B.u.u.q.q.9.9.4./ ~ ~ R Y Y S V C N N m b b b v v v c r e e 7 7 7 4 4 3 3 1 , , # # 8 i -                                                                                                                                                                                                                   ",
"                                                                                                                                                                                                                                        + i s p d w w w d y s ..+.>.>.[.rXuXjXxXvXvXvXbXvXjXhXyX}.g.*.%._ ( ( L T T Y Y T T R R R ' _ _ _ ` ` ` ` 4.4.9.9.9.9.4.5.4.4.5.9.q.u.d.S.OX&X;X,X,X4X4X4X4X1X,X,X;X;X$X@X@XOXP.P.D.S.S.Z.B.s.u.u.q.q.9.4./ ~ ~ R E Y I V C C N m m b b v v v c c r e e 7 7 7 3 3 3 1 1 1 1 & # * f ;                                                                                                                                                                                                                   ",
"                                                                                                                                                                                                                                      o = s s p d w w d y s s ..+.>./.|.uXjXvXbXbXmXmXbXbXbXjXyX}./.g.*._ _ ( ( ( T T T R R ( ( ' ' _ _ ` ` ` ` ` 4.9.9.9.9.9.9.9.9.9.5.5.5.9.q.w.s.S.).OX;X,X,X,X,X,X;X;X&X$X@XOXOXP.D.D.S.S.Z.B.s.u.u.q.q.9.9./ ~ ~ R E Y Y S V C C N m b b v v c c r r e e 7 7 7 7 4 3 1 1 1 1 1 # # i f o                                                                                                                                                                                                                   ",
"                                                                                                                                                                                                                                      o i s p d d w w d y s ..@.;.>.[.aXjXvXmXNXNXNXNXNXbXbXjXyX}./.g.*.%._ _ ( ( ( R R R ( ( ' _ _ ` ` ` ` ` ` 4.9.9.9.9.9.9.9.q.q.9.9.9.5.5.5.9.q.q.s.Z.D.OX&X;X;X&X&X$X$X@XOXP.D.D.D.S.S.Z.B.s.u.u.u.q.9.9.4./ ~ Q E E I S S C C C N b b b v v c r r e e 7 7 7 7 4 3 3 3 1 1 1 1 # & i i %                                                                                                                                                                                                                   ",
"                                                                                                                                                                                                                                      % i s y d w d w y s s ..+.>./.|.uXjXbXNXBXBXNXNXNXNXbXjXyX}.~.g.*.&.%._ _ _ _ ' ( R ( _ _ _ ` ` ` ` ` 4.4.9.9.9.9.9.9.q.q.q.q.q.q.q.9.9.9.9.5.9.q.q.u.d.S.).OXOXOXOXOXP.D.D.D.S.S.S.Z.B.s.u.u.u.9.9.9.4./ / ~ R E I S V V B N N b b b v v c r r e r 7 6 6 7 7 4 3 3 1 1 1 1 & # $ i i $                                                                                                                                                                                                                   ",
"                                                                                                                                                                                                                                    o = s s p d w d d y s ..@.$.>.[.rXpXvXmXNXBXBXAXNXNXNXbXjXyX}.~.g.*.&.&.} } ` ` _ _ ' _ _ _ ` ` ` ` 4.9.9.9.9.9.q.q.9.9.q.q.q.q.q.q.q.q.q.q.q.q.9.9.6.9.q.w.u.B.B.Z.S.S.S.S.S.S.S.Z.Z.B.s.u.u.u.9.9.9.4./ ~ ~ R E I I V V B N N b b b v v c r r r e 7 6 6 6 6 4 3 3 1 , 1 1 1 & @ * i i .                                                                                                                                                                                                                   ",
"                                                                                                                                                                                                                                    + i s p d d w d i s s ..+.>.,.[.yXjXbXNXBXBXAXAXAXNXNXbXjX.X}.g.i.*.&.&.&.} ` ` ` ` ` ` ` ` ` ` 4.t.9.9.9.9.9.9.q.q.q.q.q.q.q.q.q.q.q.q.q.q.q.q.q.9.9.9.9.6.9.9.q.q.w.u.s.s.B.B.B.d.s.s.u.u.q.q.9.9.` ` ~ ~ R E I I V V B N m b b b v c c r r r r 7 6 6 6 4 4 4 3 3 1 1 1 , 1 & & - f *                                                                                                                                                                                                                     ",
"                                                                                                                                                                                                                                    + p s p d d d d y s D O.+.>.[.|.pXvXvXNXBXBXAXAXBXNXNXvXuX|.^.g.i.i.&.&.&.} } ` ` ` ` } &.&.t.t.t.t.t.t.t.t.q.q.w.u.u.u.u.u.u.w.q.q.q.w.w.w.q.q.q.q.q.q.9.6.6.5.5.5.5.6.9.9.q.u.u.u.u.u.q.9.9.9.9.4.` ~ R E E Y I V V B N m b b c c v c r r r r e 6 6 6 6 4 4 3 3 1 1 , , , # & & 8 i *                                                                                                                                                                                                                     ",
"                                                                                                                                                                                                                                  o = s p d q d w i p s ..@.;.>.[.aXjXvXMXBXBXBXAXAXAXNXbXjXyX}.^.g.i.a.&.&.&.&.&.&.} } 9.t.t.t.t.a.a.a.a.a.u.u.u.u.u.u.u.u.u.u.u.u.u.u.u.u.u.u.w.w.w.q.q.q.9.6.6.5.5.5./ / / / 5.9.9.q.q.9.9.9.9.9.4.` ~ ' R T Y I V V N N b b b c c c c c r r r e 6 6 6 6 6 4 4 3 3 1 1 , , , # & & 8 i o                                                                                                                                                                                                                     ",
"                                                                                                                                                                                                                                  + i s s d q q d y s s ..+.>.h.[.yXvXbXNXBXBXAXAXAXNXNXbXjX.X}.~.g.i.&.&.&.&.&.&.&.t.t.t.t.t.a.a.a.p.p.u.u.u.u.u.u.s.s.s.s.s.s.s.u.s.s.s.s.s.s.s.u.w.w.w.q.9.9.6.5.5.5./ / / / / / / 5.4.4.` ` ` ` ` _ ( R T Y I V V N N b b b v c c c c r r r e e 6 6 6 6 6 4 4 3 3 1 , , , , # & * f - o                                                                                                                                                                                                                     ",
"                                                                                                                                                                                                                                  = p s d q q q q y s ..@.+.>.[.|.pXvXmXBXBXBXAXAXAXBXNXvXuX|.^.g.i.i.a.&.&.&.&.&.t.t.t.t.a.a.a.p.p.p.p.d.d.d.B.B.Z.Z.Z.B.B.B.B.B.s.s.s.s.s.s.s.s.s.u.u.u.q.9.9.6.5.5.5./ / / / / / ~ ~ ~ ~ ~ ~ ~ ' ' ( ( Y Y I C B N N b b b v v c c r r r r e e 7 6 6 6 4 4 4 4 3 1 1 , , , , # # 8 i -                                                                                                                                                                                                                       ",
"                                                                                                                                                                                                                                o : s s d q q q q s s ..@.$.>.[.aXjXvXMXNXBXAXAXAXAXNXbXjXyX}.^.g.i.i.a.&.&.&.&.t.t.t.t.a.a.a.u.p.p.p.Z.Z.Z.Z.S.S.S.S.S.S.S.S.S.S.Z.B.B.B.B.B.s.s.s.u.u.u.q.9.9.9.5.5.5./ / ~ ~ ~ ~ ' ' E E R R R R Y Y Y S C C C N N b b b v c c c r r r r 6 e 7 6 6 6 4 4 4 4 3 3 1 1 , , , , # # 8 i =                                                                                                                                                                                                                       ",
"                                                                                                                                                                                                                                + p s s d q q q d s s ..+.>.h.|.uXvXvXNXNXBXAXAXAXAXNXbXjX.X}.~.i.i.&.&.&.&.&.&.t.t.t.a.y.a.u.p.p.d.Z.Z.Z.S.S.D.).).).).).).).).D.D.S.S.Z.Z.Z.B.s.s.s.u.u.q.9.9.9.4.4.5.5./ / ~ ~ ' ' E E E I I I S V V C C C C N m b b b v c c r r r r r 6 6 7 6 6 4 4 4 4 4 3 3 1 1 , , , , # # & i 8 =                                                                                                                                                                                                                       ",
"                                                                                                                                                                                                                              + : p s d q q q d y s K o.+.>./.|.pXvXmXNXNXAXAXAXAXAXNXvXhX X^.g.i.i.&.&.&.&.&.&.t.t.t.a.a.u.p.p.d.Z.Z.Z.S.D.D.).OX@X@X@X@X@X@X@XOXOX).D.D.S.S.Z.B.B.s.s.u.q.9.9.4.4.4.5.5./ / / ~ ' ' E E E I S V V V B C C N m b b b v v c c c r r r r 6 6 6 6 6 4 4 4 4 4 4 3 3 1 , , , , , # @ 8 i - o                                                                                                                                                                                                                       ",
"                                                                                                                                                                                                                              + : s s d q q q y u s ..o.$.>.[.aXjXbXbXNXAXAXAXAXAXAXbXjXyX}.^.g.i.i.&.&.&.&.&.t.t.t.t.a.a.p.p.d.Z.Z.Z.S.D.D.).OX@X&X&X&X&X;X;X;X&X@X@XOXOXD.D.S.S.Z.B.s.u.q.q.9.5.4.4.5.5.5./ / ~ ' R R Y Y I V V B B N N N b b b v v v c c r r r r r 7 6 6 7 4 4 4 4 4 4 4 4 3 1 1 , , , , # # # 8 i *                                                                                                                                                                                                                         ",
"                                                                                                                                                                                                                              + p s s d q d d y s s ..+.<.h.[.yXjXbXbXAXAXAXAXAXAXNXbXhX.X}.~.i.i.a.&.&.&.&.&.t.t.t.t.a.a.p.p.d.Z.Z.S.D.D.).OX@X&X&X;X,X,X,X,X,X,X;X;X&X@X@XOXD.D.S.Z.B.u.u.q.9.9.4.5.5.5./ / / ~ ' R Y Y Y S V B N N N N b b b v v v c c r r r r r 6 6 6 7 7 4 4 4 4 4 4 3 3 1 1 , , , , # # @ & i i =                                                                                                                                                                                                                         ",
"                                                                                                                                                                                                                            + : s s d q q d y y s K ..+.>./.|.uXvXbXNXAXAXAXAXAXAXNXvXuX|.^.g.i.i.a.&.&.&.&.t.t.t.t.a.y.u.p.p.Z.Z.Z.S.D.).).@X&X&X:X,X,X4X4X4X4X4X,X,X,X;X;X&X@XOX).S.Z.s.u.q.9.9.4.4.5.5./ / / ~ ' R Y Y Y S V N N N N m b v v v c c r r r e e 6 6 6 6 7 4 4 4 4 4 4 4 3 3 3 1 1 , , , , # # @ - i i o                                                                                                                                                                                                                         ",
"                                                                                                                                                                                                                            + w s s d q d y y u s K X.$.>.[.aXjXbXmXNXAXAXAXAXAXAXmXjX.X}.^.g.i.&.&.&.&.&.&.t.t.t.t.a.a.u.p.d.B.Z.Z.S.D.).OX@X&X;X,X4X4X8X8X8X8X8X8X8X4X,X,X;X;X@X@X).S.B.s.u.q.9.9.4.5.5./ / ~ ' ' R E Y I S V N N N m b b v c c r r r r r e 7 6 6 6 6 4 4 4 4 4 4 3 3 3 3 3 1 , , , , # # # & 8 i =                                                                                                                                                                                                                           ",
"                                                                                                                                                                                                                            = p j y d q q y u s j ..o.*.g.[.uXxXbXnXAXAXAXAXAXAXAXbXhX.X^.g.i.a.&.&.&.&.&.&.t.t.t.a.a.u.u.p.Z.B.Z.S.D.D.).OX@X&X,X,X4X4X8X8X8X8X8X8X8X8X8X4X,X,X;X&XOXD.Z.s.u.q.9.9.9.4.4./ / ~ ' R E T Y I V V N N N m b v v c c r r r 6 6 7 6 7 4 7 4 4 3 3 3 3 3 3 1 1 1 1 1 , , , , # & # & i i *                                                                                                                                                                                                                           ",
"                                                                                                                                                                                                                          + : j j d d q d y u s K ..+.>./.|.uXxXbXnXAXAXAXAXAXAXnXcXyX}.^.g.i.&.&.&.&.&.&.t.t.t.t.t.a.u.u.p.Z.B.Z.S.D.).).@X&X&X:X,X4X4X8X8X8X8X8X8X8X8X8X8X4X,X,X;X@XD.S.B.s.u.q.9.9.9.4.4./ ~ ' R E Y Y H V B N N N m b v v c r r r 6 6 6 6 7 4 4 4 3 3 3 3 3 3 3 1 1 1 1 1 , , , , 1 & & @ 5 i i                                                                                                                                                                                                                             ",
"                                                                                                                                                                                                                          = p j s d d q y y s s ..X.$.>.[.aXjXbXmXNXAXAXAXAXAXAXbXjX.X}.g.i.t.&.&.&.&.&.&.t.t.t.a.a.u.u.u.d.Z.Z.Z.D.D.).).@X&X&X:X,X4X8X8X8X8X8X8X8X8X8X9X8X8X8X,X;X$XOXD.Z.s.u.q.q.9.9.9.4./ ' ' R E Y I V V N N N m b v v c r r r 6 6 6 6 7 4 3 3 3 3 3 3 3 3 3 1 1 1 1 1 , , , , 1 & & & = i f =                                                                                                                                                                                                                             ",
"                                                                                                                                                                                                                        o = p j s d q q y u s K ..o.<.,.[.yXjXbXnXAXAXAXAXAXAXZXcXhX X^.g.a.&.&.&.&.&.&.&.t.t.t.t.a.u.u.u.d.B.Z.S.D.D.).).@X&X:X,X4X4X8X8X8X8X8X8X8X8X8X8X8X8X8X1X,X&XOXD.S.B.s.u.q.q.9.9.4./ / ~ ' R Y I V B N N N m b v c r r r 6 6 6 6 6 4 3 3 3 3 1 1 1 1 1 1 1 1 1 1 1 , , , , 1 1 & & * i i *                                                                                                                                                                                                                             ",
"                                                                                                                                                                                                                        + > j j y d d y y s s K ..+.>./.|.uXxXbXNXAXAXAXAXAXAXmXjX.X}.~.i.t.&.&.&.&.t.&.t.t.t.t.y.u.u.u.u.d.Z.Z.S.D.D.).OX@X&X,X,X4X4X8X8X8X8X8X8X8X8X8X8X8X8X4X1X,X;X@XD.S.Z.B.s.u.u.q.9.9.4./ ~ ~ R R I V B N N m b v v c r r r 6 6 6 4 4 4 3 3 3 1 1 1 1 1 1 1 1 , , , , , , , , 1 & & @ i f i                                                                                                                                                                                                                               ",
"                                                                                                                                                                                                                        = p j s y d d y u s s ..X.$.>.[.yXjXbXbXAXAXAXAXAXAXZXbXhX.X_.g.a.&.&.&.&.t.t.9.9.9.t.t.a.u.u.u.p.B.B.Z.S.D.).).OX@X&X,X,X4X8X8X8X8X8X8X8X8X8X8X8X4X1X,X,X;X&X@XP.D.S.B.s.s.u.u.q.9.9.` / ' R R Y H V B N m b v c r r r e 6 6 7 4 4 3 3 3 3 1 1 1 1 1 1 1 1 1 1 1 , , , , # & & @ - f f %                                                                                                                                                                                                                               ",
"                                                                                                                                                                                                                      O : s j u y y y y u s K ..o.*.g.|.yXjXbXnXAXAXAXAXAXAXnXcXhX}.^.i.t.&.&.&.&.t.t.t.9.t.t.t.u.u.u.u.d.Z.Z.S.D.D.).).@X@X&X,X:X4X8X8X8X8X8X8X8X8X8X8X4X1X,X,X;X;X@X@XD.D.S.Z.B.s.u.u.q.9.9.9.` ~ ' R Y H V B N m b v c r r r e 6 6 4 4 4 3 3 3 1 1 1 1 1 1 1 1 , , , , , , , # & & @ @ i f 8                                                                                                                                                                                                                                 ",
"                                                                                                                                                                                                                      + w l j y y y y u s s K ..+.>./.|.uXvXbXNXAXAXAXAXAXZXbXjX.X}.~.a.&.&.&.&.&.t.t.9.9.t.t.q.u.u.u.p.B.B.Z.S.A.D.).).@X@X&X,X,X4X8X8X8X8X8X8X8X8X8X4X4X1X,X,X;X$X@XP.D.S.S.B.B.s.u.u.q.q.9.9.` ` _ ( T H V B B m m v v r r r 6 6 6 4 4 4 3 3 3 1 1 1 1 1 1 1 1 , , , , , , # # & & @ % h i =                                                                                                                                                                                                                                 ",
"                                                                                                                                                                                                                      = s ..s y y y y u s K K o.$.>.[.aXjXbXbXNXAXAXAXAXAXZXcXhX X^.i.&.&.&.&.&.&.t.t.9.9.t.t.u.u.u.u.p.Z.Z.Z.S.D.D.).).@X&X;X:X,X4X8X8X8X8X8X8X8X8X8X4X1X1X,X;X;X$X@XD.D.S.Z.B.B.s.u.u.u.q.9.9.} ` ` _ ( Y C B C M m b c r r e 7 6 7 4 4 3 3 3 3 1 1 1 1 1 , , , , , , , , # # # & # & i f =                                                                                                                                                                                                                                   ",
"                                                                                                                                                                                                                    + > j j y q y y y u s K K o.*./.|.uXjXbXnXNXAXAXAXAXZXmXcX3X}.~.i.&.&.&.} &.9.t.t.9.t.t.u.u.u.u.u.p.B.Z.Z.S.D.).).).@X&X;X:X,X4X8X8X8X8X8X8X8X8X4X1X1X,X,X;X&X@XOXD.S.S.Z.B.B.s.u.u.u.q.t.9.9.` ` _ ( Y H C C M m v v r r e 7 6 6 4 4 3 3 3 1 1 1 1 1 1 , , , , , # , , # # # # & - h 8 $                                                                                                                                                                                                                                   ",
"                                                                                                                                                                                                                    + p ..j y y y u u u s K ..+.>./.|.uXxXbXnXAXAXAXAXAXZXbXhX.X_.~.a.&.} } } } 9.t.t.t.t.u.a.u.u.u.p.B.B.Z.Z.S.D.D.).OX@X&X;X:X,X4X8X8X8X8X8X8X8X4X4X,X,X,X,X;X$X@X).D.S.Z.B.B.B.u.u.u.q.q.9.9.4.` ` _ ( T Y C C N m v c r r e 7 6 7 4 4 3 3 1 1 1 , , , , , , , , # # , # # # # # @ i i -                                                                                                                                                                                                                                     ",
"                                                                                                                                                                                                                    = j ..s d y y u u u K K X.$.>.[.yXjXbXnXNXAXAXAXAXAXZXcXhX X^.i.t.&.} } } &.t.t.t.t.y.a.u.u.u.u.p.Z.Z.Z.S.D.D.).).@X@X&X;X:X4X4X4X4X8X8X8X8X4X4X1X,X,X,X;X&X@X@XD.D.S.Z.B.B.s.u.u.u.q.9.9.9.` ` ` _ ( T Y H C N m v v c r e 7 6 7 4 4 3 3 1 1 1 , , , , , , , , # # # # # # # @ i f i                                                                                                                                                                                                                                       ",
"                                                                                                                                                                                                                  + p l K d d y y u u u K K o.*.g.|.yXxXbXnXAXAXAXAXAXAXmXxX.X}.~.i.&.&.} } } &.t.t.t.a.a.u.u.u.u.p.p.Z.Z.Z.S.D.D.).).@X@X&X;X:X4X4X4X4X8X8X8X8X4X1X,X,X,X,X;X&X@XOXD.S.Z.Z.B.B.u.u.u.q.9.9.9.9.` ` _ ' ( T Y H C N m v v c r e 7 9 7 4 4 3 3 1 1 1 1 , , , , , , # # # # # # # # * f i =                                                                                                                                                                                                                                       ",
"                                                                                                                                                                                                                  = p ..j y y y u u u j K K +.>./.|.uXxXbXnXAXAXAXAXAXZXcXhX.X_.M.a.&.} } } } &.t.t.t.y.a.u.u.u.u.p.Z.Z.Z.Z.S.D.D.).).@X@X&X;X,X4X4X4X4X4X4X4X4X1X,X,X,X,X;X&X@X@XD.D.S.Z.B.B.B.u.u.u.q.9.9.9.` ` ` ' ( T Y H C C N M b c c r e 7 7 7 4 3 3 3 1 1 1 1 , , , , , , # # # # # # # & 8 f -                                                                                                                                                                                                                                         ",
"                                                                                                                                                                                                                + = l ..s y y u u u s K K o.$.>.^..XjXcXbXZXZXAXAXAXZXZXcX3X}.~.i.&.} } } } } t.t.t.a.y.u.u.u.u.u.m.Z.Z.Z.S.A.D.).).).@X&X&X:X,X4X4X4X4X4X4X4X4X,X,X,X,X,X;X&X@XOXD.S.S.Z.B.B.m.u.q.q.q.9.9.9.` ` ` ( R T Y H C N m m v c c r t 7 7 7 3 3 3 1 1 1 1 1 , , , , , # # # # # # # # 5 f h o                                                                                                                                                                                                                                         ",
"                                                                                                                                                                                                                + p ..K y y y u u u j K K o.*.g.|.uXjXbXmXZXZXZXAXAXZXbXhX.X}.~.a.&.} } } } } t.t.t.y.y.u.u.u.u.u.B.Z.Z.Z.S.D.D.).).OX@X&X&X:X,X4X4X4X4X4X4X4X,X,X,X,X,X;X&X@X@X).D.S.Z.Z.B.B.u.u.w.q.9.9.9.` ` ` _ ( R Y Y H B m m b v c r r t 7 7 7 3 3 3 1 1 1 1 , , , , , , # # # # # # # * i f O                                                                                                                                                                                                                                           ",
"                                                                                                                                                                                                                = s ..s y u u u u u K K ..+.>./.|.hXcXbXZXZXZXAXAXAXZXcXhX X^.p.a.&.} } } } &.t.t.y.y.a.u.u.u.u.m.Z.B.Z.Z.A.D.D.).).OX@X&X;X,X,X,X4X4X4X,X4X,X,X,X,X,X;X&X@X@XOXD.D.S.Z.Z.B.B.u.u.u.q.9.9.9.4.` ` ' R T T H C B m b b n c r r t 7 7 3 3 3 3 1 1 1 1 , , , , , # # # # # # # # 8 f 8                                                                                                                                                                                                                                             ",
"                                                                                                                                                                                                              + : l ..u y y u u u s K K o.$.>.[..XjXcXmXZXZXZXAXAXZXZXcX3X}.~.i.t.} } } } } &.t.t.y.a.u.u.u.u.p.B.B.Z.Z.S.A.D.D.).).@X@X&X;X:X,X,X,X,X,X,X,X,X,X,X,X;X;X&X@XOX).D.S.Z.Z.B.B.B.u.u.q.9.9.9.9.` ` ` ' R T Y H V B m b n c r r r 7 7 7 3 3 3 1 1 1 1 1 , , , , , # # # , # # # # f i -                                                                                                                                                                                                                                             ",
"                                                                                                                                                                                                              + p ..K y y u u u u Z K K o.$.g.|.uXxXbXmXZXZXZXAXAXZXbXhX.X_.k.a.&.} } } } } t.t.y.y.u.u.u.u.u.B.Z.B.Z.Z.A.D.D.D.).`.@X@X&X:X:X,X4X,X,X,X,X,X,X,X,X;X;X&X@X@X).D.D.Z.Z.B.B.B.u.u.u.q.9.9.9.` ` ` ' ( R T Y H B N m b v c r r t t 7 4 3 3 3 3 1 , 1 , , , , , # # , # , # # # 5 i 8                                                                                                                                                                                                                                               ",
"                                                                                                                                                                                                              : s ..u y y u u u s K K ..+.>./.XXhXxXbXnXZXZXAXAXAXZXcXhX X^.i.t.} } } } } &.t.t.y.y.u.u.u.u.m.B.Z.Z.Z.S.A.D.D.).).`.@X&X&X,X,X,X,X,X,X,X,X,X,X,X,X;X;X@X@XOX).D.S.Z.B.B.B.u.u.u.w.q.9.9.9.` ` ` ' R T T Y C B m m b v c r e t 7 7 4 3 3 3 1 1 , 1 , , , , # # # , # # # # # 5 8 -                                                                                                                                                                                                                                               ",
"                                                                                                                                                                                                            + : l K u y y u u s Z K K o.$.>.[.yXjXcXbXZXZXZXZXAXZXmXjX3X}.~.a.&.} } } } } t.t.t.y.u.u.u.u.u.m.Z.B.Z.Z.S.D.D.D.).).@X@X&X;X:X:X:X,X,X,X,X,X,X,X,X;X;X&X@XOX).D.S.Z.B.B.B.u.u.u.w.q.9.9.9.4.` ` ` ' R T Y H V C m m v v r r e 7 7 7 4 3 3 3 1 1 , 1 , , , , , , # , , # # # # 8 8 *                                                                                                                                                                                                                                               ",
"                                                                                                                                                                                                            + p l j y y y u u u Z K K o.*.g.|.uXxXbXnXZXZXZXAXAXZXcXhX.X_.k.a.&.} } } } t.t.t.y.y.u.u.u.u.u.B.B.B.Z.Z.A.D.D.D.).`.@X@X&X;X:X:X:X:X,X,X,X,X,X,X;X;X&X@X@X).D.D.S.Z.B.B.s.u.u.u.w.q.9.9.9.` ` ` ' R R T Y J B B m b v c r e e 7 7 4 4 3 3 3 1 1 , , , , , , # # , , , # # # 5 i =                                                                                                                                                                                                                                                 ",
"                                                                                                                                                                                                          + : s ..y d y u u u s Z K K +.>./.XXuXxXbXnXZXZXZXAXZXZXcXhX X^.i.t.} } } } } t.t.y.y.y.u.u.u.u.m.Z.Z.Z.Z.S.A.D.D.).).`.@X&X&X;X:X:X:X:X,X,X,X:X:X;X;X&X&X@XOX).D.S.Z.B.B.s.s.u.u.q.q.q.9.9.4.` ` ~ ' R T T Y V B N m v v c r e t 7 7 4 4 3 3 1 1 1 , , , , , , # # , # # # # # 5 8 *                                                                                                                                                                                                                                                 ",
"                                                                                                                                                                                                          + w j j y d y u u u s K K o.$.>.[.yXjXcXbXZXZXZXAXAXZXmXhX.X}.~.a.&.} } } } &.t.t.y.y.y.u.u.u.m.m.Z.Z.Z.Z.S.A.D.D.).).@X@X&X&X;X,X:X:X:X:X:X:X,X;X;X;X&X@X@X).D.S.S.B.B.s.s.u.u.u.w.q.9.9.9.` ` ` ~ Q R T T H V B m m v v r r e e 7 7 4 4 3 3 1 1 1 , , , , , # # # , # # # # & 8 8                                                                                                                                                                                                                                                   ",
"                                                                                                                                                                                                          = p j j y y u u u u Z K K o.*.g.|.uXxXbXnXZXZXZXAXZXZXcXhX.X_.p.a.} } } } } } t.t.y.y.u.u.u.u.m.B.Z.Z.Z.Z.A.D.D.).).).@X@X&X:X;X;X:X:X:X:X:X:X;X;X;X&X&X@XOXD.D.S.Z.B.s.s.u.u.u.w.q.q.9.9.9.` ` ~ ~ R R T Y H B N m b v v r r e 7 6 7 4 4 3 3 1 1 1 1 1 , , , # # # , # # # # 5 i &                                                                                                                                                                                                                                                   ",
"                                                                                                                                                                                                        + : j j y y y u u u u Z K K +.>./.XXuXxXbXnXZXAXAXAXAXnXcXhX}._.i.t.} } } } } } t.t.y.y.u.u.u.m.B.B.Z.Z.Z.S.D.D.D.).).).@X@X&X:X;X;X;X;X;X:X;X;X;X;X&X&X@X@X).D.S.Z.B.B.s.s.u.u.w.w.q.9.9.9.| / ` ~ ~ R R T Y V B N m b v r r e e 6 6 4 4 4 3 3 1 1 1 1 1 , , , # # # # # # # & i - *                                                                                                                                                                                                                                                   ",
"                                                                                                                                                                                                        = p j s y y y u u u u Z K o.$.>.[.yXjXbXmXZXZXAXAXAXZXbXhX.X}.~.i.&.} } } } } &.t.y.y.y.u.u.u.m.B.B.Z.Z.Z.A.D.D.).).).@X@X&X&X;X;X;X;X;X;X;X;X;X;X&X&X@X@XOXD.D.S.Z.B.s.u.u.u.u.q.w.q.9.9.9.9.` ` ~ Q R T T H V B m m b v r r e e 6 7 4 4 3 3 3 1 1 1 1 1 1 , , # # , # # # # * i -                                                                                                                                                                                                                                                     ",
"                                                                                                                                                                                                        = s j u d y u u s u s K K o.*./.|.uXxXbXnXZXZXAXAXAXZXcXhX.X_.k.a.&.` ` } } } t.t.y.y.u.u.u.m.m.B.B.Z.Z.S.D.D.D.).).`.@X@X&X:X;X;X;X;X;X:X;X;X;X;X&X@X@X@X).D.S.S.B.B.s.u.u.u.u.w.q.9.9.9.9.| ` ` ~ Q R T Y J B B m m b v r r e 7 6 7 4 4 3 3 1 1 1 1 1 1 , , # # # , # # # # 8 i =                                                                                                                                                                                                                                                     ",
"                                                                                                                                                                                                      + w l j y y y u s s s s K ..$.>./.XXuXxXbXnXZXZXAXAXZXmXcXhX}.^.i.t.} ` ` } } } t.t.y.y.u.u.u.m.B.Z.Z.Z.Z.S.D.D.).).`.@X@X&X&X;X;X;X;X;X:X:X;X;X;X;X&X@X@X).D.D.S.Z.B.u.u.u.u.u.u.q.q.9.9.9.| ` ` ~ ~ R T T Y V B N m b v v r r e 7 6 6 4 3 3 3 1 1 1 1 1 , , , # # , , # # # * i *                                                                                                                                                                                                                                                       ",
"                                                                                                                                                                                                      = p j s y y u u s s s Z K o.$.>.[.yXjXcXmXZXZXZXZXZXZXcXhX.X}.~.i.&.` ` ` } } } t.y.y.y.u.u.u.p.M.Z.Z.Z.Z.A.D.D.).).`.@X@X&X:X;X;X;X;X;X:X:X;X;X;X&X&X@X`.).D.S.S.B.B.u.u.u.u.u.w.q.9.9.9.9.| ` ` ~ Q R T Y H B B m m b v r r r e 6 6 4 4 4 3 1 1 1 1 1 , , , , # # , # # # & 5 8 *                                                                                                                                                                                                                                                       ",
"                                                                                                                                                                                                    o : s j y d y u s s s s K K o.*./.|.uXxXbXmXZXZXZXZXZXZXcXhX.X^.g.a.&.` ` } } } } t.y.y.y.u.u.p.m.Z.Z.Z.Z.Z.A.D.).).).@X@X@X-X:X;X;X;X;X:X:X;X;X;X&X&X@X@X`.D.D.Z.Z.B.u.u.u.u.u.w.0.q.9.9.9.| ` ` ~ ~ Q R T Y V B B m b b v r r r e 6 6 4 4 3 3 3 1 1 1 1 1 , , , , , , # # # & 8 i =                                                                                                                                                                                                                                                       ",
"                                                                                                                                                                                                    + w j j y y y s s s s s K ..+.>.[.XXuXxXbXnXZXZXZXZXZXmXjX.X}.~.i.&.} ` } } } } 9.t.y.y.u.u.u.p.m.Z.Z.Z.Z.S.D.).).).`.@X@X&X&X:X:X:X:X;X:X;X;X:X:X&X&X@X@X).D.S.S.B.B.u.u.u.u.u.w.0.9.9.8.9.| ` ` ~ Q R T T H V B m m b v v r r e 7 6 6 7 4 3 3 3 3 1 1 1 1 , , # , , , # # # * f *                                                                                                                                                                                                                                                         ",
"                                                                                                                                                                                                    = s j s d y u s s s s Z K o.$.>.[.yXjXcXmXZXZXZXZXZXZXcXhX.X}.~.a.&.` ` } } } } t.y.y.y.u.u.u.p.m.Z.Z.Z.Z.A.).).).`.`.@X@X&X:X;X;X;X;X;X;X;X;X;X;X&X@X@X`.D.D.A.Z.B.m.u.u.u.u.w.w.9.8.8.9.| / ` / ~ Q R T Y H V B m m b v r r r e 6 6 4 4 4 3 3 1 1 1 1 1 1 , , # , , # # # & 8 8 *                                                                                                                                                                                                                                                         ",
"                                                                                                                                                                                                  o > s j y q y u s s s s K K o.>./.|.uXxXbXmXZXZXZXZXZXmXcXhX X_.p.a.} ` ` } } } &.t.y.y.u.u.u.u.m.M.Z.Z.Z.S.D.).).).`.`.@X@X-X:X:X;X;X;X;X:X:X:X;X&X&X@X@X).D.D.Z.B.B.u.u.u.u.u.w.0.9.9.9.| | ` / ~ ~ Q R T Y V V B m m b v r r e 6 6 6 4 4 3 3 3 1 1 1 1 1 1 , , # , , # # # & 8 8 =                                                                                                                                                                                                                                                         ",
"                                                                                                                                                                                                  + p j s d d y s s s s Z K X.$.>.[.XXjXxXbXnXZXZXZXZXZXcXhX.X}.~.i.&.} ` } } } } t.t.y.y.u.u.u.u.m.m.Z.Z.Z.A.D.).).).`.@X@X&X:X:X:X:X;X:X:X:X:X:X;X&X&X@X`.).D.A.Z.B.m.u.u.u.u.w.0.0.9.9.9.| ` / / ~ Q Q T T H V B N m m b v r r e 7 6 6 4 4 3 3 3 3 1 1 1 1 , , # , , , # # & * a *                                                                                                                                                                                                                                                           ",
"                                                                                                                                                                                                  = j j y q q y s s s s Z K o.$.g.|.yXjXbXmXZXZXZXZXZXZXcXhX.X_.~.i.&.` ` ` } } } 9.t.y.y.u.u.u.u.m.M.Z.Z.A.D.).).).`.`.@X@X&X:X:X:X:X:X:X:X:X:X;X;X&X@X@X`.).D.A.Z.B.m.u.u.u.u.w.0.9.9.9.9.| / / ~ ~ Q R T T H V B N m b b v r r e 6 6 4 4 4 3 1 3 1 1 1 1 1 , , # , , , , # & 8 8 *                                                                                                                                                                                                                                                           ",
"                                                                                                                                                                                                + p s j d q q y s s s s Z K +.>./.|.uXxXbXnXZXZXAXAXZXmXcXhX X^.i.&.&.} } } } } } 9.t.y.y.u.u.u.u.m.Z.Z.Z.A.A.).).).`.@X@X&X:X:X:X:X:X:X:X:X:X:X;X&X&X@X@X).D.D.S.B.B.m.u.u.u.w.w.q.9.9.9.| / / / ~ Q Q R T Y V B B m m v v v r r e 7 6 4 4 3 3 1 1 1 1 1 1 , , , , , , # # & 1 8 8                                                                                                                                                                                                                                                             ",
"                                                                                                                                                                                                + p j s d q y u u u s s K ..$.>.[.XXjXxXmXZXZXAXAXAXZXbXhX.X}.~.i.&.&.} } } } } } 9.y.y.y.u.u.u.u.m.Z.Z.Z.A.D.).).`.`.@X&X&X:X:X:X:X:X:X:X:X:X:X:X&X&X@X@X).D.S.Z.B.m.m.u.u.u.w.w.9.9.9.9.| / / / ~ Q R R T H V B C m m v v r r e e 6 6 4 4 3 3 1 1 1 1 1 1 , , # , , , # # & 5 i *                                                                                                                                                                                                                                                             ",
"                                                                                                                                                                                              o : l j u q q y u u u u s K o.*./.|.uXxXbXnXZXZXAXAXAXnXcXhX.X_.g.a.&.} } } } } } 9.9.t.y.u.u.u.u.M.M.Z.Z.Z.A.).).).`.@X@X&X&X=X:X:X:X:X:X:X:X:X:X:X&X@X@X`.D.D.A.B.B.m.m.m.u.u.w.w.9.9.9./ / / / ~ ~ Q R T Y H V C N m m v v r r e 7 6 6 4 4 3 3 3 1 1 1 1 1 , , , , , , # # & 8 8 *                                                                                                                                                                                                                                                             ",
"                                                                                                                                                                                              + i j s q q t y u u u u K ..+.>./.XXuXxXbXnXZXAXAXAXZXbXxX3X}.^.i.&.} } } } } } } 8.9.0.y.u.u.u.u.m.Z.Z.Z.Z.A.).).`.`.@X@X&X&X=X:X:X:X:X:X:X:X:X;X-X&X@X`.).D.D.Z.B.m.m.u.u.u.u.w.9.9.9.9./ / / ~ ~ Q R E T Y V B B m m v v v r e e 7 6 6 4 4 3 3 3 1 1 1 1 1 , , , , , # # & 5 5 -                                                                                                                                                                                                                                                               ",
"                                                                                                                                                                                              = p j u q q t u u u u Z K X.$.>.[.yXjXxXmXZXAXAXAXAXZXcXhX.X}.~.i.&.&.} } } } } } 9.9.y.y.u.u.u.m.m.Z.Z.Z.Z.A.).).`.`.@X@X&X:X:X:X:X:X:X:X:X:X:X:X&X@X@X`.).D.A.Z.B.m.u.u.u.u.w.0.9.9.9.8.| / / ~ ~ Q R T T H V B N m m v v r r r e 6 6 4 4 3 3 3 1 1 1 1 1 1 , , , , , # # & 5 8 *                                                                                                                                                                                                                                                               ",
"                                                                                                                                                                                            o : l j y q t y u u u u Z K o.$.g.|.uXjXbXnXAXAXAXAXAXnXcXhX X^.g.a.&.} } } } } } 9.9.0.y.y.u.u.u.m.m.B.Z.Z.A.).).`.`.`.@X&X&X=X:X:X:X:X:X:X:X:X;X&X&X@X@X).).D.Z.B.m.u.u.u.u.u.w.9.9.9.8.| | / ^ ~ ~ R R T Y H V B N m n v v r r e 7 6 6 4 4 3 3 3 1 1 1 1 1 1 , , , , , # & 1 8 5 &                                                                                                                                                                                                                                                               ",
"                                                                                                                                                                                            + p l s q q d y u u u s K X.+.>./.XXuXxXbXnXAXAXAXAXZXbXxX.X}.~.i.&.} } } } } } } 8.9.t.y.u.u.u.u.m.m.Z.Z.A.A.).).`.`.@X@X&X:X=X:X:X:X:X:X:X:X:X:X&X&X@X`.).D.A.Z.B.m.u.u.u.u.w.w.9.9.9.9.| / / ^ ~ Q R T T H V B B m m v v r r r e 6 6 6 4 4 3 3 3 1 1 1 1 1 1 , , , , , & & 5 5 *                                                                                                                                                                                                                                                                 ",
"                                                                                                                                                                                            : s j u q q d y u u u Z K X.$.>.[.yXjXxXmXZXAXAXAXAXZXcXhX.X_.~.i.&.} ` } } } } } 8.9.0.y.u.u.u.u.m.M.Z.Z.A.D.).).`.`.@X&X&X=X:X:X:X:X:X:X:X:X:X:X&X@X@X`.).D.A.Z.B.m.u.u.u.u.w.0.9.9.8.| | / ^ ~ ~ Q R T T H V B N m m v v r r r 6 6 6 4 4 3 3 3 3 1 1 1 1 1 , , , , , # & & 5 5 &                                                                                                                                                                                                                                                                 ",
"                                                                                                                                                                                          + : j s y q t y u u u s Z ..o.*.g.|.uXxXbXnXAXAXAXAXAXnXcXhX}.^.i.&.&._ ` ` { } } 9.8.9.0.y.u.u.u.u.M.M.Z.Z.A.).).`.`.@X@X&X&X:X:X:X:X:X:X:X>X:X:X&X&X@X`.`.D.A.Z.B.m.u.u.u.u.w.0.9.9.9.9.| / / ^ ~ ~ R T T Y V V B m m n v v r r e 6 6 6 7 4 3 3 3 3 1 1 1 1 , , , , , , # & & 8 - @                                                                                                                                                                                                                                                                 ",
"                                                                                                                                                                                          = p j s q q d y u u u s K X.+.>.[.XXuXxXbXnXAXAXAXAXZXbXjX.X}.~.i.&.} _ ` ` { } } 9.9.9.0.y.u.u.u.m.m.Z.Z.A.A.).).`.`.@X&X&X:X:X:X:X:X:X:X:X:X:X:X-X&X@X`.).D.A.Z.B.m.u.u.u.u.w.9.9.9.8.9.| / / / ~ Q R T T H V B N m m v v r r r e 6 6 6 7 4 3 3 3 1 1 1 1 1 , , , , , # # & 5 8 %                                                                                                                                                                                                                                                                   ",
"                                                                                                                                                                                        + : s j y q q y u u u s Z K o.$.>.[.yXjXbXmXZXAXAXAXAXnXcXhX X^.g.*.} { { { ` { } } 9.8.9.0.y.u.u.u.M.M.Z.Z.A.).).`.`.`.@X&X&X=X:X:X:X:X:X:X:X:X:X:X-X@X@X`.).D.A.Z.m.m.u.u.u.w.0.9.9.9.8.9./ / / ~ ~ Q R T Y H V B N m m v v r r r 7 6 6 6 4 4 3 3 3 1 1 1 1 1 , , , , , # # & 5 5 %                                                                                                                                                                                                                                                                   ",
"                                                                                                                                                                                        + w j s d q d y u s s s Z ..o.*./.|.uXxXbXnXAXAXAXAXAXmXxXuX}.~.i.&.} _ { { { } } 9.9.9.0.y.y.u.u.m.M.M.Z.Z.A.).).`.`.`.@X&X&X:X:X:X:X:X:X:X:X:X:X-X&X@X`.).D.A.Z.B.m.u.u.u.u.w.q.9.9.8.9.| ` / / ~ ~ R R T Y H V B m m n v v r e e 7 6 6 7 4 3 3 3 3 1 1 1 1 , , , , , , # & & 8 -                                                                                                                                                                                                                                                                     ",
"                                                                                                                                                                                        = p j s q q y u s s s s K ..+.>.[.XXpXxXmXNXAXAXAXAXZXbXhX.X^.~.i.&._ _ { { } } } } 9.9.y.y.u.u.u.m.M.Z.Z.A.).).).`.`.@X&X&X:X:X:X>X:X:X:X:X:X:X:X-X&X@X`.).D.A.B.B.m.u.u.u.w.w.q.9.8.8.| ] / / / ~ Q R T T H C C B m m v v v r r e 6 6 6 6 4 3 3 3 3 1 1 1 1 , 1 1 , # # # & 5 8 $                                                                                                                                                                                                                                                                     ",
"                                                                                                                                                                                      + > j j d q q y u s s s s K o.$.g.|.yXjXbXmXnXAXAXAXAXnXcXhXXX^.i.&.} _ { { { } } } } 9.9.y.y.u.u.u.M.M.Z.Z.A.).).`.`.`.&X&X&X=X>X>X>X:X:X:X:X:X:X:X-X@X`.`.D.D.Z.B.m.u.u.u.u.w.0.9.9.8.8.| / / / ~ ~ Q R T Y H C C N m m v v r r e 7 6 6 6 4 4 3 3 3 3 1 1 1 1 1 1 1 1 # # # & 8 * @                                                                                                                                                                                                                                                                     ",
"                                                                                                                                                                                      + p j s d q q y y u u s Z ..o.>./.|.uXxXbXnXNXAXAXAXAXmXxXyX}.~.i.&.` ` { { } } } } } 9.9.y.y.u.u.u.M.Z.Z.Z.A.).).`.`.`.&X&X:X:X:X:X>X>X>X:X:X=X:X-X&X@X`.).D.A.Z.B.m.u.u.u.w.w.9.9.9.8.| | / / ~ ~ Q Q R T H C V C m m b v v r r e 7 6 6 6 4 3 3 3 3 3 1 1 1 1 1 1 1 , # # & & 5 *                                                                                                                                                                                                                                                                       ",
"                                                                                                                                                                                      = s l s q q q y y y u s K ..+.>.[.aXjXcXmXnXNXAXAXAXnXbXhX.X_.g.&.} _ ` ` { } } } } 9.9.t.y.u.u.u.p.M.B.Z.A.A.).`.`.`.&X&X-X=X:X>X>X>X>X>X>X>X=X:X&X@X@X`.D.D.A.B.m.m.u.u.u.w.0.9.9.9.| ] ] / / ~ ~ Q R R T H C B B m m v v v r r e 7 6 6 6 4 3 3 3 3 1 1 1 1 1 1 1 1 , # & & 5 i @                                                                                                                                                                                                                                                                       ",
"                                                                                                                                                                                    + > l ..d q q d y y y u s K X.$.g.|.uXxXbXmXnXAXAXAXAXmXcXhXXX^.i.&._ _ ` ` ` { { } } 8.t.y.y.u.u.u.m.M.Z.Z.A.).).`.`.@X&X-X=X:X>X>X>X>X>X>X>X>X:X&X&X@X`.`.D.A.Z.B.m.u.u.u.u.w.9.8.8.| | | / / ^ ~ Q Q R T Y H C C N M m v v v r r e 6 6 6 4 4 3 3 3 3 1 1 1 1 1 1 1 1 1 # & & w & @                                                                                                                                                                                                                                                                       ",
"                                                                                                                                                                                    + p ..j d 0 q y y y u s s ..o.>./.XXuXxXbXnXnXAXAXAXZXbXjX.X}.~.&.&._ _ ` ` { { { | } 8.t.y.y.u.u.u.M.M.Z.A.A.).`.`.`.&X&X-X>X>X>X>X>X>X>X>X>X=X:X-X&X@X`.).D.A.Z.m.m.u.u.u.u.w.9.9.9.| | ` / ^ ~ ~ Q R R T Y V V B M M n v v r t t e 6 6 6 4 3 3 3 3 1 1 1 1 1 , 1 1 1 & & & 5 5 =                                                                                                                                                                                                                                                                         ",
"                                                                                                                                                                                  O : s ..s q q q y y y u s K ..+.>.[.aXpXvXmXnXNXAXAXAXnXcXhX.X^.i.&.} _ _ ` { { { { } } 9.y.y.y.u.u.p.M.M.Z.A.).).`.`.@X&X-X-X=X>X>X>X>X>X>X>X>X:X-X&X@X@X`.`.D.A.B.m.u.u.u.u.y.0.8.9.9.| | / ^ ~ ~ ~ Q R T T H V B B m m v v v r r e e 7 6 6 4 3 3 3 3 1 1 1 1 1 1 1 1 1 & & & 5 5 @                                                                                                                                                                                                                                                                         ",
"                                                                                                                                                                                  + i ....d q q q y y u s s K o.<.h.|.uXxXvXnXNXNXAXAXAXmXxXuX}.~.i.&._ _ ` ` { { ` } } 9.t.y.y.y.y.p.m.M.Z.Z.A.).).`.`.&X&X-X>X>X>X>X>X>X>X>X>X>X:X-X&X@X`.`.).A.A.B.m.u.u.u.u.w.0.8.8.9.| ] / ^ ~ ~ Q Q E T I J V B N m m v v v r r e 7 6 6 4 4 3 3 3 3 1 1 1 1 , , 1 1 1 & & & i =                                                                                                                                                                                                                                                                           ",
"                                                                                                                                                                                  = p ..j d 0 q q y y s s Z ..+.>.[.XXpXxXmXnXNXNXAXAXnXbXjX.X}.g.&.} _ _ ` ` ` ` { { } 9.t.y.y.y.y.p.M.M.M.A.A.).).`.`.&X-X-X=X>X>X>X>X>X>X>X>X:X:X-X@X@X`.`.D.A.Z.B.m.u.u.u.w.w.9.9.8.| | ] / ^ ~ ~ Q E U U H V B B m m b v v r t e e 6 6 6 4 3 3 3 3 1 1 1 1 1 , 1 1 1 & # & 5 5 &                                                                                                                                                                                                                                                                           ",
"                                                                                                                                                                                o : l ..s q q q y y u s s K X.$.>.[.yXjXbXmXNXNXAXAXAXmXxXhXXX^.i.&.` _ ) ` ` ` { } } } t.y.y.y.y.y.p.M.M.M.A.).).`.`.`.&X-X=X=X>X>X>X>X>X>X>X>X:X:X&X@X`.`.J.D.A.B.m.m.u.u.u.w.0.9.9.9.| ] ` / ^ ~ ~ Q E U I J V B N m m v v v t r e e 6 6 7 4 3 3 3 3 1 1 1 1 1 , 1 1 # & & & 5 5 @                                                                                                                                                                                                                                                                           ",
"                                                                                                                                                                                + p ....d q q q y y s s s K +.>./.|.uXxXbXnXNXNXAXAXNXbXxXuX}.~.a.&._ ` ` ` ` ` { } } } t.y.y.y.y.u.M.M.M.Z.A.).`.`.`.'.-X-X>X>X>X>X>X>X>X>X>X>X:X-X&X@X`.`.D.A.Z.B.m.u.u.u.w.w.0.8.8.| | ] / / ~ ~ Q Q U T I J V B m m b v v r r r e 7 6 6 4 3 3 3 3 3 1 1 1 1 , , 1 1 & & & & i =                                                                                                                                                                                                                                                                             ",
"                                                                                                                                                                                + g @.j q q q q y u s s K ..+.>.[.aXpXvXmXnXNXNXAXAXnXbXjX.X^.g.&.` _ ) ` ` ` } } } } t.t.y.y.y.y.p.M.M.M.A.A.).`.`.`.&X-X-X=X>X>X>X>X>X>X>X>X>X:X-X@X@X`.`.D.A.B.m.m.u.u.u.w.w.9.8.8.| | ] / / ~ ~ Q R T U H V B B m m b v v r r t e 6 6 6 4 3 3 3 3 1 1 1 1 1 , # & # # & & 5 5 %                                                                                                                                                                                                                                                                             ",
"                                                                                                                                                                              o > l ..d 0 q q y y u s s K X.$.,.|.yXjXbXmXnXNXNXAXNXmXxXuXXX^.i.&._ _ ` ` ` ` } } } } t.y.y.y.y.y.p.M.M.Z.A.A.`.`.`.`.-X-X=X=X>X>X>X>X>X>X>X>X=X-X&X@X@X`.).D.A.B.m.u.u.u.u.w.0.8.8.| | ] ` / ~ ~ Q Q R T Y H V B m m m b v v t r e e 7 6 4 4 3 3 3 3 1 1 1 1 1 , 1 1 # & & & 5 - @                                                                                                                                                                                                                                                                             ",
"                                                                                                                                                                              + p O.j d q q q d y s s s K o.>./.|.uXxXbXnXNXNXNXAXNXbXxX.X}.~.*.&._ _ _ ` ` ` } } } } t.y.y.y.y.y.m.M.M.A.A.).`.`.`.&X-X-X=X=X=X>X>X>X>X>X>X>X=X-X&X@X@X`.D.A.Z.m.m.u.u.u.u.w.0.8.8.| ] ] ` / ~ ~ Q R T T I V V B m m b b v r r e e 7 7 6 4 3 3 3 3 1 1 1 1 1 , , 1 1 & & & & i &                                                                                                                                                                                                                                                                               ",
"                                                                                                                                                                            o + l @.s q 0 q q y y s s Z ..$.>.[.aXpXxXbXnXNXNXNXNXnXbXhX.X^.i.&._ _ _ ` ` ` { } } } } t.y.y.y.y.p.M.M.M.A.A.`.`.`.`.-X-X-X=X=X=X>X>X>X=X>X>X>X=X-X&X@X`.`.D.A.Z.m.u.u.u.u.y.0.9.8.8.| ] ` / / ~ ~ Q R T T H V B B m m v b v r r e 7 7 6 7 4 3 3 3 3 1 1 1 1 1 , 1 1 & & & & 5 - @                                                                                                                                                                                                                                                                               ",
"                                                                                                                                                                            + i l ..d 0 q q d y u s s K X.$./.|.yXxXbXmXnXNXNXNXNXbXxXuX}.^.i.&._ _ _ ` ` } } } } } &.t.y.y.y.y.m.M.M.Z.A.A.`.`.`.'.-X-X=X=X=X>X>X>X=X=X>X>X=X:X-X@X@X`.`.D.A.B.m.u.u.u.u.w.0.9.9.9.| ] ` / ~ ~ Q Q R T Y H V B N m m v v v r r e 7 7 6 4 4 3 3 3 3 1 1 1 1 1 1 1 1 # & & & 5 *                                                                                                                                                                                                                                                                                 ",
"                                                                                                                                                                            = p ..j d 0 q q y y u s s ..+.>.[.XXpXxXbXmXnXNXNXNXnXbXjX.X}.~.*.&._ _ ) ` { } } } } } &.y.y.y.y.y.M.M.M.A.A.).`.`.`.&X-X-X=X=X>X>X>X>X=X>X>X>X=X-X&X@X`.`.D.A.Z.B.m.m.u.u.w.0.0.8.8.| ] ` / / ^ ~ Q R T T Y J V B m m m b v r r e e 7 6 6 4 3 3 3 3 1 1 1 1 1 , , 1 , & & & & i =                                                                                                                                                                                                                                                                                 ",
"                                                                                                                                                                          o = l ..s q 0 q d y y s s K ..$.>.[.yXjXvXmXnXNXNXNXNXnXxXuXXX^.i.*.&._ _ _ ` { } } } } &.t.y.y.y.y.M.M.M.M.A.A.`.`.`.'.-X-X=X=X>X>X>X>X=X=X>X>X>X=X-X#X@X`.`.D.A.B.m.m.u.u.u.w.0.8.8.| | ] / / ^ ~ Q Q R R T H V B B m m b b v r r e e 6 6 4 4 3 3 3 3 1 1 1 1 1 , 1 1 , & & & 5 2 @                                                                                                                                                                                                                                                                                 ",
"                                                                                                                                                                          + i ....q 0 q q d y u s s K o.<./.|.uXxXbXmXnXNXNXAXNXbXxXyX}./.*.&._ _ _ ) { } } } } } &.t.y.y.y.y.m.M.M.A.A.).`.`.`.&X&X-X=X=X>X>X>X>X=X=X>X=X=X:X-X@X'.`.J.D.Z.B.m.m.u.u.u.w.0.8.8.| ] ] / ^ ^ ~ Q Q R T Y H V B N m m b v r r r e 7 6 6 4 4 3 3 3 1 1 1 1 1 , , 1 1 # & & 1 5 *                                                                                                                                                                                                                                                                                   ",
"                                                                                                                                                                          = p @.s q 0 q q y y s s s ..+.>.[.aXpXvXbXmXnXNXNXNXnXbXhX.X}.~.*._ _ _ _ ` { } } } } } &.y.y.y.y.y.M.M.M.A.A.).`.`.'.-X-X=X=X=X>X>X>X>X=X=X>X=X=X-X&X@X`.`.D.A.Z.B.m.m.m.u.w.0.0.8.8.] ] / / ^ ~ ~ Q R T T H V V B N m b b v r r r e 7 6 6 4 3 3 3 3 1 1 1 1 1 , , 1 , & & & 5 5 &                                                                                                                                                                                                                                                                                   ",
"                                                                                                                                                                        O = l ..s 0 0 q q y y s s K X.$.>.[.yXjXbXbXnXnXNXNXNXmXxXuXXX^.i.&._ _ _ _ { { } } } } &.t.y.y.y.y.m.M.M.A.A.A.`.`.`.'.-X-X=X=X=X>X>X>X=X=X>X>X=X=X-X&X@X`.`.D.A.B.m.m.u.u.u.w.0.9.9.8.] ] / ^ ^ ~ Q Q R T T H V B B m m b b v r r e 7 6 6 7 4 3 3 3 3 1 1 1 1 1 , 1 1 1 & & & 5 5 @                                                                                                                                                                                                                                                                                   ",
"                                                                                                                                                                        + p ....q 0 0 q q y y s s K o.>./.|.uXxXvXmXnXNXNXAXnXbXxX.X}./.*.&._ _ _ ` { } { } } } &.t.y.y.y.y.m.M.M.A.A.).`.`.'.'.-X=X=X=X=X>XqX=X=X=X>X>X=X*X&X@X@X`.J.D.A.B.m.m.u.u.w.0.0.8.8.] ] ] / ^ ^ ~ Q R T T Y H V B N m m b v v r r e 7 6 6 4 4 3 3 3 3 3 1 1 , , 1 1 1 & & & 5 5 =                                                                                                                                                                                                                                                                                     ",
"                                                                                                                                                                      O : s @.s 0 0 0 q d y u s Z ..+.>.[.aXpXvXbXmXnXNXNXNXnXbXhXXX^.g.&._ _ ) ) ` { } } } } } &.t.y.y.y.y.M.M.M.A.A.`.`.`.'.'.-X-X=X=X>X>X>X>X=X>X>X=X*X-X&X@X`.`.D.A.Z.B.m.m.u.u.w.0.9.8.6.] ] / ^ ^ ~ ~ Q E T T I V V B m m b b v r r r e 6 6 6 4 4 3 3 3 3 3 1 1 1 , 1 1 , & & & 5 5 %                                                                                                                                                                                                                                                                                     ",
"                                                                                                                                                                      + : l ..d 0 0 q q d y u s K X.$.h.|.yXxXbXbXnXNXNXNXNXmXxXuX}.^.i.&._ _ ) ) ` { } } } } &.&.y.y.y.y.m.M.M.A.A.A.`.`.'.'.-X*X=X=X=X>X>X>X=X=X>X>X=X*X-X&X@X`.`.D.A.B.B.m.m.u.w.0.0.8.8.] ] ] / ^ ^ ~ ~ W E U I H V B N m m b b v r r e 6 6 6 6 4 3 3 3 3 3 1 1 1 , , 1 , # & & & 5 5 @                                                                                                                                                                                                                                                                                     ",
"                                                                                                                                                                      + p ..j q 0 0 q q y y s s ..+.>.[.|.pXxXvXmXnXNXNXNXNXbXjX.X}.~.*.&._ ) ) _ ` { { } } &.&.y.y.y.y.y.M.M.M.A.A.).`.`.'.'.-X-X=X=X=X=X=X=X=X=X>X=X=X-X-X#X@X`.`.D.A.B.m.m.m.u.w.0.0.8.8.] ] / / ^ ^ ~ W E U T I H V B m m m v v v r r e 6 6 6 4 4 3 3 3 3 3 1 1 1 , 1 1 , # # & 5 i *                                                                                                                                                                                                                                                                                       ",
"                                                                                                                                                                    o = l @.d 0 0 q q q y u s Z ..+.>.[.yXjXvXbXmXnXNXAXNXnXbXhXXX^.i.&._ _ ) ) _ ` { { } &.&.&.y.y.y.y.y.M.M.M.A.A.`.`.'.'.'.-X=X=X=X=X=X=X=X=X=X>X=X=X-X&X#X'.`.J.A.Z.B.m.m.m.w.0.0.8.8.8.] ] / / ^ ~ Q W E T T H V V B m m b v v r r e e 6 6 6 4 4 3 3 3 3 3 1 1 1 , 1 , # # # & 2 5 =                                                                                                                                                                                                                                                                                       ",
"                                                                                                                                                                    + : l j d 0 0 q q q y s s K X.>./.|.uXxXvXmXnXNXNXAXNXmXxXuX}./.i.&._ ) ) ) _ { { } } &.&.&.y.y.y.y.m.M.M.A.A.).`.`.'.'.-X-X=X=X=X=XqXqX=X=X=X=X=X*X-X&X@X`.`.J.A.V.B.m.m.w.w.0.0.8.8.| ] / / ^ ^ ~ Q Q E T I H V B N m m v b v r r e e 7 6 6 4 3 3 3 3 1 1 1 1 1 , 1 , # # & & 5 5                                                                                                                                                                                                                                                                                         ",
"                                                                                                                                                                    + p l j q 0 0 q q y y s s ..+.>.[.XXpXxXbXmXnXNXNXAXnXbXjX.X}.~.&._ _ ) ) _ _ { { } &.&.&.y.y.y.y.y.m.M.M.A.A.).`.'.'.'.-X*X=X=X=X=X>X>X>X>X=X=X*X*X-X&X@X`.`.D.A.B.m.m.m.w.w.0.8.8.8.| ` / ^ ~ ~ ~ Q R T T I V V B N m b v v r r e e e 7 6 6 4 4 3 3 3 1 1 1 1 , 1 1 # # & & 5 i *                                                                                                                                                                                                                                                                                         ",
"                                                                                                                                                                  o : l ..d 0 0 0 q q y u s K X.$.>.[.yXjXbXbXmXNXNXNXNXnXxXuXXX^.i.&._ ) ) ) ` { { { } &.&.&.y.y.y.y.m.N.M.A.A.A.`.`.'.'.-X-X*X=X=X=XqXqX=X=X=X=X=X*X-X&X&X@X`.J.A.Z.B.m.m.z.w.0.0.8.8.6.] ` / ^ ~ ~ Q R E T T H V B B m m v v v r r e e 6 6 6 4 4 4 3 3 3 1 1 1 1 , , # # # & & i 5 %                                                                                                                                                                                                                                                                                         ",
"                                                                                                                                                                  + p l j q 0 0 q q q y u s K o.>./.|.uXxXbXbXnXNXNXNXNXmXxX.X}.~.*.&._ ) ) _ ` { { } &.&.&.&.y.y.y.y.N.M.M.A.A.).`.`.'.'.-X*X=X=X=X=X=XqXqX=X=X=X*X*X-X&X&X`.`.D.A.B.m.m.m.z.w.0.0.8.8.] / / / ~ ~ Q Q R T T Y H V B B m m v v v r r e 7 6 6 6 4 4 4 3 3 3 3 1 1 1 1 , # # # & & i -                                                                                                                                                                                                                                                                                           ",
"                                                                                                                                                                O = p l s 0 0 0 q q d y s Z ..+.>.[.aXpXvXvXmXnXNXNXNXnXbXjXXX^.g.*._ _ ) _ ) { { { } &.&.&.y.y.y.y.m.N.M.M.A.A.`.`.'.'.'.-X*X=X=X=X=X=X6X6X=X=X=X*X*X&X&X@X`.`.D.A.B.m.m.m.w.0.0.8.8.6.] / / / ~ ~ Q Q R T T H H C B N m b b v r r e e 7 6 6 6 4 4 4 3 3 3 3 1 1 , 1 1 # # & # 5 i =                                                                                                                                                                                                                                                                                           ",
"                                                                                                                                                                + : l l d 0 0 0 q q y u s K X.$.g.|.yXjXbXmXnXnXNXNXNXmXxXuX}./.*.&._ _ _ _ _ { { } } &.&.&.y.y.y.y.N.N.M.M.A.A.`.`.'.'.-X*X*X=X=X=X=X=XqX6X=X=X*X*X-X#X#X'.`.J.A.A.B.m.m.z.w.0.0.8.8.] ] / / / ~ Q Q Q T T T H C C B m m b v v r r e e 6 6 6 4 4 4 3 3 3 3 1 1 1 1 1 , # # # & a 5 %                                                                                                                                                                                                                                                                                           ",
"                                                                                                                                                                + p j s q 0 0 q q d y u s ..+.>.[.XXuXxXbXmXnXNXNXNXnXbXxX.X}.~.*._ _ ) ) _ ) { { } } } &.&.y.y.y.y.N.M.M.A.A.A.`.'.'.'.-X*X=X=X=X=X=X=X=X=X=X=X*X*X-X#X#X`.`.D.A.B.m.m.m.w.w.0.8.8.] ] / / / ~ Q Q Q R T T T H C C B m m m v v r r e e 6 6 6 4 4 4 3 3 3 3 1 1 1 1 1 # # & # 5 i 5                                                                                                                                                                                                                                                                                             ",
"                                                                                                                                                              o : p j d 0 0 0 q q d y s K X.$.>.[.aXpXbXmXmXnXNXNXNXnXbXhXXX^.i.*._ _ ) ) ) ) { { } } } &.y.y.y.y.y.M.M.M.A.A.).`.'.'.'.-X*X=X=X=X=X=X=X=X=X=X*X*X-X#X&X'.`.J.A.Z.B.m.m.m.w.0.0.8.8.] / / / ~ ~ Q Q Q T T T H H C C N m m b v r r e e 7 6 6 4 4 4 4 3 3 3 1 1 1 1 1 1 # & # @ 8 a *                                                                                                                                                                                                                                                                                             ",
"                                                                                                                                                              + : j s d 0 0 q q t y y s K o.<./.|.uXxXbXmXnXnXNXNXNXbXxXuX}.~.*.&._ ) ) ) ) { { { } } } &.y.y.y.y.m.M.M.M.A.A.`.`.'.'.'.-X*X=X=X=X=X=X=X=X=X*X*X*X#X#X#X'.`.J.A.V.B.m.m.z.w.0.0.8.] ] / / ~ Q Q Q Q Q T T T H H C B m m b b v r r e e 7 6 6 4 4 4 3 3 3 3 1 1 1 1 5 1 # & # $ g i =                                                                                                                                                                                                                                                                                             ",
"                                                                                                                                                              = p j y 0 0 0 q q d y u Z ..+.>.[.aXuXxXbXmXnXNXNXNXnXbXjX.X^.g.*._ _ ) ) ) { { { { } } &.t.y.y.y.y.N.M.M.A.A.J.`.`.'.'.'.*X*X=X6X=X=X=X=X=X*X*X*X*X#X&X@X`.J.A.A.B.m.m.m.w.w.0.8.8.] / / / ~ Q Q Q Q R T T H H J B B m m b v v r r e 7 7 6 6 4 4 4 3 3 3 3 1 1 1 1 1 # # & @ 8 a 8                                                                                                                                                                                                                                                                                               ",
"                                                                                                                                                            o : p s q 0 0 0 q q d y s K o.$.g.|.yXjXxXbXmXnXNXNXNXnXbXuX}./.i.&._ ) ) ) ) { { { { } } &.t.y.y.y.y.m.M.N.A.A.J.`.`.'.'.-X*X*X=X=X=X=X=X6X*X*X*X*X#X&X@X`.`.J.A.A.B.m.m.m.w.0.0.8.] ] / / ~ Q Q Q Q Q R T T H H C B N m m b v v r r e 6 6 6 4 4 4 4 3 3 3 3 1 1 1 1 & # * # @ i a *                                                                                                                                                                                                                                                                                               ",
"                                                                                                                                                            + w s u q 0 0 0 q d d u Z ..o.>./.|.uXjXxXbXmXNXNXNXnXbXxX.X}.~.*.&._ ) ) ) ) { { { { } } &.y.y.y.y.m.m.M.N.A.A.J.`.`.'.'.-X*X*X=X=X=X=X6X6X=X*X*X*X#X#X@X`.`.D.A.V.m.m.m.w.w.0.8.8.] / / / ~ Q Q Q Q Q R T H H J C B m m b b v r r r e 6 6 6 4 4 4 3 3 3 3 1 1 1 1 5 # * $ @ @ g i                                                                                                                                                                                                                                                                                                 ",
"                                                                                                                                                          o = p s y 0 0 0 0 q t t u Z X.$.>.[.aXpXxXbXmXnXNXNXNXnXbXhXXX^.i.&._ _ ) ) ) ) ) { { } } &.&.y.y.y.y.m.N.M.M.A.J.J.`.'.'.#X*X*X*X*X*X*X6X=X=X*X*X*X#X#X#X'.`.`.A.A.B.m.m.m.w.0.0.8.8.] / / / Q Q Q Q Q R T T H H C C B m m b v r r r e 6 6 6 6 4 4 4 3 3 3 3 1 1 1 1 , # * # @ i a 5                                                                                                                                                                                                                                                                                                 ",
"                                                                                                                                                          + w s s q 0 0 0 q q t t s K o.*./.|.yXjXxXbXmXnXNXNXnXbXxXuX}./.*.&._ ) ) ) ) ) ) { { } } &.t.y.y.y.m.N.N.N.A.A.J.`.`.'.'.-X*X*X*X*X*X*X*X*X*X*X*X*X#X#X#X'.`.J.A.A.B.m.m.z.0.0.8.8.| ] / / ~ Q Q Q Q Q R R T H H C C m m m b v r r e e 6 6 6 4 4 4 3 3 3 3 3 1 1 1 1 # # * # * a a =                                                                                                                                                                                                                                                                                                 ",
"                                                                                                                                                          % p s y q 0 0 q q q y u Z ..+.>.[.XXuXxXcXbXnXnXnXnXnXbXjX.X}.~.&._ _ ) ) ) ) ) { { { | } &.&.y.y.y.m.m.M.N.A.A.J.J.`.'.'.#X*X*X*X*X*X*X*X*X*X*X*X*X#X#X#X`.J.J.A.V.m.m.z.w.0.0.8.6.] / / ` ~ Q Q Q Q R T T H H J C B m m b v v r r e e 6 6 6 4 4 4 3 3 3 3 1 1 1 1 1 # # & # * g i                                                                                                                                                                                                                                                                                                   ",
"                                                                                                                                                        o = s s d 0 0 0 q q d y s K X.$.>.[.aXuXxXbXmXnXnXnXnXmXxXuXXX^.i.&._ ) ) ) ) ) ) { { { } &.&.&.y.y.y.m.N.M.M.A.A.J.`.'.'.#X*X*X*X*X*X*X*X*X*X*X*X*X#X#X#X'.`.J.A.A.B.m.m.z.0.0.8.8.] ] / / ~ Q Q Q Q Q T T T H H C B B m m b v r r r e 6 6 6 4 4 4 4 3 3 3 3 1 1 1 1 & # # # @ a f -                                                                                                                                                                                                                                                                                                   ",
"                                                                                                                                                        + i s s q 0 0 0 q q d y s K o.>./.|.yXjXxXbXmXnXnXnXmXbXxX.X}./.*.&._ ) ) ) ) ) ) { { } } &.&.y.y.y.y.m.M.N.A.A.J.J.`.'.'.#X*X*X*X*X*X*X*X*X*X*X*X*X#X#X#X`.J.J.A.V.B.m.m.w.0.0.8.8.] ] / ` ~ Q Q Q Q R T T T H H C B N m b b v r r e e 6 6 6 4 4 4 3 3 3 3 1 1 1 1 1 # # & # * a a %                                                                                                                                                                                                                                                                                                   ",
"                                                                                                                                                        = p s d 0 0 0 q q d y s Z ..+.>.[.XXuXxXcXbXnXnXnXnXmXcXhXXX^.i.&._ ) ) ) ) ) ) { { { } } &.&.y.y.y.m.N.M.M.A.A.J.J.`.'.#X#X*X*X*X*X*X*X*X*X*X*X*X*X#X#X@X`.J.A.A.V.m.m.m.w.0.8.8.8.] / / ~ Q Q Q Q R T T T H H C B B m m b v v r r e 6 6 6 6 4 4 4 3 3 3 3 1 1 1 1 1 # # & @ - g i                                                                                                                                                                                                                                                                                                     ",
"                                                                                                                                                      o : s s q 0 0 0 q d d y s K o.$.g.[.yXpXxXbXmXnXnXnXnXbXxXuX}./.*.&._ ) ) ) ) ) { { { } } &.y.y.y.y.y.N.N.N.A.A.J.J.J.`.'.#X*X*X*X*X*X*X6X*X*X*X*X*X#X#X#X'.`.J.A.V.B.m.m.u.w.0.0.8.| ] / ` ~ Q Q R T T T T T H H C B m m m b v c r e e 6 6 6 4 4 4 4 3 3 3 3 1 1 1 1 1 # # # @ f f -                                                                                                                                                                                                                                                                                                     ",
"                                                                                                                                                      % p s s q 0 0 q q d y u Z ..o.>./.|.uXjXxXbXmXnXnXnXmXbXxX.X}.~.&._ ) ) ) ) ) { { { } } } &.y.y.y.y.m.m.M.N.A.A.J.J.`.'.'.#X*X*X*X*X*X*X6X*X*X*X*X#X#X#X#X`.J.A.A.V.m.m.m.w.w.0.8.8.| / ` ` ~ Q R R T T T T T H J V B m m b b v r r e e 6 6 6 4 4 4 3 3 3 3 1 1 1 1 1 # # & @ 5 g i                                                                                                                                                                                                                                                                                                       ",
"                                                                                                                                                    O - p s d 0 0 0 q t d y u Z X.$.>.[.XXuXxXcXmXnXnXnXnXmXcXhXXX^.i.&._ ) ) ) ) ) { { { } | &.y.y.y.y.y.N.N.M.A.A.A.J.J.`.'.'.#X*X*X*X*X*X*X6X*X*X*X*X#X#X#X@X`.J.A.V.V.m.m.m.w.0.8.8.| ] / ` ` Q Q R R T T T T H H J B m m m b v v r r e 6 6 6 4 4 4 4 3 3 3 3 1 1 1 1 1 # # # # 8 g i                                                                                                                                                                                                                                                                                                       ",
"                                                                                                                                                    O - s s q 0 0 0 q d d y s K o.*./.|.yXpXxXbXmXnXnXnXmXmXxXuX}.~.*.&._ ) ) ) ) { { { { } } &.y.y.y.y.m.N.N.N.A.A.J.J.`.`.'.#X#X*X*X*X*X*X6X6X*X*X*X#X#X#X#X#XJ.J.A.V.B.m.m.w.w.0.8.8.] / / ~ ~ Q Q R R T T T H H H C B m m b b v v r e e e 6 6 4 4 4 4 3 3 3 3 1 1 1 1 1 # & # @ g a -                                                                                                                                                                                                                                                                                                       ",
"                                                                                                                                                    % a s s q 0 0 q q d y u Z ..+.>./.XXuXjXxXbXmXnXnXnXmXbXhX.X^.g.&._ ) ) ) ) ) { { { { } } &.y.y.y.y.m.N.N.A.A.A.J.J.`.'.'.#X#X*X*X*X*X*X6X*X*X*X*X#X#X#X#X`.J.K.A.V.m.m.z.w.0.0.8.| ] / ~ ~ Q Q R R T T T T Y H C C B m m b b v r r e 6 6 6 6 4 4 4 3 3 3 3 3 1 1 1 1 , # # @ 8 g i                                                                                                                                                                                                                                                                                                         ",
"                                                                                                                                                  o : s s q 0 0 0 q d d y s K X.$.>.[.yXuXxXcXbXmXnXnXnXmXcXhX}.^.i.&._ ) ) ) ) { { { } } } &.t.y.y.y.m.m.N.N.A.A.A.J.`.`.'.'.#X*X*X*X*X*X*X6X*X*X*X*X#X#X#X'.J.J.A.V.B.m.m.w.w.0.8.8.] / ~ ~ Q Q Q R T T T T Y H H C C N m m b v v r r e 6 6 6 4 4 4 4 3 3 3 3 1 1 1 1 1 1 * # $ i a 8                                                                                                                                                                                                                                                                                                         ",
"                                                                                                                                                  + i s s w 0 0 0 q d d u s K o.>./.|.yXjXxXbXmXnXnXnXnXmXxX.X}.~.*.&._ ) ) ) { { { { } | } &.y.y.y.y.m.m.N.N.A.A.A.J.`.'.'.#X-X*X*X*X*X*X6X*X*X*X*X*X#X#X@X`.J.K.A.V.B.m.m.w.w.0.8.| ] / ~ Q Q Q T T T U T Y Y H C C B m m b b v r r e 6 6 6 6 4 4 4 4 3 3 3 3 1 1 1 5 1 5 * # @ f a *                                                                                                                                                                                                                                                                                                         ",
"                                                                                                                                                . + p s y 0 0 0 0 q d t u Z ..+.>.[.XXuXxXcXbXmXnXnXnXmXcXhX.X^.i.&._ ) ) ) ) { { { { | } &.t.y.y.y.y.m.m.N.N.A.A.J.`.`.'.'.#X-X*X*X*X*X*X6X*X*X*X*X#X#X#X@X`.J.K.V.V.m.m.m.w.0.0.8.] / ~ ~ Q Q R T T T I I J H C C C N m m b v r r r e 6 6 6 4 4 4 4 3 3 3 3 3 1 1 1 5 5 5 # @ 8 g 8                                                                                                                                                                                                                                                                                                           ",
"                                                                                                                                                + - s s q 0 0 0 q t d y s K o.$.g.|.yXpXxXbXmXnXnXnXnXmXxXuX}.~.*.&._ ) ) ) { { { { | } } &.y.y.y.y.m.m.N.M.A.A.A.J.`.`.'.'.#X-X*X*X*X*X6X6X*X*X*X#X#X#X#X#XJ.J.A.V.B.m.m.u.w.0.8.8.] / ~ ~ Q Q T T U U I J H H V B B m m m b v r r r e 6 6 6 4 4 4 3 3 3 3 3 1 1 1 1 1 5 5 # @ a a -                                                                                                                                                                                                                                                                                                           ",
"                                                                                                                                                + i s y 0 0 0 0 q q t u Z ..o.>./.|.uXjXxXbXmXnXnXnXnXbXxX.X^.~.&.} _ ) ) ) { { { { | } &.t.y.y.y.y.m.m.N.B.A.A.A.`.`.`.'.'.#X-X*X*X*X*X6X*X*X*X*X#X#X#X#X`.J.J.V.V.B.m.m.u.0.0.8.| ] / ~ Q Q R T T U I I J H C B B N m m m b v r r e e 6 6 6 4 4 4 3 3 3 3 3 1 1 1 5 5 5 * @ $ a a *                                                                                                                                                                                                                                                                                                           ",
"                                                                                                                                              . = p s y 0 0 0 0 q d y s K X.$.>.[.XXuXxXcXbXmXnXnXnXmXcXhXXX^.i.&._ ) ) ) { { { { | | } &.y.y.y.y.y.m.N.M.A.A.A.J.`.`.`.'.#X-X-X*X*X*X*X6X*X*X*X#X#X#X#X#XJ.J.K.A.V.m.m.m.w.0.8.8.] ` ~ ~ Q Q R T U U I I H H V B B m m m b v r r r e e 6 6 4 4 4 4 3 3 3 3 3 3 1 1 1 5 5 & @ 8 g i                                                                                                                                                                                                                                                                                                             ",
"                                                                                                                                              O i g s q 0 0 0 q t d u s K o.*.g.|.yXpXxXbXmXnXnXnXnXmXxX.X}.~.*._ _ ) ) ) { { { { | } } &.y.y.y.y.m.m.N.B.A.A.A.J.`.`.'.'.#X-X*X*X*X*X*X*X*X*X*X#X#X#X#X#XJ.J.A.A.V.m.m.u.w.0.8.| ] / ~ Q Q Q R T U U I J H V V B N m m b b v r r r 6 6 6 6 4 4 4 3 3 3 3 3 3 1 1 1 1 5 5 # @ f a *                                                                                                                                                                                                                                                                                                             ",
"                                                                                                                                              % a s y 0 0 0 0 t t y u Z ..+.>./.|.uXxXcXbXmXnXnXnXnXbXxX.X^.g.&._ _ _ ) { { { { | | } &.t.y.y.y.y.m.m.M.A.A.A.J.J.`.'.'.#X#X*X*X*X*X*X*X*X*X*X*X#X#X#X#X#XJ.J.A.V.B.m.m.w.0.0.8.| / ~ ~ Q Q R T T U I I J H C B B m m m b b v r r e 6 6 6 6 4 4 4 3 3 3 3 3 3 1 1 5 5 5 * @ * a i                                                                                                                                                                                                                                                                                                               ",
"                                                                                                                                            O - p s d 0 0 0 0 t t y s K X.$.>.[.XXuXxXcXmXnXnXnXnXmXcXhX}.^.i.&.{ _ ) ) { { { { | | } &.y.y.y.y.y.m.N.N.A.A.A.J.J.`.'.'.#X-X*X*X*X*X*X*X*X*X*X#X#X#X#X#X`.J.J.A.V.m.m.z.w.0.8.| ] / ~ Q Q R T T T U I J H H V B B m m m b v r r r e 6 6 6 4 4 4 4 3 3 3 3 3 3 5 1 1 5 5 # @ 8 g i                                                                                                                                                                                                                                                                                                               ",
"                                                                                                                                            o i g s q 0 0 0 q d t u s K o.*./.|.yXjXxXbXmXnXnXnXnXmXxX.X}.~.*._ _ ) ) ) { { { { | } } t.y.y.y.y.m.m.M.B.A.A.J.J.J.`.'.'.#X*X*X*X#X*X*X*X*X*X*X#X#X#X#X#XJ.J.D.V.V.m.z.w.0.0.8.| / ~ ~ Q Q R U T T U I J H V V B N m m b b v r r r 6 6 6 6 4 4 4 3 3 3 3 3 3 3 5 1 , 5 * $ @ g f -                                                                                                                                                                                                                                                                                                               ",
"                                                                                                                                          O % a s y 0 0 0 0 q t y u Z ..$.>.[.XXuXxXcXbXmXnXnXnXnXbXhX.X^.i.&._ _ ) ) { { { { } | } &.t.y.y.y.y.m.m.M.A.A.A.J.J.`.`.'.'.#X*X*X*X*X*X*X*X*X*X*X#X#X#X#X#XJ.J.A.V.B.z.z.w.0.0.8.] / ~ Q Q Q T T T T U I J H C B B N m m b v v r r e 6 6 6 6 4 4 3 3 3 3 3 3 3 3 1 1 1 5 * @ 8 f i                                                                                                                                                                                                                                                                                                                 ",
"                                                                                                                                          O = p s q 0 0 0 q q t u u K o.$.>.[.XXuXxXcXbXmXnXnXnXmXxXuX}./.i.&._ ) ) ) ` { { { } | } &.y.y.y.y.m.m.N.N.A.A.A.J.`.`.'.'.#X#X*X*X*X#X*X6X*X*X*X*X#X#X#X#XJ.J.D.V.V.m.z.w.0.0.8.| ] / ~ Q Q R T T T U U I H H C B B N m m b v v r r e 6 6 6 4 4 4 4 3 3 3 3 1 1 1 1 1 1 * # $ 8 g i                                                                                                                                                                                                                                                                                                                 ",
"                                                                                                                                          o w s y 0 0 0 q q t t u Z K o.>./.|.yXjXxXbXmXnXnXnXnXbXxX.X}.~.&._ _ ) ) ) { { { } } } &.t.y.y.y.y.m.m.M.A.A.A.J.J.`.`.'.'.#X#X*X*X*X#X6X6X*X6X*X#X#X#X#X#XJ.J.A.V.B.z.z.w.0.0.8.| ] ~ ~ Q Q R T T T U I I H H V B B m m m b v r r r 6 6 6 6 4 4 4 3 3 3 3 3 1 1 1 1 1 1 & @ $ g f -                                                                                                                                                                                                                                                                                                                 ",
"                                                                                                                                        o % p s y 0 0 0 q d t u u K X.$.>.[.XXuXxXcXbXmXnXnXnXmXcXhXXX^.i.&._ ) ) ) ` { { { } } } &.y.y.y.y.m.m.N.N.A.A.A.J.J.`.`.'.'.#X#X*X*X*X6X6X6X6X6X*X#X#X#X#X`.J.K.K.V.B.z.z.0.0.8.8.] / ~ Q Q Q T T T U U I I H C B B N m m b b v r r e 6 6 6 4 4 4 4 3 3 3 3 3 1 1 1 1 1 & # o 8 g i                                                                                                                                                                                                                                                                                                                   ",
"                                                                                                                                        o = s s 0 0 0 q q t t u Z K o.$.g.|.yXuXxXcXmXmXnXnXnXmXxXuX}.~.*.&._ ) ) ) ` { { { } } } &.y.y.y.y.m.m.N.A.A.A.A.J.J.`.'.'.'.#X#X*X6X6X6X6X6X6X6X*X#X#X#X#XJ.J.K.V.V.z.z.w.0.0.8.| ] / ^ Q Q R T T T U I I H H C B B N m m b b v r r e 6 6 6 4 4 4 4 3 3 3 3 1 1 1 1 1 1 5 @ $ i g 8                                                                                                                                                                                                                                                                                                                   ",
"                                                                                                                                      O + w s y 0 0 0 q q t t u Z K +.>./.|.uXjXxXcXmXmXnXnXnXbXxX.X}.g.&._ _ ) ) ) { { { } } } &.y.y.y.y.y.m.N.M.A.A.A.J.J.J.`.'.'.#X#X*X6X6X6X6X6X6X6X#X#X#X#X#X#XJ.K.K.V.B.z.z.w.0.8.8.] / ^ ~ Q Q R T T T U I I H C V B N m m m b v r r e 6 6 6 6 4 4 4 3 3 3 3 1 1 1 1 1 1 5 * $ $ g a                                                                                                                                                                                                                                                                                                                     ",
"                                                                                                                                      o % s s d 0 0 0 q t t u u Z X.$.>.[.XXuXxXcXbXmXnXnXnXmXcXhXXX^.i.&._ ) ) ) { { { { } } } &.y.y.y.y.m.m.N.N.A.A.A.J.J.J.`.'.'.#X#X#X*X6X6X6X6X6X6X#X#X#X#X#X#XJ.J.V.V.B.z.w.0.0.8.8.] / ^ Q Q Q T T T U U I J H C V B N m m b b v r r e 6 6 6 4 4 4 4 3 3 3 3 3 1 1 1 1 1 5 & $ i f i                                                                                                                                                                                                                                                                                                                     ",
"                                                                                                                                      o w s s 0 0 0 0 q d t u Z K o.*./.|.yXjXxXcXmXmXnXnXnXmXxX.X}.~.*.&._ _ ) ) { { { | } | &.t.y.y.y.y.m.m.N.A.A.A.J.J.J.`.'.'.'.#X#X#X6X6X6X6X6X6X#X#X#X#X#X#XJ.J.K.V.V.z.z.w.0.0.8.] ] ^ ~ Q Q R T T T U I I H H C B B N m m b v v r e e 6 6 6 4 4 4 3 3 3 3 3 1 1 1 1 1 5 5 @ = i f -                                                                                                                                                                                                                                                                                                                     ",
"                                                                                                                                    O % i s y 0 0 0 0 q d y u Z ..+.>.[.|.uXjXxXcXmXmXnXnXmXcXxX.X^.i.&._ _ ) ) ) { { { | } } &.y.y.y.y.y.m.N.N.A.A.A.J.J.J.`.'.'.#X#X#X6X6X6X6X6X6X6X#X#X#X#X#X#XJ.J.K.V.B.z.z.w.0.8.8.] / ^ Q Q Q T T T T U I H H C V B B m m m b v r r e 6 6 6 4 4 4 4 3 3 3 3 3 1 1 1 1 1 1 * $ = g f                                                                                                                                                                                                                                                                                                                       ",
"                                                                                                                                    O % s s q 0 0 0 q t t u s K X.$.>.[.XXuXxXcXbXmXnXnXnXmXcXuX}.~.i.&._ _ ) ) { { { { } } } &.y.y.y.y.m.m.N.N.A.A.A.J.J.`.'.'.#X#X#X#X#X#X6X6X6X6X6X#X#X#X#X#X#XJ.J.K.V.B.z.z.w.0.8.8.] / ^ Q Q Q T U T U U I H H C B B N m m b b v r r e 6 6 6 4 4 4 4 3 3 3 3 3 1 1 1 1 1 1 $ X i f i                                                                                                                                                                                                                                                                                                                       ",
"                                                                                                                                    o w s s 0 0 0 q q d t u Z K o.*./.|.yXhXxXcXbXmXnXnXnXbXxX.X}.~.&.} _ ) ) ) ` { { { | | } t.y.y.y.y.m.m.N.A.A.A.K.J.J.`.'.'.#X#X#X#X*X#X6X6X6X6X6X#X#X#X#X#X#XJ.K.K.V.z.z.w.0.0.8.] ] ^ ^ ~ Q R U U U U U I H H V B B N m m b v v r r e 6 6 6 4 4 4 3 3 3 3 3 3 1 1 1 1 1 & $ * f f                                                                                                                                                                                                                                                                                                                         ",
"                                                                                                                                  o % i s d 0 0 0 t t t y u Z ..$.>.[.|.yXjXxXbXmXmXnXnXmXcXhXXX^.i.&._ _ ) ) ) { { { { | | &.y.y.y.y.y.m.N.N.A.A.A.J.J.J.'.'.'.#X#X#X#X*X*X6X6X6X6X6X#X#X#X#X#XJ.J.K.V.V.z.z.w.0.0.8.] / ^ ~ Q Q R U U T U U H H H B B B m m b b v r r e 6 6 6 6 4 4 4 3 3 3 3 3 1 1 1 1 1 1 * $ - f i                                                                                                                                                                                                                                                                                                                         ",
"                                                                                                                                  o = s s q 0 0 q t t t u s K o.$.g.[.XXuXxXcXbXmXnXnXnXmXxXuX}.~.*.&.{ ) ) ) ) ` { { } } } &.y.y.y.y.m.m.N.N.A.A.A.J.J.`.'.'.#X#X#X#X#X#X6X6X6X*X6X*X#X#X#X#X#XJ.J.K.V.B.z.z.w.0.0.8.] / ^ ~ Q Q E U T U U J J H C B B m m m b v v r r e 6 6 6 4 4 4 4 3 3 3 3 3 1 1 1 1 1 & * X f f i                                                                                                                                                                                                                                                                                                                         ",
"                                                                                                                                . o i s s 0 0 q t t d t u Z K o.>./.|.yXhXxXcXbXmXnXnXmXbXxX.X}.~.&._ _ _ ) ) { { { { } | &.&.y.y.y.y.m.m.N.V.A.A.J.J.J.`.'.'.#X#X#X*X*X*X*X#X6X6X6X#X#X#X#X#XJ.J.K.K.V.z.z.w.w.0.8.] ] / ^ ~ Q Q U U T U J J H H V B B m m m b v v r e 6 6 6 6 4 4 4 3 3 3 3 3 1 1 1 1 1 1 * $ - f f                                                                                                                                                                                                                                                                                                                           ",
"                                                                                                                                o % i s y 0 0 q t t t u u Z X.$.>.^.XXuXjXxXbXbXmXnXnXmXcXhXXX^.i.&._ ) _ ) ) { { { { | } } &.y.y.y.y.m.N.N.A.A.A.J.J.J.`.'.'.#X#X#X*X#X*X*X#X6X6X#X#X#X#X#X#XJ.J.K.V.V.z.z.w.0.0.8.] / ^ ^ Q Q W E U U T J J H H V B B m m b b v r r e 6 6 6 4 4 4 3 3 3 3 3 3 1 1 1 1 1 & * $ 8 f i                                                                                                                                                                                                                                                                                                                           ",
"                                                                                                                                o = s s w 0 w w t t t u Z K o.*./.|..XuXxXcXbXmXmXnXnXbXxX.X}.~.*.&._ _ ) ) { ) { { { | } &.&.y.y.y.m.m.N.N.A.A.A.J.J.J.'.'.#X#X#X#X#X#X*X*X6X6X6X#X#X#X#X#XT.J.J.K.V.B.z.z.w.0.8.8.] / ^ ~ Q Q W U U T T J J H J V B N m m b v v r e e 6 6 6 4 4 4 4 3 3 3 3 3 3 1 1 1 1 * * o f f 8                                                                                                                                                                                                                                                                                                                           ",
"                                                                                                                              . o i g s q 0 q t t t t u Z K $.>./.|.yXjXxXcXbXmXmXnXmXcXhX.X^.i.&._ _ ) ) ) ) ) { { { | } &.y.y.y.y.m.m.N.N.A.A.J.J.J.`.'.'.#X#X#X#X#X*X*X*X6X6X#X#X#X#X#X#XJ.J.J.K.V.m.z.z.0.0.8.] ] / / ~ Q Q E U T T T T J H C B C N m m b v v r e 6 6 6 4 4 4 4 3 3 3 3 3 1 1 1 1 1 & * $ - g f                                                                                                                                                                                                                                                                                                                             ",
"                                                                                                                              o = s ..a 0 0 q t d t u u K X.$.g.[.XXuXjXxXbXmXmXnXnXmXcXhX}.~.i.&._ ) ) ) ) ) ^ { { | } } &.0.0.y.y.m.m.N.A.A.A.J.J.J.'.'.'.#X#X#X#X#X*X#X#X#X6X6X#X#X#X#XU.J.J.K.V.V.z.z.z.0.0.8.] / / ^ ~ Q W E U T T J J H H C C B m m m b v r r e 6 6 6 4 4 4 3 3 3 3 3 3 1 1 1 1 , * * $ i f 8                                                                                                                                                                                                                                                                                                                             ",
"                                                                                                                              o w g Z y 0 0 q t d t u Z K o.*./.|.yXuXxXcXbXmXmXmXmXbXxX.X}.g.&.} _ ) ) ) ) ^ ^ { { | } } &.&.0.y.y.m.N.N.A.A.A.J.J.J.'.'.'.#X#X#X#X#X#X#X#X6X6X#X#X#X#X#XU.J.J.K.V.m.z.z.w.0.8.8.] / / ^ Q Q W W W T T T J H J C C B m m b b v r r e 6 6 6 4 4 4 4 3 3 3 3 3 1 1 1 1 1 * * $ f f -                                                                                                                                                                                                                                                                                                                             ",
"                                                                                                                            . % i D Z t 0 q t t t u u Z L %.>./.|.yXjXxXcXbXmXmXmXmXcXhXXX^.i.&._ ) ) ) ) ) ^ ^ ] { { | } &.0.0.0.m.m.N.N.A.A.K.J.J.J.'.'.#X#X#X#X#X#X#X#X6X6X#X#X#X#X#X#XU.J.K.V.V.m.z.z.w.0.8.] ] / ^ ^ Q Q E U T T T J J J J B C B m m b v v r e e 6 6 6 4 4 4 3 3 3 3 3 1 1 1 1 1 & * $ - g i                                                                                                                                                                                                                                                                                                                               ",
"                                                                                                                            o = g @.y 0 0 q t t t u Z K X.$.g.[.XXuXjXxXbXbXbXmXmXbXxXuX}.~.i.&._ ) ) ) ) ^ ^ ^ ] { | } &.&.0.0.0.m.m.N.N.A.A.K.J.J.'.'.'.#X#X#X#X#X#X#X#X6X6X6X#X#X#X#X#XU.J.K.V.V.z.z.z.0.0.8.] ] / ^ ~ Q E E U T T T J H J J B B m m m v v r r e 6 6 6 6 4 4 3 3 3 3 3 3 1 1 1 1 1 5 * $ f f 8                                                                                                                                                                                                                                                                                                                               ",
"                                                                                                                          . o w ....t 0 0 q q t u u Z K o.*./.|..XuXjXcXbXbXbXmXmXcXhX.X^.g.&._ ) ) ) ) Q ) ^ ^ { { | | 0.0.y.y.y.m.m.N.N.A.A.J.J.J.'.'.'.#X#X#X#X#X#X#X#X6X6X#X#X#X#X#X#XJ.K.K.V.c.z.z.w.0.8.| ] / ^ ^ ~ Q E U U T T J H H J B B C m m b v v r r e 6 6 6 6 4 4 4 3 3 3 3 3 1 1 1 1 & * * * f f                                                                                                                                                                                                                                                                                                                                 ",
"                                                                                                                          . % p ..Z q 0 q q d t u u K L $.g.[.XXuXhXxXbXbXbXmXmXbXcXhXXX^.i.&._ ) ) ) ) Q Q ) ^ { { } | | 0.y.y.y.m.m.N.V.A.K.J.J.J.'.'.#X#X#X#X6X6X#X#X#X#X6X#X#X#X#XT.J.J.K.V.V.z.z.z.w.0.8.] ] ^ ^ ~ Q R E U T T T J H H C B C B m m v v n t e e 6 6 6 4 4 4 4 3 3 3 3 1 1 1 1 1 & * $ 8 g i                                                                                                                                                                                                                                                                                                                                 ",
"                                                                                                                        . o i D o.y q 0 q q t t u M K o.>./.|.yXuXjXxXbXbXmXnXmXbXjX.X}.~.&.} _ ) ) ! ! ^ ^ ^ ^ { { } | | 0.0.0.m.m.N.N.V.A.K.J.J.J.'.'.#X#X#X#X6X6X6X#X#X#X#X#X#X#X#XT.J.J.K.V.V.z.z.z.0.0.8.] [ ^ ^ ~ Q E E U T T J H H J C C C m m m v v n r e 6 6 6 6 4 4 4 3 3 3 3 3 1 1 1 1 1 * * $ f f -                                                                                                                                                                                                                                                                                                                                 ",
"                                                                                                                      . o = g O.Z q 0 q q t t u u Z L $./.|.yXuXjXxXbXbXmXmXnXmXcXhX.X^.g.&._ _ ) ) Q ! ! ^ ^ ^ { { } | | 8.0.0.m.m.N.V.V.A.K.J.J.J.'.#X#X#X#X#X#X6X6X#X#X#X#X#X#X#X#XU.J.J.K.V.c.z.z.w.0.8.| ] / ^ ^ Q Q E U U T T H H H C C C N m m b v v r r e 6 6 6 6 4 4 4 3 3 3 3 1 1 1 1 1 & * $ - f f                                                                                                                                                                                                                                                                                                                                   ",
"                                                                                                                      o = a ....u q q q t t u u Z K o.>.[.aXuXjXxXvXbXmXmXnXnXbXxXuX}.~.i.&._ ) ) Q ! ^ ! ! ) ) { | | | } 0.0.0.z.m.N.V.V.K.K.J.J.J.'.#X#X#X#X#X#X#X#X#X#X#X#X#X#X#XU.J.J.K.V.V.z.z.z.w.0.8.] ] / ^ ~ Q R E U T T T Y H C C C C N m m b v v r e e 6 6 6 4 4 4 4 3 3 3 3 3 1 1 1 1 & * @ 8 f 8                                                                                                                                                                                                                                                                                                                                   ",
"                                                                                                                    X % i g +.Z t q q t t u u u Z L $./.XXuXjXxXvXbXbXbXnXnXmXbXjX.X^.g.&._ ) ) ) Q ! ! ! ! ) ) { | } | | 8.0.0.m.m.N.V.V.K.K.J.J.J.#X#X#X#X#X#X#X#X#X#X#X#X#X#X#XU.U.J.J.K.V.c.z.z.z.0.0.8.] [ / ^ ~ Q E E U T T Y H H C V C B m m m v v v r e 6 6 6 6 4 4 4 4 3 3 3 3 1 1 1 1 1 & # $ f f -                                                                                                                                                                                                                                                                                                                                   ",
"                                                                                                                  . o - a @...y q q t t y u u Z K o.>.[.yXpXxXvXbXbXbXbXNXnXmXcXhX X^.i.&._ ) ) Q Q ! ^ ! ! ) ) { } } } | 0.0.w.m.m.N.V.A.K.J.J.J.J.#X#X#X#X#X#X#X#X#X#X#X#X#X#X#XU.J.J.K.K.V.c.z.z.w.0.8.] ] / ^ ^ Q Q E E T T Y Y H C V B B N m m v v v r r e 7 6 6 6 4 4 4 3 3 3 3 3 1 1 1 1 & # @ 8 f i                                                                                                                                                                                                                                                                                                                                     ",
"                                                                                                                  . % a D ..s q q t t y u s Z Z X.*./.|.uXjXvXbXbXbXNXNXNXnXbXxXyX}.~.a.&.) ) Q R Q ! ! ^ ! ) ) { | } | | 0.0.w.m.N.N.V.A.K.J.J.J.J.#X#X#X#X#X#X#X#X#X#X#X#X#X#XT.J.J.K.K.V.V.z.z.z.0.0.8.] [ / ^ ~ Q R E U T T Y Y H C V B B N m m b v v r e e 7 6 6 6 4 4 4 3 3 3 3 3 1 1 1 1 # # @ 8 f -                                                                                                                                                                                                                                                                                                                                     ",
"                                                                                                                . o i g ..Z t q q t y u y s Z K $./.|.uXjXvXvXbXbXNXNXNXNXnXbXjX.X^.g.&._ _ ) Q Q ! ! ! ! ^ ) ^ { { | | 8.0.0.0.m.m.V.A.A.K.J.J.J.J.#X#X#X#X6X#X#X#X#X#X#X#X#X#X#XU.J.K.V.V.m.z.z.w.0.8.] ] / ^ ^ ~ Q E U U U I I H H C B B B m m b b v r r e e 6 6 6 6 6 4 4 3 3 3 3 3 1 1 1 1 & @ @ f i -                                                                                                                                                                                                                                                                                                                                     ",
"                                                                                                                X = a O.D y 0 q t y y u y s Z $.g.|.uXjXvXvXbXvXMXNXNXNXNXbXbXhX|.^.i.&._ _ R R Q Q Q Q ! ! ) ^ { { ] | 8.0.0.0.m.m.N.A.A.J.J.J.J.'.#X#X#X#X6X6X#X#X#X#X#X#X#XT.#XJ.J.K.V.V.m.z.z.w.0.8.] ] / ^ ^ Q Q E U U U I J H C V B B N m m b b v r r e 7 6 6 6 6 4 4 4 3 3 3 3 3 1 1 1 & # $ 8 f i                                                                                                                                                                                                                                                                                                                                       ",
"                                                                                                              . o - g ..s 0 0 t t y u y s Z o.>.|.pXjXvXvXbXvXMXMXNXNXNXNXbXjX.X^.g.&.` ) ) R R Q Q ! ! ! ! ) ) { { ] | 8.0.0.w.z.m.V.V.A.K.K.J.J.#X#X#X#X#X6X6X#X#X#X#X#X#X#XT.U.J.J.V.V.m.z.z.w.0.0.8.] / / ^ ~ Q Q E U U I I H H V B B B N m m b v v r e e 7 6 6 6 6 4 4 3 3 3 3 3 1 1 1 1 # $ $ i f *                                                                                                                                                                                                                                                                                                                                       ",
"                                                                                                              X % i D D t 0 0 q y y y u Z ..;.|.uXjXvXvXbXvXMXMXNXNXNXNXnXbXjX X^.i.&._ _ ) R Q Q Q ! ! ! ! ) ) ^ { { | 8.8.0.w.m.m.N.V.A.K.K.J.J.T.#X#X#X#X6X6X#X#X#X#X#X#XT.T.J.J.K.V.V.z.z.z.0.0.8.| ] / ^ ^ ~ Q E E U U I I H C V B B B N m m b v r r e e 6 6 6 6 6 4 4 3 3 3 3 1 1 1 1 1 & $ $ f i *                                                                                                                                                                                                                                                                                                                                       ",
"                                                                                                            . @ 2 s ..s t 0 0 t y y y s Z +./.yXxXvXvXbXbXNXNXNXNXBXBXNXbXxXyX}.g.&.&._ ) ! R Q Q Q W W ! ! ! ) ^ ] ] | 8.8.0.w.z.m.m.V.V.K.K.K.J.J.#X#X#X#X#X#X#X#X#X#X#X#XU.U.J.J.K.V.z.z.z.w.0.8.8.] ] / ^ ~ Q Q E U U U I J H V B B B B m m b b v r e e 6 6 6 6 6 6 4 4 3 3 3 3 1 1 1 1 & # @ 8 f 8                                                                                                                                                                                                                                                                                                                                         ",
"                                                                                                            X % i g s y 0 0 0 t y a a s ..>.|.xXbXvXbXbXmXNXNXNXNXBXBXnXbXjX.X^.i.&._ ) ) ! Q Q W W W W W ! ! Q ^ ] ] | 8.8.0.0.z.m.m.V.V.V.K.K.J.J.J.#X#X#X#X#X#X#X#X#X#XT.U.J.J.K.G.V.z.z.z.0.0.8.8.] / ^ ^ ~ W E E U U I I H J V B B B N m m b v v r e e 7 6 6 6 6 6 4 3 3 3 3 3 1 1 1 1 # # * i f *                                                                                                                                                                                                                                                                                                                                         ",
"                                                                                                          . o * p s y q 0 0 0 t y y y Z o./.jXbXbXbXbXmXNXNXBXBXBXNXNXmXcXhX}.~.i.&._ ) ! ! Q Q W W W W W ! ! Q ^ / ] | 8.8.0.0.w.m.m.V.V.V.K.K.J.J.J.J.J.J.T.T.#X#X#X#X#XT.U.J.J.K.V.V.z.z.w.0.0.8.] ] / ^ ~ ~ W E E U U I J H V V B B B N m b b v r r e e 6 6 6 6 6 4 4 3 3 3 3 3 1 1 1 & # $ = f i                                                                                                                                                                                                                                                                                                                                           ",
"                                                                                                          X % w s s q q 0 0 t t t t y Z >.|.jXbXbXvXbXmXNXBXBXBXBXBXNXbXjX.X^.i.&.} _ ) ! Q Q W W W W W W Q ! W Q ^ ] ] | 8.8.0.w.m.m.N.V.V.G.K.K.J.J.J.J.J.J.J.J.T.T.T.T.T.T.J.K.K.V.z.z.z.w.0.8.8.] ] ^ ^ ~ W E E U U U I J H V B B B B m m b b v r r e e 6 6 4 6 6 6 4 3 3 3 3 1 1 1 1 & $ $ i f 8                                                                                                                                                                                                                                                                                                                                           ",
"                                                                                                        . o = i y t q q t t t t t t u X.h.uXvXvXvXvXbXNXNXBXBXBXBXAXnXxXuX}.g.&.&._ ) Q ! Q W W W W W W W W W W W ^ / ] | 8.8.0.w.m.m.m.V.V.V.G.K.K.J.J.J.J.J.J.J.J.T.T.T.J.J.J.K.V.V.z.z.w.0.0.8.6.] / ^ ~ ~ W E E U U I I H H V B B B N m m b v v r e e 7 6 6 6 6 4 4 3 4 3 3 3 1 1 1 1 # @ * i i O                                                                                                                                                                                                                                                                                                                                           ",
"                                                                                                        . @ 2 w w q q 0 e e t t t a Z $.|.jXvXvXvXvXbXMXBXBXBXBXBXNXbXjX.X^.i.&._ ) ) Q ! ! W W W W W W W W W W W W ^ / ] 8.8.0.w.z.z.m.c.V.V.V.K.K.K.K.J.J.J.J.J.J.J.J.J.J.J.K.G.V.c.z.z.0.0.8.6.] ] / ^ ~ W W E U U U I I H V V B B B N m m b v r r e e 7 6 6 6 6 4 4 4 4 3 3 3 1 1 1 & # $ * f 8                                                                                                                                                                                                                                                                                                                                             ",
"                                                                                                        o = w w w w q 0 0 e t t t u ..:.yXjXjXjXvXvXvXNXBXBXBXBXBXNXbXuX}.g.&._ ) _ ) Q W W W W W W W W W W W W W W / / ] ] ] 8.0.w.z.z.z.c.V.V.V.K.K.K.K.K.K.K.J.J.J.J.J.K.K.G.V.c.z.z.z.0.0.8.] ] / ^ ^ ~ Q E E U U I I I H V B B B N m m b b v r r e e 7 6 6 6 6 4 4 3 3 3 3 1 1 1 1 & * @ i i -                                                                                                                                                                                                                                                                                                                                             ",
"                                                                                                      . @ 2 w w q q q 0 e e t t t Z o.h.yXjXjXjXjXvXbXbXBXBXBXBXAXnXjX.X/.*._ _ ) ) Q ! W W W W W W W W W W W W W W / ^ / ] ] 6.8.0.e.z.z.z.c.V.V.V.K.K.K.K.K.K.K.K.K.K.K.G.G.V.V.z.z.e.0.7.8.6.] ] / ^ ~ ~ W E E U U I I J V V B B B N m m b v v r e e 7 6 6 6 6 4 4 4 3 3 3 3 1 1 1 1 # @ * i i o                                                                                                                                                                                                                                                                                                                                             ",
"                                                                                                      . % w w w 0 0 0 0 e e e t t Z $.[.yXuXpXjXjXvXbXmXNXBXBXBXNXbXuX}.g.&._ _ ) ! ! ! W W W W W W W W W W W W ^ ^ ^ ^ / / [ ] 6.6.7.e.z.z.z.c.V.V.V.V.G.G.G.G.G.G.G.G.G.V.V.V.z.z.z.0.0.0.8.] ] / ^ ^ ~ Q E E U U U I I H V B B B B m m b v v r r e e 6 6 6 6 4 4 4 4 3 3 3 3 1 1 1 1 & $ 8 i 8                                                                                                                                                                                                                                                                                                                                               ",
"                                                                                                    . o * w w w 0 0 0 0 e e e t t K >.}.yXyXyXhXjXxXvXbXNXNXBXBXnXxX.X^.*.&._ ) ) ! ! W W W W W W W W W W W W / ^ ^ ^ / / [ [ ] [ 6.6.7.e.e.z.z.z.V.V.V.V.V.V.V.V.V.V.V.V.V.V.c.z.z.e.0.0.8.6.] ] / ^ ~ ~ W E E U U I I H H V B B B N m m v v v r r r e 6 6 6 6 4 4 4 4 3 3 3 1 1 1 1 & * $ i i -                                                                                                                                                                                                                                                                                                                                               ",
"                                                                                                    . $ 2 w w w w 0 0 0 e e t t M X.g.}.|..XyXuXjXjXvXbXbXNXNXNXbXhX}.g.&._ _ ) ! ! ! W W W W W W W W W W ^ ^ ^ ^ / / / ] [ [ [ 6.6.6.6.7.7.e.e.z.z.z.c.V.V.V.V.V.V.V.V.c.c.z.z.z.e.0.0.0.8.] ] / / / ~ Q Q E U U U U I H V V B B B m m m v v v r r e e 6 6 6 6 4 4 4 4 3 3 3 1 1 1 1 & $ * f i $                                                                                                                                                                                                                                                                                                                                               ",
"                                                                                                    X = w w 0 w w 0 0 e e e t t M o.g.[.}.|..XyXhXjXxXbXbXnXnXbXxXyX^.i.&.) ) ! ! ! W W W W W W / ^ ^ ^ ^ / / / / ] ] ] ] ] [ [ 6.6.6.6.6.7.7.7.e.l.z.z.z.c.c.c.c.c.V.c.c.z.z.z.e.0.0.0.8.] ] [ ^ / / ~ Q E U U U I I J H V B B B N m m b v v r r e r e 6 6 6 6 6 4 4 3 3 3 1 1 1 1 & # @ 8 i -                                                                                                                                                                                                                                                                                                                                                 ",
"                                                                                                  . o * w w w w w 0 0 e t e t u Z $.g./.^.}.XX.XyXhXjXxXbXbXmXbXjX|.~.*._ ) ! ! ! ! W W W W / ^ [ [ ] / / ] ] ] ] ] ] ] ] ] 6.6.6.6.6.6.6.6.6.7.7.7.e.e.l.z.x.v.v.v.v.v.z.z.e.e.e.7.8.6.] ] [ / / W W W W E U U I I J H V V B B C N m m v v v r r e r 6 6 6 6 6 6 4 4 4 3 3 3 1 1 1 # $ $ i i *                                                                                                                                                                                                                                                                                                                                                 ",
"                                                                                                  o % w w 0 w w w 0 0 e e t t n L $.>.g.~.^.}.XX.XuXhXjXxXcXbXxXyX^.*._ ) ) ! ! ! W W W W ^ ^ [ ] ] ] ] ] ] ] ] | | | ] ] 6.8.6.7.6.6.6.6.6.6.6.7.7.7.7.e.e.e.z.z.z.z.z.e.e.e.7.7.7.6.] ] [ ^ / W W W W E U U U J J J V V B B B N m m m v v r r r e r 6 6 6 6 6 4 4 4 3 3 3 3 1 1 & # $ * f i                                                                                                                                                                                                                                                                                                                                                   ",
"                                                                                                  o = w w 0 0 0 2 2 4 0 e t r M L $.*.g.g./.^.}.XX.XuXhXxXxXxXhX}.~.*._ ) Q ! ! ! W W W ^ ^ / ] ] ] ] | ] ] | | | 8.8.8.8.8.7.7.7.7.7.6.6.6.6.6.6.6.6.6.7.7.7.e.e.e.e.e.e.e.7.7.6.6.8.] [ / W / W W W U U U U I J J V B B B B N m m m v v v t r e r e 6 6 6 6 6 4 4 4 3 3 3 3 3 1 & # @ i i -                                                                                                                                                                                                                                                                                                                                                   ",
"                                                                                                . o * w 0 0 0 2 2 2 4 0 e t t M L %.*.*.g.~.^._.}..X.XhXhXhXhX.X^.i._ ) ! ! ! ! ^ W W ^ ^ ^ ] ] ] ] | | | | | 8.8.0.0.0.0.0.0.0.7.e.e.e.7.7.6.6.7.6.6.6.6.6.6.6.7.7.7.7.7.7.7.6.6.] ] ] / / / W W W U U U U I H J V B B B B N m m m b b v v r r e e e 6 6 6 6 6 4 4 4 3 3 3 3 1 1 # $ * i i %                                                                                                                                                                                                                                                                                                                                                   ",
"                                                                                                o % w w w w 0 2 2 2 4 e t t u M L %.*.*.*.g.~.^.}.}..X.X3XhX.X}.~.*._ ) ! ! ! W W W W ^ / [ ] ] | | | | 8.8.8.0.0.0.0.0.w.e.e.e.e.e.e.e.e.e.e.7.7.7.6.6.6.6.6.6.6.6.6.6.7.6.6.6.[ ] / / / / W W E U U U U I J J V V B B N m m m m b b v v c r r e e 6 6 6 6 4 4 4 4 3 3 3 3 1 1 & & $ * i 8                                                                                                                                                                                                                                                                                                                                                     ",
"                                                                                                o = w w w w 2 2 2 2 4 e t t u M L %.%.*.*.i.~.^._.}.}.XX.X.X}.^.i.&.) ! ! ! ^ ^ W W W ^ / [ ] ] | | | 8.8.8.0.w.z.z.z.z.z.z.z.z.z.z.z.l.e.e.e.e.e.e.e.7.7.7.6.6.6.6.6.6.6.6.[ [ [ / / / / W W U U U U U I J J V V B N N m m m m m b v v v c r r e 7 6 6 6 6 6 4 4 4 3 3 3 3 3 1 & # $ i i -                                                                                                                                                                                                                                                                                                                                                     ",
"                                                                                              X o * w w w 2 2 2 2 2 4 e t t r M L %.%.&.*.*.i.~.~.^._.}.}.}._.i.&._ ! ! ! ! ! W W W W ^ / [ ] | | | 8.0.0.0.w.z.z.z.m.m.m.N.V.V.c.c.x.z.z.z.z.e.e.e.e.e.e.e.7.6.6.6.6.6.6.6.[ [ / W / / W W U U U U U I J J V V B N N N m m m m b b v v c r r e e 7 6 6 6 6 4 4 4 4 3 3 3 1 1 1 # @ * i i o                                                                                                                                                                                                                                                                                                                                                     ",
"                                                                                              X $ w w w w 2 2 2 2 4 0 e t t u M L _ %.%.*.*.i.i.~.~.^._._.^.~.i.} ) ! ! ! ! ! W W W W ^ / ] ] | | 8.0.0.0.w.z.z.m.m.N.N.V.V.V.V.V.c.c.c.c.x.x.z.z.z.z.z.e.e.e.e.7.6.6.6.6.[ [ / W W W W W U U U I U I I J J V V B N N m m m m m b b v v c r e e e 7 6 6 6 6 6 4 4 4 3 3 1 1 1 & & @ * i 8                                                                                                                                                                                                                                                                                                                                                       ",
"                                                                                              o * w w w w 2 0 2 4 4 0 e t t M C L ( _ %.*.&.i.i.i.~.~.~.~.~.i.&.) R R ! ! ! ! W W W W ^ [ ] | | 8.8.0.0.0.w.z.m.m.N.V.V.V.V.V.G.G.V.c.c.c.c.c.c.z.z.z.z.x.l.e.e.7.7.7.6.6.[ / / W W W W U U U I I I I J J V V V B N N m m m b b b v v c r r r e 7 7 6 6 6 6 6 6 4 4 3 3 1 1 1 & @ @ i a -                                                                                                                                                                                                                                                                                                                                                       ",
"                                                                                              o * w w w w w 0 2 4 0 e q t t M C L ( _ _ &.&.i.a.i.i.i.M.i.i.&.} ) T R Q Q W W ! W W ^ ^ [ ] | | 8.8.0.0.w.z.z.m.V.V.V.V.V.G.K.G.G.G.G.G.G.n.V.c.c.c.c.z.z.z.x.l.e.e.7.7.6.[ [ / W W W U U U U I I J J J J V V B N N m m m m b b v v c r r r r e 7 7 6 6 6 6 6 4 4 4 3 3 1 1 1 # @ * i i o                                                                                                                                                                                                                                                                                                                                                       ",
"                                                                                            . $ w w w w w w 0 2 4 0 0 q t t M C L L _ _ &.&.&.a.y.i.i.i.y.&.} ) R R Q Q W W W ! W ^ ^ ^ [ ] | | 8.0.0.0.w.z.z.m.V.V.V.K.K.K.K.H.H.G.G.G.G.G.G.G.n.V.c.c.c.c.z.z.l.e.e.7.7.6.] / W W W U U U U I J J J J V V B B N N m m m b b b v c r r r r r 7 7 7 6 6 6 6 6 4 4 4 3 1 1 1 # # @ 8 a -                                                                                                                                                                                                                                                                                                                                                         ",
"                                                                                            . = w w w 2 2 2 0 0 2 0 0 t t t M C L L _ _ &.&.&.&.a.y.a.y.&.{ ) ! Q Q Q W W W W ! W ^ ^ [ [ ] | | 8.0.0.0.z.z.m.V.V.V.K.K.K.K.H.H.H.H.H.H.H.H.H.G.G.G.G.c.c.c.c.c.z.l.e.e.7.6.6.] / W W W U U U I J J J V V N N N N m m b b b b v c c r r r r 7 7 7 7 6 6 6 6 6 4 4 3 3 1 1 1 # @ @ i i -                                                                                                                                                                                                                                                                                                                                                         ",
"                                                                                            o = w w 2 2 0 w w 0 4 0 0 q t t n M L L _ _ &.&.&.&.&.&.&.&.} ) ! Q Q Q W W W W W W W ^ ^ [ [ ] | | 8.0.0.0.z.z.z.c.V.V.K.K.H.H.H.H.T.T.H.H.H.H.H.H.H.G.G.G.G.n.c.c.x.z.l.e.7.7.8.] [ / / W U U U U J J J V B N N N N N b b b b b c c c r r r r 7 7 7 6 6 6 6 6 6 3 4 3 1 1 1 # # @ 5 a i o                                                                                                                                                                                                                                                                                                                                                         ",
"                                                                                            o = w w w 2 2 2 2 4 4 0 0 t t t u Z L L _ _ &.&.&.&.&.&.&.} ` Q Q ! Q W W W W W W W ^ ^ [ [ [ ] | | 0.0.0.z.z.z.z.V.V.V.K.K.H.H.H.T.W.W.T.T.H.H.H.H.H.H.H.H.G.G.c.c.c.x.x.l.0.7.8.] ] / / / W E U U J J J J V N N N N m b b b b v c c c c r r r 7 7 7 7 6 6 6 6 6 3 3 3 1 1 1 # # & 8 a *                                                                                                                                                                                                                                                                                                                                                           ",
"                                                                                            o w w w 2 2 2 2 4 4 4 4 0 0 t t u Z K L %.%.&.&.&.&.&.&.&.` ) Q ! ! ! ! ! ! ^ ^ W ^ ^ ^ [ [ [ ] | | 0.0.0.z.z.z.c.V.V.K.K.K.H.H.T.T.W.W.W.W.W.W.T.T.T.H.H.H.G.G.n.c.c.c.x.z.z.0.7.6.[ [ / / W W E U U I J J V N N N N m b b b b v c c c c r r r 7 7 7 7 6 6 6 6 4 3 3 3 1 1 , # @ & i i *                                                                                                                                                                                                                                                                                                                                                           ",
"                                                                                          o % w w w 0 2 2 2 4 4 4 4 0 0 t t u Z K X.%.%.*.&.&.&.&.&.} _ ) R R Q ! ! ) ) ^ ^ ^ ^ [ [ [ [ ] ] | 8.0.0.0.z.z.z.c.V.K.K.K.H.H.H.T.W.W.W.W.W.W.W.W.W.T.T.T.H.H.G.n.c.c.c.z.z.z.e.0.7.6.[ [ / / W W U U U U J J V B N N m b b b b v c c c c c r 7 7 7 7 6 6 6 4 4 4 3 3 1 1 , # # @ 5 i i                                                                                                                                                                                                                                                                                                                                                             ",
"                                                                                          O = w w w 0 2 2 2 2 2 4 0 0 0 0 t t M Z X.%.$.*.&.&.&.&.&._ _ ( T T T T Q Q ) ^ ^ ^ ^ ] [ [ ] ] | 8.8.0.0.z.z.z.z.V.V.G.G.K.H.H.T.W.W.W.W.W.W.W.W.W.W.T.T.T.T.H.G.n.n.c.c.c.z.z.z.e.7.8.6.[ / / / Q Q E U U I H C C N N N m b b b c c c c c r r r 7 7 7 6 6 6 6 6 6 3 3 3 , , # # # 8 a =                                                                                                                                                                                                                                                                                                                                                             ",
"                                                                                          O - i w 0 2 2 2 2 2 2 4 2 0 4 4 e t u Z X.%.$.*.*.*.*.*.%._ ( L J J J J J Q Q ) ) ) ^ ] [ [ ] ] | 8.0.0.0.z.z.z.c.V.V.G.G.K.H.H.T.W.W.W.W.W.W.W.W.W.W.W.T.T.T.H.G.G.n.c.c.c.z.z.z.e.7.7.8.6.] / ^ ~ Q E U U T Y H C C N N N b b b c c n n c c r 7 7 7 7 6 6 6 6 6 4 3 3 3 , , # # & i 8 &                                                                                                                                                                                                                                                                                                                                                             ",
"                                                                                          O w i w 0 2 2 2 2 2 2 2 4 4 4 4 4 e t Z X.o.$.*.*.*.*.*.%._ L L H H H J J P T ! ! ^ ^ ^ [ [ ] ] 6.8.0.0.0.z.z.z.c.V.V.G.G.H.H.T.W.W.W.W.W.W.W.W.W.W.W.T.T.T.T.H.H.G.n.G.c.c.c.z.z.e.7.7.8.6.] ] / ^ ~ W E U T Y Y H C V N N N b b v c n c c c r r 7 7 7 6 6 6 6 4 4 3 3 3 , , # @ 5 i 8                                                                                                                                                                                                                                                                                                                                                               ",
"                                                                                          o : i w 0 2 2 2 2 3 3 2 2 2 2 2 2 0 t Z Z X.$.$.*.*.*.$.%.L L L H J J J J H H T T ! ! ^ [ [ ] ] 6.7.0.7.0.z.z.z.V.V.G.G.K.H.H.T.W.W.W.W.W.W.W.W.W.W.W.T.T.T.T.H.H.G.n.G.V.c.c.z.z.e.e.7.8.6.6.] / / ~ W E U U Y Y H V V V N N m b b c n c c c r r 7 7 7 6 6 6 6 4 4 3 3 3 , # # # 5 a $                                                                                                                                                                                                                                                                                                                                                               ",
"                                                                                          o = w w 2 2 2 2 2 2 2 2 2 2 2 2 2 0 t a Z X.$.$.$.$.$.$.%.L L L C M M M J J H H T T Q ^ { ] ] ] 6.7.0.0.z.z.z.c.V.V.G.G.H.H.T.W.W.W.W.W.W.W.W.W.W.W.W.T.T.T.R.H.G.G.G.n.V.c.c.z.z.z.0.0.8.8.8.] ] / ^ W W E U U Y I V V V N N N b b b n c c c r r 7 7 7 7 6 6 6 4 4 3 < , , # # # i 8 $                                                                                                                                                                                                                                                                                                                                                               ",
"                                                                                          o = w w 2 & 2 2 5 2 2 2 2 2 2 2 4 4 i a Z X.+.$.$.$.$.$.X.L Z Z M M M M M M H H H T T Q ) ] ] ] 8.8.7.0.z.z.c.c.V.V.G.G.H.H.T.W.W.W.W.W.W.W.W.W.W.W.T.T.T.T.H.H.G.G.G.n.c.c.c.z.z.z.e.0.7.8.8.] ] / ^ W W E E U I I J V V V N N m b b n n c c r r r 7 7 7 6 6 6 4 4 3 < , , # # & i 8                                                                                                                                                                                                                                                                                                                                                                 ",
"                                                                                          o = i w = & & 2 2 5 5 2 5 5 5 5 5 4 w a s D X.+.$.$.$.$.X.X.Z Z n u n M M M C H H H T R Q ) { ] | 8.0.0.z.z.c.V.V.G.G.H.H.T.W.W.W.W.W.W.W.W.W.W.W.W.T.R.T.T.H.G.G.G.G.n.c.V.c.z.z.z.e.0.0.8.8.6.] / / W W E E U I I J V V B N N N b b n n n c c r r 7 7 7 7 6 7 4 4 3 < , , # # 5 f *                                                                                                                                                                                                                                                                                                                                                                 ",
"                                                                                          O - i = = & & & & & & 5 5 2 5 5 5 5 8 a a D X.@.+.+.+.X.X.D Z u t t t u n M M C H H H T R Q ) { ] | 0.0.z.z.V.V.G.G.G.H.H.W.W.W.W.Q.Q.Q.Q.W.W.W.W.W.T.T.R.R.H.G.G.n.n.c.V.c.c.z.z.z.e.0.0.8.8.6.] ] / / W W E U I I I V V V N N N b b n n v c c c r 7 7 7 7 6 7 4 3 < < , # # @ 8 i *                                                                                                                                                                                                                                                                                                                                                                 ",
"                                                                                          . = - - * & = & & & & & & & 5 5 5 5 8 a a s D ..X.X.X...D Z Z a t t t t t v M M M B J H J T ) ) { ] 8.0.w.z.z.V.K.G.H.H.T.W.W.Q.Q.Q.Q.Q.Q.Q.W.W.W.T.R.T.R.H.H.G.n.n.n.c.c.c.c.z.z.z.e.0.0.8.8.] ] ] / / W W E U I I I V V V V N N b b b n v n c c r r 7 7 7 6 6 4 3 3 < , # # # 8 8 $                                                                                                                                                                                                                                                                                                                                                                 ",
"                                                                                            % - - * = % % % % % & & & & & * 5 5 8 a a Z D F F D D Z s a t e e e t t t t v n M M J J J T ) ) { { | 8.0.z.z.V.K.K.H.T.W.Q.Q.Q.6X6X6X6XQ.Q.Q.W.T.R.R.R.H.G.G.n.n.n.c.V.c.z.z.z.z.0.0.0.8.8.8.] ] / / W W E U I I J V V V B N N m b b v v c c c c r r 7 7 6 6 4 3 3 < , # # # 9 8 @                                                                                                                                                                                                                                                                                                                                                                 ",
"                                                                                            O * = = @ $ @ @ @ @ @ @ @ & & * * * 5 i a a D D D D s a a w 9 2 2 4 0 e t t t v M M M H H H T ) ) ) { [ ] 0.z.z.c.V.G.H.T.W.Q.Q.7X7X7X7X7X6XQ.Q.W.R.R.H.H.G.G.n.n.n.V.V.c.z.z.z.e.0.0.0.8.6.] ] ] / / W W E U I I I V V V B N N m m b b v v c c r r r r 7 7 6 4 3 3 3 , # # # i 5 X                                                                                                                                                                                                                                                                                                                                                                 ",
"                                                                                              O $ $ $ $ o o o o o @ @ @ @ @ * * * 5 8 a a g g g a a w 5 2 2 2 5 5 4 0 e t t n M M C H H H T ! ! ! ^ [  .0.0.z.z.V.G.G.H.W.Q.6X6X7X7X7X7X6XQ.W.E.R.R.H.G.G.n.n.n.V.c.c.z.z.z.e.0.0.0.8.8.8.] ] / / W W E E I I V V V V N N N m m b b b v c c c r r 7 7 7 6 4 3 3 3 , # # 5 i $                                                                                                                                                                                                                                                                                                                                                                   ",
"                                                                                              O O o $ $ o o o o o o o $ $ $ @ @ # * 5 8 i i a a a i 5 5 1 1 1 1 5 3 3 4 0 t t u M C L L L L T Q ! ! ! [ [ 8.0.z.z.c.c.n.G.H.T.W.Q.7X7X7X7X6XQ.W.R.R.H.b.G.G.n.V.c.c.c.z.z.z.e.0.0.0.8.8.6.] ] / ^ W W E U I I J V V B N N N m m b b b v v c c c r 7 7 7 6 4 3 3 1 1 # # 5 i *                                                                                                                                                                                                                                                                                                                                                                   ",
"                                                                                                . . O O O O o o o o o o o o o $ $ $ * * 8 8 8 i i 5 5 & & & & & 1 1 1 2 2 4 e t t M Z L L ( ( T ! ! W W ^ [  .0.z.z.c.c.c.V.G.G.H.W.Q.Q.7X6XQ.Q.W.R.R.H.G.G.G.V.c.c.c.z.z.e.0.0.0.8.8.6.] ] ] / ^ W W E T I H H V V B N N N m b b b b v v c c c r r 7 7 7 4 3 3 1 1 & # 8 f -                                                                                                                                                                                                                                                                                                                                                                   ",
"                                                                                                  . . X O X o O O O O O o o o X X $ $ $ * * * 5 8 * * & & & & & & & & 1 1 3 2 2 0 t t M L L _ _ ) ! U J U ! [ ] 7.z.z.z.c.c.c.c.c.G.G.H.T.W.Q.Q.W.W.T.H.H.G.G.V.c.c.z.z.z.e.0.0.0.8.8.6.] ] ] / ^ W W E U I H H V V B N N m m b b b v v v c c c c r 7 7 7 4 3 3 1 1 * 5 i i $                                                                                                                                                                                                                                                                                                                                                                   ",
"                                                                                                    . . X O O O O O O O o O X X X X o $ $ $ * * * * * & & & & # # & & & & & 1 1 5 2 2 t t M L _ _ } ` ! T W W [ [ 7.0.z.z.z.z.c.c.c.c.c.n.n.H.R.T.R.T.T.H.G.G.V.c.c.z.z.z.e.0.0.0.8.8.6.] ] / / / W W E U I H H V B N N m m b b b b v v c c c c r r 7 7 7 6 3 3 1 5 * * f 8 $                                                                                                                                                                                                                                                                                                                                                                   ",
"                                                                                                      . X X O O O O O O O O X X o o o o o X $ $ $ * $ $ $ @ @ @ @ @ @ & & & & & & 1 5 2 0 e t M H _ &.} } { { ^ [ [ 7.0.z.z.z.z.z.z.z.x.x.x.c.c.n.n.G.G.G.G.n.c.c.z.z.z.l.e.0.0.7.6.6.] ] ] / / W W E U U J H V V C C N m m b b b v v c c c c r r r 7 7 6 4 3 3 1 5 * * i 8                                                                                                                                                                                                                                                                                                                                                                     ",
"                                                                                                          . . . X X O O O O X o o o O O O o o o $ $ $ $ $ @ $ $ @ @ @ @ @ # & & & & & 1 3 3 4 e t m J ) } y.0.0.8.7.7.0.w.z.z.z.z.z.z.z.l.l.l.x.x.x.c.c.n.G.n.V.c.z.z.z.e.e.0.7.7.6.6.] ] [ / / W W E U I H H V B B N N m m b b b v c c c c r r r 7 7 7 6 4 3 3 1 * # $ g -                                                                                                                                                                                                                                                                                                                                                                     ",
"                                                                                                              . . . X X X O O O o o O O O O X o O o O O $ $ $ $ $ $ @ @ @ @ @ @ # & & & & & 1 3 0 e t M J ) | 0.m.m.z.z.z.z.z.z.z.z.z.e.e.e.e.7.7.7.l.l.x.c.c.c.c.z.z.z.e.e.7.7.7.6.6.[ [ / W W W E U U J J V V B C N m m m b b v v c c c c r r r 7 7 6 6 3 3 1 1 & $ i f *                                                                                                                                                                                                                                                                                                                                                                     ",
"                                                                                                                . . . . X X X O O O O O O O X O O X X X O O O O $ $ $ $ $ $ $ @ @ @ @ @ # # & & 2 2 0 e t m J ! ] 0.u.m.m.m.z.z.z.e.e.7.7.7.7.7.7.7.7.7.7.e.l.z.z.z.z.e.0.0.0.7.8.6.] [ [ / W W W U U I J V V B B N m m m b b v v v c c c c r r r 7 7 6 4 3 3 1 & & * a i                                                                                                                                                                                                                                                                                                                                                                       ",
"                                                                                                                    . . . . X O O ; ; ; O o O O O X X X X O O O o o $ $ $ $ $ $ @ @ @ @ @ @ @ @ & & 2 2 0 e t M B J ) | 0.m.m.m.w.e.7.7.7.7.7.7.7.7.[ [ ] [ ] [ 7.0.0.0.0.0.0.8.8.8.] ] [ ^ W W U U I J V V B B B N m m b b b v v v c c c r r r 7 7 7 6 3 3 3 1 & & * g 8                                                                                                                                                                                                                                                                                                                                                                       ",
"                                                                                                                        . . . . O O ; ; ; ; ; o O O X X X X O O X O o o o o $ $ $ @ @ @ @ @ @ @ @ # & & 1 2 0 e t t M J ! { 8.0.w.0.0.0.8.8.8.8.7.8.[ ] ] [ / ^ [ ] ] 8.8.8.8.8.8.8.| ] [ ^ W W U U J V V B B N N m m b b b v v v v c c r r r e 7 7 7 3 3 3 1 1 & # i f *                                                                                                                                                                                                                                                                                                                                                                       ",
"                                                                                                                            . . . X O O ; ; ; ; O O O X X X . X X X X X O O O o o o o o @ @ @ @ @ @ @ @ & & & 2 4 0 e t M J J ! { | } ] [ [ ] ] ] | ] ] [ / / W W / W / / ] ] | | | | | ` ^ W E U J J V B B N N m m b b b v v v v v c c r r r e 7 7 6 3 3 3 1 & * 5 f 8 $                                                                                                                                                                                                                                                                                                                                                                       ",
"                                                                                                                                  . . . O O O O O O O X X . . . . . X X X X X X X o X o o X @ @ @ @ @ @ @ @ % & & 2 2 0 0 t u M J J H J J U W ! ^ ^ { ] ^ ^ Q W W W W U U U W W ) ) ) ) ) Q Q U J J V B N N m m m b b b v v v v v c c r r r e e 7 7 4 3 3 1 1 5 * 8 f 8                                                                                                                                                                                                                                                                                                                                                                         ",
"                                                                                                                                      . . . . X O O X X X . . . X X . X . . . . . X X X X X X X X @ @ @ @ @ @ @ @ & & & 2 4 0 e t u m M M B J J J J T Q ! Q Q T T T U J J J J J J J T T T T T J J J N N m m m m b b b b v v v v c c r r r e e 7 6 7 3 3 3 1 1 * * i f -                                                                                                                                                                                                                                                                                                                                                                         ",
"                                                                                                                                          . . . . . . . . . . X X X . . . . . . . . . X X X X X X X X X @ @ @ @ @ @ @ & & 2 2 0 0 0 e e t t u M M M J J J J J J H H H H J J V B B B J J J H H J J V N m m m m m b v v v v v c c c c r r e e 7 7 7 4 3 3 1 1 * * 8 f i o                                                                                                                                                                                                                                                                                                                                                                         ",
"                                                                                                                                              . . . . . . . . X X X . . . . . . . . . . . . X X X X X X X X @ @ @ @ @ @ % & & & 2 2 2 2 4 0 0 e t t u M M M m m N M M N M N N m m m m m M N B B B N B m m m m m v v v v v c c c c r r r e e 7 7 7 3 3 3 1 1 * * 8 f 8                                                                                                                                                                                                                                                                                                                                                                           ",
"                                                                                                                                                  . . . . . . . . . . . . . . . . . . . . . . . . . . X X X X X o @ @ @ @ @ % & & & & & 2 2 2 0 0 0 0 e e t t r r r v v M M v v v r r r r v v b m m m m m m m n v v v v v c c c r r r r e 7 7 7 4 3 3 1 1 & * $ i f -                                                                                                                                                                                                                                                                                                                                                                           ",
"                                                                                                                                                        . . . . . . . . . . . . . . . . . . . . . . . . . . X X X o o o @ @ @ @ % % & & & & 1 2 2 3 2 4 4 4 0 0 0 e e e e r r r r e e e e r r r r v b n M n M n v v v v c c c r r r r r 7 7 7 4 3 3 1 1 5 * $ 8 f 8                                                                                                                                                                                                                                                                                                                                                                             ",
"                                                                                                                                                            . . . . . . . . . . . . . . . . . . . . . . . . . . X X X o o o o o @ @ @ @ & & & & & & & 1 & 3 3 3 3 3 4 4 4 4 0 e e 4 4 0 0 4 4 e e r r r r v n n n v v v v r r r r r r 6 7 7 4 3 3 1 1 5 * * * 8 f -                                                                                                                                                                                                                                                                                                                                                                             ",
"                                                                                                                                                                  . . . . . . . . . . . . . . . . . . . . . . . . . . X X X o o o @ @ @ @ @ & & & & & & & & & 1 1 1 1 1 1 3 3 4 3 3 3 3 3 3 3 4 4 4 6 e e e r t v v v v r r r e 6 6 6 6 7 4 3 3 1 1 1 & & * * i i -                                                                                                                                                                                                                                                                                                                                                                             ",
"                                                                                                                                                                      . . . . . . . . . . . . . . . . . . . . . . . . . . . X X o o o @ @ @ @ @ @ @ @ @ % # # & & & & & & & 1 1 & & 1 3 1 1 1 1 1 1 4 4 4 4 6 e r r r r r r r 6 6 6 6 4 4 3 1 1 1 1 & & * @ 8 f 8                                                                                                                                                                                                                                                                                                                                                                               ",
"                                                                                                                                                                            . . . . . . . . . . . . . . . . . . . . . . . . . . X X X X @ @ @ @ @ @ @ @ @ @ # # @ # # # # & & & # # & & & # # # & 1 1 1 1 1 3 4 6 6 6 6 6 6 6 6 6 6 6 5 3 1 1 , , # # & & * i i -                                                                                                                                                                                                                                                                                                                                                                               ",
"                                                                                                                                                                                  . . . . . . . . . . . . . . . . . . . . . . . . . X X X X X @ @ @ @ @ @ @ # @ @ @ @ @ @ @ # # # # # # # # # # # # # # # , , 1 3 3 4 4 4 4 4 4 4 4 4 3 1 1 1 # # # # * @ * i 8 $                                                                                                                                                                                                                                                                                                                                                                               ",
"                                                                                                                                                                                      . . . . . . . . . . . . . . . . . . . . . . . . . X X X X o $ @ @ @ @ @ @ @ @ @ @ @ @ @ @ @ @ @ @ @ @ @ @ # # # # # # # # 1 1 1 1 1 1 1 1 1 1 1 1 1 1 # # # # # @ $ 8 f *                                                                                                                                                                                                                                                                                                                                                                                 ",
"                                                                                                                                                                                          . . . . . . . . . . . . . . . . . . . . . . . . . . X X X o @ @ @ @ @ @ @ @ @ @ @ @ @ @ @ @ @ @ @ @ @ @ @ @ @ @ @ # # # # # # # , , 1 1 1 & # # # # # # # @ @ @ f 8 %                                                                                                                                                                                                                                                                                                                                                                                 ",
"                                                                                                                                                                                                . . . . . . . . . . . . . . . . . . . . . . . . X X X o o @ @ # & & & # @ @ @ @ X X X X X @ @ @ @ @ X @ @ @ @ @ @ @ @ # # # # # # # # # @ @ # # $ $ @ @ * i -                                                                                                                                                                                                                                                                                                                                                                                   ",
"                                                                                                                                                                                                      . . . . . . . . . . . . . . . . . . . . . . . . . X X @ @ % & & & & & # @ @ X X X X X X X X X X X X @ @ @ @ @ @ @ @ @ @ @ @ @ @ @ @ @ @ $ @ $ @ $ 8 f $                                                                                                                                                                                                                                                                                                                                                                                   ",
"                                                                                                                                                                                                          . . . . . . . . . . . . . . . . . . . . . . . . . X X o @ @ & * * 5 * # @ X X X X X X X X X X X X X X X @ @ X X X X X X @ @ @ @ @ @ @ $ $ o % g -                                                                                                                                                                                                                                                                                                                                                                                     ",
"                                                                                                                                                                                                                . . . . . . . . . . . . . . . . . . . . . . . . X X X @ @ & * 5 5 & & @ @ X X X X . . X X X X X X X X X X X X X X X X X X X X X $ $ o 8 i *                                                                                                                                                                                                                                                                                                                                                                                     ",
"                                                                                                                                                                                                                    . . . . . . . . . . . . . . . . . . . . . . . . . X X @ @ & * * 5 * * $ $ $ X X . . . . X X X X X X X X X X X X X X X X X X o o = i i o                                                                                                                                                                                                                                                                                                                                                                                     ",
"                                                                                                                                                                                                                          . . . . . . . . . . . . . . . . . . . . . . . . X X @ $ @ * * * * * * $ $ X X X . . . . . . X X X X . . . . . X X X X X o - f *                                                                                                                                                                                                                                                                                                                                                                                       ",
"                                                                                                                                                                                                                                . . . . . . . . . . . . . . . . . . . . . . . X X X o $ @ * - - * * $ $ X X X . . . . . . . . . . . . . . . . . . $ 8 - X                                                                                                                                                                                                                                                                                                                                                                                       ",
"                                                                                                                                                                                                                                      . . . . . . . . . . . . . . . . . . . . . . . . X X o $ = $ * * = $ o X X X . . . . . . . . . . . . . . . X - - $                                                                                                                                                                                                                                                                                                                                                                                         ",
"                                                                                                                                                                                                                                          . . . . . . . . . . . . . . . . . . . . . . . . . X X X $ @ @ $ $ o o X . . . . . . . . . . . . . . . $ i * O                                                                                                                                                                                                                                                                                                                                                                                         ",
"                                                                                                                                                                                                                                                . . . . . . . . . . . . . . . . . . . . . . . . . . X X o o o o X X . . . . . . . . . . . . . O - - O                                                                                                                                                                                                                                                                                                                                                                                           ",
"                                                                                                                                                                                                                                                      . . . . . . . . . . . . . . . . . . . . . . . . . . . . . . . . . . . . . . . . . . . . ; - $                                                                                                                                                                                                                                                                                                                                                                                             ",
"                                                                                                                                                                                                                                                            X . X . . . . . . . . . . . . . . . . . . . . . . . . . . . . . . . . . . . . . O - - X                                                                                                                                                                                                                                                                                                                                                                                             ",
"                                                                                                                                                                                                                                                                  X X . . . . . . . . . . . . . . . . . . . . . . . . . . . . . . . . . . . ; $ ;                                                                                                                                                                                                                                                                                                                                                                                               ",
"                                                                                                                                                                                                                                                                        . . . . . . . . . . . . . . . . . . . . . . . . . . . . . . . . . X O ;                                                                                                                                                                                                                                                                                                                                                                                                 ",
"                                                                                                                                                                                                                                                                                . . . . . . . . . . . . . . . . . . . . . . . . . . . . . O O                                                                                                                                                                                                                                                                                                                                                                                                   ",
"                                                                                                                                                                                                                                                                                      . . . . . . . . . . . . . . . . . . . . . . . . . X O                                                                                                                                                                                                                                                                                                                                                                                                     ",
"                                                                                                                                                                                                                                                                                              . . . . . . . . . . . . . . . . . . . . X                                                                                                                                                                                                                                                                                                                                                                                                         ",
"                                                                                                                                                                                                                                                                                                    . . . . . . . . . . . . . . . . .                                                                                                                                                                                                                                                                                                                                                                                                           ",
"                                                                                                                                                                                                                                                                                                              . . . . . . . . . .                                                                                                                                                                                                                                                                                                                                                                                                               ",
"                                                                                                                                                                                                                                                                                                                                                                                                                                                                                                                                                                                                                                                                                                                                                ",
"                                                                                                                                                                                                                                                                                                                                                                                                                                                                                                                                                                                                                                                                                                                                                ",
"                                                                                                                                                                                                                                                                                                                                                                                                                                                                                                                                                                                                                                                                                                                                                ",
"                                                                                                                                                                                                                                                                                                                                                                                                                                                                                                                                                                                                                                                                                                                                                ",
"                                                                                                                                                                                                                                                                                                                                                                                                                                                                                                                                                                                                                                                                                                                                                ",
"                                                                                                                                                                                                                                                                                                                                                                                                                                                                                                                                                                                                                                                                                                                                                ",
"                                                                                                                                                                                                                                                                                                                                                                                                                                                                                                                                                                                                                                                                                                                                                ",
"                                                                                                                                                                                                                                                                                                                                                                                                                                                                                                                                                                                                                                                                                                                                                ",
"                                                                                                                                                                                                                                                                                                                                                                                                                                                                                                                                                                                                                                                                                                                                                ",
"                                                                                                                                                                                                                                                                                                                                                                                                                                                                                                                                                                                                                                                                                                                                                ",
"                                                                                                                                                                                                                                                                                                                                                                                                                                                                                                                                                                                                                                                                                                                                                ",
"                                                                                                                                                                                                                                                                                                                                                                                                                                                                                                                                                                                                                                                                                                                                                ",
"                                                                                                                                                                                                                                                                                                                                                                                                                                                                                                                                                                                                                                                                                                                                                ",
"                                                                                                                                                                                                                                                                                                                                                                                                                                                                                                                                                                                                                                                                                                                                                ",
"                                                                                                                                                                                                                                                                                                                                                                                                                                                                                                                                                                                                                                                                                                                                                ",
"                                                                                                                                                                                                                                                                                                                                                                                                                                                                                                                                                                                                                                                                                                                                                ",
"                                                                                                                                                                                                                                                                                                                                                                                                                                                                                                                                                                                                                                                                                                                                                ",
"                                                                                                                                                                                                                                                                                                                                                                                                                                                                                                                                                                                                                                                                                                                                                ",
"                                                                                                                                                                                                                                                                                                                                                                                                                                                                                                                                                                                                                                                                                                                                                ",
"                                                                                                                                                                                                                                                                                                                                                                                                                                                                                                                                                                                                                                                                                                                                                ",
"                                                                                                                                                                                                                                                                                                                                                                                                                                                                                                                                                                                                                                                                                                                                                ",
"                                                                                                                                                                                                                                                                                                                                                                                                                                                                                                                                                                                                                                                                                                                                                ",
"                                                                                                                                                                                                                                                                                                                                                                                                                                                                                                                                                                                                                                                                                                                                                ",
"                                                                                                                                                                                                                                                                                                                                                                                                                                                                                                                                                                                                                                                                                                                                                ",
"                                                                                                                                                                                                                                                                                                                                                                                                                                                                                                                                                                                                                                                                                                                                                ",
"                                                                                                                                                                                                                                                                                                                                                                                                                                                                                                                                                                                                                                                                                                                                                ",
"                                                                                                                                                                                                                                                                                                                                                                                                                                                                                                                                                                                                                                                                                                                                                ",
"                                                                                                                                                                                                                                                                                                                                                                                                                                                                                                                                                                                                                                                                                                                                                ",
"                                                                                                                                                                                                                                                                                                                                                                                                                                                                                                                                                                                                                                                                                                                                                ",
"                                                                                                                                                                                                                                                                                                                                                                                                                                                                                                                                                                                                                                                                                                                                                ",
"                                                                                                                                                                                                                                                                                                                                                                                                                                                                                                                                                                                                                                                                                                                                                ",
"                                                                                                                                                                                                                                                                                                                                                                                                                                                                                                                                                                                                                                                                                                                                                ",
"                                                                                                                                                                                                                                                                                                                                                                                                                                                                                                                                                                                                                                                                                                                                                ",
"                                                                                                                                                                                                                                                                                                                                                                                                                                                                                                                                                                                                                                                                                                                                                ",
"                                                                                                                                                                                                                                                                                                                                                                                                                                                                                                                                                                                                                                                                                                                                                "
};
