/* XPM */
static char *ecd5820c69444ceaeac9a24f0d87e9daEePwvQuH8rYJrlOl[] = {
/* columns rows colors chars-per-pixel */
"401 1000 256 2 ",
"   c #0D0D0D",
".  c #070402",
"X  c #150C09",
"o  c #17120D",
"O  c #131312",
"+  c #1B1816",
"@  c #0D0F12",
"#  c #280A06",
"$  c #380A08",
"%  c #28130A",
"&  c #371609",
"*  c #261A16",
"=  c #371915",
"-  c #340C12",
";  c #27221C",
":  c #39231A",
">  c #2A2724",
",  c #342B26",
"<  c #37332C",
"1  c #3B3833",
"2  c #302F31",
"3  c #241E21",
"4  c #480809",
"5  c #580609",
"6  c #471807",
"7  c #561B03",
"8  c #471817",
"9  c #571517",
"0  c #530C12",
"q  c #68040B",
"w  c #78030B",
"e  c #680A13",
"r  c #780613",
"t  c #6C1610",
"y  c #592305",
"u  c #48251A",
"i  c #552915",
"p  c #682603",
"a  c #772C03",
"s  c #7A3206",
"d  c #6A3319",
"f  c #783818",
"g  c #6A2C13",
"h  c #492925",
"j  c #552A26",
"k  c #583529",
"l  c #443C36",
"z  c #523731",
"x  c #673A27",
"c  c #6F372C",
"v  c #651A22",
"b  c #48433C",
"n  c #58443A",
"m  c #784429",
"M  c #6A4637",
"N  c #754A37",
"B  c #744B35",
"V  c #7C411C",
"C  c #4C4843",
"Z  c #544C47",
"A  c #57534C",
"S  c #5E5A55",
"D  c #5B5753",
"F  c #4E5449",
"G  c #695449",
"H  c #785748",
"J  c #625E5A",
"K  c #645B55",
"L  c #70524B",
"P  c #65615D",
"I  c #69635D",
"U  c #7A6357",
"Y  c #7C614E",
"T  c #6A6562",
"R  c #6D6A65",
"E  c #696764",
"W  c #726D6A",
"Q  c #746B65",
"!  c #75726C",
"~  c #7A746D",
"^  c #7D7A74",
"/  c #7A7672",
"(  c #6E7068",
")  c #5F625B",
"_  c #5E3E3F",
"`  c #87040A",
"'  c #870514",
"]  c #930F16",
"[  c #AE0E1A",
"{  c #843302",
"}  c #8B3805",
"|  c #933B02",
" . c #9B3D01",
".. c #943905",
"X. c #853C15",
"o. c #892C07",
"O. c #A43D01",
"+. c #AE3012",
"@. c #921A24",
"#. c #A91924",
"$. c #B61724",
"%. c #B10D23",
"&. c #922E2E",
"*. c #B9262B",
"=. c #B93637",
"-. c #AE2C2F",
";. c #C33939",
":. c #C62A31",
">. c #CB1724",
",. c #994205",
"<. c #894319",
"1. c #954516",
"2. c #8C420B",
"3. c #A44301",
"4. c #AB4401",
"5. c #AD4901",
"6. c #A64708",
"7. c #B44B01",
"8. c #BB4D01",
"9. c #B44602",
"0. c #BD5101",
"q. c #B85306",
"w. c #B14E15",
"e. c #874928",
"r. c #855439",
"t. c #8D4D2F",
"y. c #B04B34",
"u. c #B2652C",
"i. c #C34D01",
"p. c #C35301",
"a. c #CB5501",
"s. c #CC5B01",
"d. c #C65904",
"f. c #D35C01",
"g. c #D85C02",
"h. c #C95215",
"j. c #D46201",
"k. c #DC6301",
"l. c #DB6903",
"z. c #D06609",
"x. c #E36501",
"c. c #E46A01",
"v. c #EB6C01",
"b. c #E86706",
"n. c #F26D01",
"m. c #ED7201",
"M. c #E87603",
"N. c #F37401",
"B. c #F57A01",
"V. c #FB7C01",
"C. c #F97703",
"Z. c #EB7716",
"A. c #D86029",
"S. c #AA3B43",
"D. c #855A47",
"F. c #8F554E",
"G. c #B34F4D",
"H. c #856657",
"J. c #916752",
"K. c #AF6A57",
"L. c #837C77",
"P. c #8F736A",
"I. c #B0716D",
"U. c #A95E61",
"Y. c #C84A47",
"T. c #C9524B",
"R. c #C85655",
"E. c #D15352",
"W. c #CC6659",
"Q. c #CC706D",
"!. c #E86667",
"~. c #CC3C43",
"^. c #FE8301",
"/. c #FE8B01",
"(. c #F78405",
"). c #FE9401",
"_. c #FE9B01",
"`. c #FB9708",
"'. c #F78B15",
"]. c #FEA401",
"[. c #FEA902",
"{. c #FCA916",
"}. c #F98E2A",
"|. c #F9AA2A",
" X c #87837C",
".X c #978579",
"XX c #AD8676",
"oX c #BB825C",
"OX c #E4976A",
"+X c #FCC470",
"@X c #8C8883",
"#X c #938D87",
"$X c #95928C",
"%X c #9A948D",
"&X c #9C9892",
"*X c #8D9287",
"=X c #A29C95",
"-X c #A59D98",
";X c #AD928B",
":X c #AAA49D",
">X c #A7A29B",
",X c #B5A59B",
"<X c #ADA8A2",
"1X c #B2ACA5",
"2X c #B5ADA8",
"3X c #B6B2AB",
"4X c #BAB4AD",
"5X c #B8B4A9",
"6X c #BEB9B3",
"7X c #BCB6B1",
"8X c #ABB3A5",
"9X c #9EA398",
"0X c #CF928D",
"qX c #C2BCB5",
"wX c #C5BDB8",
"eX c #CEB3AB",
"rX c #F0B4AF",
"tX c #E7A295",
"yX c #C6C1BB",
"uX c #CAC4BD",
"iX c #C9C5B9",
"pX c #D5C5BB",
"aX c #F3CAB7",
"sX c #FECB91",
"dX c #CBC6C1",
"fX c #CECAC4",
"gX c #CBCBC7",
"hX c #D2CCC5",
"jX c #D3CDC9",
"kX c #D8CAC5",
"lX c #D5D1CC",
"zX c #D9D4CC",
"xX c #DCD8D3",
"cX c #CDD3C9",
"vX c #E3DCD6",
"bX c #F2D4CB",
"nX c #E8E3DC",
"mX c #F8E5DA",
"MX c #EEEEEE",
"NX c #EBE8E4",
"BX c #F2EDEB",
"VX c #F7EAE5",
"CX c #EAF1EB",
"ZX c #F8F2EC",
"AX c #EDEEF1",
"SX c #E7EEF4",
"DX c #F2F2F2",
"FX c #FEFBF5",
"GX c #FFFFFF",
"HX c #FDFDFD",
"JX c #FEFEFE",
"KX c #FAF7F6",
"LX c #EFEFF2",
"PX c #E2E3DB",
"IX c #C8C2B8",
"UX c #B47E7F",
/* pixels */
"MXMXMXMXMXMXMXMXMXMXMXMXMXMXMXMXMXMXMXMXMXMXMXMXMXMXDXKXGXGXGXGXGXGXGXGXGXGXGXGXGXGXGXGXGXGXGXGXGXGXGXGXGXGXGXMXMXMXMXMXMXMXMXMXMXMXMXMXMXMXMXMXMXMXMXMXMXMXMXMXMXMXKXGXGXGXGXGXGXGXGXGXGXGXGXGXGXGXGXGXGXGXGXGXGXGXGXKXGXGXMXMXMXMXMXMXMXMXMXMXMXMXMXMXMXMXMXMXMXMXMXMXMXMXMXMXMXKXGXGXGXGXGXGXGXGXGXGXGXGXGXGXGXGXGXGXGXGXGXGXGXGXGXGXGXDXMXMXMXMXMXMXMXMXMXMXMXMXMXMXMXMXMXMXMXMXMXMXMXMXMXMXKXGXGXGXGXGXGXGXGXGXGXGXGXGXGXGXGXGXGXGXGXGXGXGXGXGXGXGXMXMXMXMXMXMXMXMXMXMXMXMXMXMXMXMXMXMXMXMXMXDXMXMXDXMXMXKXGXGXGXGXGXGXGXGXGXGXGXGXGXGXGXGXGXGXGXGXGXGXGXGXGXGXKXLXMXMXLXMXMXMXMXMXMXMXMXMXMXMXMXMXMXMXMXMXMXMXMXMXMXMXKXGXGXGXGXGXGXGXGXGXGXGXGXGXGXGXGXGXGXGXGXGXGXGXGXGXGXGXMXMXDXMXMXMXMXMXMXMXMXMXMXMXMXMXMXMXMXMXMXMXMXMXMXMXDXKXGXGXGXGXGXGXGXGXGXGXGXGXGXGXGXGXGXGXGXGXGXGXGXGXGXGXGXDXMXDXMXMXMXMXMXMXMXMXMXMXMXMXMX",
"MXMXMXMXMXMXMXMXMXMXMXMXMXMXMXMXMXMXMXMXMXMXMXMXMXMXDXKXGXGXGXGXGXGXGXGXGXGXGXGXGXGXGXGXGXGXGXGXGXGXGXGXGXGXGXMXMXMXMXMXMXMXMXMXMXMXMXMXMXMXMXMXMXMXMXMXMXMXMXMXMXMXKXGXGXGXGXGXGXGXGXGXGXGXGXGXGXGXGXGXGXGXGXGXGXGXGXKXGXGXMXMXMXMXMXMXMXMXMXMXMXMXMXMXMXMXMXMXMXMXMXMXMXMXMXMXMXKXGXGXGXGXGXGXGXGXGXGXGXGXGXGXGXGXGXGXGXGXGXGXGXGXGXGXGXDXMXMXMXMXMXMXMXMXMXMXMXMXMXMXMXMXMXMXMXMXMXMXMXMXMXMXKXGXGXGXGXGXGXGXGXGXGXGXGXGXGXGXGXGXGXGXGXGXGXGXGXGXGXGXMXMXMXMXMXMXMXMXMXMXMXMXMXMXMXMXMXMXMXMXMXDXMXMXDXMXMXKXGXGXGXGXGXGXGXGXGXGXGXGXGXGXGXGXGXGXGXGXGXGXGXGXGXGXKXLXMXMXDXMXMXMXMXMXMXMXMXMXMXMXMXMXMXMXMXMXMXMXMXMXMXMXKXGXGXGXGXGXGXGXGXGXGXGXGXGXGXGXGXGXGXGXGXGXGXGXGXGXGXGXMXMXDXMXMXMXMXMXMXMXMXMXMXMXMXMXMXMXMXMXMXMXMXMXMXMXDXKXGXGXGXGXGXGXGXGXGXGXGXGXGXGXGXGXGXGXGXGXGXGXGXGXGXGXGXDXMXDXMXMXMXMXMXMXMXMXMXMXMXMXMX",
"MXMXMXMXMXMXMXMXMXMXMXMXMXMXMXMXMXMXMXMXMXMXMXMXMXMXDXKXGXGXGXGXGXGXGXGXGXGXGXGXGXGXGXGXGXGXGXGXGXGXGXGXGXGXGXMXMXMXMXMXMXMXMXMXMXMXMXMXMXMXMXMXMXMXMXMXMXMXMXMXMXMXKXGXGXGXGXGXGXGXGXGXGXGXGXGXGXGXGXGXGXGXGXGXGXGXGXGXGXGXMXMXMXMXMXMXMXMXMXMXMXMXMXMXMXMXMXMXMXMXMXMXMXMXMXMXMXKXGXGXGXGXGXGXGXGXGXGXGXGXGXGXGXGXGXGXGXGXGXGXGXGXGXGXGXDXMXMXMXMXMXMXMXMXMXMXMXMXMXMXMXMXMXMXMXMXMXMXMXMXMXMXKXGXGXGXGXGXGXGXGXGXGXGXGXGXGXGXGXGXGXGXGXGXGXGXGXGXGXGXMXMXMXMXMXMXMXMXMXMXMXMXMXMXMXMXMXMXMXMXMXDXMXMXDXMXMXKXGXGXGXGXGXGXGXGXGXGXGXGXGXGXGXGXGXGXGXGXGXGXGXGXGXGXGXDXMXMXDXMXMXMXMXMXMXMXMXMXMXMXMXMXMXMXMXMXMXMXMXMXMXMXKXGXGXGXGXGXGXGXGXGXGXGXGXGXGXGXGXGXGXGXGXGXGXGXGXGXGXGXMXMXDXMXMXMXMXMXMXMXMXMXMXMXMXMXMXMXMXMXMXMXMXMXMXMXDXKXGXGXGXGXGXGXGXGXGXGXGXGXGXGXGXGXGXGXGXGXGXGXGXGXGXGXGXDXMXDXMXMXMXMXMXMXMXMXMXMXMXMXMX",
"MXMXMXMXMXMXMXMXMXMXMXMXMXMXMXMXMXMXMXMXMXMXMXMXMXMXDXKXGXGXGXGXGXGXGXGXGXGXGXGXGXGXGXGXGXGXGXGXGXGXGXGXGXGXGXMXMXMXMXMXMXMXMXMXMXMXMXMXMXMXMXMXMXMXMXMXMXMXMXMXMXMXKXGXGXGXGXGXGXGXGXGXGXGXGXGXGXGXGXGXGXGXGXGXGXGXGXGXGXGXMXMXMXMXMXMXMXMXMXMXMXMXMXMXMXMXMXMXMXMXMXMXMXMXMXMXMXKXGXGXGXGXGXGXGXGXGXGXGXGXGXGXGXGXGXGXGXGXGXGXGXGXGXGXGXDXMXMXMXMXMXMXMXMXMXMXMXMXMXMXMXMXMXMXMXMXMXMXMXMXMXMXKXGXGXGXGXGXGXGXGXGXGXGXGXGXGXGXGXGXGXGXGXGXGXGXGXGXGXGXMXMXMXMXMXMXMXMXMXMXMXMXMXMXMXMXMXMXMXMXMXDXMXMXDXMXMXKXGXGXGXGXGXGXGXGXGXGXGXGXGXGXGXGXGXGXGXGXGXGXGXGXGXGXKXDXMXMXDXMXMXMXMXMXMXMXMXMXMXMXMXMXMXMXMXMXMXMXMXMXMXMXKXGXGXGXGXGXGXGXGXGXGXGXGXGXGXGXGXGXGXGXGXGXGXGXGXGXGXGXMXMXDXMXMXMXMXMXMXMXMXMXMXMXMXMXMXMXMXMXMXMXMXMXMXMXDXKXGXGXGXGXGXGXGXGXGXGXGXGXGXGXGXGXGXGXGXGXGXGXGXGXGXGXGXDXMXDXMXMXMXMXMXMXMXMXMXMXMXMXMX",
"MXMXMXMXMXMXMXMXMXMXMXMXMXMXMXMXMXMXMXMXMXMXMXMXMXMXDXKXGXGXGXGXGXGXGXGXGXGXGXGXGXGXGXGXGXGXGXGXGXGXGXGXGXGXGXMXMXMXMXMXMXMXMXMXMXMXMXMXMXMXMXMXMXMXMXMXMXMXMXMXMXMXKXGXGXGXGXGXGXGXGXGXGXGXGXGXGXGXGXGXGXGXGXGXGXGXGXGXGXGXMXMXMXMXMXMXMXMXMXMXMXMXMXMXMXMXMXMXMXMXMXMXMXMXMXMXMXKXGXGXGXGXGXGXGXGXGXGXGXGXGXGXGXGXGXGXGXGXGXGXGXGXGXGXGXDXMXMXMXMXMXMXMXMXMXMXMXMXMXMXMXMXMXMXMXMXMXMXMXMXMXMXKXGXGXGXGXGXGXGXGXGXGXGXGXGXGXGXGXGXGXGXGXGXGXGXGXGXGXGXMXMXMXMXMXMXMXMXMXMXMXMXMXMXMXMXMXMXMXMXMXDXMXMXDXMXAXKXGXGXGXGXGXGXGXGXGXGXGXGXGXGXGXGXGXGXGXGXGXGXGXGXGXGXGXDXMXMXDXMXMXMXMXMXMXMXMXMXMXMXMXMXMXMXMXMXMXMXMXMXMXMXKXGXGXGXGXGXGXGXGXGXGXGXGXGXGXGXGXGXGXGXGXGXGXGXGXGXGXGXMXMXDXMXMXMXMXMXMXMXMXMXMXMXMXMXMXMXMXMXMXMXMXMXMXMXDXKXGXGXGXGXGXGXGXGXGXGXGXGXGXGXGXGXGXGXGXGXGXGXGXGXGXGXGXDXMXDXMXMXMXMXMXMXMXMXMXMXMXMXMX",
"MXMXMXMXMXMXMXMXMXMXMXMXMXMXMXMXMXMXMXMXMXMXMXMXMXMXDXKXGXGXGXGXGXGXGXGXGXGXGXGXGXGXGXGXGXGXGXGXGXGXGXGXGXGXGXMXMXMXMXMXMXMXMXMXMXMXMXMXMXMXMXMXMXMXMXMXMXMXMXMXMXMXKXGXGXGXGXGXGXGXGXGXGXGXGXGXGXGXGXGXGXGXGXGXGXGXGXGXGXGXMXMXMXMXMXMXMXMXMXMXMXMXMXMXMXMXMXMXMXMXMXMXMXMXMXMXMXKXGXGXGXGXGXGXGXGXGXGXGXGXGXGXGXGXGXGXGXGXGXGXGXGXGXGXGXDXMXMXMXMXMXMXMXMXMXMXMXMXMXMXMXMXMXMXMXMXMXMXMXMXMXMXKXGXGXGXGXGXGXGXGXGXGXGXGXGXGXGXGXGXGXGXGXGXGXGXGXGXGXGXMXMXMXMXMXMXMXMXMXMXMXMXMXMXMXMXMXMXMXMXMXDXMXMXDXMXMXKXGXGXGXGXGXGXGXGXGXGXGXGXGXGXGXGXGXGXGXGXGXGXGXGXGXGXGXDXMXMXDXMXMXMXMXMXMXMXMXMXMXMXMXMXMXMXMXMXMXMXMXMXMXMXKXGXGXGXGXGXGXGXGXGXGXGXGXGXGXGXGXGXGXGXGXGXGXGXGXGXGXGXMXMXDXMXMXMXMXMXMXMXMXMXMXMXMXMXMXMXMXMXMXMXMXMXMXMXDXKXGXGXGXGXGXGXGXGXGXGXGXGXGXGXGXGXGXGXGXGXGXGXGXGXGXGXGXDXMXDXMXMXMXMXMXMXMXMXMXMXMXMXMX",
"MXMXMXMXMXMXMXMXMXMXMXMXMXMXMXMXMXMXMXMXMXMXMXMXMXMXDXKXGXGXGXGXGXGXGXGXGXGXGXGXGXGXGXGXGXGXGXGXGXGXGXGXGXGXGXMXMXMXMXMXMXMXMXMXMXMXMXMXMXMXMXMXMXMXMXMXMXMXMXMXMXMXKXGXGXGXGXGXGXGXGXGXGXGXGXGXGXGXGXGXGXGXGXGXGXGXGXGXGXGXMXMXMXMXMXMXMXMXMXMXMXMXMXMXMXMXMXMXMXMXMXMXMXMXMXMXMXKXGXGXGXGXGXGXGXGXGXGXGXGXGXGXGXGXGXGXGXGXGXGXGXGXGXGXGXDXMXMXMXMXMXMXMXMXMXMXMXMXMXMXMXMXMXMXMXMXMXMXMXMXMXMXKXGXGXGXGXGXGXGXGXGXGXGXGXGXGXGXGXGXGXGXGXGXGXGXGXGXGXGXMXMXMXMXMXMXMXMXMXMXMXMXMXMXMXMXMXMXMXMXMXLXMXMXDXMXMXKXGXGXGXGXGXGXGXGXGXGXGXGXGXGXGXGXGXGXGXGXGXGXGXGXGXGXKXMXMXMXDXMXMXMXMXMXMXMXMXMXMXMXMXMXMXMXMXMXMXMXMXMXMXMXKXGXGXGXGXGXGXGXGXGXGXGXGXGXGXGXGXGXGXGXGXGXGXGXGXGXGXGXMXMXDXMXMXMXMXMXMXMXMXMXMXMXMXMXMXMXMXMXMXMXMXMXMXMXDXKXGXGXGXGXGXGXGXGXGXGXGXGXGXGXGXGXGXGXGXGXGXGXGXGXGXGXGXDXMXDXMXMXMXMXMXMXMXMXMXMXMXMXMX",
"MXMXMXMXMXMXMXMXMXMXMXMXMXMXMXMXMXMXMXMXMXMXMXMXMXMXDXKXGXGXGXGXGXGXGXGXGXGXGXGXGXGXGXGXGXGXGXGXGXGXGXGXGXGXGXMXMXMXMXMXMXMXMXMXMXMXMXMXMXMXMXMXMXMXMXMXMXMXMXMXMXMXKXGXGXGXGXGXGXGXGXGXGXGXGXGXGXGXGXGXGXGXGXGXGXGXGXGXGXGXMXMXMXMXMXMXMXMXMXMXMXMXMXMXMXMXMXMXMXMXMXMXMXMXMXMXMXKXGXGXGXGXGXGXGXGXGXGXGXGXGXGXGXGXGXGXGXGXGXGXGXGXGXGXGXDXMXMXMXMXMXMXMXMXMXMXMXMXMXMXMXMXMXMXMXMXMXMXMXMXMXMXKXGXGXGXGXGXGXGXGXGXGXGXGXGXGXGXGXGXGXGXGXGXGXGXGXGXGXGXMXMXMXMXMXMXMXMXMXMXMXMXMXMXMXMXMXMXMXMXMXLXMXMXDXMXMXKXGXGXGXGXGXGXGXGXGXGXGXGXGXGXGXGXGXGXGXGXGXGXGXGXGXGXGXMXMXMXDXMXMXMXMXMXMXMXMXMXMXMXMXMXMXMXMXMXMXMXMXMXMXMXKXGXGXGXGXGXGXGXGXGXGXGXGXGXGXGXGXGXGXGXGXGXGXGXGXGXGXGXMXMXDXMXMXMXMXMXMXMXMXMXMXMXMXMXMXMXMXMXMXMXMXMXMXMXDXKXGXGXGXGXGXGXGXGXGXGXGXGXGXGXGXGXGXGXGXGXGXGXGXGXGXGXGXDXMXDXMXMXMXMXMXMXMXMXMXMXMXMXMX",
"MXMXMXMXMXMXMXMXMXMXMXMXMXMXMXMXMXMXMXMXMXMXMXMXMXMXDXKXGXGXGXGXGXGXGXGXGXGXGXGXGXGXGXGXGXGXGXGXGXGXGXGXGXGXGXMXMXMXMXMXMXMXMXMXMXMXMXMXMXMXMXMXMXMXMXMXMXMXMXMXMXMXKXGXGXGXGXGXGXGXGXGXGXGXGXGXGXGXGXGXGXGXGXGXGXGXGXGXGXGXMXMXMXMXMXMXMXMXMXMXMXMXMXMXMXMXMXMXMXMXMXMXMXMXMXMXMXKXGXGXGXGXGXGXGXGXGXGXGXGXGXGXGXGXGXGXGXGXGXGXGXGXGXGXGXDXMXMXMXMXMXMXMXMXMXMXMXMXMXMXMXMXMXMXMXMXMXMXMXMXMXMXKXGXGXGXGXGXGXGXGXGXGXGXGXGXGXGXGXGXGXGXGXGXGXGXGXGXGXGXMXDXMXDXMXMXMXMXMXMXMXMXMXMXMXMXMXMXMXMXMXDXMXMXAXMXMXKXGXGXGXGXGXGXGXGXGXGXGXGXGXGXGXGXGXGXGXGXGXGXGXGXGXGXGXDXMXMXMXMXMXMXMXMXMXMXMXMXMXMXMXMXMXMXMXMXMXMXMXMXMXMXKXGXGXGXGXGXGXGXGXGXGXGXGXGXGXGXGXGXGXGXGXGXGXGXGXGXGXGXMXMXDXMXMXMXMXMXMXMXMXMXMXMXMXMXMXMXMXMXMXMXMXMXMXMXDXKXGXGXGXGXGXGXGXGXGXGXGXGXGXGXGXGXGXGXGXGXGXGXGXGXGXGXGXMXMXMXMXMXMXMXMXMXMXMXMXMXMXMXMX",
"MXMXMXMXMXMXMXMXMXMXMXMXMXMXMXMXMXMXMXMXMXMXMXMXMXMXLXKXGXGXGXGXGXGXGXGXGXGXGXGXGXGXGXGXGXGXGXGXGXGXGXGXGXGXGXMXMXMXMXMXMXMXMXMXMXMXMXMXMXMXMXMXMXMXMXMXMXMXMXMXMXMXKXGXGXGXGXGXGXGXGXGXGXGXGXGXGXGXGXGXGXGXGXGXGXGXGXGXGXGXMXMXMXMXMXMXMXMXMXMXMXMXMXMXMXMXMXMXMXMXMXMXMXMXMXMXMXKXGXGXGXGXGXGXGXGXGXGXGXGXGXGXGXGXGXGXGXGXGXGXGXGXGXGXGXDXMXMXMXMXMXMXMXMXMXMXMXMXMXMXMXMXMXMXMXMXMXMXMXMXMXMXKXGXGXGXGXGXGXGXGXGXGXGXGXGXGXGXGXGXGXGXGXGXGXGXGXGXGXGXMXDXMXDXMXMXMXMXMXMXMXMXMXMXMXMXMXMXMXMXMXDXMXMXMXMXMXKXGXGXGXGXGXGXGXGXGXGXGXGXGXGXGXGXGXGXGXGXGXGXGXGXGXGXGXDXMXMXMXMXMXMXMXMXMXMXMXMXMXMXMXMXMXMXMXMXMXMXMXMXMXMXKXGXGXGXGXGXGXGXGXGXGXGXGXGXGXGXGXGXGXGXGXGXGXGXGXGXGXGXMXMXDXMXMXMXMXMXMXMXMXMXMXMXMXMXMXMXMXMXMXMXMXMXMXMXDXKXGXGXGXGXGXGXGXGXGXGXGXGXGXGXGXGXGXGXGXGXGXGXGXGXGXGXGXMXMXDXMXMXMXMXMXMXMXMXMXMXMXMXMX",
"MXMXMXMXMXMXMXMXMXMXMXMXMXMXMXMXMXMXMXMXMXMXMXMXMXMXDXKXGXGXGXGXGXGXGXGXGXGXGXGXGXGXGXGXGXGXGXGXGXGXGXGXGXGXGXMXMXMXMXMXMXMXMXMXMXMXMXMXMXMXMXMXMXMXMXMXMXMXMXMXMXMXKXGXGXGXGXGXGXGXGXGXGXGXGXGXGXGXGXGXGXGXGXGXGXGXGXGXGXGXMXMXMXMXMXMXMXMXMXMXMXMXMXMXMXMXMXMXMXMXMXMXMXMXMXMXMXKXGXGXGXGXGXGXGXGXGXGXGXGXGXGXGXGXGXGXGXGXGXGXGXGXGXGXGXDXNXMXMXMXMXMXMXMXMXMXMXMXMXMXMXMXMXMXMXMXMXMXMXMXMXMXKXGXGXGXGXGXGXGXGXGXGXGXGXGXGXGXGXGXGXGXGXGXGXGXGXGXGXGXMXDXMXMXMXMXMXMXMXMXMXMXMXMXMXMXMXMXMXMXMXLXMXMXMXMXMXKXGXGXGXGXGXGXGXGXGXGXGXGXGXGXGXGXGXGXGXGXGXGXGXGXGXGXKXLXMXMXLXMXMXMXMXMXMXMXMXMXMXMXMXMXMXMXMXMXMXMXMXMXMXMXKXGXGXGXGXGXGXGXGXGXGXGXGXGXGXGXGXGXGXGXGXGXGXGXGXGXGXGXMXMXDXMXMXMXMXMXMXMXMXMXMXMXMXMXMXMXMXMXMXMXMXMXMXMXDXKXGXGXGXGXGXGXGXGXGXGXGXGXGXGXGXGXGXGXGXGXGXGXGXGXGXGXGXDXMXDXMXMXMXMXMXMXMXMXMXMXMXMXMX",
"MXMXMXMXMXMXMXMXMXMXMXMXMXMXMXMXMXMXMXMXMXMXMXMXMXMXDXKXGXGXGXGXGXGXGXGXGXGXGXGXGXGXGXGXGXGXGXGXGXGXGXGXGXGXGXMXMXMXMXMXMXMXMXMXMXMXMXMXMXMXMXMXMXMXMXMXMXMXMXMXMXMXKXGXGXGXGXGXGXGXGXGXGXGXGXGXGXGXGXGXGXGXGXGXGXGXGXGXGXGXMXMXMXMXMXMXMXMXMXMXMXMXMXMXMXMXMXMXMXMXMXMXMXMXMXMXMXKXGXGXGXGXGXGXGXGXGXGXGXGXGXGXGXGXGXGXGXGXGXGXGXGXGXGXGXDXMXMXMXMXMXMXMXMXMXMXMXMXMXMXMXMXMXMXMXMXMXMXMXMXMXMXKXGXGXGXGXGXGXGXGXGXGXGXGXGXGXGXGXGXGXGXGXGXGXGXGXGXGXGXMXDXMXMXMXMXMXMXMXMXMXMXMXMXMXMXMXMXMXMXMXDXMXMXMXMXMXKXGXGXGXGXGXGXGXGXGXGXGXGXGXGXGXGXGXGXGXGXGXGXGXGXGXGXGXLXMXMXMXMXMXMXMXMXMXMXMXMXMXMXMXMXMXMXMXMXMXMXMXMXMXMXKXGXGXGXGXGXGXGXGXGXGXGXGXGXGXGXGXGXGXGXGXGXGXGXGXGXGXGXMXMXDXMXMXMXMXMXMXMXMXMXMXMXMXMXMXMXMXMXMXMXMXMXMXMXDXKXGXGXGXGXGXGXGXGXGXGXGXGXGXGXGXGXGXGXGXGXGXGXGXGXGXGXGXDXMXDXMXMXMXMXMXMXMXMXMXMXMXMXMX",
"MXMXMXMXMXMXMXMXMXMXMXMXMXMXMXMXMXMXMXMXMXMXMXMXMXMXDXKXGXGXGXGXGXGXGXGXGXGXGXGXGXGXGXGXGXGXGXGXGXGXGXGXGXGXGXMXMXMXMXMXMXMXMXMXMXMXMXMXMXMXMXMXMXMXMXMXMXMXMXMXMXMXKXGXGXGXGXGXGXGXGXGXGXGXGXGXGXGXGXGXGXGXGXGXGXGXGXGXGXGXMXMXMXMXMXMXMXMXMXMXMXMXMXMXMXMXMXMXMXMXMXMXMXMXMXMXMXKXGXGXGXGXGXGXGXGXGXGXGXGXGXGXGXGXGXGXGXGXGXGXGXGXGXGXGXDXMXMXMXMXMXMXMXMXMXMXMXMXMXMXMXMXMXMXMXMXMXMXMXAXAXMXKXGXGXGXGXGXGXGXGXGXGXGXGXGXGXGXGXGXGXGXGXGXGXGXGXGXGXGXMXMXMXMXMXMXMXMXMXMXMXMXMXMXMXMXMXMXMXMXMXMXMXMXMXMXMXKXGXGXGXGXGXGXGXGXGXGXGXGXGXGXGXGXGXGXGXGXGXGXGXGXGXGXHXMXMXMXDXMXMXMXMXMXMXMXMXMXMXMXMXMXMXMXMXMXMXMXMXMXMXMXKXGXGXGXGXGXGXGXGXGXGXGXGXGXGXGXGXGXGXGXGXGXGXGXGXGXGXGXMXMXDXMXMXMXMXMXMXMXMXMXMXMXMXMXMXMXMXMXMXMXMXMXMXMXDXKXGXGXGXGXGXGXGXGXGXGXGXGXGXGXGXGXGXGXGXGXGXGXGXGXGXGXGXDXMXDXMXMXMXMXMXMXMXMXMXMXMXMXMX",
"MXMXMXMXMXMXMXMXMXMXMXMXMXMXMXMXMXMXMXMXMXMXMXMXMXMXDXKXGXGXGXGXGXGXGXGXGXGXGXGXGXGXGXGXGXGXGXGXGXGXGXGXGXGXGXMXMXMXMXMXMXMXMXMXMXMXMXMXMXMXMXMXMXMXMXMXMXMXMXMXMXMXKXGXGXGXGXGXGXGXGXGXGXGXGXGXGXGXGXGXGXGXGXGXGXGXGXGXGXGXMXMXMXMXMXMXMXMXMXMXMXMXMXMXMXMXMXMXMXMXMXMXMXMXMXMXMXKXGXGXGXGXGXGXGXGXGXGXGXGXGXGXGXGXGXGXGXGXGXGXGXGXGXGXGXDXMXMXMXMXMXMXMXMXMXMXMXMXMXMXMXMXMXMXMXMXMXMXMXMXMXMXKXGXGXGXGXGXGXGXGXGXGXGXGXGXGXGXGXGXGXGXGXGXGXGXGXGXGXGXMXMXMXMXMXMXMXMXMXMXMXMXMXMXMXMXMXMXMXMXMXMXMXMXMXMXMXKXGXGXGXGXGXGXGXGXGXGXGXGXGXGXGXGXGXGXGXGXGXGXGXGXGXGXGXLXMXMXDXMXMXMXMXMXMXMXMXMXMXMXMXMXMXMXMXMXMXMXMXMXMXMXKXGXGXGXGXGXGXGXGXGXGXGXGXGXGXGXGXGXGXGXGXGXGXGXGXGXGXGXMXMXDXMXMXMXMXMXMXMXMXMXMXMXMXMXMXMXMXMXMXMXMXMXMXMXDXKXGXGXGXGXGXGXGXGXGXGXGXGXGXGXGXGXGXGXGXGXGXGXGXGXGXGXGXDXMXDXMXMXMXMXMXMXMXMXMXMXMXMXMX",
"MXMXMXMXMXMXMXMXMXMXMXMXMXMXMXMXMXMXMXMXMXMXMXMXMXMXDXKXGXGXGXGXGXGXGXGXGXGXGXGXGXGXGXGXGXGXGXGXGXGXGXGXGXGXGXMXMXMXMXMXMXMXMXMXMXMXMXMXMXMXMXMXMXMXMXMXMXMXMXMXMXMXKXGXGXGXGXGXGXGXGXGXGXGXGXGXGXGXGXGXGXGXGXGXGXGXGXGXGXGXMXMXMXMXMXMXMXMXMXMXMXMXMXMXMXMXMXMXMXMXMXMXMXMXMXMXAXKXGXGXGXGXGXGXGXGXGXGXGXGXGXGXGXGXGXGXGXGXGXGXGXGXGXGXGXDXMXMXMXMXMXMXMXMXMXMXMXMXMXMXMXMXMXMXMXMXMXMXMXMXMXMXKXGXGXGXGXGXGXGXGXGXGXGXGXGXGXGXGXGXGXGXGXGXGXGXGXGXGXGXMXMXMXMXMXMXMXMXMXMXMXMXMXMXMXMXMXMXMXMXMXLXMXMXMXMXMXKXGXGXGXGXGXGXGXGXGXGXGXGXGXGXGXGXGXGXGXGXGXGXGXGXGXGXGXAXMXMXDXMXMXMXMXMXMXMXMXMXMXMXMXMXMXMXMXMXMXMXMXMXMXMXKXGXGXGXGXGXGXGXGXGXGXGXGXGXGXGXGXGXGXGXGXGXGXGXGXGXGXGXMXMXDXMXMXMXMXMXMXMXMXMXMXMXMXMXMXMXMXMXMXMXMXMXMXMXDXKXGXGXGXGXGXGXGXGXGXGXGXGXGXGXGXGXGXGXGXGXGXGXGXGXGXGXGXMXMXMXMXMXMXMXMXMXMXMXMXMXMXMXMX",
"MXMXMXMXMXMXMXMXMXMXMXMXMXMXMXMXMXMXMXMXMXMXMXMXMXMXDXKXGXGXGXGXGXGXGXGXGXGXGXGXGXGXGXGXGXGXGXGXGXGXGXGXGXGXGXMXMXMXMXMXMXMXMXMXMXMXMXMXMXMXMXMXMXMXMXMXMXMXMXMXMXMXKXGXGXGXGXGXGXGXGXGXGXGXGXGXGXGXGXGXGXGXGXGXGXGXGXGXGXGXMXMXMXMXMXMXMXMXMXMXMXMXMXMXMXMXMXMXMXMXMXMXMXMXMXMXMXKXGXGXGXGXGXGXGXGXGXGXGXGXGXGXGXGXGXGXGXGXGXGXGXHXGXHXHXLXNXBXBXBXBXBXBXBXBXBXBXBXBXBXBXBXBXBXBXBXBXBXBXBXBXVXKXFXFXFXFXHXHXFXFXHXFXHXHXHXHXHXHXHXHXHXFXHXFXHXFXFXFXHXBXBXBXBXBXBXBXBXBXBXBXBXBXBXBXBXBXBXBXBXBXBXBXNXBXBXMXKXGXGXGXGXGXGXGXGXGXGXGXGXGXGXGXGXGXGXGXGXGXGXGXGXGXGXGXDXMXMXDXMXMXMXMXMXMXMXMXMXMXMXMXMXMXMXMXMXMXMXMXMXMXMXKXGXGXGXGXGXGXGXGXGXGXGXGXGXGXGXGXGXGXGXGXGXGXGXGXGXGXGXMXMXDXMXMXMXMXMXMXMXMXMXMXMXMXMXMXMXMXMXMXMXMXMXMXMXDXKXGXGXGXGXGXGXGXGXGXGXGXGXGXGXGXGXGXGXGXGXGXGXGXGXGXGXGXMXMXMXMXMXMXMXMXMXMXMXMXMXMXMXMX",
"MXMXMXMXMXMXMXMXMXMXMXMXMXMXMXMXMXMXMXMXMXMXMXMXMXMXDXKXGXGXGXGXGXGXGXGXGXGXGXGXGXGXGXGXGXGXGXGXGXGXGXGXGXGXGXMXMXMXMXMXMXMXMXMXMXMXMXMXMXMXMXMXMXMXMXMXMXMXMXMXMXMXKXGXGXGXGXGXGXGXGXGXGXGXGXGXGXGXGXGXGXGXGXGXGXGXGXGXGXGXMXMXMXMXMXMXMXMXMXMXMXMXMXMXMXMXMXMXMXMXBXMXMXMXMXMXMXKXGXGXGXHXGXGXGXGXKXGXGXGXKXGXHXHXHXHXFXFXFXFXHXFXFXFXFXZXMXBXVXVXVXVXVXVXVXVXVXVXVXVXVXVXVXVXVXmXmXvXvXvXbXbXbXbXbXbXkXpXpXrXrXrXrXrXpXpXpXpXkXkXkXkXkXbXbXbXmXmXmXmXmXmXVXVXVXVXVXVXVXVXVXVXVXVXVXZXBXBXBXBXVXZXZXVXBXDXKXKXGXGXHXHXGXGXKXHXGXGXGXHXHXHXGXKXGXGXGXGXGXGXGXGXGXGXHXLXMXMXDXMXMXMXMXMXMXMXMXMXMXMXMXMXMXMXMXMXMXMXMXMXMXMXKXGXGXGXGXGXGXGXGXGXGXGXGXGXGXGXGXGXGXGXGXGXGXGXGXGXGXGXMXMXDXMXMXMXMXMXMXMXMXMXMXMXMXMXMXMXMXMXMXMXMXMXMXMXDXKXGXGXGXGXGXGXGXGXGXGXGXGXGXGXGXGXGXGXGXGXGXGXGXGXGXGXGXDXMXDXMXMXMXMXMXMXMXMXMXMXMXMXMX",
"MXMXMXMXMXMXMXMXMXMXMXMXMXMXMXMXMXMXMXMXMXMXMXMXMXMXDXKXGXGXGXGXGXGXGXGXGXGXGXGXGXGXGXGXGXGXGXGXGXGXGXGXGXGXGXMXMXMXMXMXMXMXMXMXMXMXMXMXMXMXMXMXMXMXMXMXMXMXMXMXMXMXKXGXGXGXGXGXGXGXGXGXGXGXGXGXGXGXGXGXGXGXGXGXGXGXGXGXGXGXMXMXMXMXMXMXMXMXMXMXMXMXMXMXMXMXMXMXBXBXBXBXMXMXMXMXMXKXGXGXHXGXHXGXKXGXGXKXKXGXGXFXFXFXFXFXFXFXKXZXZXVXVXmXvXkXpXpXeXeXeXeX0X0X;X;X;X;XI.P.P.P.P.U.J.J.H.H.H.H.F.F.F.F.H.H.H.D.F.F.F.F.H.H.H.H.H.H.H.H.H.H.H.H.H.J.H.H.P.H.P.P.P.P.P.P.P.#X;X;X;X;XeX2X-X,XeXkXnXmXVXmXmXVXZXVXVXFXHXHXGXGXGXKXKXGXGXGXHXHXHXHXHXGXGXGXHXGXGXGXGXGXGXGXHXLXMXMXDXMXMXMXMXMXMXMXMXMXMXMXMXMXMXMXMXMXMXMXMXMXMXMXKXGXGXGXGXGXGXGXGXGXGXGXGXGXGXGXGXGXGXGXGXGXGXGXGXGXGXGXMXMXDXMXMXMXMXMXMXMXMXMXMXMXMXMXMXMXMXMXMXMXMXMXMXMXDXKXGXGXGXGXGXGXGXGXGXGXGXGXGXGXGXGXGXGXGXGXGXGXGXGXGXGXGXDXMXDXMXMXMXMXMXMXMXMXMXMXMXMXMX",
"MXMXMXMXMXMXMXMXMXMXMXMXMXMXMXMXMXMXMXMXMXMXMXMXMXMXDXKXGXGXGXGXGXGXGXGXGXGXGXGXGXGXGXGXGXGXGXGXGXGXGXGXGXGXGXMXMXMXMXMXMXMXMXMXMXMXMXMXMXMXMXMXMXMXMXMXMXMXMXMXMXMXKXGXGXGXGXGXGXGXGXGXGXGXGXGXGXGXGXGXGXGXGXGXGXGXGXGXGXGXMXMXMXMXMXMXMXMXMXMXMXMXMXMXMXMXMXMXBXBXMXMXMXMXMXMXMXKXGXGXGXGXGXGXGXDXMXGXGXHXHXHXFXFXVXbXeXeX;X;XI.I.I.I.P.P.P.U.P.P.H.H.F.F.H L L L L N c c c c c c c c c c c v c c x x x x x c j j j j j j j j j j k k j j j k j j k k z k z z z z M M G L L L L U U L Z G L H.P.P.#X;X1X2XwXzXVXFXHXKXKXGXHXDXGXGXGXHXHXHXHXGXGXGXHXGXGXGXGXGXGXGXHXLXMXMXDXMXMXMXMXMXMXMXMXMXMXMXMXMXMXMXMXMXMXMXMXMXMXMXKXGXGXGXGXGXGXGXGXGXGXGXGXGXGXGXGXGXGXGXGXGXGXGXGXGXGXGXMXMXDXMXMXMXMXMXMXMXMXMXMXMXMXMXMXMXMXMXMXMXMXMXMXMXDXKXGXGXGXGXGXGXGXGXGXGXGXGXGXGXGXGXGXGXGXGXGXGXGXGXGXGXGXDXMXDXMXMXMXMXMXMXMXMXMXMXMXMXMX",
"MXMXMXMXMXMXMXMXMXMXMXMXMXMXMXMXMXMXMXMXMXMXMXMXMXMXDXKXGXGXGXGXGXGXGXGXGXGXGXGXGXGXGXGXGXGXGXGXGXGXGXGXGXGXGXMXMXMXMXMXMXMXMXMXMXMXMXMXMXMXMXMXMXMXMXMXMXMXMXMXMXMXKXGXGXGXGXGXGXGXGXGXGXGXGXGXGXGXGXGXGXGXGXGXGXGXGXGXGXGXMXMXMXMXMXMXMXMXMXMXMXMXMXMXMXMXMXMXMXBXMXMXMXMXMXMXMXKXGXGXGXGXGXGXKXKXGXHXFXFXZXmXeX,X;XI.I.I.I.U.F.F.F.F.F.D.F.F.c c c c c c c c c c c c v c c c c c v v v v v v 9 9 9 9 9 9 9 9 9 9 9 9 9 9 9 8 8 8 9 9 8 8 8 8 8 8 8 8 u u h h h u h h j h j j j j k k z h = = z G L L U P.L.L.#X-XqXVXFXFXZXFXGXGXGXGXHXHXHXGXGXGXGXGXGXGXGXGXGXGXHXLXMXMXLXMXMXMXMXMXMXMXMXMXMXMXMXMXMXMXMXMXMXMXMXMXMXMXKXGXGXGXGXGXGXGXGXGXGXGXGXGXGXGXGXGXGXGXGXGXGXGXGXGXGXGXMXMXDXMXMXMXMXMXMXMXMXMXMXMXMXMXMXMXMXMXMXMXMXMXMXMXDXKXGXGXGXGXGXGXGXGXGXGXGXGXGXGXGXGXGXGXGXGXGXGXGXGXGXGXGXDXMXDXMXMXMXMXMXMXMXMXMXMXMXMXMX",
"MXMXMXMXMXMXMXMXMXMXMXMXMXMXMXMXMXMXMXMXMXMXMXMXMXMXDXKXGXGXGXGXGXGXGXGXGXGXGXGXGXGXGXGXGXGXGXGXGXGXGXGXGXGXGXMXMXMXMXMXMXMXMXMXMXMXMXMXMXMXMXMXMXMXMXMXMXMXMXMXMXMXKXGXGXGXGXGXGXGXGXGXGXGXGXGXGXGXGXGXGXGXGXGXGXGXGXGXGXGXMXMXMXMXMXMXMXMXMXMXMXMXMXMXMXMXMXMXMXMXMXMXMXMXMXMXMXKXGXGXGXGXGXGXGXKXKXHXFXVXeXP.;XI.U.F.F.F.F.F.F.F.F.F.&.c &.&.c c &.c c c c c t t r r r r t v t t t t t t t t t t t t 9 9 9 9 9 9 9 0 0 0 0 0 4 4 4 6 6 4 4 4 4 8 8 8 8 - - - 8 8 8 8 8 8 8 u 8 8 u h j k j h 8 h z h h z z z G Q P.P.,XvXFXFXGXFXKXGXHXHXHXHXGXGXGXGXGXGXGXGXGXGXGXDXMXMXMXMXMXMXMXMXMXMXMXMXMXMXMXMXMXMXMXMXMXMXMXMXMXMXKXGXGXGXGXGXGXGXGXGXGXGXGXGXGXGXGXGXGXGXGXGXGXGXGXGXGXGXMXMXDXMXMXMXMXMXMXMXMXMXMXMXMXMXMXMXMXMXMXMXMXMXMXMXLXKXGXGXGXGXGXGXGXGXGXGXGXGXGXGXGXGXGXGXGXGXGXGXGXGXGXGXGXMXMXMXMXMXMXMXMXMXMXMXMXMXMXMXMX",
"MXMXMXMXMXMXMXMXMXMXMXMXMXMXMXMXMXMXMXMXMXMXMXMXMXMXDXKXGXGXGXGXGXGXGXGXGXGXGXGXGXGXGXGXGXGXGXGXGXGXGXGXGXGXGXMXMXMXMXMXMXMXMXMXMXMXMXMXMXMXMXMXMXMXMXMXMXMXMXMXMXMXKXGXGXGXGXGXGXGXGXGXGXGXGXGXGXGXGXGXGXGXGXGXGXGXGXGXGXGXMXMXMXMXMXMXMXMXMXMXMXMXMXMXMXMXMXMXMXMXMXMXMXMXMXMXMXKXGXGXGXGXGXGXKXHXHXFXeXXXP.I.I.U.U.F.F.F.F.F.&.&.&.&.&.&.&.&.&.&.@.@.o.t r r ] ] ' ] ' ` r t t t t t ] ] t t e e e e e t e 9 e e e e 0 5 0 0 9 0 0 0 8 8 8 8 8 8 8 8 8 8 8 4 8 6 8 & & & & & & = 8 = & & 8 u 8 8 h j z z k z z z G H.P.;XeXVXFXGXGXKXHXHXHXHXGXGXGXGXGXGXGXGXGXGXGXDXMXMXMXMXMXMXMXMXMXMXMXMXMXMXMXMXMXMXMXMXMXMXMXMXMXAXKXGXGXGXGXGXGXGXGXGXGXGXGXGXGXGXGXGXGXGXGXGXGXGXGXGXGXGXMXMXDXMXMXMXMXMXMXMXMXMXMXMXMXMXMXMXMXMXMXMXMXMXMXMXDXKXGXGXGXGXGXGXGXGXGXGXGXGXGXGXGXGXGXGXGXGXGXGXGXGXGXGXGXMXMXDXMXMXMXMXMXMXMXMXMXMXMXMXMX",
"MXMXMXMXMXMXMXMXMXMXMXMXMXMXMXMXMXMXMXMXMXMXMXMXMXMXDXKXGXGXGXGXGXGXGXGXGXGXGXGXGXGXGXGXGXGXGXGXGXGXGXGXGXGXGXMXMXMXMXMXMXMXMXMXMXMXMXMXMXMXMXMXMXMXMXMXMXMXMXMXMXMXKXGXGXGXGXGXGXGXGXGXGXGXGXGXGXGXGXGXGXGXGXGXGXGXGXGXGXGXMXMXMXMXMXMXMXMXMXMXMXMXMXMXMXMXMXMXMXMXMXMXMXMXMXMXMXKXGXGXGXGXGXGXFXHXVX1XP.I.I.U.F.F.F.F.F.t.t.t.t.&.&.&.&.&.@.@.@.] ] ] ] ] ] ] #.@.] ] ] ] ' ` ] ] @.] ] ` w w w r r r r t t t e e e e e 5 0 0 0 4 4 4 4 4 $ $ $ & & & $ $ $ $ & & & $ $ $ $ $ 8 & $ = 8 h 8 = 8 = 8 h h h h h j z z z L H.;XeXZXHXHXGXHXHXGXHXGXGXGXGXGXGXGXGXGXGXGXDXMXMXLXMXMXMXMXMXMXMXMXMXMXMXMXMXMXMXMXMXMXMXMXMXMXMXKXGXGXGXGXGXGXGXGXGXGXGXGXGXGXGXGXGXGXGXGXGXGXGXGXGXGXGXMXMXDXMXMXMXMXMXMXMXMXMXMXMXMXMXMXMXMXMXMXMXMXMXMXMXLXKXGXGXGXGXGXGXGXGXGXGXGXGXGXGXGXGXGXGXGXGXGXGXGXGXGXGXGXDXMXDXMXMXMXMXMXMXMXMXMXMXMXMXMX",
"MXMXMXMXMXMXMXMXMXMXMXMXMXMXMXMXMXMXMXMXMXMXMXMXMXMXDXKXGXGXGXGXGXGXGXGXGXGXGXGXGXGXGXGXGXGXGXGXGXGXGXGXGXGXGXMXMXMXMXMXMXMXMXMXMXMXMXMXMXMXMXMXMXMXMXMXMXMXMXMXMXMXKXGXGXGXGXGXGXGXGXGXGXGXGXGXGXGXGXGXGXGXGXGXGXGXGXGXGXGXMXMXMXMXMXMXMXMXMXMXMXMXMXMXMXMXMXMXMXMXMXMXMXMXMXMXMXKXGXGXGXGXGXGXHXVXeXP.I.I.U.F.F.F.G.y.t.&.&.&.&.&.&.&.@.@.@.@.] ] ] [ [ $.$.$.#.#.#.-.=.;.Y.T.Y.Y.T.Y.:.>.#.] ` ` ] ] ] ' r t t r r e e e 5 0 9 9 0 0 0 8 8 & & & & $ $ $ 4 4 $ & $ $ $ $ $ - # - = - - $ - = = u 8 = = h h 8 j h j z L L U P.zXVXHXHXKXGXGXHXGXGXGXGXGXGXGXGXGXGXGXDXMXMXDXMXMXMXMXMXMXMXMXMXMXMXMXMXMXMXMXMXMXMXMXMXMXMXKXGXGXGXGXGXGXGXGXGXGXGXGXGXGXGXGXGXGXGXGXGXGXGXGXGXGXGXMXMXDXMXMXMXMXMXMXMXMXMXMXMXMXMXMXMXMXMXMXMXMXMXMXMXLXKXGXGXGXGXGXGXGXGXGXGXGXGXGXGXGXGXGXGXGXGXGXGXGXGXGXGXGXDXMXDXMXMXMXMXMXMXMXMXMXMXMXMXMX",
"MXMXMXMXMXMXAXAXMXMXMXMXAXMXMXMXMXMXMXMXMXMXMXMXDXMXMXKXGXGXGXGXGXGXGXGXGXGXGXGXGXGXGXGXGXGXGXGXGXKXGXGXKXGXGXMXMXMXMXMXAXMXMXMXMXMXMXMXMXMXMXMXAXMXMXMXMXMXMXMXMXMXKXGXGXGXGXGXGXGXGXGXGXGXGXGXGXGXGXGXGXGXGXGXGXGXGXGXGXGXDXMXMXMXMXMXMXMXMXMXMXMXMXMXMXMXAXAXMXMXMXMXLXMXMXMXDXKXGXGXGXGXKXFXFXeX;XP.I.P.F.U.F.&.G.y.&.&.&.&.@.@.' ] ] ] [ ` $.[ >.>.>.>.~.~.;.E.OX!.!.tXtXtXtX!.!.!.~.>.>.$.[ [ ] ] ] ` ' r e r r r w e t 5 5 t 5 4 0 6 8 $ = & & & & & $ $ $ $ $ $ $ - % # % % % % - - - - = = = = = = : u u h h z z z L H.#XvXHXHXDXHXGXKXGXGXGXGXGXGXGXGXGXGXKXDXMXMXDXAXAXMXMXMXMXMXMXMXMXMXMXMXMXMXAXAXDXMXMXDXMXMXKXGXGXGXGXGXGXGXGXGXGXGXGXGXGXGXGXGXGXGXGXGXGXGXGXGXGXKXDXMXMXDXDXMXMXMXMXMXMXMXAXAXMXMXMXMXAXMXMXMXMXDXDXMXLXKXGXGXGXGXGXGXGXGXGXGXGXGXGXGXGXGXGXGXGXGXGXGXGXGXGXGXGXMXMXDXMXMXDXMXMXMXMXMXAXMXMXMXMX",
"MXMXMXMXMXMXMXMXMXMXMXMXMXMXMXMXMXMXMXMXMXMXMXMXMXMXMXKXGXGXGXGXGXGXGXGXGXGXGXGXGXGXGXGXGXGXGXGXGXGXGXGXGXGXGXMXMXMXMXMXMXMXMXMXMXMXMXMXMXMXMXMXMXMXMXMXMXMXMXMXMXMXKXGXGXGXGXGXGXGXGXGXGXGXGXGXGXGXGXGXGXGXGXGXGXGXGXGXGXKXDXMXMXMXMXMXMXMXMXMXMXMXMXMXMXMXMXMXMXMXMXMXMXMXMXMXDXKXGXGXGXGXHXHXVX;XI.I.I.J.F.F.G.&.y.&.&.&.&.@.] ] #.] [ [ [ [ [ :.>.>.:.!.~.:.~.tXtXtXtXtXtXrX!.:.tXtX>.>.~.E.$.[ [ [ [ ' ' w r r ' ' ' r t 5 t t e 5 9 0 8 & & & & & - - 4 $ $ - $ $ - & % % % % % % - - - % % % = = = = = = : u u h z k L L P.eXFXHXGXGXGXHXGXGXGXGXGXGXGXHXGXGXHXDXMXMXMXMXMXMXMXMXMXMXMXMXMXMXMXMXMXMXMXMXMXMXMXMXMXMXKXGXGXGXGXGXGXGXGXGXGXGXGXGXGXGXGXGXGXGXGXGXGXGXGXGXGXKXDXMXMXMXMXMXMXMXMXMXMXMXMXMXMXMXMXMXMXMXMXMXMXMXMXMXMXKXGXGXGXGXGXGXGXGXGXGXGXGXGXGXGXGXGXGXGXGXGXGXGXGXGXGXGXMXMXMXMXMXDXMXMXMXMXMXMXMXMXMXMX",
"MXMXMXMXMXMXMXMXMXMXMXMXMXMXMXMXAXAXMXMXMXMXMXMXMXMXDXKXGXGXGXGXGXGXGXGXGXGXGXGXGXGXGXGXGXGXGXGXGXGXGXGXGXGXGXDXMXMXMXMXMXMXMXMXMXMXMXMXMXMXMXMXMXMXMXMXMXMXMXMXMXDXKXGXGXGXGXGXGXGXGXGXGXGXGXGXGXGXGXGXGXGXGXGXGXGXGXGXGXKXDXMXAXAXMXMXMXMXMXMXMXMXMXMXMXMXMXMXMXMXMXMXMXMXMXMXDXKXHXGXGXGXGXFXbXI.I.I.U.F.F.t.y.y.&.&.&.&.@.] #.[ ] ` [ [ [ >.*.tX>.>.E.rX!.>.~.!.!.tXtXtXtX!.:.[ rXtX>.[ :.tX;.[ [ >.` ] ` w e w w ] ' r t 5 t r e e 0 4 0 $ & & - & - - 4 $ $ = - - - - - % % % % % - - - % % # % = = & = = = u : u h z z G H..XFXFXGXGXKXGXGXGXGXGXGXGXHXHXGXGXKXKXMXMXMXMXMXMXMXMXMXMXMXMXMXMXMXMXMXMXMXMXDXMXDXDXDXDXKXGXGXGXGXGXGXGXGXGXGXGXGXGXGXGXGXGXGXGXGXGXGXGXGXGXGXKXDXMXMXMXDXMXMXMXMXMXMXMXMXMXMXMXMXMXMXMXMXMXMXMXMXMXDXKXGXGXGXGXGXGXGXGXGXGXGXGXGXGXGXGXGXGXGXGXGXGXGXGXGXGXKXMXMXDXMXMXDXMXMXMXMXMXMXMXMXMXMX",
"KXKXKXKXKXKXKXKXKXKXKXKXKXKXKXKXKXKXKXKXKXKXKXKXKXKXKXKXKXKXKXKXKXKXKXKXKXKXKXKXKXKXKXKXKXKXKXKXKXKXKXKXKXKXKXKXKXKXKXKXKXKXKXKXKXKXKXKXKXKXKXKXKXKXKXKXKXKXKXKXKXKXKXKXKXKXKXKXKXKXKXKXKXKXKXKXKXKXKXKXKXKXKXKXKXKXKXKXKXKXKXKXKXKXKXKXKXKXKXKXKXKXKXKXKXKXKXKXKXKXKXKXKXKXKXKXKXKXKXKXKXDXKXZX0XI.I.U.F.F.K.t.t.G.-.] @.-.] ] *.] ] ] ` [ >.[ !.rX>.>.!.rX!.[ ~.>.:.!.tX!.!.>.[ E.aX!.:.>.` rX!.$.[ [ ] ] w w e q w ] ' w t 5 r @.w q q 4 4 4 $ $ $ $ & 8 4 $ $ 8 8 - - - & % # % % % % % % % % # # = = & = u = : u = h z z G H.P.zXVXKXLXDXHXKXKXKXKXKXKXKXKXKXKXKXKXKXKXKXKXKXKXKXKXKXKXKXKXKXKXKXKXKXKXKXKXKXKXKXKXKXKXKXKXKXKXKXKXKXKXKXKXKXKXKXKXKXKXKXKXKXKXKXKXKXKXKXKXKXKXKXKXKXKXKXKXKXKXKXKXKXKXKXKXKXKXKXKXKXKXKXKXKXKXKXKXKXKXKXKXKXKXKXKXKXKXKXKXKXKXKXKXKXKXKXKXKXKXKXKXKXKXKXKXKXKXKXKXKXKXKXKXKXKXKXKXKXKXKXKXKX",
"GXGXGXGXGXGXGXGXGXGXGXGXGXGXGXGXGXGXGXGXGXGXGXGXGXGXGXKXDXMXMXMXMXMXMXMXMXMXMXMXMXMXMXMXMXMXMXMXMXDXMXMXMXDXKXKXGXGXGXGXGXGXGXGXGXGXGXGXGXGXGXGXGXGXGXGXGXGXGXGXGXGXKXDXMXMXDXDXMXMXMXMXMXMXMXMXMXMXMXMXMXMXMXMXMXMXMXMXDXKXGXGXGXGXGXGXGXGXGXGXGXGXGXGXGXGXGXGXGXHXGXGXGXGXGXGXKXKXBXDXLXMXDXvXI.I.U.F.U.G.K.G.y.=.@.] -.-.] ] *.#.` ] ] ` [ ;.aX!.>.>.!.bXE.[ >.>.>.E.!.;.[ >.[ !.aXOX>.>.] tXtXE.:.[ [ ` q t e q w ] ] w e q ' ] ' w e 5 5 4 $ $ $ $ 4 4 4 4 4 0 8 8 $ $ $ - # % % % # % % % % # % - = = = h = u h = h k z Y U P.,XVXBXNXLXDXAXAXLXBXMXMXNXNXNXDXKXHXGXGXGXGXGXGXGXGXGXGXGXGXGXGXGXGXGXGXGXGXGXGXGXGXGXGXKXDXMXMXMXMXMXMXMXMXMXMXMXMXMXMXMXMXMXMXMXMXMXMXMXMXMXDXKXGXGXGXGXGXGXGXGXGXGXGXGXGXGXGXGXGXGXGXGXGXGXGXGXGXGXKXDXMXMXMXMXMXMXMXMXMXMXMXMXMXMXMXMXMXMXMXMXMXMXMXMXMXKXKXGXGXGXGXGXGXGXGXGXGXGXGXGXGXGX",
"GXGXGXGXGXGXGXGXGXGXGXGXGXGXGXGXGXGXGXGXGXGXGXGXGXGXGXKXMXMXMXMXMXMXMXMXMXMXMXMXMXMXMXMXMXMXMXMXMXLXMXMXMXMXDXGXGXGXGXGXGXGXGXGXGXGXGXGXGXGXGXGXGXGXGXGXGXGXGXGXGXGXKXMXMXMXLXMXMXMXMXMXMXMXMXMXMXMXMXMXMXMXMXMXMXMXMXMXMXDXKXGXGXGXGXGXGXGXGXGXGXGXGXGXGXGXGXGXGXHXGXGXGXGXGXGXGXGXMXBXMXMXBXwXUXI.F.U.K.F.G.G.y.@.` ] :.*.] [ -.=.] ` @.#.!.rXaXE.>.:.OXaX!.[ >.>.>.!.E.[ [ $.[ tXrXtX>.>.[ !.rXrXrXE.] w r 5 e q w ] ' w e q ` ] ] ' r q 5 4 $ $ $ & 6 8 4 4 4 4 0 8 4 $ $ $ # & & % % & & % % % % % & = h h - 8 h = 8 h k P.Y P.P.ZXBXNXLXAXAXAXMXMXMXNXNXMXMXMXDXGXGXGXGXGXGXGXGXGXGXGXGXGXGXGXGXGXGXGXGXGXGXGXGXGXGXGXKXMXMXMXMXMXMXMXMXMXMXMXMXMXMXMXMXMXMXMXMXMXMXMXMXMXMXDXHXGXGXGXGXGXGXGXGXGXGXGXGXGXGXGXGXGXGXGXGXGXGXGXGXGXGXKXMXMXMXMXMXMXMXMXMXMXMXMXMXMXMXMXMXMXMXMXMXMXMXMXMXMXMXKXGXGXGXGXGXGXGXGXGXGXGXGXGXGXGX",
"GXGXGXGXGXGXGXGXGXGXGXGXGXGXGXGXGXGXGXGXGXGXGXGXHXGXGXKXMXMXMXLXDXDXMXLXDXLXDXDXDXDXDXDXDXDXMXMXMXDXMXMXDXMXMXGXGXGXGXGXGXGXGXGXGXGXGXGXGXGXGXGXGXGXGXGXGXGXGXGXGXGXKXMXMXMXMXMXDXDXDXDXDXLXDXLXDXAXDXDXDXDXDXDXMXMXMXMXMXDXKXGXGXGXGXGXGXGXGXGXGXGXGXGXGXGXGXGXGXGXGXGXGXGXGXGXGXGXMXMXBXDXNX;X0XU.F.K.K.t.Q.G.&.@.] #.:.>.[ $.-.&.G.` ` tXbXrXtXY.[ ~.tXrXtX[ [ [ ;.tX$.` ] ` ` tXrX!.>.>.[ Y.tXrXrXtX] w e 5 5 q w ] ' w e q ` [ ] ] @.e 5 4 4 $ 4 4 8 0 4 4 4 0 9 9 6 4 $ # $ & = & # $ $ & - = - # % = h h - = j = = = j P.H P.L nXZXBXBXAXLXLXLXLXLXLXLXLXMXMXDXKXGXGXGXGXGXGXGXGXGXGXGXGXGXGXGXGXGXGXGXGXGXGXGXGXGXGXKXMXDXDXDXDXDXDXMXDXDXAXDXDXDXDXDXDXDXDXLXLXLXMXDXDXMXDXGXGXGXGXGXGXGXGXGXGXGXGXGXGXGXGXGXGXGXGXGXGXGXGXGXGXGXKXMXMXDXDXDXDXDXLXDXLXDXDXDXDXDXLXDXLXDXDXDXDXDXLXDXLXMXGXGXGXGXGXKXGXGXGXGXGXGXGXGXGXGX",
"GXGXGXGXGXGXGXGXGXGXGXGXGXGXGXGXGXGXGXGXGXGXGXGXHXGXGXKXMXMXMXDXMXMXMXMXMXMXMXMXMXMXMXMXMXMXMXMXMXDXMXMXDXMXMXGXGXGXGXGXGXGXGXGXGXGXGXGXGXGXGXGXGXGXGXGXGXGXGXGXGXGXKXAXMXLXMXMXMXMXMXMXMXMXMXMXMXMXMXMXMXMXMXMXMXMXMXMXMXDXKXGXGXGXGXGXGXGXGXGXGXGXGXGXGXGXGXGXGXHXGXGXGXGXGXGXKXGXBXMXBXDXvXI.I.F.t.K.F.t.0XG.] @.*.*.*.>.[ $.-.-.G.' E.rX!.Y.!.*.>.:.!.tX!.` [ ] E.!.` ` w ` ] !.tX!.[ >.[ #.W.&.Y.aX=.q 5 4 5 e ' @.] w t q ` [ [ #.#.' e 4 4 $ 4 0 9 0 0 4 4 0 9 e e 5 4 # % = = & $ & & $ - = - $ - h j j $ 8 k 8 - - h ;XY H.G kXBXBXNXDXAXAXAXMXBXMXNXNXDXMXDXKXGXGXGXGXGXGXGXGXGXGXGXGXGXGXGXGXGXGXGXGXGXGXGXGXGXGXKXMXMXMXMXMXMXMXMXMXMXMXMXMXMXMXMXMXMXMXMXMXMXMXMXMXMXDXHXGXGXGXGXGXGXGXGXGXGXGXGXGXGXGXGXGXGXGXGXGXGXGXGXGXGXKXDXDXMXMXMXMXMXMXMXMXMXMXMXMXMXMXMXMXMXMXMXMXMXMXMXMXMXGXGXKXGXGXKXGXGXGXGXGXGXGXGXGXGX",
"GXGXGXGXGXGXGXGXGXGXGXGXGXGXGXGXGXGXGXGXGXGXGXGXGXGXGXKXMXMXMXMXMXMXMXMXMXMXMXMXMXMXMXMXMXMXMXMXMXMXMXMXDXMXDXGXGXGXGXGXGXGXGXGXGXGXGXGXGXGXGXGXGXGXGXGXGXGXGXGXGXGXKXMXMXMXMXMXMXMXMXMXMXMXMXMXMXMXMXMXMXMXMXMXMXMXMXDXMXMXGXGXGXGXGXGXGXGXGXGXGXGXGXGXGXGXGXGXHXHXGXGXHXGXHXHXGXKXLXBXNXnXwXXXK.&.&.R.G.&.Q.y.` ;.E.[ :.*.[ $.#.=.;.] tX!.[ [ ;.] [ >.!.!.E.#.#.] E.!.w q w w ] !.!.E.] *.] #.=.#.] tXE.5 7 4 5 t ] @.@.r 5 t w @.=.tXtX] q 4 4 4 9 v v v 9 4 $ 9 t @.' w 7 & & : u = 0 8 - & 8 8 9 4 # u c u $ 8 k j # % = H.L H.Z 1XVXBXNXNXMXMXMXMXMXMXMXMXMXMXDXGXGXGXGXGXGXGXGXGXGXGXGXGXGXGXGXGXGXGXGXGXGXGXGXGXGXGXKXMXMXMXMXMXMXMXMXMXMXMXMXMXMXMXMXMXMXMXMXMXMXMXMXMXMXMXGXGXGXGXGXGXGXGXGXGXGXGXGXGXGXGXGXGXGXGXGXGXGXGXGXGXGXKXMXMXMXMXMXMXMXMXMXMXMXMXMXMXMXMXMXMXMXMXMXMXMXMXMXMXMXGXGXGXGXGXGXGXGXGXGXGXGXGXGXGXGX",
"GXGXGXGXGXGXGXGXGXGXGXGXGXGXGXGXGXGXGXGXGXGXGXGXGXGXGXKXMXMXMXMXMXMXMXMXMXMXMXMXMXMXMXMXMXMXMXMXMXMXMXMXDXMXDXGXGXGXGXGXGXGXGXGXGXGXGXGXGXGXGXGXGXGXGXGXGXGXGXGXGXGXKXMXMXMXMXMXMXMXMXMXMXMXMXMXMXMXMXMXMXMXMXMXMXMXMXDXMXMXGXGXGXGXGXGXGXGXGXGXGXGXGXGXGXGXGXGXHXHXGXGXFXHXHXHXHXDXBXBXCXNXeX0Xy.&.-.y.G.@.G.-.#.rXtX*.#.-.] *.] @.-.-.tX#.` [ =.] ` :.E.!.E.@.] ' E.!.5 5 q w @.!.E.Y.y.w ] #.@.] ] tXW.5 6 $ 5 e @.@.&.v v t 7 @.=.E.rXY.q 4 $ $ 9 v 9 v 9 8 9 5 w #.[ ` 5 # = u 8 8 0 9 u = 8 9 9 0 $ 8 k 8 $ 8 j j % % - L L L z #XVXBXBXLXMXCXCXCXMXMXMXMXMXMXDXGXGXGXGXGXGXGXGXGXGXGXGXGXGXGXGXGXGXGXGXGXGXGXGXGXGXGXKXMXMXMXMXMXMXMXMXMXMXMXMXMXMXMXMXMXMXMXMXMXMXMXMXMXMXMXGXGXGXGXGXGXGXGXGXGXGXGXGXGXGXGXGXGXGXGXGXGXGXGXGXGXGXKXMXMXMXMXMXMXMXMXMXMXMXMXMXMXMXMXMXMXMXMXMXMXMXMXMXMXMXGXGXGXGXGXGXGXGXGXGXGXGXGXGXGXGX",
"GXGXGXGXGXGXGXGXGXGXGXGXGXGXGXGXGXGXGXGXGXGXGXGXGXGXGXKXMXMXMXMXMXMXMXMXMXMXMXMXMXMXMXMXMXMXMXMXMXMXMXMXDXMXDXGXGXGXGXGXGXGXGXGXGXGXGXGXGXGXGXGXGXGXGXGXGXGXGXGXGXGXKXMXMXMXMXMXMXMXMXMXMXMXMXMXMXMXMXMXMXMXMXMXMXMXMXDXMXMXGXGXGXGXGXGXGXGXGXGXGXGXGXGXGXGXGXGXHXHXGXGXFXHXHXHXHXDXBXKXCXnXXXOX&.-.*.] G.&.&.&.!.tXY.=.] -.#.` @.@.@.R.tXw ` ' @.-.] ] $.:.=.&.w w W.W.5 4 5 q t @.=.@.t &.@.] ' w ` !.R.5 & # 6 9 v @.v v v 9 t t @.#.tX!.5 6 % & 8 i 9 9 y y i 5 ] ~.~.' 5 $ & - 8 9 0 9 u = 9 9 e 0 $ = j u j u 8 8 % % % M Y L h U VXVXBXNXMXCXCXCXMXMXMXMXMXMXDXGXGXGXGXGXGXGXGXGXGXGXGXGXGXGXGXGXGXGXGXGXGXGXGXGXGXGXKXMXMXMXMXMXMXMXMXMXMXMXMXMXMXMXMXMXMXMXMXMXMXMXMXMXMXMXGXGXGXGXGXGXGXGXGXGXGXGXGXGXGXGXGXGXGXGXGXGXGXGXGXGXGXKXMXMXMXMXMXMXMXMXMXMXMXMXMXMXMXMXMXMXMXMXMXMXMXMXMXMXMXGXGXGXGXGXGXGXGXGXGXGXGXGXGXGXGX",
"GXGXGXGXGXGXGXGXGXGXGXGXGXGXGXGXGXGXGXGXGXGXGXGXGXGXGXKXMXMXMXMXMXMXMXMXMXMXMXMXMXMXMXMXMXMXMXMXMXMXMXMXDXMXDXGXGXGXGXGXGXGXGXGXGXGXGXGXGXGXGXGXGXGXGXGXGXGXGXGXGXGXKXMXMXMXMXMXMXMXMXMXMXMXMXMXMXMXMXMXMXMXMXMXMXMXMXDXMXMXGXGXGXGXGXGXGXGXGXGXGXGXGXGXGXGXGXGXGXGXGXGXFXHXHXHXHXKXNXBXNXvXF.Q.@.E.~.` -.&.t.&.rX&.w y.` w @.] @.@.w !.R.q q q r w t q ] ] w o.w r Q.K.4 4 4 5 v 5 5 @.t q t q t w w E.G.4 # % # $ 9 e 5 5 0 5 q q w ` E.tX5 & # # & 6 4 6 6 6 4 5 *.!.rX&.4 $ $ $ 9 v 0 0 = # 9 t e 5 $ = j h k u 8 = % & # x L z : n VXVXBXMXMXCXCXMXMXMXMXMXMXMXDXGXGXGXGXGXGXGXGXGXGXGXGXGXGXGXGXGXGXGXGXGXGXGXGXGXGXGXKXMXMXMXMXMXMXMXMXMXMXMXMXMXMXMXMXMXMXMXMXMXMXMXMXMXMXMXGXGXGXGXGXGXGXGXGXGXGXGXGXGXGXGXGXGXGXGXGXGXGXGXGXGXGXKXMXMXMXMXMXMXMXMXMXMXMXMXMXMXMXMXMXMXMXMXMXMXMXMXMXMXMXGXGXGXGXGXGXGXGXGXGXGXGXGXGXGXGX",
"GXGXGXGXGXGXGXGXGXGXGXGXGXGXGXGXGXGXGXGXGXGXGXGXGXGXGXKXMXMXMXMXMXMXMXMXMXMXMXMXMXMXMXMXMXMXMXMXMXMXMXMXDXMXDXGXGXGXGXGXGXGXGXGXGXGXGXGXGXGXGXGXGXGXGXGXGXGXGXGXGXGXKXMXMXMXMXMXMXMXMXMXMXMXMXMXMXMXMXMXMXMXMXMXMXMXMXDXMXMXGXGXGXGXGXGXGXGXGXGXGXGXGXGXGXGXGXGXGXGXGXGXHXHXHXHXHXHXNXBXmXpXr.G.y.tX!.#.] t &.y.tX] w t @.q q f t ] ] !.=.5 5 5 t q t e q ] @.@.t t 0XU.4 $ 4 4 $ c e t t 5 q t t q w Y.G.5 # % # # 8 9 0 9 t 5 t w ` ` E.tX7 $ # # & 8 8 0 8 $ 7 o.[ ~.bXG.6 & & $ 8 9 $ $ & & 7 t r e 8 & 8 & - & = = & & # k k 8 = h vXVXDXLXMXMXMXMXMXMXNXMXMXMXDXGXGXGXGXGXGXGXGXGXGXGXGXGXGXGXGXGXGXGXGXGXGXGXGXGXGXGXKXMXMXMXMXMXMXMXMXMXMXMXMXMXMXMXMXMXMXMXMXMXMXMXMXMXMXMXGXGXGXGXGXGXGXGXGXGXGXGXGXGXGXGXGXGXGXGXGXGXGXGXGXGXGXKXMXMXMXMXMXMXMXMXMXMXMXMXMXMXMXMXMXMXMXMXMXMXMXMXMXMXMXGXGXGXGXGXGXGXGXGXGXGXGXGXGXGXGX",
"GXGXGXGXGXGXGXGXGXGXGXGXGXGXGXGXGXGXGXGXGXGXGXGXGXGXGXKXMXMXMXMXMXMXMXMXMXMXMXMXMXMXMXMXMXMXMXMXMXMXMXMXDXMXDXGXGXGXGXGXGXGXGXGXGXGXGXGXGXGXGXGXGXGXGXGXGXGXGXGXGXGXKXMXMXMXMXMXMXMXMXMXMXMXMXMXMXMXMXMXMXMXMXMXMXMXMXDXMXMXGXGXGXGXGXGXGXGXGXGXGXGXGXGXGXGXGXGXGXGXGXGXHXHXHXHXHXKXBXVXmX;XF.&.!.tXY.*.o.t @.E.tX] w q r &.t t t a @.!.G.5 7 4 5 q r R.w ` @.] ] w tXU.$ $ 4 4 0 4 @.@.g t &.OXt w w E.R.5 $ % * # - 9 v v t q R.y.` ` E.tX4 & % # % = 8 9 8 4 t T.[ [ rXI.6 & $ $ 8 8 $ $ % & 5 @.' w & % = $ % % = = % $ # k u = = , kXBXBXBXMXMXMXMXMXMXMXMXMXMXDXGXGXGXGXGXGXGXGXGXGXGXGXGXGXGXGXGXGXGXGXGXGXGXGXGXGXGXKXMXMXMXMXMXMXMXMXMXMXMXMXMXMXMXMXMXMXMXMXMXMXMXMXMXMXMXGXGXGXGXGXGXGXGXGXGXGXGXGXGXGXGXGXGXGXGXGXGXGXGXGXGXGXKXMXMXMXMXMXMXMXMXMXMXMXMXMXMXMXMXMXMXMXMXMXMXMXMXMXMXMXGXGXGXGXGXGXGXGXGXGXGXGXGXGXGXGX",
"GXGXGXGXGXGXGXGXGXGXGXGXGXGXGXGXGXGXGXGXGXGXGXGXGXGXGXKXMXMXMXMXMXMXMXMXMXMXMXMXMXMXMXMXMXMXMXMXMXMXMXMXDXMXMXGXGXGXGXGXGXGXGXGXGXGXGXGXGXGXGXGXGXGXGXGXGXGXGXGXGXGXKXMXMXMXMXMXMXMXMXMXMXMXMXMXMXMXMXMXMXMXMXMXMXMXMXDXMXMXGXGXGXGXGXGXGXGXGXGXGXGXGXGXGXGXGXGXGXGXGXGXHXHXHXHXHXDXVXVXmXU.G.-.OX!.>.[ y.&.o.W.!.` r w q =.R.w ` o.] !.Y.5 5 $ 5 5 @.rXrXy.` #.@.w tXG.$ $ 4 0 $ 5 e @.w R.rXW.` ` ` !.R.5 4 % # # # 4 5 q w ] tX;.` ` ~.tX4 6 # X # - - - - 4 5 !.>.>.rXOX4 $ - - - = = # # # t -.[ w $ % = - = * % % # $ # z u = = , 2XVXNXNXMXMXMXMXMXMXMXMXMXMXDXGXGXGXGXGXGXGXGXGXGXGXGXGXGXGXGXGXGXGXGXGXGXGXGXGXGXGXKXMXMXMXMXMXMXMXMXMXMXMXMXMXMXMXMXMXMXMXMXMXMXMXMXMXMXMXGXGXGXGXGXGXGXGXGXGXGXGXGXGXGXGXGXGXGXGXGXGXGXGXGXGXGXKXMXMXMXMXMXMXMXMXMXMXMXMXMXMXMXMXMXMXMXMXMXMXMXMXMXMXMXGXGXGXGXGXGXGXGXGXGXGXGXGXGXGXGX",
"GXGXGXGXGXGXGXGXGXGXGXGXGXGXGXGXGXGXGXGXGXGXGXGXGXGXGXKXMXMXMXMXMXMXMXMXMXMXMXMXMXMXMXMXMXMXMXMXMXMXMXMXDXMXMXGXGXGXGXGXGXGXGXGXGXGXGXGXGXGXGXGXGXGXGXGXGXGXGXGXGXGXKXMXMXMXMXMXMXMXMXMXMXMXMXMXMXMXMXMXMXMXMXMXMXMXMXDXMXMXGXGXGXGXGXGXGXGXGXGXGXGXGXGXGXGXGXGXGXGXGXGXHXHXHXHXHXDXVXVXbX&.R.-.!.!.>.[ W.y.o.!.!.w ] w ` !.rX] ` ;.+.!.-.q t 4 4 t ` #.mXtX] *.=.] tXG.4 4 4 0 4 5 q w ` rXtX] @.@.` !.R.5 4 $ # - - 4 5 q ] Y.rX` ` ` Y.tX5 4 & # # - - - - 4 t tX>.>.tX0X4 0 = - # # # # X $ r -.%.` 4 = = # # X X o % = # h = & - = =XBXBXNXMXMXMXMXMXMXMXMXMXMXDXGXGXGXGXGXGXGXGXGXGXGXGXGXGXGXGXGXGXGXGXGXGXGXGXGXGXGXKXMXMXMXMXMXMXMXMXMXMXMXMXMXMXMXMXMXMXMXMXMXMXMXMXMXMXMXGXGXGXGXGXGXGXGXGXGXGXGXGXGXGXGXGXGXGXGXGXGXGXGXGXGXGXKXMXMXMXMXMXMXMXMXMXMXMXMXMXMXMXMXMXMXMXMXMXMXMXMXMXMXMXGXGXGXGXGXGXGXGXGXGXGXGXGXGXGXGX",
"GXGXGXGXGXGXGXGXGXGXGXGXGXGXGXGXGXGXGXGXGXGXGXGXGXGXGXKXMXMXMXMXMXMXMXMXMXMXMXMXMXMXMXMXMXMXMXMXMXMXMXMXDXMXDXGXGXGXGXGXGXGXGXGXGXGXGXGXGXGXGXGXGXGXGXGXGXGXGXGXGXGXKXMXMXMXMXMXMXMXMXMXMXMXMXMXMXMXMXMXMXMXMXMXMXMXMXDXMXMXGXGXGXGXGXGXGXGXGXGXGXGXGXGXGXGXGXGXHXHXHXHXHXHXHXGXGXZXZXVXrX&.E.-.!.!.>.>.!.-.] !.!.` ` ` ` :.bX=.` -.-.tX#.q 5 0 4 q ' #.rXtX` :.-.] mXQ.$ 8 4 0 4 e r w ] bX!.] &.&.` !.G.5 4 - # - - 8 5 q ` !.rX] ` ` =.tXq 4 % # X # # # $ 4 X.rX>.>.tXtX5 4 8 - X * % X % $ w ] [ ` 4 = 8 # # + O X X = # h = % # , ~ VXBXDXMXMXMXMXMXMXMXMXMXMXDXGXGXGXGXGXGXGXGXGXGXGXGXGXGXGXGXGXGXGXGXGXGXGXGXGXGXGXKXMXMXMXMXMXMXMXMXMXMXMXMXMXMXMXMXMXMXMXMXMXMXMXMXMXMXMXGXGXGXGXGXGXGXGXGXGXGXGXGXGXGXGXGXGXGXGXGXGXGXGXGXGXGXKXMXMXMXMXMXMXMXMXMXMXMXMXMXMXMXMXMXMXMXMXMXMXMXMXMXMXMXGXGXGXGXGXGXGXGXGXGXGXGXGXGXGXGX",
"GXGXGXGXGXGXGXGXGXGXGXGXGXGXGXGXGXGXGXGXGXGXGXGXGXGXGXKXMXMXMXMXMXMXMXMXMXMXMXMXMXMXMXMXMXMXMXMXMXMXMXMXDXMXDXGXGXGXGXGXGXGXGXGXGXGXGXGXGXGXGXGXGXGXGXGXGXGXGXGXGXGXKXMXMXMXMXMXMXMXMXMXMXMXMXMXMXMXMXMXMXMXMXMXMXMXMXDXMXMXGXGXGXGXGXGXGXGXGXGXGXGXGXGXGXGXGXGXHXHXHXHXHXHXGXGXGXZXVXmXtX-.E.;.OX;.>.:.tXT.#.!.!.` ] ` ` [ mX-.` @.#.tX-.q 5 0 0 q w #.bXT.[ ~.] &.mXXX$ 0 5 e 4 5 w w ] rX!.] =.-.` !.-.e 4 $ # - # $ 4 e ] !.tX' ] ] Y.tX5 4 # # X % # # # $ y.aX~.>.tXtXe 4 8 - X X X X - $ q [ %.@.4 # = - * o O O * % X : h = = h Q BXBXBXMXMXMXMXMXMXMXMXMXMXDXGXGXGXGXGXGXGXGXGXGXGXGXGXGXGXGXGXGXGXGXGXGXGXGXGXGXGXKXMXMXMXMXMXMXMXMXMXMXMXMXMXMXMXMXMXMXMXMXMXMXMXMXMXMXMXGXGXGXGXGXGXGXGXGXGXGXGXGXGXGXGXGXGXGXGXGXGXGXGXGXGXGXKXMXMXMXMXMXMXMXMXMXMXMXMXMXMXMXMXMXMXMXMXMXMXMXMXMXMXMXGXGXGXGXGXGXGXGXGXGXGXGXGXGXGXGX",
"GXGXGXGXGXGXGXGXGXGXGXGXGXGXGXGXGXGXGXGXGXGXGXGXGXGXGXKXMXMXMXMXMXMXMXMXMXMXMXMXMXMXMXMXMXMXMXMXMXMXMXMXDXMXDXGXGXGXGXGXGXGXGXGXGXGXGXGXGXGXGXGXGXGXGXGXGXGXGXGXGXGXKXMXMXMXAXMXMXMXMXMXMXMXMXMXMXMXMXMXMXMXMXMXMXMXMXDXMXMXGXGXGXGXGXGXGXGXGXGXGXGXGXGXGXGXGXGXHXHXGXHXHXHXGXGXGXKXVXVX0X-.Y.=.OXE.[ >.rXy.#.!.E.` ` ` ` -.rX@.] &.@.tX-.5 5 4 5 r q W.tX#.] y.` &.mXI.# 6 0 5 4 5 w ` #.tX!.` y.&.w !.=.t 4 & $ & # 4 4 e w E.rX' ` ` Y.tX5 9 & % o X X # - 6 X.bX!.>.!.OX5 4 & : O   X X % $ q ' [ ] 4 $ - - # X o o * # % h h * = , Z VXBXBXBXMXMXMXMXMXMXMXMXMXDXGXGXGXGXGXGXGXGXGXGXGXGXGXGXGXGXGXGXGXGXGXGXGXGXGXGXGXKXMXMXMXMXMXMXMXMXMXMXMXMXMXMXMXMXMXMXMXMXMXMXMXMXMXMXMXGXGXGXGXGXGXGXGXGXGXGXGXGXGXGXGXGXGXGXGXGXGXGXGXGXGXGXKXMXMXMXMXMXMXMXMXMXMXMXMXMXMXMXMXMXMXMXMXMXMXMXMXMXMXMXGXGXGXGXGXGXGXGXGXGXGXGXGXGXGXGX",
"GXGXGXGXGXGXGXGXGXGXGXGXGXGXGXGXGXGXGXGXGXGXGXGXGXGXGXKXMXMXMXMXMXMXMXMXMXMXMXMXMXMXMXMXMXMXMXMXMXMXMXMXDXMXDXGXGXGXGXGXGXGXGXGXGXGXGXGXGXGXGXGXGXGXGXGXGXGXGXGXGXGXKXMXMXMXMXMXMXMXMXMXMXMXMXMXMXMXMXMXMXMXMXMXMXMXMXDXMXMXGXGXGXGXGXGXGXGXGXGXGXGXGXGXGXGXGXGXHXHXGXGXHXHXGXGXHXKXVXVXI.-.G.y.rX*.!.E.OXy.] !.;.w w w w !.W.t t &.@.!.&.5 5 7 q q a OX] ` ` +.` y.mXoX$ 4 5 4 4 4 t ] +.!.!.o.X.a w W...5 $ # $ $ # 6 7 t q +.tX+.` w y.!.5 7 $ # # # # # $ 4 f aXE.[ !.tX5 7 # = o   o X X $ q ] [ ' 4 & 8 $ # X % % % % * : h - : , n VXZXBXBXMXMXMXMXMXMXMXMXMXDXGXGXGXGXGXGXGXGXGXGXGXGXGXGXGXGXGXGXGXGXGXGXGXGXGXGXGXKXMXMXMXMXMXMXMXMXMXMXMXMXMXMXMXMXMXMXMXMXMXMXMXMXMXMXMXGXGXGXGXGXGXGXGXGXGXGXGXGXGXGXGXGXGXGXGXGXGXGXGXGXGXGXKXMXMXMXMXMXMXMXMXMXMXMXMXMXMXMXMXMXMXMXMXMXMXMXMXMXMXMXGXGXGXGXGXGXGXGXGXGXGXGXGXGXGXGX",
"GXGXGXGXGXGXGXGXGXGXGXGXGXGXGXGXGXGXGXGXGXGXGXGXGXGXGXKXMXMXMXMXMXMXMXMXMXMXMXMXMXMXMXMXMXMXMXMXMXMXMXMXDXMXDXGXGXGXGXGXGXGXGXGXGXGXGXGXGXGXGXGXGXGXGXGXGXGXGXGXGXGXKXMXMXMXMXMXMXMXMXMXMXMXMXMXMXMXMXMXMXMXMXMXMXMXMXDXMXMXGXGXGXGXGXGXGXGXGXGXGXGXGXGXGXGXGXGXHXGXGXGXHXGXHXHXGXHXNXmXU.&.K.W.tX#.~.!.tXG.f OX&.w q t t OX..w X.t.&.W.X.5 7 5 q q u.OX+.+.o.a t 6.+Xu.p p p 7 6 7 a o.O.A.OXw.p a  .A.q.,.1.s y 6 $ & 6 7 q ` w...o.o.6.u.a a 7 $ # X # $ 4 4 p OXY.+.Y.!.5 $ 6 & X X X X # $ 5 @.-.@.4 $ 6 $ # # # & = % # # n : , , l vXBXNXBXMXMXMXMXMXMXMXMXMXDXGXGXGXGXGXGXGXGXGXGXGXGXGXGXGXGXGXGXGXGXGXGXGXGXGXGXGXKXMXMXMXMXMXMXMXMXMXMXMXMXMXMXMXMXMXMXMXMXMXMXMXMXMXMXMXGXGXGXGXGXGXGXGXGXGXGXGXGXGXGXGXGXGXGXGXGXGXGXGXGXGXGXKXMXMXMXMXMXMXMXMXMXMXMXMXMXMXMXMXMXMXMXMXMXMXMXMXMXMXMXGXGXGXGXGXGXGXGXGXGXGXGXGXGXGXGX",
"GXGXGXGXGXGXGXGXGXGXGXGXGXGXGXGXGXGXGXGXGXGXGXGXGXGXGXKXMXMXMXMXMXMXMXMXMXMXMXMXMXMXMXMXMXMXMXMXMXMXMXMXDXMXDXGXGXGXGXGXGXGXGXGXGXGXGXGXGXGXGXGXGXGXGXGXGXGXGXGXGXGXKXMXMXMXMXMXMXMXMXMXMXMXMXMXMXMXMXMXMXMXMXMXMXMXMXDXMXMXGXGXGXGXGXGXGXGXGXGXGXGXGXGXGXGXGXGXGXGXGXGXHXGXHXHXHXKXNXmXI.G.I.K.G.@.] W.K.F.oXr.p X.a p a y.o.o.X.X.o.o.o.6.A.A.q.q.z.Z.b.g.Z.z.}.Z.|.|.|.|.|.}.}.}.}.}.Z.Z.}.'.|.|.|.|.|.|.|.|.|.|.}.}.'.'.Z.'.'.}.}.}.|.|.|.|.|.oX1.s s a a a a 4.A.h.h.h.w.u.s p & # $ # $ 4 g &.&.&.y i x i # # # 6 # # = h n = % % , 2XNXBXBXBXMXMXMXMXMXMXMXMXDXGXGXGXGXGXGXGXGXGXGXGXGXGXGXGXGXGXGXGXGXGXGXGXGXGXGXGXKXMXMXMXMXMXMXMXMXMXMXMXMXMXMXMXMXMXMXMXMXMXMXMXMXMXMXMXGXGXGXGXGXGXGXGXGXGXGXGXGXGXGXGXGXGXGXGXGXGXGXGXGXGXGXKXMXMXMXMXMXMXMXMXMXMXMXMXMXMXMXMXMXMXMXMXMXMXMXMXMXMXMXGXGXGXGXGXGXGXGXGXGXGXGXGXGXGXGX",
"GXGXGXGXGXGXGXGXGXGXGXGXGXGXGXGXGXGXGXGXGXGXGXGXGXGXGXKXMXMXMXMXMXMXMXMXMXMXMXMXMXMXMXMXMXMXMXMXMXMXMXMXDXMXDXGXGXGXGXGXGXGXGXGXGXGXGXGXGXGXGXGXGXGXGXGXGXGXGXGXGXGXKXMXMXMXMXMXMXMXMXMXMXMXMXMXMXMXMXMXMXMXMXMXMXMXMXDXMXMXGXGXGXGXGXGXGXGXGXGXGXGXGXGXGXGXGXGXGXGXGXGXHXGXHXHXHXSXCXNXeX0XtXXXI.0X0XF.c D.J.K.f t.o.s X.a a o.a { 6.w.w.A.Z.l.Z.}.Z.'.}.}.}.}.'.'.`.{.`.`.{.{.{.{.{.|.|.{.|.{.{.{.].[.{.].[.{.{.{.{.|.|.|.|.{.{.|.{.{.`.`.`.{.{.{.|.|.|.|.|.|.|.'.}.}.}.V.}.'.}.Z.w.w.,...1.X.g t 5 7 6 6 i y i m x N k Y I.XXH.G G G Q 4XNXBXBXBXMXMXMXMXNXNXMXMXDXGXGXGXGXGXGXGXGXGXGXGXGXGXGXGXGXGXGXGXGXGXGXGXGXGXGXGXKXMXMXMXMXMXMXMXMXMXMXMXMXMXMXMXMXMXMXMXMXMXMXMXMXMXMXMXGXGXGXGXGXGXGXGXGXGXGXGXGXGXGXGXGXGXGXGXGXGXGXGXGXGXGXKXMXMXMXMXMXMXMXMXMXMXMXMXMXMXMXMXMXMXMXMXMXMXMXMXMXMXMXGXGXGXGXGXGXGXGXGXGXGXGXGXGXGXGX",
"GXGXGXGXGXGXGXGXGXGXGXGXGXGXGXGXGXGXGXGXGXGXGXGXGXGXGXKXMXMXMXMXMXMXMXMXMXMXMXMXMXMXMXMXMXMXMXMXMXMXMXMXDXMXDXGXGXGXGXGXGXGXGXGXGXGXGXGXGXGXGXGXGXGXGXGXGXGXGXGXGXGXKXMXMXMXMXMXMXMXMXMXMXMXMXMXMXMXMXMXMXMXMXMXMXMXMXDXMXMXGXGXGXGXGXGXGXGXGXGXGXGXGXGXGXGXGXGXGXGXGXGXGXGXHXHXHXSXCXNXVXmXVXaXbXaXeXD.i k i d t.t.o.X.s p p a } } w.5.7.d.f.k.l.M.'.C.V././.(./.`.`.|.|.`.{.].{.{._.].[.).].[._.[.]._.].[.].[.]._.].[.`.`.].).].`._._.].]._._._.`.`.`.`.).).).^./.(.^.^.C.B.(.M.M.l.z.d.h.w.{ s p 7 y y 6 7 7 d r.f r.B ,X0XP.eXeXzXnXvXNXKXNXBXMXMXBXMXMXNXNXMXMXDXGXGXGXGXGXGXGXGXGXGXGXGXGXGXGXGXGXGXGXGXGXGXGXGXGXGXGXKXMXMXMXMXMXMXMXMXMXMXMXMXMXMXMXMXMXMXMXMXMXMXMXMXMXMXMXGXGXGXGXGXGXGXGXGXGXGXGXGXGXGXGXGXGXGXGXGXGXGXGXGXGXGXKXMXMXMXMXMXMXMXMXMXMXMXMXMXMXMXMXMXMXMXMXMXMXMXMXMXMXMXGXGXGXGXGXGXGXGXGXGXGXGXGXGXGXGX",
"GXGXGXGXGXGXGXGXGXGXGXGXGXGXGXGXGXGXGXGXGXGXGXGXGXGXGXKXMXMXMXDXMXMXMXMXMXMXMXMXMXMXMXMXMXMXMXMXDXMXMXMXMXMXMXGXGXGXGXGXGXGXGXGXGXGXGXGXGXGXGXGXGXGXGXGXGXGXGXGXGXGXKXMXMXMXMXMXMXMXMXMXMXMXMXMXMXMXMXMXMXMXMXMXMXMXMXMXMXDXKXGXGXGXGXGXGXGXGXGXGXGXGXGXGXGXGXGXGXGXGXGXGXGXGXGXGXKXCXNXBXVXVXZXZXVXnXBXmXmXB e.u.t.<.a s e.f f } ,.3.3.7.d.l.j.j.'.B.B.^.^././.`.`.{.|.+X+X+X|.|.|.{.{.[.).]._.].].].].].].].]._._._.].].]._._._._._._._._._._.).).).).).)./././././././.^.(.M.M.l.l.0.d.3.6.,.{ f y 6 & 6 i g d r.s e.D.mXnXMXBXBXBXBXBXBXLXLXMXMXMXMXMXMXMXMXMXMXLXGXGXGXKXGXGXGXGXGXGXGXGXGXGXGXGXGXGXGXGXGXGXGXGXGXGXGXKXDXMXMXMXMXMXMXMXMXMXMXMXMXMXMXMXMXMXMXMXMXMXMXMXMXMXDXKXGXGXGXGXGXGXGXGXGXGXGXGXGXGXGXGXGXGXGXGXGXGXGXGXGXGXKXMXMXMXMXMXMXMXMXMXMXMXMXMXMXMXMXMXMXMXMXMXMXMXMXMXMXMXGXGXGXGXGXGXGXGXGXGXGXGXGXGXGXGX",
"GXGXGXGXGXGXGXGXGXGXGXGXGXGXGXGXGXGXGXGXGXGXGXGXGXGXGXKXMXMXMXDXMXMXMXMXMXMXMXMXMXMXMXMXMXMXMXMXMXMXMXDXDXMXDXGXGXGXGXGXGXGXGXGXGXGXGXGXGXGXGXGXGXGXGXGXGXGXGXGXGXGXKXDXMXLXDXDXMXMXMXMXMXMXMXMXMXMXMXMXMXMXMXMXDXKXDXMXMXDXKXGXGXGXGXGXGXGXGXGXGXGXGXGXGXGXGXGXGXGXGXGXGXGXGXGXGXKXDXMXMXMXMXMXLXMXDXCXBXmXJ.K.OXK.1.s s m t.t.1.6.3.5.7.0.d.s.k.'.B.B.^.^.^././.'.'.+XsXsXsX+X+X+X|.{.].)._._.).)._._._.].].]._.].].].]._._._._._._._._._.).)._._.).).).)./././.^.^.(.(.(.B.M.M.j.l.p.d.,.6.,.} } y y u k x x g <.t.K.D.mXZXCXSXMXMXMXMXMXMXMXMXMXMXMXMXMXMXMXDXMXDXGXGXGXGXGXGXGXGXGXGXGXGXGXGXGXGXGXGXGXGXGXGXGXGXGXGXHXKXMXMXMXMXMXMXMXMXMXMXMXMXMXMXMXMXMXMXMXMXMXMXMXMXMXMXDXGXGXGXGXKXKXGXGXGXGXGXGXGXGXGXGXGXGXGXGXGXGXGXGXGXGXGXKXDXDXMXMXMXMXMXMXMXMXMXMXMXMXMXMXMXMXMXMXMXMXMXMXMXMXMXGXGXKXGXGXGXGXGXGXGXGXGXGXGXGXGX",
"GXGXGXGXGXGXGXGXGXGXGXGXGXGXGXGXGXGXGXGXGXGXGXGXGXGXGXKXMXMXMXMXMXMXMXMXMXMXMXMXMXMXMXMXMXMXMXMXMXMXMXDXDXMXMXGXGXGXGXGXGXGXGXGXGXGXGXGXGXGXGXGXGXGXGXGXGXGXGXGXGXGXKXMXMXMXMXMXMXMXMXMXMXMXMXMXMXMXMXMXMXMXMXMXMXDXAXMXMXDXKXGXGXGXGXGXGXGXGXGXGXGXGXGXGXGXGXGXGXGXGXGXGXGXGXGXGXKXMXMXMXMXMXMXNXMXDXnXVXpXXXI.OXW.u.t.t.t.m e.w.6.3.5.7.q.p.s.l.B.M.m.^.B.(./.`.'.}.+XsXsXsXsXsX+X|.{.`.`._._.).)._._._.].].].].].].].].]._._.).).).).).).).).).).).)./././.(./.^.^.(.B.B.M.M.c.j.l.d.q.| | ,.} } y y u k x x f V K.K.F.bXMXCXCXMXMXMXMXMXMXMXMXMXMXMXMXMXMXMXMXMXMXKXGXGXGXGXGXGXGXGXGXGXGXGXGXGXGXGXGXGXGXGXGXGXGXGXGXGXKXMXMXMXMXMXMXMXMXMXMXMXMXMXMXMXMXMXMXMXMXMXMXMXMXMXMXDXGXGXGXGXGXGXGXGXGXGXGXGXGXGXGXGXGXGXGXGXGXGXGXGXGXGXGXKXLXMXMXMXMXMXMXMXMXMXMXMXMXMXMXMXMXMXMXMXMXMXMXMXMXMXMXGXGXGXGXGXGXGXGXGXGXGXGXGXGXGXGX",
"GXGXGXGXGXGXGXGXGXGXGXGXGXGXGXGXGXGXGXGXGXGXGXGXGXGXGXDXMXMXMXMXMXMXMXMXMXMXMXMXMXMXMXMXMXMXMXMXMXDXDXMXMXMXMXGXGXGXGXGXGXGXGXGXGXGXGXGXGXGXGXGXGXGXGXGXGXGXGXGXGXGXKXAXMXMXMXMXMXMXMXMXMXMXMXMXMXMXMXMXMXMXMXMXMXMXDXAXMXDXKXGXGXGXGXGXGXGXGXGXGXGXGXGXGXGXGXGXGXGXGXGXGXGXGXGXGXKXMXMXDXDXMXMXNXNXCXnXVX,XXXoXoXK.u.t.t.e.m t.1.,.,.3.5.7.p.s.l.M.c.m.B.m.(./.`.'.}.+XsXsXsXsXsX+X|.`.{.`.)._._._._._._._.].].].].].].]._._.`.`.`.).).).).).).).).).)./././.(././.^.B.B.B.M.l.l.j.z.d.q.| | | { } y y u j d d V t.u.u.F.eXnXCXMXMXMXMXMXMXMXMXMXMXMXMXMXMXMXMXMXMXDXKXGXGXGXGXGXGXGXGXGXGXGXGXGXGXGXGXGXGXGXGXGXGXGXGXGXGXKXMXMXMXMXMXMXMXMXMXMXMXMXMXMXMXMXMXMXMXMXMXMXMXMXMXMXDXGXGXGXGXGXGXGXGXGXGXGXGXGXGXGXGXGXGXGXGXGXGXGXGXGXGXHXDXMXMXMXMXMXMXMXMXMXMXMXMXMXMXMXMXMXMXMXMXMXMXMXMXMXMXMXGXGXGXGXGXGXGXGXGXGXGXGXGXGXGXGX",
"GXGXGXGXGXGXGXGXGXGXGXGXGXGXGXGXGXGXGXGXGXGXGXGXGXGXKXDXMXMXDXDXMXMXMXMXMXMXMXMXMXMXMXMXMXMXMXMXMXDXDXMXMXMXDXGXGXGXGXGXGXGXGXGXGXGXGXGXGXGXGXGXGXGXGXGXGXGXGXGXGXGXKXMXMXDXDXDXMXMXMXMXMXMXMXMXMXMXMXMXMXMXMXMXMXDXDXLXMXDXKXGXGXGXGXGXGXGXGXGXGXGXGXGXGXGXGXGXGXGXGXGXGXGXGXGXGXKXMXMXDXLXDXLXKXNXMXCXZXXXI.oXoXu.t.e.e.m e.t.1.6.,. .3.0.d.d.l.c.c.m.B.m.(.`.(.'.}.+XsXsXsXsXsX+X|.`.{.`.).).`.`.`.`.`.`.`.).`.`._.)._.`.`.`.`.).).).).).).).).).).).).).)././.^.^.B.(.M.M.j.k.j.l.p.q.3.,.} { 2.y i u i i d V t.e.t.F.;XVXMXMXMXMXMXMXMXMXMXMXMXMXMXMXMXMXMXMXMXKXGXGXGXGXKXGXGXGXGXGXGXGXGXGXGXGXGXGXGXGXGXHXGXGXGXGXGXKXMXMXMXMXMXMXMXMXMXMXMXMXMXMXMXMXMXMXMXMXMXMXMXMXMXMXKXGXGXGXKXGXGXGXGXGXGXGXGXGXGXGXGXGXGXGXGXGXGXGXKXGXGXGXKXDXMXMXMXMXMXMXMXMXMXMXMXMXMXMXMXMXMXMXMXMXMXMXMXMXMXMXKXGXGXGXGXKXGXGXGXGXGXGXGXGXGXGX",
"GXGXGXGXGXGXGXGXGXGXGXGXGXGXGXGXGXGXGXGXGXGXGXGXGXGXGXKXDXMXMXMXMXMXMXMXMXMXMXMXMXMXMXMXMXMXMXMXMXMXMXNXMXMXDXGXGXGXGXGXGXGXGXGXGXGXGXGXGXGXGXGXGXGXGXGXGXGXGXGXGXGXKXMXMXMXMXMXMXMXMXMXMXMXMXMXMXMXMXMXMXMXMXMXMXMXMXNXMXDXGXGXGXGXGXGXGXGXGXGXGXGXGXGXGXGXGXGXGXGXGXGXGXGXGXGXGXKXMXMXMXMXMXMXLXNXNXZXnX.XK.oXK.u.u.t.t.e.f <.2.1.,.| 3.q.z.s.j.l.k.M.m.M.(./.(.'.|.+XsXsXsXsXsX+X|.`.`.`.).).).).).`.`.`.).).`._._._._._.`.`.).).).).).).).).).).).).).)././.^.^.B.B.B.B.M.f.s.f.s.0.7.3.,.| a X.y i u i i d f V t.K.r.J.ZXNXMXMXMXMXMXMXMXMXMXMXMXMXMXMXMXMXMXMXDXKXGXGXGXGXGXGXGXGXGXGXGXGXGXGXGXGXGXGXGXGXGXGXGXGXGXGXKXMXMXMXMXMXMXMXMXMXMXMXMXMXMXMXMXMXMXMXMXMXMXMXMXMXMXDXKXGXGXGXGXGXGXGXGXGXGXGXGXGXGXGXGXGXGXGXGXGXGXGXGXGXGXKXMXMXMXMXMXMXMXMXMXMXMXMXMXMXMXMXMXMXMXMXMXMXMXMXMXMXMXHXGXGXGXGXGXGXGXGXGXGXGXGXGXGXGX",
"KXKXGXGXGXGXGXGXGXGXGXGXGXGXGXGXKXKXGXGXGXGXGXGXGXGXGXKXKXDXDXMXDXDXDXDXDXDXDXDXDXDXDXDXDXDXDXDXMXKXDXMXDXDXDXKXGXGXGXGXGXGXGXGXGXGXGXGXKXKXHXGXKXKXGXGXGXGXGXGXKXGXKXDXDXDXMXMXDXDXDXDXDXDXDXDXDXDXDXDXDXDXDXDXMXMXMXMXDXKXKXGXGXGXGXGXKXKXHXGXKXKXGXGXGXGXGXGXGXGXGXGXGXGXGXGXKXDXDXDXDXMXMXDXLXBXNXZXpXP.J.oXW.u.t.e.e.m f X.2.2.,.,.3.q.d.s.j.j.k.c.M.M.(.(.`.}.|.+XsXsXsXsX+X+X|.`.`.`.`.).).).)._._._._._._._._.]._._._._.)._.).).).).).).).)././././././.^.^.B.m.M.M.l.s.s.s.p.0.4.,.,.2.a s y i u i i d f f t.K.r.D.mXVXNXMXMXMXMXMXMXMXDXDXDXDXDXDXDXDXMXDXDXKXKXGXGXGXGXGXGXGXKXKXHXGXGXGXGXGXGXGXGXGXKXGXGXKXKXKXKXKXDXDXDXDXDXDXDXDXDXDXDXDXDXDXDXDXDXDXDXDXDXDXDXDXDXDXKXKXGXGXGXGXGXGXGXGXKXKXGXGXGXGXGXGXGXGXGXGXGXGXKXKXKXKXDXDXDXDXDXDXDXDXDXDXDXDXDXDXDXDXDXDXDXDXDXDXDXDXDXDXKXGXKXKXGXGXKXGXGXGXGXGXGXGXGXGXGX",
"MXMXDXDXDXDXDXDXDXDXDXMXDXDXDXDXMXMXDXDXDXDXDXDXMXLXDXKXKXGXGXGXGXGXGXGXGXGXGXGXGXGXGXGXGXGXGXGXGXGXGXGXGXGXKXKXDXDXDXMXDXDXDXDXDXDXDXDXMXMXDXDXMXMXDXDXDXDXDXDXMXKXKXKXGXGXGXKXGXGXGXGXGXGXGXGXGXGXGXGXGXGXGXGXGXGXGXGXGXKXDXMXDXDXDXDXMXMXDXDXMXMXDXDXDXDXDXDXDXDXDXMXDXDXDXDXKXKXHXGXGXKXGXGXHXGXFXFXeXXXK.OXK.u.t.e.e.e.m X.1.2.,.,.4.7.0.p.j.l.l.M.m.B.`.(.(.'.|.+X+X+X+X+X+X+X|.{.{._.].)._._._._._._.).)._._._._._.).).`.).).).).).).).).).).)././././././.^.B.m.M.M.l.p.s.a.p.q.3.| } ,.a s y i i i i d d f t.t.F.r.aXFXHXGXGXGXGXGXGXGXGXGXGXGXGXGXGXGXGXGXKXDXDXDXMXMXDXDXDXDXMXMXDXDXDXDXDXDXDXDXDXDXMXDXDXMXMXDXKXKXGXGXGXGXGXGXGXGXGXGXGXGXGXGXGXGXGXGXGXGXGXGXGXGXGXKXDXMXMXMXMXMXDXDXDXDXMXDXDXDXDXDXDXDXDXDXDXDXDXMXMXDXKXKXKXGXGXGXGXGXGXGXGXGXGXGXGXGXGXGXGXGXGXGXGXGXGXGXGXGXKXKXMXMXDXMXMXMXDXDXDXMXDXDXDXDXDX",
"MXMXMXMXMXMXMXMXMXMXMXMXMXMXMXMXMXMXMXMXMXMXMXMXMXMXDXKXGXGXGXGXGXGXGXGXGXGXGXGXGXGXGXGXGXGXGXGXGXGXGXGXGXGXGXMXMXMXMXMXMXMXMXMXMXMXMXMXMXMXMXMXMXMXMXMXMXMXMXMXMXMXKXGXGXGXGXGXGXGXGXGXGXGXGXGXGXGXGXGXGXGXGXGXGXGXGXKXGXGXMXMXMXMXMXMXMXMXMXMXMXMXMXMXMXMXMXMXMXMXMXMXMXMXMXMXMXKXGXGXGXGXGXGXGXKXHXFX,XJ.oXoXK.y.t.e.e.m m e.2.2.} ,.5.z.0.s.s.l.c.B.(.(./.(./.{.|.+X+X+X+X+X+X+X|.`.`._._.).).`.)._._._._._._._._._._.`.`.`.).).).).).).).).).).).)././././.^.V.N.B.B.Z.k.a.a.s.z.0.q.| } 1.a a g 6 j i j i d d e.e.F.D.;XFXHXGXGXGXGXGXGXGXGXGXGXGXGXGXGXGXGXGXGXDXMXMXMXMXMXMXMXMXMXMXMXMXMXMXMXMXMXMXMXMXMXMXMXMXMXMXKXGXGXGXGXGXGXGXGXGXGXGXGXGXGXGXGXGXGXGXGXGXGXGXGXGXGXGXMXMXDXMXMXMXMXMXMXMXMXMXMXMXMXMXMXMXMXMXMXMXMXMXMXMXDXKXGXGXGXGXGXGXGXGXGXGXGXGXGXGXGXGXGXGXGXGXGXGXGXGXGXGXGXDXMXDXMXMXMXMXMXMXMXMXMXMXMXMXMX",
"MXMXMXMXMXMXMXMXMXMXMXMXMXMXMXMXMXMXMXMXMXMXMXMXMXMXDXKXGXGXGXGXGXGXGXGXGXGXGXGXGXGXGXGXGXGXGXGXGXGXGXGXGXGXGXMXMXMXMXMXMXMXMXMXMXMXMXMXMXMXMXMXMXMXMXMXMXMXMXMXMXMXKXGXGXGXGXGXGXGXGXGXGXGXGXGXGXGXGXGXGXGXGXGXGXGXGXKXGXGXMXMXMXMXMXMXMXMXMXMXMXMXMXMXMXMXMXMXMXMXMXMXMXMXMXMXMXKXGXGXGXGXGXGXGXFXFXZXXXJ.oXQ.K.u.t.e.e.m f <.2.2.} ,.5.z.d.s.s.c.M.(.(.(./.(.`.`.'.+X+X+X+X+X+X+X|.`._.)._.).`.`.`.).).).)._._._.).)._.).`.`.).).).).).).).).).).).)././././.^.V.V.B.B.Z.j.a.a.s.d.8.q. .} 2.a a p 6 i i i i d d e.e.J.F.XXFXFXGXGXGXGXGXGXGXGXGXGXGXGXGXGXGXGXGXGXDXMXMXMXMXMXMXMXMXMXMXMXMXMXMXMXMXMXMXMXMXMXMXMXMXMXMXKXGXGXGXGXGXGXGXGXGXGXGXGXGXGXGXGXGXGXGXGXGXGXGXGXGXGXGXMXMXDXMXMXMXMXMXMXMXMXMXMXMXMXMXMXMXMXMXMXMXMXMXMXMXDXKXGXGXGXGXGXGXGXGXGXGXGXGXGXGXGXGXGXGXGXGXGXGXGXGXGXGXGXDXMXDXMXMXMXMXMXMXMXMXMXMXMXMXMX",
"MXMXMXMXMXMXMXMXMXMXMXMXMXMXMXMXMXMXMXMXMXMXMXMXMXMXDXKXGXGXGXGXGXGXGXGXGXGXGXGXGXGXGXGXGXGXGXGXGXGXGXGXGXGXGXMXMXMXMXMXMXMXMXMXMXMXMXMXMXMXMXMXMXMXMXMXMXMXMXMXMXMXKXGXGXGXGXGXGXGXGXGXGXGXGXGXGXGXGXGXGXGXGXGXGXGXGXGXGXGXMXMXMXMXMXMXMXMXMXMXMXMXMXMXMXMXMXMXMXMXMXMXMXMXMXMXMXKXGXGXGXGXGXGXHXFXFXmX.XJ.oXW.K.r.t.m e.m f X.} | } ,.q.z.d.s.s.M.M.(.m.m./.`.`.`.}.+X+XsX+X+X+X+X|.`._.).).).).).`.).).).).).).).).).).).).).).).).).).).)./.).).).)././././.^.C.^.B.C.Z.f.s.s.s.0.q.5.,.} 2.a a p 6 u i i i d d m e.K.F.J.VXFXGXGXGXGXGXGXGXGXGXGXGXGXGXGXGXGXGXKXLXMXMXLXMXMXMXMXMXMXMXMXMXMXMXMXMXMXMXMXMXMXMXMXMXMXMXKXGXGXGXGXGXGXGXGXGXGXGXGXGXGXGXGXGXGXGXGXGXGXGXGXGXGXGXMXMXDXMXMXMXMXMXMXMXMXMXMXMXMXMXMXMXMXMXMXMXMXMXMXMXDXKXGXGXGXGXGXGXGXGXGXGXGXGXGXGXGXGXGXGXGXGXGXGXGXGXGXGXGXAXMXLXMXMXMXMXMXMXMXMXMXMXMXMXMX",
"MXMXMXMXMXMXMXMXMXMXMXMXMXMXMXMXMXMXMXMXMXMXMXMXMXMXDXKXGXGXGXGXGXGXGXGXGXGXGXGXGXGXGXGXGXGXGXGXGXGXGXGXGXGXGXMXMXMXMXMXMXMXMXMXMXMXMXMXMXMXMXMXMXMXMXMXMXMXMXMXMXMXKXGXGXGXGXGXGXGXGXGXGXGXGXGXGXGXGXGXGXGXGXGXGXGXGXGXGXGXMXMXMXMXMXMXMXMXMXMXMXMXMXMXMXMXMXMXMXMXMXMXMXMXMXMXMXKXGXGXGXGXGXGXGXGXFXpX.XK.OXK.K.r.e.m m m f X.} } } | q.z.p.p.s.c.M.B.M.M./.`.`.`.}.+X+X+X+X+X+X+X|.`._.).).).).).).).).).).).).).).).).).).).).).).).).).).).).)./././././././.B.^.B.C.Z.f.f.f.s.0.q.3.,.} 2.a s g 6 i i i i i d m m K.F.D.mXFXGXGXGXGXGXGXGXGXGXGXGXGXGXGXGXGXGXGXLXMXMXMXMXMXMXMXMXMXMXMXMXMXMXMXMXMXMXMXMXMXMXMXMXMXMXKXGXGXGXGXGXGXGXGXGXGXGXGXGXGXGXGXGXGXGXGXGXGXGXGXGXGXGXMXMXDXMXMXMXMXMXMXMXMXMXMXMXMXMXMXMXMXMXMXMXMXMXMXMXDXKXGXGXGXGXGXGXGXGXGXGXGXGXGXGXGXGXGXGXGXGXGXGXGXGXGXGXGXAXMXLXMXMXMXMXMXMXMXMXMXMXMXMXMX",
"MXMXMXMXMXMXMXMXMXMXMXMXMXMXMXMXMXMXMXMXMXMXMXMXMXMXDXKXGXGXGXGXGXGXGXGXGXGXGXGXGXGXGXGXGXGXGXGXGXGXGXGXGXGXGXMXMXMXMXMXMXMXMXMXMXMXMXMXMXMXMXMXMXMXMXMXMXMXMXMXMXMXKXGXGXGXGXGXGXGXGXGXGXGXGXGXGXGXGXGXGXGXGXGXGXGXGXGXGXGXMXMXMXMXMXMXMXMXMXMXMXMXMXMXMXMXMXMXMXMXMXMXMXMXMXMXMXKXGXGXGXGXGXGXGXGXFX,XP.K.OXK.y.t.e.m m f f X.2.} | ..7.d.p.a.a.c.M.B.B.m././.`.{.}.+X+X+X+X+X+X+X{.`.`.).).).).).).).)._._._.).).).).).).).)._.).).).).).).).).).).)./././././.B.C.B.C.Z.f.f.g.f.p.d.3.| { } a s g 6 i u i i i k m m K.J.r.aXFXGXGXGXGXGXGXGXGXGXGXGXGXGXGXGXGXGXHXMXMXMXDXMXMXMXMXMXMXMXMXMXMXMXMXMXMXMXMXMXMXMXMXMXMXMXKXGXGXGXGXGXGXGXGXGXGXGXGXGXGXGXGXGXGXGXGXGXGXGXGXGXGXGXMXMXDXMXMXMXMXMXMXMXMXMXMXMXMXMXMXMXMXMXMXMXMXMXMXMXDXKXGXGXGXGXGXGXGXGXGXGXGXGXGXGXGXGXGXGXGXGXGXGXGXGXGXGXGXMXMXDXMXMXMXMXMXMXMXMXMXMXMXMXMX",
"MXMXMXMXMXMXMXMXMXMXMXMXMXMXMXMXMXMXMXMXMXMXMXMXMXMXDXKXGXGXGXGXGXGXGXGXGXGXGXGXGXGXGXGXGXGXGXGXGXGXGXGXGXGXGXMXMXMXMXMXMXMXMXMXMXMXMXMXMXMXMXMXMXMXMXMXMXMXMXMXMXMXKXGXGXGXGXGXGXGXGXGXGXGXGXGXGXGXGXGXGXGXGXGXGXGXGXGXGXGXMXMXMXMXMXMXMXMXMXMXMXMXMXMXMXMXMXMXMXMXMXMXMXMXMXMXMXKXGXGXGXGXGXGXGXGXFX;XJ.J.oXK.y.t.m m m d f e.1.| | ..7.d.p.s.s.c.m.B.B.B././.'.|.|.+X+XsX+X+X+X+X{.`.`.).).)._._._.).)._._._.).).).).).).).)._.).).).).).).).)./././././././.^.V.N.N.M.c.k.f.f.a.d.d.3.| } { p s g & 6 6 i i i k m r.K.K.r.0XFXGXGXGXGXGXGXGXGXGXGXGXGXGXGXGXGXGXGXLXMXMXDXMXMXMXMXMXMXMXMXMXMXMXMXMXMXMXMXMXMXMXMXMXMXMXKXGXGXGXGXGXGXGXGXGXGXGXGXGXGXGXGXGXGXGXGXGXGXGXGXGXGXGXMXMXDXMXMXMXMXMXMXMXMXMXMXMXMXMXMXMXMXMXMXMXMXMXMXMXDXKXGXGXGXGXGXGXGXGXGXGXGXGXGXGXGXGXGXGXGXGXGXGXGXGXGXGXGXMXMXDXMXMXMXMXMXMXMXMXMXMXMXMXMX",
"MXMXMXMXMXMXMXMXMXMXMXMXMXMXMXMXMXMXMXMXMXMXMXMXMXMXDXKXGXGXGXGXGXGXGXGXGXGXGXGXGXGXGXGXGXGXGXGXGXGXGXGXGXGXGXMXMXMXMXMXMXMXMXMXMXMXMXMXMXMXMXMXMXMXMXMXMXMXMXMXMXMXKXGXGXGXGXGXGXGXGXGXGXGXGXGXGXGXGXGXGXGXGXGXGXGXGXGXGXGXMXMXMXMXMXMXMXMXMXMXMXMXMXMXMXMXMXMXMXMXMXMXMXMXMXMXAXKXGXGXGXGXGXGXGXGXmXXXN K.Q.G.y.t.e.B m d f t...}  .| q.0.p.s.s.c.M.B.B.B././.'.|.|.+X+XsX+X+X+X+X{.`.{.).)._._.).).).)._._._.).).).).).).).)._.).).).).).).)./././././././.^.^.^.v.N.m.f.k.f.f.i.d.q.5.| } s p g g & 6 6 i i i k x r.t.F.t.J.FXGXGXGXGXGXGXGXGXGXGXGXGXGXGXGXGXGXGXAXMXMXDXMXMXMXMXMXMXMXMXMXMXMXMXMXMXMXMXMXMXMXMXMXMXMXKXGXGXGXGXGXGXGXGXGXGXGXGXGXGXGXGXGXGXGXGXGXGXGXGXGXGXGXMXMXDXMXMXMXMXMXMXMXMXMXMXMXMXMXMXMXMXMXMXMXMXMXMXMXDXKXGXGXGXGXGXGXGXGXGXGXGXGXGXGXGXGXGXGXGXGXGXGXGXGXGXGXGXDXMXDXMXMXMXMXMXMXMXMXMXMXMXMXMX",
"MXMXMXMXMXMXMXMXMXMXMXMXMXMXMXMXMXMXMXMXMXMXMXMXMXMXDXKXGXGXGXGXGXGXGXGXGXGXGXGXGXGXGXGXGXGXGXGXGXGXGXGXGXGXGXMXMXMXMXMXMXMXMXMXMXMXMXMXMXMXMXMXMXMXMXMXMXMXMXMXMXMXKXGXGXGXGXGXGXGXGXGXGXGXGXGXGXGXGXGXGXGXGXGXGXGXGXGXGXGXMXMXMXMXMXMXMXMXMXMXMXMXMXMXMXMXMXMXMXMXMXMXMXMXMXMXMXKXGXGXGXGXGXGXGXHXpX.XB oXK.y.y.t.m B m d f t.} { | ..q.0.p.s.s.b.m.B.m.m.^.`.'.|.|.+X+XsXsX+X+X+X{.`.{.)._._.).).).).).)._._.).)._.).).).).).).).).).).).)././././././.^.^.^.^./.v.N.c.i.l.g.s.9.d.q.5.| } a p f d 6 6 i i i i i d r.t.r.r.N FXHXGXGXGXGXGXGXGXGXGXGXGXGXGXGXGXGXGXDXMXMXDXMXMXMXMXMXMXMXMXMXMXMXMXMXMXMXMXMXMXMXMXMXMXMXKXGXGXGXGXGXGXGXGXGXGXGXGXGXGXGXGXGXGXGXGXGXGXGXGXGXGXGXMXMXDXMXMXMXMXMXMXMXMXMXMXMXMXMXMXMXMXMXMXMXMXMXMXMXDXKXGXGXGXGXGXGXGXGXGXGXGXGXGXGXGXGXGXGXGXGXGXGXGXGXGXGXGXLXMXDXMXMXMXMXMXMXMXMXMXMXMXMXMX",
"MXMXMXMXMXMXMXMXMXMXMXMXMXMXMXMXMXMXMXMXMXMXMXMXMXMXDXKXGXGXGXGXGXGXGXGXGXGXGXGXGXGXGXGXGXGXGXGXGXGXGXGXGXGXGXMXMXMXMXMXMXMXMXMXMXMXMXMXMXMXMXMXMXMXMXMXMXMXMXMXMXMXKXGXGXGXGXGXGXGXGXGXGXGXGXGXGXGXGXGXGXGXGXGXGXGXGXKXGXGXMXMXMXMXMXMXMXMXMXMXMXMXMXMXMXMXMXMXMXMXMXMXMXMXMXMXMXKXGXGXGXGXGXGXGXFXeXXXr.OXK.u.r.r.m m x d f <.{ } } } w.O.8.s.f.l.c.v.B.V.^.'.}.|.|.+X+XsXsX+X+X+X|.`.`.)._._.).).).).).).).).).).).).).).).).).).)./.)./././././.^.^.^.^.V.V.^.^.B.N.x.+.g.k.f.8.9.w.6.| } p p g d 6 6 6 u u i i c r.r.r.N N bXZXHXHXGXHXGXHXGXGXGXGXGXGXGXGXGXGXHXDXMXMXDXMXMXMXMXMXMXMXMXMXMXMXMXMXMXMXMXMXMXMXMXMXMXMXKXGXGXGXGXGXGXGXGXGXGXGXGXGXGXGXGXGXGXGXGXGXGXGXGXGXGXGXMXMXDXMXMXMXMXMXMXMXMXMXMXMXMXMXMXMXMXMXMXMXMXMXMXMXDXKXGXGXGXGXGXGXGXGXGXGXGXGXGXGXGXGXGXGXGXGXGXGXGXGXGXGXGXDXMXDXMXMXMXMXMXMXMXMXMXMXMXMXMX",
"MXMXMXMXMXMXMXMXMXMXMXMXMXMXMXMXMXMXMXMXMXMXMXMXMXMXDXKXGXGXGXGXGXGXGXGXGXGXGXGXGXGXGXGXGXGXGXGXGXGXGXGXGXGXGXMXMXMXMXMXMXMXMXMXMXMXMXMXMXMXMXMXMXMXMXMXMXMXMXMXMXMXKXGXGXGXGXGXGXGXGXGXGXGXGXGXGXGXGXGXGXGXGXGXGXGXGXKXGXGXMXMXMXMXMXMXMXMXMXMXMXMXMXMXMXMXMXMXMXMXMXMXMXMXMXMXMXKXGXGXGXGXGXHXHXFX;XP.F.K.K.F.r.N B m f d f X.{ } { { w.3.8.a.f.l.c.c.N.^.^.'.}.+XOX+X+X+XsX+X+X+X|.`._.)._.).).).).).).).).).).).).).).)./././././././././././.^.^.^.^.V.V.V.C.m.C.x.b.O.a.g.9.h.O.w...} { p p p d 6 6 u u u i i x N N m N D.eXZXFXHXGXHXHXGXGXGXGXGXGXGXGXGXGXGXGXDXMXMXDXMXMXMXMXMXMXMXMXMXMXMXMXMXMXMXMXMXMXMXMXMXMXMXKXGXGXGXGXGXGXGXGXGXGXGXGXGXGXGXGXGXGXGXGXGXGXGXGXGXGXGXMXMXDXMXMXMXMXMXMXMXMXMXMXMXMXMXMXMXMXMXMXMXMXMXMXMXDXKXGXGXGXGXGXGXGXGXGXGXGXGXGXGXGXGXGXGXGXGXGXGXGXGXGXGXGXDXMXDXMXMXMXMXMXMXMXMXMXMXMXMXMX",
"MXMXMXMXMXMXMXMXMXMXMXMXMXMXMXMXMXMXMXMXMXMXMXMXMXMXDXKXGXGXGXGXGXGXGXGXGXGXGXGXGXGXGXGXGXGXGXGXGXGXGXGXGXGXGXMXMXMXMXMXMXMXMXMXMXMXMXMXMXMXMXMXMXMXMXMXMXMXMXMXMXMXKXGXGXGXGXGXGXGXGXGXGXGXGXGXGXGXGXGXGXGXGXGXGXGXGXGXGXGXMXMXMXMXMXMXMXMXMXMXMXMXMXMXMXMXMXMXMXMXMXMXMXMXMXMXMXKXGXGXGXGXGXHXHXZX.XP.J.J.K.r.r.N B m d d g f s { a } 6.O.9.d.a.l.x.k.m.^.^.'.|.+X+X+X+X+XsXsX+X|.}.`._.).).`.).).).).).).)./.).)./././././././././././././.^.^.^.^.^.V.V.C.N.C.c.Z.g.k.a.O.i.o.9...6.{ a p 7 p p d 6 6 6 u u i i d m B x B H.;XFXFXHXGXHXHXGXGXGXGXHXGXGXGXGXGXGXGXDXMXMXDXMXMXMXMXMXMXMXMXMXMXMXMXMXMXMXMXMXMXMXMXMXMXMXKXGXGXGXGXGXGXGXGXGXGXGXGXGXGXGXGXGXGXGXGXGXGXGXGXGXGXGXMXMXDXMXMXMXMXMXMXMXMXMXMXMXMXMXMXMXMXMXMXMXMXMXMXMXDXKXGXGXGXGXGXGXGXGXGXGXGXGXGXGXGXGXGXGXGXGXGXGXGXGXGXGXGXDXMXDXMXMXMXMXMXMXMXMXMXMXMXMXMX",
"MXMXMXMXMXMXMXMXMXMXMXMXMXMXMXMXMXMXMXMXMXMXMXMXMXMXDXKXGXGXGXGXGXGXGXGXGXGXGXGXGXGXGXGXGXGXGXGXGXGXGXGXGXGXGXMXMXMXMXMXMXMXMXMXMXMXMXMXMXMXMXMXMXMXMXMXMXMXMXMXMXMXKXGXGXGXGXGXGXGXGXGXGXGXGXGXGXGXGXGXGXGXGXGXGXGXGXGXGXGXMXMXMXMXMXMXMXMXMXMXMXMXMXMXMXMXMXMXMXMXMXMXMXMXMXMXMXKXGXGXGXGXGXHXHXvXP.H.I.F.K.t.r.B m m x d d f p s a ..,.O.O.8.p.j.k.f.c.^.^.Z.}.+X+XsXsXsXsXsX+X|.'./.).).).`.).)././././././././././././.^.^.^.^.^.^.^.^.^.^.^.^.V.V.V.B.n.v.B.v.Z.a.k.f.O.8.o.o...1.a a p 7 p p g 6 6 u u u i i x m M M M H P.FXFXFXGXGXHXGXGXGXGXHXGXGXGXGXGXGXGXDXMXMXMXMXMXMXMXMXMXMXMXMXMXMXMXMXMXMXMXMXMXMXMXMXMXMXKXGXGXGXGXGXGXGXGXGXGXGXGXGXGXGXGXGXGXGXGXGXGXGXGXGXGXGXMXMXDXMXMXMXMXMXMXMXMXMXMXMXMXMXMXMXMXMXMXMXMXMXMXMXDXKXGXGXGXGXGXGXGXGXGXGXGXGXGXGXGXGXGXGXGXGXGXGXGXGXGXGXGXDXMXDXMXMXMXMXMXMXMXMXMXMXMXMXMX",
"MXMXMXMXMXMXMXMXMXMXMXMXMXMXMXMXMXMXMXMXMXMXMXMXMXMXDXKXGXGXGXGXGXGXGXGXGXGXGXGXGXGXGXGXGXGXGXGXGXGXGXGXGXGXGXMXMXMXMXMXMXMXMXMXMXMXMXMXMXMXMXMXMXMXMXMXMXMXMXMXMXMXKXGXGXGXGXGXGXGXGXGXGXGXGXGXGXGXGXGXGXGXGXGXGXGXGXGXGXGXMXMXMXMXMXMXMXMXMXMXMXMXMXMXMXMXMXMXMXMXMXMXMXMXMXMXMXKXGXGXGXGXGXHXHXiX.XH.J.D.J.r.r.B m m x d g g 7 p p 1.,. . .O.p.k.f.a.x.V.V.M.}.+X+XsXsXsXtXsX+X|.'.(./././.`./././.(.(.(.(./.(.(.(.(.^.^.^.^.^.V.V.V.V.^.V.V.V.V.V.B.N.v.c.c.x.b.x.a.g.d.9.q.4.t ..1.a p p 7 7 y y & 6 : : u u j x x x M M M H.VXFXFXGXGXHXHXGXGXGXHXGXGXGXGXGXGXGXDXMXMXMXMXMXMXMXMXMXMXMXMXMXMXMXMXMXMXMXMXMXMXMXMXMXMXKXGXGXGXGXGXGXGXGXGXGXGXGXGXGXGXGXGXGXGXGXGXGXGXGXGXGXGXMXMXDXMXMXMXMXMXMXMXMXMXMXMXMXMXMXMXMXMXMXMXMXMXMXMXDXKXGXGXGXGXGXGXGXGXGXGXGXGXGXGXGXGXGXGXGXGXGXGXGXGXGXGXGXMXMXMXMXMXMXMXMXMXMXMXMXMXMXMXMX",
"MXMXMXMXMXMXMXMXMXMXMXMXMXMXMXMXMXMXMXMXMXMXMXMXMXMXDXKXGXGXGXGXGXGXGXGXGXGXGXGXGXGXGXGXGXGXGXGXGXGXGXGXGXGXGXMXMXMXMXMXMXMXMXMXMXMXMXMXMXMXMXMXMXMXMXMXMXMXMXMXMXMXKXGXGXGXGXGXGXGXGXGXGXGXGXGXGXGXGXGXGXGXGXGXGXGXGXGXGXGXMXMXMXMXMXMXMXMXMXMXMXMXMXMXMXMXMXMXMXMXMXMXMXMXMXMXMXKXGXGXGXGXGXHXHX:X.XH H.D.D.r.N B M x x d i y 7 p p <.} } .. .8.f.g.a.x.C.C.b.OX+X+X+X+XsXtXsX+X|.'.(.^.^.^./.^.(.^.(.^.^.(.(.^.^.^.V.V.V.V.V.V.V.V.V.V.V.V.V.C.V.C.N.v.c.x.x.g.b.f.a.a.9.9.4.w.t { X.p 7 7 7 7 7 i & & = : u u j j i j M M n H.kXFXFXGXGXHXHXGXGXGXHXGXGXGXGXGXGXGXDXMXMXMXMXMXMXMXMXMXMXMXMXMXMXMXMXMXMXMXMXMXMXMXMXMXMXKXGXGXGXGXGXGXGXGXGXGXGXGXGXGXGXGXGXGXGXGXGXGXGXGXGXGXGXMXMXDXMXMXMXMXMXMXMXMXMXMXMXMXMXMXMXMXMXMXMXMXMXMXMXDXKXGXGXGXGXGXGXGXGXGXGXGXGXGXGXGXGXGXGXGXGXGXGXGXGXGXGXGXMXMXDXMXMXMXMXMXMXMXMXMXMXMXMXMX",
"MXMXMXMXMXMXMXMXMXMXMXMXMXMXMXMXMXMXMXMXMXMXMXMXMXMXDXKXGXGXGXGXGXGXGXGXGXGXGXGXGXGXGXGXGXGXGXGXGXGXGXGXGXGXGXMXMXMXMXMXMXMXMXMXMXMXMXMXMXMXMXMXMXMXMXMXMXMXMXMXMXMXKXGXGXGXGXGXGXGXGXGXGXGXGXGXGXGXGXGXGXGXGXGXGXGXGXGXGXGXMXMXMXMXMXMXMXMXMXMXMXMXMXMXMXMXMXMXMXMXMXMXMXMXMXMXMXKXGXGXGXGXGXHXFX#XP.H.D.N D.D.B M x x k i i i 7 7 p X.{ a o...9.d.a.a.k.m.n.b.}.sX+X+XOXsXtXsX+X}.'.(.^.^.V.^.^.^.^.^.^.^.V.V.V.V.V.C.V.V.V.V.V.V.C.C.C.C.C.C.C.C.N.n.b.x.g.x.g.l.f.a.i.O.O. .w.} p X.p 7 7 7 7 7 y # & = = u u j j j j z n n U ,XFXFXGXHXHXHXGXGXGXHXGXGXGXGXGXGXKXDXMXMXDXMXMXMXMXMXMXMXMXMXMXMXMXMXMXMXMXMXMXMXMXMXMXMXKXGXGXGXGXGXGXGXGXGXGXGXGXGXGXGXGXGXGXGXGXGXGXGXGXGXGXGXMXMXDXMXMXMXMXMXMXMXMXMXMXMXMXMXMXMXMXMXMXMXMXMXMXMXDXKXGXGXGXGXGXGXGXGXGXGXGXGXGXGXGXGXGXGXGXGXGXGXGXGXGXGXGXDXMXDXMXMXMXMXMXMXMXMXMXMXMXMXMX",
"MXMXMXMXMXMXMXMXMXMXMXMXMXMXMXMXMXMXMXMXMXMXMXMXMXMXDXKXGXGXGXGXGXGXGXGXGXGXGXGXGXGXGXGXGXGXGXGXGXGXGXGXGXGXGXMXMXMXMXMXMXMXMXMXMXMXMXMXMXMXMXMXMXMXMXMXMXMXMXMXMXMXKXGXGXGXGXGXGXGXGXGXGXGXGXGXGXGXGXGXGXGXGXGXGXGXGXGXGXGXMXMXMXMXMXMXMXMXMXMXMXMXMXMXMXMXMXMXMXMXMXMXMXMXMXMXMXKXGXGXGXGXGXHXZXL.U P.D.x D.N M M x k k j i 6 7 7 y f a a { ..O.8.p.a.g.b.b.l.}.sX+X+X+XsXsX+X+X}.'.(.^.^.V.V.V.V.V.V.V.V.V.V.V.V.V.V.C.C.V.V.V.C.C.C.C.C.C.C.C.C.n.n.x.g.g.g.g.a.a.a.8.9.O. . .w.5 s p 7 6 7 7 6 6 # & = = u u h k k k z z n U .XFXHXGXKXGXHXGXGXGXHXGXGXGXHXGXGXKXDXMXMXLXMXMXMXMXMXMXMXMXMXMXMXMXMXMXMXMXMXMXMXMXMXMXMXKXGXGXGXGXGXGXGXGXGXGXGXGXGXGXGXGXGXGXGXGXGXGXGXGXGXGXGXMXMXDXMXMXMXMXMXMXMXMXMXMXMXMXMXMXMXMXMXMXMXMXMXMXMXDXKXGXGXGXGXGXGXGXGXGXGXGXGXGXGXGXGXGXGXGXGXGXGXGXGXGXGXGXDXMXDXMXMXMXMXMXMXMXMXMXMXMXMXMX",
"MXMXMXMXMXMXMXMXMXMXMXMXMXMXMXMXMXMXMXMXMXMXMXMXMXMXLXKXGXGXGXGXGXGXGXGXGXGXGXGXGXGXGXGXGXGXGXGXGXGXGXGXGXGXGXMXMXMXMXMXMXMXMXMXMXMXMXMXMXMXMXMXMXMXMXMXMXMXMXMXMXMXKXGXGXGXGXGXGXGXGXGXGXGXGXGXGXGXGXGXGXGXGXGXGXGXGXGXGXGXMXMXMXMXMXMXMXMXMXMXMXMXMXMXMXMXMXMXMXMXMXMXMXMXMXMXMXKXGXGXKXGXKXHXzX.XU H.H x F.M M M x j i i i 6 6 y y p a a o... .9.8.i.a.b.b.z.OXsXsXOXtXsXsX+X+X}.'.^.C.V.V.V.V.V.V.V.V.V.V.V.V.C.C.C.C.C.C.C.C.C.n.n.n.n.n.C.C.n.n.b.x.x.g.g.g.a.a.i.i.O. .o.6.u.5 s p 7 7 7 7 6 6 & % = : = u u k h h h l Z G U FXHXKXHXGXGXGXGXGXHXGXGXGXHXGXGXHXLXMXMXDXMXMXMXMXMXMXMXMXMXMXMXMXMXMXMXMXMXMXMXMXMXMXMXKXGXGXGXGXGXGXGXGXGXGXGXGXGXGXGXGXGXGXGXGXGXGXGXGXGXGXGXMXMXDXMXMXMXMXMXMXMXMXMXMXMXMXMXMXMXMXMXMXMXMXMXMXMXDXKXGXGXGXGXGXGXGXGXGXGXGXGXGXGXGXGXGXGXGXGXGXGXGXGXGXGXGXDXMXDXMXMXMXMXMXMXMXMXMXMXMXMXMX",
"MXMXMXMXMXMXMXMXMXMXMXMXMXMXMXMXMXMXMXMXMXMXMXMXMXMXDXKXGXGXGXGXGXGXGXGXGXGXGXGXGXGXGXGXGXGXGXGXGXGXGXGXGXGXGXMXMXMXMXMXMXMXMXMXMXMXMXMXMXMXMXMXMXMXMXMXMXMXMXMXMXMXKXGXGXGXGXGXGXGXGXGXGXGXGXGXGXGXGXGXGXGXGXGXGXGXGXGXGXGXMXMXMXMXMXMXMXMXMXMXMXMXMXMXMXMXMXMXMXMXMXMXMXMXMXMXMXKXGXGXKXGXGXHXqXL.U P.G M H N M M x j u i u 8 6 y y p p p a } 6.4.4.9.a.b.k.z.OXsXsXsXsXsXsXsX+X}.Z.V.V.^.V.V.V.V.C.V.V.V.C.C.C.C.C.C.C.C.C.C.C.C.n.n.n.n.n.n.n.n.b.b.x.g.g.a.a.i.i.i.9.O...o.1.{ 7 a 7 6 7 i 7 6 6 % % = : = u u u u h l h n G U vXFXFXGXGXGXGXGXGXHXGXGXGXHXGXGXGXDXMXMXDXMXMXMXMXMXMXMXMXMXMXMXMXMXMXMXMXMXMXMXMXMXMXMXKXGXGXGXGXGXGXGXGXGXGXGXGXGXGXGXGXGXGXGXGXGXGXGXGXGXGXGXMXMXDXMXMXMXMXMXMXMXMXMXMXMXMXMXMXMXMXMXMXMXMXMXMXMXDXKXGXGXGXGXGXGXGXGXGXGXGXGXGXGXGXGXGXGXGXGXGXGXGXGXGXGXGXDXMXDXMXMXMXMXMXMXMXMXMXMXMXMXMX",
"MXMXMXMXMXMXMXMXMXMXMXMXMXMXMXMXMXMXMXMXMXMXMXMXMXMXLXKXGXGXGXGXGXGXGXGXGXGXGXGXGXGXGXGXGXGXGXGXGXGXGXGXGXGXGXMXMXMXMXMXMXMXMXMXMXMXMXMXMXMXMXMXMXMXMXMXMXMXMXMXMXMXKXGXGXGXGXGXGXGXGXGXGXGXGXGXGXGXGXGXGXGXGXGXGXGXGXGXGXGXMXMXMXMXMXMXMXMXMXMXMXMXMXMXMXMXMXMXMXMXMXMXMXMXMXMXMXGXHXGXHXGXGXHX=XP.H.H.z L L L M M k i i u u u 6 y y y p p a { 6.O.O.O.a.g.a.d.OXsXsXsXsXsXsXsX+X}.C.V.V.^.C.C.V.C.C.C.C.C.C.C.C.C.C.C.C.C.n.n.C.C.n.n.n.n.n.n.n.n.b.b.b.g.g.a.i.i.i.i.9.O.....w.5 p p 7 6 y i 8 6 = % % * = & u u u u z z h l G H.eXFXFXGXGXGXGXGXGXHXGXGXGXGXGXGXKXDXMXMXDXMXMXMXMXMXMXMXMXMXMXMXMXMXMXMXMXMXMXMXMXMXMXMXKXGXGXGXGXGXGXGXGXGXGXGXGXGXGXGXGXGXGXGXGXGXGXGXGXGXGXGXMXMXDXMXMXMXMXMXMXMXMXMXMXMXMXMXMXMXMXMXMXMXMXMXMXMXDXKXGXGXGXGXGXGXGXGXGXGXGXGXGXGXGXGXGXGXGXGXGXGXGXGXGXGXGXMXMXMXMXMXMXMXMXMXMXMXMXMXMXMXMX",
"MXMXMXMXMXMXMXMXMXMXMXMXMXMXMXMXMXMXMXMXMXMXMXMXMXMXDXKXGXGXGXGXGXGXGXGXGXGXGXGXGXGXGXGXGXGXGXGXGXGXGXGXGXGXGXMXMXMXMXMXMXMXMXMXMXMXMXMXMXMXMXMXMXMXMXMXMXMXMXMXMXMXKXGXGXGXGXGXGXGXGXGXGXGXGXGXGXGXGXGXGXGXGXGXGXGXGXGXGXGXMXMXMXMXMXMXMXMXMXMXMXMXMXMXMXMXMXMXMXMXMXMXMXMXMXMXMXGXHXGXGXGXGXFX.XH.P.Y z L L L M M k i i u u 6 6 6 y 7 7 p p { 1. ...O.h.h.a.h.+XsXsXsXsXsXsXsX+XZ.Z.C.C.V.C.C.C.C.C.C.C.C.C.C.n.C.C.C.C.n.n.n.C.n.n.n.n.n.n.n.n.b.b.b.b.g.a.i.i.8.8.q.O...o...1.4 p 7 7 6 6 i 6 & & % % % = = : u j j k z < z G H.%XFXHXGXGXGXGXGXGXHXGXGXGXGXGXGXKXMXMXMXDXMXMXMXMXMXMXMXMXMXMXMXMXMXMXMXMXMXMXMXMXMXMXMXKXGXGXGXGXGXGXGXGXGXGXGXGXGXGXGXGXGXGXGXGXGXGXGXGXGXGXGXMXMXDXMXMXMXMXMXMXMXMXMXMXMXMXMXMXMXMXMXMXMXMXMXMXMXDXKXGXGXGXGXGXGXGXGXGXGXGXGXGXGXGXGXGXGXGXGXGXGXGXGXGXGXGXMXMXMXMXMXMXMXMXMXMXMXMXMXMXMXMX",
"MXMXMXMXMXMXMXMXMXMXMXMXMXMXMXMXMXMXMXMXMXMXMXMXMXMXDXKXGXGXGXGXGXGXGXGXGXGXGXGXGXGXGXGXGXGXGXGXGXGXGXGXGXGXGXMXMXMXMXMXMXMXMXMXMXMXMXMXMXMXMXMXMXMXMXMXMXMXMXMXMXMXKXGXGXGXGXGXGXGXGXGXGXGXGXGXGXGXGXGXGXGXGXGXGXGXGXGXGXGXMXMXMXMXMXMXMXMXMXMXMXMXMXMXMXMXMXMXMXMXMXMXMXMXMXMXMXGXGXKXGXGXGXNX.XH.P.G G H L M x x k i u u u & & 6 y 7 y p p { 1... .4.h.h.h.A.sXsXsXsXsXsXsXsX+XZ.Z.C.N.N.n.C.C.C.n.n.n.n.n.n.n.n.n.n.b.b.b.b.b.b.b.b.b.b.b.b.b.b.g.g.g.a.i.i.9.9.9.6. .o.o.o.s 7 7 7 7 6 6 6 & % % % % * = = = u j j k h , z M H.P.FXHXGXHXGXGXGXGXHXGXGXGXGXGXGXHXDXMXMXDXMXMXMXMXMXMXMXMXMXMXMXMXMXMXMXMXMXMXMXMXMXMXMXKXGXGXGXGXGXGXGXGXGXGXGXGXGXGXGXGXGXGXGXGXGXGXGXGXGXGXGXMXMXDXMXMXMXMXMXMXMXMXMXMXMXMXMXMXMXMXMXMXMXMXMXMXMXDXKXGXGXGXGXGXGXGXGXGXGXGXGXGXGXGXGXGXGXGXGXGXGXGXGXGXGXGXDXMXDXMXMXMXMXMXMXMXMXMXMXMXMXMX",
"MXMXMXMXMXMXMXMXMXMXMXMXMXMXMXMXMXMXMXMXMXMXMXMXMXMXDXKXGXGXGXGXGXGXGXGXGXGXGXGXGXGXGXGXGXGXGXGXGXGXGXGXGXGXGXMXMXMXMXMXMXMXMXMXMXMXMXMXMXMXMXMXMXMXMXMXMXMXMXMXMXMXKXGXGXGXGXGXGXGXGXGXGXGXGXGXGXGXGXGXGXGXGXGXGXGXGXGXGXGXMXMXMXMXMXMXMXMXMXMXMXMXMXMXMXMXMXMXMXMXMXMXMXMXMXMXMXGXGXHXGXGXGXuX.XH.H.M L L L M x x d i u u 8 & & 6 7 7 y p p s .... .9.h.h.h.A.sXaXsXsXsXsXsXsX+XA.Z.Z.v.v.b.Z.b.b.b.b.b.b.b.b.k.g.g.g.g.g.g.g.f.g.g.g.g.g.g.g.g.g.a.a.i.i.i.9.4.O.O.O...o.a s p p 6 6 7 6 6 & % % % # o % * = : 6 u j k z h h n Y H.mXHXHXGXGXGXGXGXHXGXGXGXGXGXGXGXDXMXMXDXMXMXMXMXMXMXMXMXMXMXMXMXMXMXMXMXMXMXMXMXMXMXMXKXGXGXGXGXGXGXGXGXGXGXGXGXGXGXGXGXGXGXGXGXGXGXGXGXGXGXGXMXMXDXMXMXMXMXMXMXMXMXMXMXMXMXMXMXMXMXMXMXMXMXMXMXMXDXKXGXGXGXGXGXGXGXGXGXGXGXGXGXGXGXGXGXGXGXGXGXGXGXGXGXGXGXDXMXDXMXMXMXMXMXMXMXMXMXMXMXMXMX",
"MXMXMXMXMXMXMXMXMXMXMXMXMXMXMXMXMXMXMXMXMXMXMXMXMXMXDXKXGXGXGXGXGXGXGXGXGXGXGXGXGXGXGXGXGXGXGXGXGXGXGXGXGXGXGXMXMXMXMXMXMXMXMXMXMXMXMXMXMXMXMXMXMXMXMXMXMXMXMXMXMXMXKXGXGXGXGXGXGXGXGXGXGXGXGXGXGXGXGXGXGXGXGXGXGXGXGXGXGXGXMXMXMXMXMXMXMXMXMXMXMXMXMXMXMXMXMXMXMXMXMXMXMXMXMXMXMXKXGXGXGXGXHX>XP.P.H G Y L L M x x i i u u : % & 6 7 7 y p p a { } ..O.9.9.h.A.sXaXtXtXtXtXaXsXOXA.f.g.g.g.g.g.g.a.a.a.a.a.a.i.i.i.i.i.8.8.8.8.8.8.8.i.i.i.i.i.i.i.i.i.8.9.O.O.......o.o.o.a p 7 7 7 6 6 6 & & % % % % % % * = = 6 i j k k h z n H U kXHXHXGXGXGXGXGXHXGXGXGXGXGXGXGXDXMXMXDXMXMXMXMXMXMXMXMXMXMXMXMXMXMXMXMXMXMXMXMXMXMXMXKXGXGXGXGXGXGXGXGXGXGXGXGXGXGXGXGXGXGXGXGXGXGXGXGXGXGXGXMXMXDXMXMXMXMXMXMXMXMXMXMXMXMXMXMXMXMXMXMXMXMXMXMXMXDXKXGXGXGXGXGXGXGXGXGXGXGXGXGXGXGXGXGXGXGXGXGXGXGXGXGXGXGXDXMXDXMXMXMXMXMXMXMXMXMXMXMXMXMX",
"MXMXMXMXMXMXMXMXMXMXMXMXMXMXMXMXMXMXMXMXMXMXMXMXMXMXDXKXGXGXGXGXGXGXGXGXGXGXGXGXGXGXGXGXGXGXGXGXGXGXGXGXGXGXGXMXMXMXMXMXMXMXMXMXMXMXMXMXMXMXMXMXMXMXMXMXMXMXMXMXMXMXKXGXGXGXGXGXGXGXGXGXGXGXGXGXGXGXGXGXGXGXGXGXGXGXGXGXGXGXMXMXMXMXMXMXMXMXMXMXMXMXMXMXMXMXMXMXMXMXMXMXMXMXMXMXMXKXGXGXGXHXFX#XP.P.M H H L M M x x j u u u = & & 6 6 7 y 7 p a a { { .. .O.4.u.OXtXtXtXtXrXrXtXOXu.9.8.i.i.8.i.i.8.9.9.9.O.O.O.O.O.O.O.O.O.O.O.O.O.O.O.O.O.O.O.O.O.O.4.O. .o.o.o.a a a p a g 7 y $ 7 & & & & % % # % % % % % = & 6 j j j u u k M L U eXFXHXGXGXGXGXGXGXGXGXGXGXGXGXGXDXMXMXDXMXMXMXMXMXMXMXMXMXMXMXMXMXMXMXMXMXMXMXMXMXMXMXKXGXGXGXGXGXGXGXGXGXGXGXGXGXGXGXGXGXGXGXGXGXGXGXGXGXGXGXMXMXDXMXMXMXMXMXMXMXMXMXMXMXMXMXMXMXMXMXMXMXMXMXMXMXDXKXGXGXGXGXGXGXGXGXGXGXGXGXGXGXGXGXGXGXGXGXGXGXGXGXGXGXGXDXMXDXMXMXMXMXMXMXMXMXMXMXMXMXMX",
"MXMXMXMXMXMXMXMXMXMXMXMXMXMXMXMXMXMXMXMXMXMXMXMXDXMXDXKXGXGXGXGXGXGXGXGXGXGXGXGXGXGXGXGXGXGXGXGXGXGXGXGXGXGXKXMXMXMXMXMXMXMXMXMXMXMXMXMXMXMXMXMXMXMXMXMXMXMXMXMXMXDXKXGXGXGXGXGXGXGXGXGXGXGXGXGXGXGXGXGXGXGXGXGXGXGXGXGXGXGXDXMXMXMXMXMXMXMXMXMXMXMXMXMXMXMXMXMXAXMXMXMXMXMXMXAXSXHXHXGXHXFXVXP.P.H.L H.N D.M x k j u h u : & & & & 6 6 7 7 y p p s a a { o.1.} t.tXtXrXtXaXtXaXsXy.6.6.9.O.O.4.4.4.O.O.O.O. .......o.o.o.o.o.{ { { } .... . .......{ { { a p p p p 7 7 7 7 7 6 6 6 6 & & & $ # % % # # # % % = = : u u u i i k x N H..XFXFXGXGXGXGXGXGXGXGXGXGXGXGXKXDXMXMXMXMXMXMXMXMXMXMXMXMXMXMXMXMXMXMXMXMXMXMXMXMXMXMXKXGXGXGXGXGXGXGXGXGXGXGXGXGXGXGXGXGXGXGXGXGXGXGXGXGXGXKXMXMXMXMXMXMXMXMXMXMXMXMXMXMXMXMXMXMXMXMXMXMXMXMXMXMXMXKXGXGXGXGXGXGXGXGXGXGXGXGXGXGXGXGXGXGXGXGXGXGXGXGXGXGXGXKXMXMXMXDXMXMXMXMXMXMXMXMXMXMXMX",
"MXMXMXMXMXMXMXMXMXMXMXMXMXMXMXMXMXMXMXMXMXMXMXMXMXMXDXKXGXGXGXGXGXGXGXGXGXGXGXGXGXGXGXGXGXGXGXGXGXGXGXGXGXGXKXKXMXMXMXMXMXMXMXMXMXMXMXMXMXMXMXMXMXMXMXMXMXMXMXMXDXDXKXGXGXGXGXGXGXGXGXGXGXGXGXGXGXGXGXGXGXGXGXGXGXGXGXGXGXKXDXMXMXMXMXMXMXMXMXMXMXMXMXMXMXMXMXMXAXMXMXMXBXNXMXAXLXHXHXGXZXFXbXP.P.H.H H.H D.c x k j h h h = & & & & & 6 6 7 7 7 p 7 p s s p X.p K.tXrXrXeXaXrXaXtXu.} } ..o... ...........| } { } } { { { a a a a a a a { { { { { { a p p p 7 7 7 7 7 7 y y y 6 6 6 & $ $ $ & & % % # # # % % = = : u u j i j x M M H P.ZXFXHXGXGXGXGXGXGXGXGXGXGXGXKXDXDXDXDXDXMXMXMXMXMXMXMXMXMXMXMXMXMXMXMXMXMXMXMXDXMXMXKXGXGXGXGXGXGXGXGXGXGXGXGXGXGXGXGXGXGXGXGXGXGXGXGXGXGXKXDXDXDXDXDXMXMXMXMXMXMXMXMXMXMXMXMXMXMXMXMXMXDXDXDXDXDXKXGXGXGXGXGXGXGXGXGXGXGXGXGXGXGXGXGXGXGXGXGXGXGXGXGXGXKXDXMXMXMXDXDXMXMXMXMXMXMXMXMXMXMX",
"KXKXKXKXKXKXKXKXKXKXKXKXKXKXKXKXKXKXKXKXKXKXKXKXKXKXKXKXKXKXKXKXKXKXKXKXKXKXKXKXKXKXKXKXKXKXKXKXKXKXKXKXKXKXKXKXKXKXKXKXKXKXKXKXKXKXKXKXKXKXKXKXKXKXKXKXKXKXKXKXKXKXKXKXKXKXKXKXKXKXKXKXKXKXKXKXKXKXKXKXKXKXKXKXKXKXKXKXKXKXKXKXKXKXKXKXKXKXKXKXKXKXKXKXKXKXKXKXKXKXKXKXKXKXKXKXKXHXKXKXVXZXeX.XP.U Y H.D.N x x k h h h u = & & & & & 6 6 7 7 7 7 p p p f s t.r.K.tXrXrXrXaXrXrX0XK.e.1.1.o.} } o.{ { { { { { { { s a a a p p p a p p a a a a a p a p 7 7 7 7 7 7 7 7 7 7 7 6 $ 6 & & $ $ $ $ & # # # # % % % * = : u u j j x M M M G H.vXZXFXDXKXKXKXKXKXKXKXKXKXKXKXKXKXKXKXKXKXKXKXKXKXKXKXKXKXKXKXKXKXKXKXKXKXKXKXKXKXKXKXKXKXKXKXKXKXKXKXKXKXKXKXKXKXKXKXKXKXKXKXKXKXKXKXKXKXKXKXKXKXKXKXKXKXKXKXKXKXKXKXKXKXKXKXKXKXKXKXKXKXKXKXKXKXKXKXKXKXKXKXKXKXKXKXKXKXKXKXKXKXKXKXKXKXKXKXKXKXKXKXKXKXKXKXKXKXKXKXKXKXKXKXKXKXKXKXKXKX",
"GXGXGXGXGXGXGXGXGXGXGXGXGXGXGXGXGXGXGXGXGXGXGXGXGXGXGXKXDXMXMXMXMXMXMXMXMXMXMXMXMXMXMXMXMXMXMXMXMXMXMXMXMXMXDXKXGXGXGXGXGXGXGXGXGXGXGXGXGXGXGXGXGXGXGXGXGXGXGXGXGXKXKXDXMXMXMXMXMXMXMXMXMXMXMXMXMXMXMXMXMXMXMXMXMXMXLXDXMXDXKXGXGXGXGXGXGXGXGXGXGXGXGXGXGXGXGXGXGXGXGXGXHXHXGXGXHXHXAXDXVXVX;X.XP.U H.H.H.N M k j h h h : & % & & $ $ 6 6 7 7 7 7 7 f f y m K.K.K.0XrXeXrXrXeXeX0XJ.f f f p p p p p a p p p p p p p p p p p p 7 p p p p p p p p p p p p 7 7 7 7 7 7 6 6 6 6 & $ $ & % & & % # # # # # # % % % * = = : u j k x M M M G U wXVXBXNXMXAXLXAXMXMXBXBXMXMXDXKXGXGXGXGXGXGXGXGXGXGXGXGXGXGXGXGXGXGXGXGXGXGXGXGXGXGXKXKXMXMXMXMXMXMXMXMXMXMXMXMXMXMXMXMXMXMXMXMXMXMXMXMXMXDXKXGXGXGXGXGXGXGXGXGXGXGXGXGXGXGXGXGXGXGXGXGXGXGXGXGXGXKXDXMXMXMXMXMXMXMXMXMXMXMXMXMXMXMXMXMXMXMXMXMXMXMXMXMXKXGXGXGXGXGXGXGXGXGXGXGXGXGXGXGXGX",
"GXGXGXGXGXGXGXGXGXGXGXGXGXGXGXGXGXGXGXGXGXGXGXGXGXGXGXKXMXMXMXDXMXMXMXMXMXMXMXMXMXMXMXMXMXMXMXMXMXMXMXMXMXMXKXGXGXGXGXGXGXGXGXGXGXGXGXGXGXGXGXGXGXGXGXGXGXGXGXGXGXGXKXMXMXMXMXMXMXMXMXMXMXMXMXMXMXMXMXMXMXMXMXMXMXMXMXMXMXDXGXGXGXGXGXGXGXGXGXGXGXGXGXGXGXGXGXGXGXGXGXGXHXHXGXGXHXKXSXMXBXnX.XP.H.U P.D.D.N N j j h h h = & & % - - $ $ 8 6 7 6 6 g i i x N N r.J.0XeXeXeXeXeX0X0XN m g 7 7 p p p p p p 7 7 y p 7 7 7 7 7 7 7 7 6 6 6 7 7 7 7 p 7 p p 7 7 7 7 7 6 & $ $ $ & & % % % % % % % o o # # # # o o % * = = : u u k x M M M G U ,XVXBXNXMXAXAXAXMXMXBXMXMXMXAXKXGXGXGXGXGXGXGXGXGXGXGXGXGXGXGXGXGXGXGXGXGXGXGXGXGXGXKXMXMXMXMXMXMXMXMXMXMXMXMXMXMXMXMXMXMXMXMXMXMXMXMXMXNXLXKXGXGXGXGXGXGXGXGXGXGXGXGXGXGXGXGXGXGXGXGXGXGXGXGXGXGXKXMXMXMXMXMXMXMXMXMXMXMXMXMXMXMXMXMXMXMXMXMXMXMXMXMXMXMXKXGXGXGXGXGXGXGXGXGXGXGXGXGXGXGX",
"GXGXGXGXGXGXGXGXGXGXGXGXGXGXGXGXGXGXGXGXGXGXGXGXGXGXGXKXMXMXMXDXMXMXMXMXMXMXMXMXMXMXMXMXMXMXMXMXMXMXMXMXMXMXDXGXGXGXGXGXGXGXGXGXGXGXGXGXGXGXGXGXGXGXGXGXGXGXGXGXGXGXKXLXMXMXDXMXMXMXMXMXMXMXMXMXMXMXMXMXMXMXMXMXMXDXMXMXMXDXKXGXGXGXGXGXGXGXGXGXGXGXGXGXGXGXGXGXGXGXGXGXHXHXGXGXHXKXSXMXZXzXP.P.U H.H.H H N N j h h h : = & & % & & & - & 6 6 6 i & 6 k i B H Y XX,XeXeX,XeXeX,XXXm m i 7 y y y 7 7 7 7 7 6 7 7 y y 7 7 7 7 7 7 6 6 7 7 y p p p X.X.s a s a a g 7 6 & & & # & & % % # X o o o o o X # o o % % % * = = : u k k x k M G U #XVXBXBXMXAXAXAXMXMXMXMXMXMXAXHXGXGXKXGXGXGXGXGXGXGXGXGXGXGXGXGXGXGXGXGXGXGXGXGXGXGXKXMXMXMXMXMXMXMXMXMXMXMXMXMXMXMXMXMXMXMXMXMXMXMXMXMXMXDXGXGXGXGXGXGXGXGXGXGXGXGXGXGXGXGXGXGXGXGXGXGXHXHXGXGXGXKXDXMXMXMXMXMXMXMXMXMXMXMXMXMXMXMXMXMXMXMXMXMXMXMXMXMXMXKXGXGXGXGXGXGXGXGXGXGXGXGXGXGXGX",
"GXGXGXGXGXGXGXGXGXGXGXGXGXGXGXGXGXGXGXGXGXGXGXGXGXGXGXKXMXMXMXMXMXMXMXMXMXMXMXMXMXMXMXMXMXMXMXMXMXMXMXMXMXMXMXKXGXGXGXGXGXGXGXGXGXGXGXGXGXGXGXGXGXGXGXGXGXGXGXGXGXGXKXDXMXLXDXDXMXMXMXMXMXMXMXMXMXMXMXMXMXMXMXMXDXDXMXMXMXDXKXGXGXGXGXGXGXGXGXGXGXGXGXGXGXGXGXGXGXGXGXGXHXHXGXGXHXHXLXMXBXuXP.P.H.U Y L M B M k h h h = & % % % % % - % & & = = & u & : k B B XXXXeXeXeX,XpXeXeXJ.J.D.d d g g p s a a a a a a s p p p 7 7 p p 7 7 7 7 p a a { } } } o.a a a p p f d g i i 6 6 6 $ # # # # # % % o X X o o o % * * * = = u u j j k M M U P.VXBXBXMXMXMXMXMXMXMXMXDXMXLXKXGXGXKXGXGXGXGXGXGXGXGXGXGXGXGXGXGXGXGXGXGXGXGXGXGXGXKXDXMXMXMXMXMXMXMXMXMXMXMXMXMXMXMXMXMXMXMXMXMXMXMXMXMXDXGXGXGXGXGXGXGXGXGXGXGXGXGXGXGXGXGXGXGXGXGXGXGXHXGXGXGXKXDXMXMXMXMXMXMXMXMXMXMXMXMXMXMXMXMXMXMXMXMXMXMXMXMXMXDXGXGXGXGXGXGXGXGXGXGXGXGXGXGXGXGX",
"GXGXGXGXGXGXGXGXGXGXGXGXGXGXGXGXGXGXGXGXGXGXGXGXGXGXGXKXMXLXMXMXMXMXMXMXMXMXMXMXMXMXMXMXMXMXMXMXDXMXMXDXDXMXMXKXGXGXGXGXGXGXGXGXGXGXGXGXGXGXGXGXGXGXGXGXGXGXGXGXGXGXKXDXMXMXMXMXMXMXMXMXMXMXMXMXMXMXMXMXMXMXMXMXMXMXMXMXMXDXKXGXGXGXGXGXGXGXGXGXGXGXGXGXGXGXGXGXGXGXGXGXHXHXGXGXHXHXDXMXnX4XP.P.H.U L N M M M k h h : = & % % % % * % % % % & & & u & & k Y H P.XXeX,XeX,XpXeX0XD.oXt.7 p y p p s a p p p p p a 7 p p 7 7 p p 7 7 7 7 p a a o.1.1.1.X.X.X.s a p g g y y 7 6 $ $ # # # # # # X X X X X o o o % % * * = = = u u i k x M Y Q mXNXNXMXAXAXAXMXMXBXBXLXMXMXKXGXGXGXGXGXGXGXGXGXGXGXGXGXGXGXGXGXGXGXGXGXGXGXKXGXGXKXMXMXMXMXMXMXMXMXMXMXMXMXMXMXMXMXMXMXMXMXMXMXMXMXMXMXDXKXGXGXGXGXGXGXGXGXGXGXGXGXGXGXGXGXGXGXGXGXGXGXGXGXGXGXDXMXMXMXMXMXMXMXMXMXMXMXMXMXMXMXMXMXMXMXMXMXMXMXMXMXMXDXHXGXGXKXGXGXGXGXGXGXGXGXGXGXGXGX",
"GXGXGXGXGXGXGXGXGXGXGXGXGXGXGXGXGXGXGXGXGXGXGXGXGXGXGXKXMXMXMXMXMXMXMXMXMXMXMXMXMXMXMXMXMXMXMXMXMXMXMXMXDXMXDXGXGXGXGXGXGXGXGXGXGXGXGXGXGXGXGXGXGXGXGXGXGXGXGXGXGXGXKXMXMXMXMXMXMXMXMXMXMXMXMXMXMXMXMXMXMXMXMXMXMXMXMXDXMXMXGXGXGXGXGXGXGXGXGXGXGXGXGXGXGXGXGXGXGXGXGXGXHXHXGXGXGXHXAXNXBX%XP.P.U H G M M x k k z u , = = = # # % % % % % % & & & & & N B D.D.XXeXeXeXeXeXrXtXXXK.e.a a a p 7 p 7 7 7 7 7 7 7 7 7 7 7 7 7 7 6 4 6 6 4 4 7 7 7 7 7 7 y y 7 6 4 6 $ 4 6 $ $ $ # # # # X X X X X X o # o o o o % % * * = : = : u i k M k H P.pXnXBXMXMXAXAXAXAXMXMXMXMXDXGXGXGXGXGXGXGXGXGXGXGXGXGXGXGXGXGXGXGXGXGXGXGXGXGXGXGXKXMXMXMXMXMXMXMXMXMXMXMXMXMXMXMXMXMXMXMXMXMXMXMXMXMXMXMXGXGXGXGXGXGXGXGXGXGXGXGXGXGXGXGXGXGXGXGXGXGXGXGXGXGXGXKXMXMXMXMXMXMXMXMXMXMXMXMXMXMXMXMXMXMXMXMXMXMXMXMXMXMXMXGXGXGXGXGXGXGXGXGXGXGXGXGXGXGXGX",
"GXGXGXGXGXGXGXGXGXGXGXGXGXGXGXGXGXGXGXGXGXGXGXGXGXGXGXKXMXMXMXMXMXMXMXMXMXMXMXMXMXMXMXMXMXMXMXMXMXMXMXMXDXMXDXGXGXGXGXGXGXGXGXGXGXGXGXGXGXGXGXGXGXGXGXGXGXGXGXGXGXGXKXMXMXMXMXMXMXMXMXMXMXMXMXMXMXMXMXMXMXMXMXMXMXMXMXDXMXMXGXGXGXGXGXGXGXGXGXGXGXGXGXGXGXGXGXGXGXGXGXGXHXHXGXGXHXKXAXNXNXL.P.U U L G M k k k j z : : - % & # % # % % & & & & & 8 6 y r.r.J.K.tXtXtXrXtXtXtXoXK.y.1.o.......o.{ { { { { { { s s { s a a p a p p p p p p p p 7 7 5 7 7 6 6 4 4 4 4 6 6 4 $ & & & & % # # % o o o o X X X X o % % * * * = : u h j x M k L P.qXVXBXNXMXAXAXAXAXMXMXMXMXDXGXGXGXGXGXGXGXGXGXGXGXGXGXGXGXGXGXGXGXGXGXGXGXGXGXGXGXKXMXMXMXMXMXMXMXMXMXMXMXMXMXMXMXMXMXMXMXMXMXMXMXMXMXMXMXGXGXGXGXGXGXGXGXGXGXGXGXGXGXGXGXGXGXGXGXGXGXGXGXGXGXGXKXMXMXMXMXMXMXMXMXMXMXMXMXMXMXMXMXMXMXMXMXMXMXMXMXMXMXMXGXGXGXGXGXGXGXGXGXGXGXGXGXGXGXGX",
"GXGXGXGXGXGXGXGXGXGXGXGXGXGXGXGXGXGXGXGXGXGXGXGXGXGXGXKXMXMXMXMXMXMXMXMXMXMXMXMXMXMXMXMXMXMXMXMXMXMXMXMXDXMXDXGXGXGXGXGXGXGXGXGXGXGXGXGXGXGXGXGXGXGXGXGXGXGXGXGXGXGXKXMXMXMXMXMXMXMXMXMXMXMXMXMXMXMXMXMXMXMXMXMXMXMXMXDXMXMXGXGXGXGXGXGXGXGXGXGXGXGXGXGXGXGXGXGXGXGXGXGXHXHXGXGXHXDXAXLXNXQ .XU U L G M k k k h h : = % % & % & & & = 6 6 6 7 7 y g f t.t.G.Q.tXOXtXtXtXOXOXW.y.w.h.h.i.i.p.h.i.h.h.h.h.h.h.h.q.q.q.7.9.9.9.9.9.6.w.w.w.w.4.O. .6. ...} X.X.{ s p p p p p y y y 6 6 & & % % # # # o X X X X o o * * = : : u k k M M x H P.,XZXNXMXMXAXAXAXAXMXMXMXMXDXGXGXGXGXGXGXGXGXGXGXGXGXGXGXGXGXGXGXGXGXGXGXGXGXGXGXGXKXMXMXMXMXMXMXMXMXMXMXMXMXMXMXMXMXMXMXMXMXMXMXMXMXMXMXMXGXGXGXGXGXGXGXGXGXGXGXGXGXGXGXGXGXGXGXGXGXGXGXGXGXGXGXKXMXMXMXMXMXMXMXMXMXMXMXMXMXMXMXMXMXMXMXMXMXMXMXMXMXMXMXGXGXGXGXGXGXGXGXGXGXGXGXGXGXGXGX",
"GXGXGXGXGXGXGXGXGXGXGXGXGXGXGXGXGXGXGXGXGXGXGXGXGXGXGXKXMXMXMXMXMXMXMXMXMXMXMXMXMXMXMXMXMXMXMXMXMXMXMXMXDXMXDXGXGXGXGXGXGXGXGXGXGXGXGXGXGXGXGXGXGXGXGXGXGXGXGXGXGXGXKXMXMXMXMXMXMXMXMXMXMXMXMXMXMXMXMXMXMXMXMXMXMXMXMXDXMXMXGXGXGXGXGXGXGXGXGXGXGXGXGXGXGXGXGXGXGXGXGXGXHXHXGXGXHXHXMXMXNX X.XP.Q G L L M k k u : = = * - = % & & & 6 u i i i y g g X.X.&.&.G.W.W.W.W.W.W.T.u.w.h.h.h.a.i.a.a.a.a.a.a.a.a.a.a.p.i.i.i.i.i.i.8.8.8.9.9.9.9.9.4.4.7.4. . .| | { a s f f g g p y i y 8 6 6 & & & & = * * % o o % % * * : : u h k M M B M H.P.,XVXNXMXMXAXAXAXAXMXMXMXMXDXGXGXGXGXGXGXGXGXGXGXGXGXGXGXGXGXGXGXGXGXGXGXGXGXGXGXGXKXMXMXMXMXMXMXMXMXMXMXMXMXMXMXMXMXMXMXMXMXMXMXMXMXMXMXMXGXGXGXGXGXGXGXGXGXGXGXGXGXGXGXGXGXGXGXGXGXGXGXGXGXGXGXKXMXMXMXMXMXMXMXMXMXMXMXMXMXMXMXMXMXMXMXMXMXMXMXMXMXMXMXGXGXGXGXGXGXGXGXGXGXGXGXGXGXGXGX",
"GXGXGXGXGXGXGXGXGXGXGXGXGXGXGXGXGXGXGXGXGXGXGXGXGXGXGXKXMXMXMXMXMXMXMXMXMXMXMXMXMXMXMXMXMXMXMXMXMXMXMXMXDXMXDXGXGXGXGXGXGXGXGXGXGXGXGXGXGXGXGXGXGXGXGXGXGXGXGXGXGXGXKXMXMXMXMXMXMXMXMXMXMXMXMXMXMXMXMXMXMXMXMXMXMXMXMXDXMXMXGXGXGXGXGXGXGXGXGXGXGXGXGXGXGXGXGXGXGXGXGXGXGXGXGXGXHXHXSXMXBX2XP.P.P.L L H N M k h = * = % % & % & # $ & 6 6 6 7 y g g X.f &.X.&.X.w.w.1.w.w.w.w.w.d.8.i.8.9.9.9.9.7.7.9.9.9.9.9.9.9.9.9.9.9.4.4.O.7.9.4.4.9.9.9.9.O. . .| | } } { s g g p y y y 6 i u u : : : : = : = * * * * * * * : : : u k k M x N M H.H.,XVXBXMXMXAXAXAXAXMXMXMXMXDXGXGXGXGXGXGXGXGXGXGXGXGXGXGXGXGXGXGXGXGXGXGXGXGXGXGXGXKXMXMXMXMXMXMXMXMXMXMXMXMXMXMXMXMXMXMXMXMXMXMXMXMXMXMXMXGXGXGXGXGXGXGXGXGXGXGXGXGXGXGXGXGXGXGXGXGXGXGXGXGXGXGXKXMXMXMXMXMXMXMXMXMXMXMXMXMXMXMXMXMXMXMXMXMXMXMXMXMXMXMXGXGXGXGXGXGXGXGXGXGXGXGXGXGXGXGX",
"GXGXGXGXGXGXGXGXGXGXGXGXGXGXGXGXGXGXGXGXGXGXGXGXGXGXGXKXMXMXMXMXMXMXMXMXMXMXMXMXMXMXMXMXMXMXMXMXMXMXMXMXDXMXDXGXGXGXGXGXGXGXGXGXGXGXGXGXGXGXGXGXGXGXGXGXGXGXGXGXGXGXKXMXMXMXMXMXMXMXMXMXMXMXMXMXMXMXMXMXMXMXMXMXMXMXMXDXMXMXGXGXGXGXGXGXGXGXGXGXGXGXGXGXGXGXGXGXGXGXGXGXGXHXGXGXHXHXMXDXBXzXP.U .XU H H N M n k : = = % # % # & & & & & 6 6 i i g g d g f f X.s } 2.1.1.1.1.w.w.w.4.O.3.3. .| ,. . . . . . . . . . .| | | | |  .| | | | | | } { o.{ { a a a a s g g p y y y i i u u u : : : = = = = * * = * ; ; ; : : u u k k M M N B H.H.eXmXBXMXMXAXAXAXAXMXMXMXMXDXGXGXGXGXGXGXGXGXGXGXGXGXGXGXGXGXGXGXGXGXGXGXGXGXGXGXGXKXMXMXMXMXMXMXMXMXMXMXMXMXMXMXMXMXMXMXMXMXMXMXMXMXMXMXMXGXGXGXGXGXGXGXGXGXGXGXGXGXGXGXGXGXGXGXGXGXGXGXGXGXGXGXKXMXMXMXMXMXMXMXMXMXMXMXMXMXMXMXMXMXMXMXMXMXMXMXMXMXMXMXGXGXGXGXGXGXGXGXGXGXGXGXGXGXGXGX",
"GXGXGXGXGXGXGXGXGXGXGXGXGXGXGXGXGXGXGXGXGXGXGXGXGXGXGXKXMXMXMXMXMXMXMXMXMXMXMXMXMXMXMXMXMXMXMXMXMXMXMXMXDXMXDXGXGXGXGXGXGXGXGXGXGXGXGXGXGXGXGXGXGXGXGXGXGXGXGXGXGXGXKXMXMXMXAXMXMXMXMXMXMXMXMXMXMXMXMXMXMXMXMXMXMXMXMXDXMXMXGXGXGXGXGXGXGXGXGXGXGXGXGXGXGXGXGXGXGXGXGXGXGXHXGXGXHXHXSXDXBXmX,XU P.P.H.H M M n z z < , = * & % = & = : u u u i i i y i y g p g g p a s s g f f s } o.{ { s a g g p a a a a a a a p p p p p p a s s a a a a a a p p p p p p p p p y y 7 7 7 y 7 6 6 6 8 = = = = = - * * * * : ; : : : u h h k k M B N H H..XzXVXBXMXMXAXAXAXAXMXMXMXMXDXGXGXGXGXGXGXGXGXGXGXGXGXGXGXGXGXGXGXGXGXGXGXGXGXGXGXGXKXMXMXMXMXMXMXMXMXMXMXMXMXMXMXMXMXMXMXMXMXMXMXMXMXMXMXMXGXGXGXGXGXGXGXGXGXGXGXGXGXGXGXGXGXGXGXGXGXGXGXGXGXGXGXKXMXMXMXMXMXMXMXMXMXMXMXMXMXMXMXMXMXMXMXMXMXMXMXMXMXMXMXGXGXGXGXGXGXGXGXGXGXGXGXGXGXGXGX",
"GXGXGXGXGXGXGXGXGXGXGXGXGXGXGXGXGXGXGXGXGXGXGXGXGXGXGXKXMXMXMXMXMXMXMXMXMXMXMXMXMXMXMXMXMXMXMXMXMXMXMXMXDXMXDXGXGXGXGXGXGXGXGXGXGXGXGXGXGXGXGXGXGXGXGXGXGXGXGXGXGXGXKXMXMXMXMXMXMXMXMXMXMXMXMXMXMXMXMXMXMXMXMXMXMXMXMXDXMXMXGXGXGXGXGXGXGXGXGXGXGXGXGXGXGXGXGXGXGXGXGXGXGXGXGXGXHXDXNXDXNXZXvXP.P..XP.H G G n z z l z h , : = = & = : : u u u u u i i i y y y g p g d g g d d g g f f g g d j i i i i i i i i i i i i i i i y y i y y y y y g g i i i i i i i i y y y 7 y y 6 6 u u 8 = = = = = = = : : : : , , , , h k k k M M B B H.H.,XVXZXNXMXMXAXAXAXMXMXMXMXMXDXGXGXGXGXGXGXGXGXGXGXGXGXGXGXGXGXGXGXGXGXGXGXGXGXGXGXGXKXMXMXMXMXMXMXMXMXMXMXMXMXMXMXMXMXMXMXMXMXMXMXMXMXMXMXMXGXGXGXGXGXGXGXGXGXGXGXGXGXGXGXGXGXGXGXGXGXGXGXGXGXGXGXKXMXMXMXMXMXMXMXMXMXMXMXMXMXMXMXMXMXMXMXMXMXMXMXMXMXMXMXGXGXGXGXGXGXGXGXGXGXGXGXGXGXGXGX",
"GXGXGXGXGXGXGXGXGXGXGXGXGXGXGXGXGXGXGXGXGXGXGXGXGXGXGXKXMXMXMXMXMXMXMXMXMXMXMXMXMXMXMXMXMXMXMXMXMXMXMXMXDXMXDXGXGXGXGXGXGXGXGXGXGXGXGXGXGXGXGXGXGXGXGXGXGXGXGXGXGXGXKXMXMXMXMXMXMXMXMXMXMXMXMXMXMXMXMXMXMXMXMXMXMXMXMXDXMXMXGXGXGXGXGXGXGXGXGXGXGXGXGXGXGXGXGXGXGXGXGXGXGXGXGXGXGXKXMXMXDXDXvXhXL.%X;X.XH G G Z Z b l l z z z h h , : : u u u u j k k i j d i i g g g d i i d i g g 7 7 6 6 u u u u u u = = u = & = = = = = = & % & & & & 6 & & & & & & & & = 8 8 8 i i i u u u u u : : : , , , , , , , , , , , , h h k M M M B H L U ,XnXZXBXNXMXAXAXAXMXMXBXMXMXMXDXGXGXGXGXGXGXGXGXGXGXGXGXGXGXGXGXGXGXGXGXGXGXGXGXGXGXGXKXMXMXMXMXMXMXMXMXMXMXMXMXMXMXMXMXMXMXMXMXMXMXMXMXMXMXMXGXGXGXGXGXGXGXGXGXGXGXGXGXGXGXGXGXGXGXGXGXGXGXGXGXGXGXKXMXMXMXMXMXMXMXMXMXMXMXMXMXMXMXMXMXMXMXMXMXMXMXMXMXMXMXGXGXGXGXGXGXGXGXGXGXGXGXGXGXGXGX",
"GXGXGXGXGXGXGXGXGXGXGXGXGXGXGXGXGXGXGXGXGXGXGXGXGXGXGXKXMXMXMXMXMXMXMXMXMXMXMXMXMXMXMXMXMXMXMXMXMXMXMXMXDXMXDXGXGXGXGXGXGXGXGXGXGXGXGXGXGXGXGXGXGXGXGXGXGXGXGXGXGXGXKXMXMXMXMXMXMXMXMXMXMXMXMXMXMXMXMXMXMXMXMXMXMXMXMXDXMXMXGXGXGXGXGXGXGXGXGXGXGXGXGXGXGXGXGXGXGXGXGXGXGXGXGXGXGXKXMXMXMXDXMXNX#X#XqX,X,XP.Q Q G A Z C n n k z z l z z h u 8 6 6 6 8 6 6 8 i 7 7 p 7 y 6 y i i 7 7 7 6 4 $ & & & # # # # # # # # # # # # # # # # # # # $ & & & 6 6 & 6 6 6 6 6 6 6 6 8 u u u = u : , , , , , > , , h h l h l l z n n M B B N D.H U ,XmXVXnXDXDXAXAXAXMXMXMXBXNXMXMXDXGXGXGXGXGXGXGXGXGXGXGXGXGXGXGXGXGXGXGXGXGXGXGXGXGXGXGXKXMXMXMXMXMXMXMXMXMXMXMXMXMXMXMXMXMXMXMXMXMXMXMXMXMXMXMXGXGXGXGXGXGXGXGXGXGXGXGXGXGXGXGXGXGXGXGXGXGXGXGXGXGXGXKXMXMXMXMXMXMXMXMXMXMXMXMXMXMXMXMXMXMXMXMXMXMXMXMXMXMXMXGXGXGXGXGXGXGXGXGXGXGXGXGXGXGXGX",
"GXGXGXGXGXGXGXGXGXGXGXGXGXGXGXGXGXGXGXGXGXGXGXGXGXGXGXKXMXMXMXMXMXMXMXMXMXMXMXMXMXMXMXMXMXMXMXMXMXMXMXMXDXMXDXGXGXGXGXGXGXGXGXGXGXGXGXGXGXGXGXGXGXGXGXGXGXGXGXGXGXGXKXMXMXMXMXMXMXMXMXMXMXMXMXMXMXMXMXMXMXMXMXMXMXMXMXDXMXMXGXGXGXGXGXGXGXGXGXGXGXGXGXGXGXGXGXGXGXGXGXGXGXGXGXGXGXKXDXMXMXMXDXDXKX X#XbXeX;XH.P.H.U G G G M n k z z h h i u 6 6 6 y y y y i g g p a 7 p y p p p X.} } { a p p p s p p p p a a s s s a a a a s a a p p p a p p a a a p p a a p p g i i y i i i u u u u h h h , , , , h h l l l z G L H D.H.D.D.J..XzXVXmXBXDXMXDXAXAXAXMXMXMXBXNXMXMXDXGXGXGXGXGXGXGXGXGXGXGXGXGXGXGXGXGXGXGXGXGXGXGXGXGXGXGXKXMXMXMXMXMXMXMXMXMXMXMXMXMXMXMXMXMXMXMXMXMXMXMXMXMXMXMXGXGXGXGXGXGXGXGXGXGXGXGXGXGXGXGXGXGXGXGXGXGXGXGXGXGXGXKXMXMXMXMXMXMXMXMXMXMXMXMXMXMXMXMXMXMXMXMXMXMXMXMXMXMXMXGXGXGXGXGXGXGXGXGXGXGXGXGXGXGXGX",
"GXGXGXGXGXGXGXGXGXGXGXGXGXGXGXGXGXGXGXGXGXGXGXGXGXGXGXKXMXMXMXMXMXMXMXMXMXMXMXMXMXMXMXMXMXMXMXMXMXMXMXMXDXMXDXGXGXGXGXGXGXGXGXGXGXGXGXGXGXGXGXGXGXGXGXGXGXGXGXGXGXGXKXMXMXMXMXMXMXMXMXMXMXMXMXMXMXMXMXMXMXMXMXMXMXMXMXDXMXMXGXGXGXGXGXGXGXGXGXGXGXGXGXGXGXGXGXGXGXGXGXGXGXGXGXGXGXKXDXMXMXMXMXNXDXVX%X;XaX,XXXH H L M n z z j u u : : 6 6 6 6 y y g g g g g f f e.t.t.t.t.t.t.1..... .,.,.,.1.1.1.| | 1.,.| | { } ..| | | | | } 1.2.2.1.1.1.1.1.{ { a a a a a p p p p 7 y y 7 6 & & & & & & & % # % * * * : : , z n M H D.J.I.XXmXmXZXZXNXNXDXAXAXAXMXMXMXMXBXNXMXMXDXGXGXGXGXGXGXGXGXGXGXGXGXGXGXGXGXGXGXGXGXGXGXGXGXGXGXGXKXMXMXMXMXMXMXMXMXMXMXMXMXMXMXMXMXMXMXMXMXMXMXMXMXMXMXMXGXGXGXGXGXGXGXGXGXGXGXGXGXGXGXGXGXGXGXGXGXGXGXGXGXGXGXKXMXMXMXMXMXMXMXMXMXMXMXMXMXMXMXMXMXMXMXMXMXMXMXMXMXMXMXGXGXGXGXGXGXGXGXGXGXGXGXGXGXGXGX",
"GXGXGXGXGXGXGXGXGXGXGXGXGXGXGXGXGXGXGXGXGXGXGXGXGXGXGXKXMXMXMXMXMXMXMXMXMXMXMXMXMXMXMXMXMXMXMXMXMXMXMXMXMXMXDXGXGXGXGXGXGXGXGXGXGXGXGXGXGXGXGXGXGXGXGXGXGXGXGXGXGXGXKXMXMXMXMXMXMXMXMXMXMXMXMXMXMXMXMXMXMXMXMXMXMXMXMXDXMXMXGXGXGXGXGXGXGXGXGXGXGXGXGXGXGXGXGXGXGXGXGXGXGXGXGXGXGXKXLXMXMXMXMXMXNXZXFXP.XXeXN B i i u 8 = & % # & # # # & & 6 7 6 7 7 p p 7 p p K.XXXX0XOXOXOXOXu.1. .o.a t 5 7 p 4 $ $ $ 4 7 7 7 7 p p p 7 5 5 5 4 4 5 5 5 q p p p p t 7 7 7 7 p p 7 p p 7 7 6 6 6 $ # # # # # # # % % % * = : = = 6 i d m D.I.VXnXmXZXBXMXLXSXAXAXAXMXMXMXBXNXBXMXDXGXGXGXGXGXGXGXGXGXGXGXGXGXGXGXGXGXGXGXGXGXGXGXGXGXGXGXKXMXMXMXMXMXMXMXMXMXMXMXMXMXMXMXMXMXMXMXMXMXMXMXMXMXMXMXGXGXGXGXGXGXGXGXGXGXGXGXGXGXGXGXGXGXGXGXGXGXGXGXGXGXGXKXMXMXMXMXMXMXMXMXMXMXMXMXMXMXMXMXMXMXMXMXMXMXMXMXMXMXMXGXGXGXGXGXGXGXGXGXGXGXGXGXGXGXGX",
"GXGXGXGXGXGXGXGXGXGXGXGXGXGXGXGXGXGXGXGXGXGXGXGXGXGXGXKXMXMXMXMXMXMXMXMXMXMXMXMXMXMXMXMXMXMXMXMXMXMXMXMXMXMXMXGXGXGXGXGXGXGXGXGXGXGXGXGXGXGXGXGXGXGXGXGXGXGXGXGXGXGXKXMXMXMXMXMXMXMXMXMXMXMXMXMXMXMXMXMXMXMXMXMXMXMXMXDXMXMXGXGXGXGXGXGXGXGXGXGXGXGXGXGXGXGXGXGXGXGXGXGXGXGXGXGXGXKXMXMXMXLXDXMXKXBXmXpXH.I.J.N r.N m x x k u = 6 6 i i g g g a X.<.1.1.w.u.u.u.oXrXrXaXaXsXsXsXOXA.A.A.z.q.q.u.w.,.{ s { ,.w.u.u.u.u.u.u.u.u.w.1.,.,.,.6.w.w.u.w.w.w.w.w.w.u.u.1.1.1.1.1.<.f g g y 6 6 & & & & % % * = = : : u k k x B N r.F.I.bXFXZXnXDXDXSXLXAXAXAXMXMXMXBXBXBXMXDXGXGXGXGXGXGXGXGXGXGXGXGXGXGXGXGXGXGXGXGXGXGXGXGXGXGXGXKXMXMXMXMXMXMXMXMXMXMXMXMXMXMXMXMXMXMXMXMXMXMXMXMXMXMXMXGXGXGXGXGXGXGXGXGXGXGXGXGXGXGXGXGXGXGXGXGXGXGXGXGXGXGXKXMXMXMXMXMXMXMXMXMXMXMXMXMXMXMXMXMXMXMXMXMXMXMXMXMXMXMXGXGXGXGXGXGXGXGXGXGXGXGXGXGXGXGX",
"GXGXGXGXGXGXGXGXGXGXGXGXGXGXGXGXGXGXGXGXGXGXGXGXGXGXGXKXMXMXMXMXMXMXMXMXMXMXMXMXMXMXMXMXMXMXMXMXMXMXMXMXDXMXDXGXGXGXGXGXGXGXGXGXGXGXGXGXGXGXGXGXGXGXGXGXGXGXGXGXGXGXKXMXMXMXMXMXMXMXMXMXMXMXMXMXMXMXMXMXMXMXMXMXMXMXMXDXMXMXGXGXGXGXGXGXGXGXGXGXGXGXGXGXGXGXGXGXGXGXGXGXGXGXGXGXGXKXMXMXMXMXLXDXLXBXVX;XXXXXoXK.J.F.r.B x j u & & & 6 y g p p a s { ..1.w.w.u.W.OXaXsXsXsXsXsX+X}.A.d.a.s.d.d.z.z.A.A.A.A.A.h.4.q.q.h.h.h.h.h.q.h.h.q.q.q.q.q.q.4.9.9.9.7.6.w.6.6.6. ...} { a p p y 7 6 6 & & & % % % % = = : u u k x r.F.r.F.K.ZXvXBXGXMXPXLXDXAXAXAXMXMXMXBXBXMXMXDXGXGXGXGXGXGXGXGXGXGXGXGXGXGXGXGXGXGXGXGXGXGXGXGXGXGXGXKXMXMXMXMXMXMXMXMXMXMXMXMXMXMXMXMXMXMXMXMXMXMXMXMXMXMXMXGXGXKXGXGXGXGXGXGXGXGXGXGXGXGXGXGXGXGXGXGXGXGXGXGXGXGXKXMXMXMXMXMXMXMXMXMXMXMXMXMXMXMXMXMXMXMXMXMXMXMXMXMXMXMXGXGXGXGXGXGXGXGXGXGXGXGXGXGXGXGX",
"GXGXGXGXGXGXGXGXGXGXGXGXGXGXGXGXGXGXGXGXGXGXGXGXGXGXGXKXMXMXMXMXMXMXMXMXMXMXMXMXMXMXMXMXMXMXMXMXMXMXMXMXDXMXMXGXGXGXGXGXGXGXGXGXGXGXGXGXGXGXGXGXGXGXGXGXGXGXGXGXGXGXKXMXMXMXMXMXMXMXMXMXMXMXMXMXMXMXMXMXMXMXMXMXMXMXMXDXMXMXGXGXGXGXGXGXGXGXGXGXGXGXGXGXGXGXGXGXGXGXGXGXGXGXGXGXGXKXDXDXLXMXMXMXMXBXVX;XP.0XK.F.F.r.e.c x i 6 & 6 6 7 y y p p a } } | ,.6.w.u.A.OXsXsXsXsXsX+X+X}.z.a.a.f.f.f.z.z.z.s.p.8.d.d.8.9.7.8.7.8.8.8.8.7.0.d.q.0.0.7.O.9.9.9.7.7.9.4.O.3.O. .| } { a p p 7 7 6 6 & & % % % % = = = u u k k x m r.r.J.I.mXKXMXNXLXHXAXNXAXAXAXMXMXMXBXNXBXMXDXGXGXGXGXGXGXGXGXGXGXGXGXGXGXGXGXGXGXGXGXGXGXGXGXGXGXGXKXMXMXMXMXMXMXMXMXMXMXMXMXMXMXMXMXMXMXMXMXMXMXMXMXMXMXMXGXGXKXGXGXGXGXGXGXGXGXGXGXGXGXGXGXGXGXGXGXGXGXGXGXGXGXKXMXMXMXMXMXMXMXMXMXMXMXMXMXMXMXMXMXMXMXMXMXMXMXMXMXMXMXGXGXGXGXGXGXGXGXGXGXGXGXGXGXGXGX",
"GXGXGXGXGXGXGXGXGXGXGXGXGXGXGXGXGXGXGXGXGXGXGXGXGXGXGXKXDXDXMXMXMXMXMXMXMXMXMXMXMXMXMXMXMXMXMXMXMXMXMXDXMXMXDXGXGXGXGXGXGXGXGXGXGXGXGXGXGXGXGXGXGXGXGXGXGXGXGXGXGXGXKXMXMXMXDXLXMXMXMXMXMXMXMXMXMXMXMXMXMXMXMXMXDXMXMXMXMXKXGXGXGXGXGXGXGXGXGXGXGXGXGXGXGXGXGXGXGXGXGXGXGXGXGXGXGXKXMXMXMXMXMXDXAXBXVX.XI.oXK.K.J.t.m x x i 6 6 6 6 y y y p p a { } .. .6.6.A.A.OXaXsXaXsXsXsX+XA.z.l.k.j.z.z.z.z.s.s.z.z.z.d.d.d.0.7.7.7.7.8.q.q.q.q.q.h.q.7.4.4.4.4.4.4.6.3.3.O. ...{ { { a p y 7 6 6 & & & % % % % & = = 8 u j i x N r.r.J.I.VXAXMXAXAXAXLXLXAXAXMXMXMXNXNXNXDXMXDXGXGXGXGXGXGXGXGXGXGXGXGXGXGXGXGXGXGXGXGXGXGXGXGXGXGXGXKXMXMXMXMXMXMXMXMXMXMXMXMXMXMXMXMXMXMXMXMXMXMXMXMXMXMXDXKXGXGXGXGXGXGXGXGXGXGXGXGXGXGXGXGXGXGXGXGXGXGXHXGXGXGXKXMXMXMXMXMXMXMXMXMXMXMXMXMXMXMXMXMXMXMXMXMXMXMXMXMXMXMXKXGXGXGXGXGXGXGXGXGXGXGXGXGXGXGX",
"GXGXGXGXGXGXGXGXGXGXGXGXGXGXGXGXGXGXGXGXGXGXGXGXGXGXGXKXMXMXMXMXDXDXDXMXMXMXDXDXDXMXMXMXDXDXDXDXMXMXMXDXMXMXMXGXGXGXGXGXGXGXGXGXGXGXGXGXGXGXGXGXGXGXGXGXGXGXGXGXGXGXKXDXMXMXMXMXDXDXDXMXMXMXDXDXDXDXDXDXDXDXMXMXMXMXMXMXMXDXKXGXGXGXGXGXGXGXGXGXGXGXGXGXGXGXGXGXGXGXGXGXGXGXGXGXHXKXMXMXMXMXMXAXAXMXVXP.I.I.K.u.t.t.c x d i 6 & 6 6 7 y p p a s { } } | 6.O.A.u.OXsXaXsXrXaXtXOXA.z.z.z.z.z.d.d.d.d.s.d.0.7.0.d.0.7.4.3.O. . .O. .O.4.3.O.O.7.q.4.O. ...o.o.o.o. .....o.o.a p 7 y y 6 6 & & & % % % % & = = 8 u j i x m r.r.J.I.VXLXLXLXLXLXLXLXLXLXLXLXLXLXBXLXMXMXMXKXGXGXGXGXGXGXGXGXGXGXGXGXGXGXGXGXGXGXGXGXGXGXGXGXGXGXKXDXDXDXDXMXMXMXDXDXDXMXMXMXDXDXDXDXDXMXMXMXDXDXDXDXMXKXKXGXGXGXGXGXGXGXGXGXGXGXGXGXGXGXGXGXGXGXGXGXGXGXGXGXGXDXMXMXDXDXDXDXMXMXMXMXDXDXDXMXMXMXDXDXDXMXMXMXDXDXDXDXDXGXGXGXGXGXGXGXGXGXGXGXGXGXGXGXGX",
"GXGXGXGXGXGXGXGXGXGXGXGXGXGXGXGXGXGXGXGXGXGXGXGXGXGXGXKXMXMXMXMXMXMXMXMXMXMXMXMXMXMXMXMXMXMXMXMXMXMXDXDXMXMXDXGXGXGXGXGXGXGXGXGXGXGXGXGXGXGXGXGXGXGXGXGXGXGXGXGXGXGXKXDXMXDXDXMXMXMXMXMXMXMXMXMXMXMXMXMXMXMXMXMXMXMXMXMXMXDXKXGXGXGXGXGXGXGXGXGXGXGXGXGXGXGXGXGXGXGXGXGXGXGXGXGXGXKXDXMXDXDXMXAXAXMXVXP.P.K.K.F.t.e.c x d i 6 6 6 6 6 7 7 p p p s } ..1.u.u.OXOXsXaXbXaXaXbXsXsX+XOX}.Z.z.z.u.A.A.z.z.h.h.h.h.h.A.A.A.A.A.u.u.w.q.7.7.4.4.9.7.8.q.9.4.O. ....... . .| { { a p 7 y 7 6 6 & & % % % % % % = = = u i i x m N r.F.P.VXMXMXMXMXMXMXMXMXMXMXMXMXNXNXNXDXMXDXKXGXGXKXGXGXGXGXGXGXGXGXGXGXGXGXGXGXGXGXGXGXGXGXGXGXGXKXMXMXMXMXMXMXMXMXMXMXMXMXMXMXMXMXMXMXMXMXMXMXMXMXMXMXDXKXGXGXGXGXGXGXGXGXGXGXGXGXGXGXGXGXGXGXGXGXGXGXGXGXGXGXKXDXMXMXMXMXMXMXMXMXMXMXMXMXMXMXMXMXMXMXMXMXMXMXMXMXMXDXKXGXGXKXGXGXGXGXGXGXGXGXGXGXGXGX",
"GXGXGXGXGXGXGXGXGXGXGXGXGXGXGXGXGXGXGXGXGXGXGXGXGXGXGXKXMXMXMXDXDXDXDXDXMXMXMXMXDXDXMXMXMXMXDXDXMXMXDXDXMXMXKXGXGXGXGXGXGXGXGXGXGXGXGXGXGXGXGXGXGXGXGXGXGXGXGXGXGXGXKXMXMXMXDXMXDXDXDXDXMXMXMXMXMXDXDXDXDXDXDXDXMXMXDXMXMXDXKXGXGXGXGXGXGXGXGXGXGXGXGXGXGXGXGXGXGXGXGXGXGXGXGXGXGXKXDXMXDXDXMXMXAXNXmXH.P.K.K.F.t.N c x d u u 6 i y i y y p p p p a { } ..1.u.W.oXK.XXXXXXXXK.K.,.{ ..o.o.a t t a a t a o.o.t q t t q q t o.|  . . . .O.3.4.3.3. . . .6.6.,.,.,.} } { { s s p p 7 6 6 & & & % # % # % % = = = u u j x M B r.D.J.VXLXLXLXDXLXLXMXDXLXLXLXDXDXLXLXMXMXDXKXGXGXKXGXGXGXGXGXGXGXGXGXGXGXGXGXGXGXGXGXGXGXGXGXGXGXKXMXDXDXDXDXMXMXMXMXDXDXMXMXMXMXDXDXDXDXMXMXMXMXDXDXMXDXKXGXGXGXGXGXGXGXGXGXGXGXGXGXGXGXGXGXGXGXGXGXGXGXGXGXGXKXDXMXDXDXDXDXDXMXMXMXDXDXDXDXMXMXMXMXDXDXMXMXMXMXDXDXMXKXGXGXHXHXGXGXGXGXGXGXGXGXGXGXGX",
"GXGXGXGXGXGXGXGXGXGXGXGXGXGXGXGXGXGXGXGXGXGXGXGXGXGXGXKXMXMXMXMXMXMXMXMXMXMXMXMXMXMXMXMXMXMXMXMXMXMXMXMXMXMXDXKXGXGXGXGXGXGXGXGXGXGXGXGXGXGXGXGXGXGXGXGXGXGXGXGXGXGXKXLXMXMXMXMXMXMXMXMXMXMXMXMXMXMXMXMXMXMXMXMXMXMXMXMXMXMXKXGXGXGXGXGXGXGXGXGXGXGXGXGXGXGXGXGXGXGXGXGXGXGXGXGXGXKXMXMXMXMXMXMXMXNXmXU P.J.J.D.m c c x j u 6 6 & 6 6 6 6 6 7 7 7 7 p p p p s u.oXoXoXXXXXK.K.W.3.O.7.8.9.4. ....... . ...o.o.o.o.{ | | { a t 5 5 t p a p q t p p a a a a s a a a o.a a a a p 7 7 6 6 & & & % # % # % % = = = u u k x M B r.D.J.VXNXMXMXMXNXMXNXMXMXMXMXMXMXMXMXNXMXDXKXGXGXGXGXGXGXGXGXGXGXGXGXGXGXGXGXGXGXGXGXGXGXGXGXGXGXKXMXMXMXMXMXMXMXMXMXMXMXMXMXMXMXMXMXMXMXMXMXMXMXMXMXMXKXGXGXGXGXGXGXGXGXGXGXGXGXGXGXGXGXGXGXGXGXGXGXGXGXGXGXGXKXMXNXMXMXMXMXMXMXMXMXMXMXMXMXMXMXMXMXMXMXMXMXMXMXMXMXDXKXGXGXGXGXGXGXGXGXGXGXGXGXGXGXGX",
"GXGXGXGXGXGXGXGXGXGXGXGXGXGXGXGXGXGXGXGXGXGXGXGXGXKXKXKXKXMXMXDXMXMXMXMXMXMXMXMXMXMXMXMXMXMXMXMXDXDXDXDXDXDXKXKXGXGXGXGXGXGXGXGXGXGXGXGXGXGXGXGXGXGXGXGXGXGXGXGXGXGXKXDXMXDXDXMXMXMXMXMXMXMXMXMXMXMXMXMXMXMXMXMXDXDXDXDXDXDXKXKXGXGXGXGXGXGXGXGXGXGXGXGXGXGXGXGXGXGXGXGXGXGXGXGXKXKXKXDXDXDXDXDXDXDXvXU P.J.F.D.m c x k u u & & 6 6 6 7 y y y p p s f X.X.1.t.OXsXbXaXbXbXaXaX+X}.A.l.j.a.a.d.h.h.z.A.h.z.h.h.h.h.h.h.w.w.u.w.u.w.u.u.u.w.1.1.1.1.1.1.1.X.<.<.<.{ { a a a p p 7 7 6 6 & & & % # % # % - = = = u h k x x B r.D.H.VXNXMXBXLXBXNXNXMXMXMXMXMXMXMXMXMXDXKXKXGXGXKXKXGXGXGXGXGXGXGXGXGXGXGXGXGXGXGXGXKXGXGXGXGXGXKXDXMXMXMXMXMXMXMXMXMXMXMXMXMXMXMXMXMXMXMXMXMXMXMXMXDXKXKXGXGXGXKXKXGXGXGXGXGXGXGXGXGXGXGXGXGXGXGXGXKXGXGXKXKXKXKXMXMXMXMXMXMXMXMXMXMXMXMXMXMXMXMXMXMXMXMXMXMXMXMXMXDXKXKXGXGXGXKXKXGXGXGXGXGXGXGXGXGX",
"MXMXMXMXMXMXMXMXMXMXMXMXMXMXMXMXMXMXMXMXMXMXMXMXDXMXMXKXHXHXGXGXGXGXGXGXGXGXGXGXGXGXGXGXGXGXGXGXGXGXKXKXGXGXKXKXMXMXMXMXMXMXMXMXMXMXMXMXMXMXMXMXMXMXMXMXMXMXMXMXMXDXKXKXKXGXGXKXGXGXGXGXGXGXGXGXGXGXGXGXGXGXGXGXGXGXKXKXKXKXKXDXMXMXMXMXMXMXMXMXMXMXMXMXMXMXMXMXMXMXMXMXMXMXMXMXKXKXGXHXKXGXGXKXKXKXvXY H.J.D.D.N c x k j u & & & 6 6 7 7 y y p p p p p s X.<.oXtXaXaXaXaXrXaXOXu.q.d.p.8.8.7.q.8.9.4.O.8.d.d.7.7.7.7.7.q.7.7.7.5.3.O.3.5.w.q.6.6.6. .| | { { { } } { a a a p y 7 6 6 6 & & & # # % % - = = = u u k x x M N D.H.FXFXHXHXHXHXHXHXHXHXGXGXGXGXGXGXGXGXKXKXDXDXDXDXMXMXMXMXMXMXMXMXMXMXMXMXMXMXMXMXDXDXDXDXDXKXKXKXGXGXGXGXGXGXGXGXGXGXGXGXGXGXGXGXGXGXGXGXGXGXGXGXKXKXDXDXDXDXDXMXMXMXMXMXMXMXMXMXMXMXMXMXMXMXMXMXMXDXDXMXKXKXGXGXGXGXGXGXGXGXGXGXGXGXGXGXGXGXGXGXGXGXGXGXGXGXGXGXKXDXDXDXDXDXDXMXMXMXMXMXMXMXMXMXMX",
"MXMXMXMXMXMXMXMXMXMXMXMXMXMXMXMXMXMXMXMXMXMXMXMXMXMXMXKXGXGXGXGXGXGXGXGXGXGXGXGXGXGXGXGXGXGXGXGXGXGXGXGXGXGXKXLXMXMXMXMXMXMXMXMXMXMXMXMXMXMXMXMXMXMXMXMXMXMXMXMXMXDXKXGXGXGXGXGXGXGXGXGXGXGXGXGXGXGXGXGXGXGXGXGXGXGXGXGXGXKXDXMXMXMXMXMXMXMXMXMXMXMXMXMXMXMXMXMXMXMXMXMXMXMXMXMXMXKXGXGXGXGXGXGXHXHXzXL H J.H D.N M x k j u & & & 6 7 y y y y p p p p g f e.e.oXaXbXaXbXbXrXaXOXu.w.d.d.8.8.q.q.q.h.h.8.8.8.q.q.q.7.7.q.q.q.q.q.5.q.q.5.4.4.4.5. . . . . .| | } { { a a p p p 7 7 6 6 6 & & & # % % % * = = : u u k x x M N D.H.ZXFXFXHXHXGXGXHXGXGXGXGXGXGXGXGXGXGXKXDXMXMXMXMXMXMXMXMXMXMXMXMXMXMXMXMXMXMXMXMXMXMXMXMXMXDXKXGXGXGXGXGXGXGXGXGXGXGXGXGXGXGXGXGXGXGXGXGXGXGXGXGXGXGXDXMXMXMXMXMXMXMXMXMXMXMXMXMXMXMXMXMXMXMXMXMXMXMXMXMXMXKXGXGXGXGXGXGXGXGXGXGXGXGXGXGXGXGXGXGXGXGXGXGXGXGXGXGXGXKXMXMXMXMXMXMXMXMXMXMXMXMXMXMXMX",
"MXMXMXMXMXMXMXMXMXMXMXMXMXMXMXMXMXMXMXMXMXMXMXMXMXMXDXKXGXGXGXGXGXGXGXGXGXGXGXGXGXGXGXGXGXGXGXGXGXGXGXGXGXGXGXMXMXMXMXMXMXMXMXMXMXMXMXMXMXMXMXMXMXMXMXMXMXMXMXMXMXMXKXGXGXGXGXGXGXGXGXGXGXGXGXGXGXGXGXGXGXGXGXGXGXGXGXGXGXGXMXMXMXMXMXMXMXMXMXMXMXMXMXMXMXMXMXMXMXMXMXMXMXMXMXMXMXKXGXGXGXGXGXGXHXHXeXU P.H.H.N M x k k i u & & & 6 6 6 7 7 y p p g g a f f t.K.aXmXaXaXaXaXaXOXu.w.q.q.q.7.6.6.w.6.6.6.6.3.O. .,.3.6.6.,. . . .| | | | | | | } { { { { a a a a a a p p p p 7 7 6 6 6 & & & % # % % % % = = = : u j k x B D.J.H.VXHXFXGXFXGXGXGXGXGXGXGXGXHXHXHXGXGXHXLXMXMXLXMXMXMXMXMXMXMXMXMXMXMXMXMXMXMXMXMXMXMXMXMXMXMXKXGXGXGXGXGXGXGXGXGXGXGXGXGXGXGXGXGXGXGXGXGXGXGXGXGXGXGXMXMXDXMXMXMXMXMXMXMXMXMXMXMXMXMXMXMXMXMXMXMXMXMXMXMXDXKXGXGXGXGXGXGXGXGXGXGXGXGXGXGXGXGXGXGXGXGXGXGXGXGXGXGXGXDXMXDXMXMXMXMXMXMXMXMXMXMXMXMXMX",
"MXMXMXMXMXMXMXMXMXMXMXMXMXMXMXMXMXMXMXMXMXMXMXMXMXMXDXKXGXGXGXGXGXGXGXGXGXGXGXGXGXGXGXGXGXGXGXGXGXGXGXGXGXGXGXMXMXMXMXMXMXMXMXMXMXMXMXMXMXMXMXMXMXMXMXMXMXMXMXMXMXMXKXGXGXGXGXGXGXGXGXGXGXGXGXGXGXGXGXGXGXGXGXGXGXGXGXGXGXGXMXMXMXMXMXMXMXMXMXMXMXMXMXMXMXMXMXMXMXMXMXMXMXMXMXMXMXKXGXGXGXGXGXGXHXFXeXU P.H.D.N M x k k i u = & & 6 6 6 7 7 7 y p 7 p p p s t.K.aXbXaXaXaXaXsXOXw.w.9.4.3. . . .,.,. . . . .| | | | | | } } { { { { { { } } { { a a a a a a p p p p p p p p 7 7 6 6 6 & & & % # % # % % & = = : u i k x B D.J.H.mXGXFXGXKXGXGXGXGXGXGXGXHXHXHXHXHXGXHXLXMXMXLXMXMXMXMXMXMXMXMXMXMXMXMXMXMXMXMXMXMXMXMXMXMXMXKXGXGXGXGXGXGXGXGXGXGXGXGXGXGXGXGXGXGXGXGXGXGXGXGXGXGXGXMXMXDXMXMXMXMXMXMXMXMXMXMXMXMXMXMXMXMXMXMXMXMXMXMXMXDXKXGXGXGXGXGXGXGXGXGXGXGXGXGXGXGXGXGXGXGXGXGXGXGXGXGXGXGXDXMXDXMXMXMXMXMXMXMXMXMXMXMXMXMX",
"MXMXMXMXMXMXMXMXMXMXMXMXMXMXMXMXMXMXMXMXMXMXMXMXMXMXDXKXGXGXGXGXGXGXGXGXGXGXGXGXGXGXGXGXGXGXGXGXGXGXGXGXGXGXGXMXMXMXMXMXMXMXMXMXMXMXMXMXMXMXMXMXMXMXMXMXMXMXMXMXMXMXKXGXGXGXGXGXGXGXGXGXGXGXGXGXGXGXGXGXGXGXGXGXGXGXGXGXGXGXMXMXMXMXMXMXMXMXMXMXMXMXMXMXMXMXMXMXMXMXMXMXMXMXMXMXMXKXGXGXGXGXGXGXFXFX1XU P.H.D.N M x k k j u = & & 6 6 7 7 7 7 y p 7 p s p a t.K.rXaXaXaXaXaXsXOX,.6.7.4.O. .| | |  . . . . . . .| | | | | } } { } } } | | | | } { { a a a a a a a a p p p p p 7 6 6 6 & & & % # % % % % & = = : u i k k M D.J.H.nXHXFXGXGXGXGXGXGXGXGXGXHXHXHXHXHXGXHXLXMXMXLXMXMXMXMXMXMXMXMXMXMXMXMXMXMXMXMXMXMXMXMXMXMXMXKXGXGXGXGXGXGXGXGXGXGXGXGXGXGXGXGXGXGXGXGXGXGXGXGXGXGXGXMXMXDXMXMXMXMXMXMXMXMXMXMXMXMXMXMXMXMXMXMXMXMXMXMXMXDXKXGXGXGXGXGXGXGXGXGXGXGXGXGXGXGXGXGXGXGXGXGXGXGXGXGXGXGXDXMXDXMXMXMXMXMXMXMXMXMXMXMXMXMX",
"MXMXMXMXMXMXMXMXMXMXMXMXMXMXMXMXMXMXMXMXMXMXMXMXMXMXDXKXGXGXGXGXGXGXGXGXGXGXGXGXGXGXGXGXGXGXGXGXGXGXGXGXGXGXGXMXMXMXMXMXMXMXMXMXMXMXMXMXMXMXMXMXMXMXMXMXMXMXMXMXMXMXKXGXGXGXGXGXGXGXGXGXGXGXGXGXGXGXGXGXGXGXGXGXGXGXGXGXGXGXMXMXMXMXMXMXMXMXMXMXMXMXMXMXMXMXMXMXMXMXMXMXMXMXMXMXMXKXGXGXGXGXGXGXFXKX-XU P.H.D.N M x k k i u & & & 6 6 y y y y y p g s X.X.f t.K.aXaXaXaXaXaXsXOX1.w.q.7.3.3.3.,.,.,.3.3.3.3.3.3.3.,.,.3.3.6.3.,.,.,.,.3.6.6.6.6. .| | } } } { { s s s a p p p y 7 6 6 6 & & & # % % % % & = = : u i k k M D.J.H.vXHXFXGXGXGXGXGXGXGXGXGXGXHXHXHXHXGXHXLXMXMXLXMXMXMXMXMXMXMXMXMXMXMXMXMXMXMXMXMXMXMXMXMXMXMXKXGXGXGXGXGXGXGXGXGXGXGXGXGXGXGXGXGXGXGXGXGXGXGXGXGXGXGXMXMXDXMXMXMXMXMXMXMXMXMXMXMXMXMXMXMXMXMXMXMXMXMXMXMXLXKXGXGXGXGXGXGXGXGXGXGXGXGXGXGXGXGXGXGXGXGXGXGXGXGXGXGXGXDXMXDXMXMXMXMXMXMXMXMXMXMXMXMXMX",
"MXMXMXMXMXMXMXMXMXMXMXMXMXMXMXMXMXMXMXMXMXMXMXMXMXMXDXKXGXGXGXGXGXGXGXGXGXGXGXGXGXGXGXGXGXGXGXGXGXGXGXGXGXGXGXMXMXMXMXMXMXMXMXMXMXMXMXMXMXMXMXMXMXMXMXMXMXMXMXMXMXMXKXGXGXGXGXGXGXGXGXGXGXGXGXGXGXGXGXGXGXGXGXGXGXGXGXGXGXGXMXMXMXMXMXMXMXMXMXMXMXMXMXMXMXMXMXMXMXMXMXMXMXMXMXMXMXKXGXGXGXGXGXGXHXFX#XU P.H.D.N M x k j u u & & 6 6 6 y y y y y p f f f t.e.t.OXaXaXpXaXaXaXsXOXw.w.q.7.4.5.6.3.3.5.5.5.5.5.5.5.5.3.3.3.6.5.5.5.3.3.4.4.5.5.4.6.3. . .| | } } { { { s a p p p 7 7 7 6 6 & & % # % % % % & = = : u i k k M r.J.J.kXHXFXGXGXGXHXGXGXGXGXGXGXHXHXHXHXGXHXLXMXMXLXMXMXMXMXMXMXMXMXMXMXMXMXMXMXMXMXMXMXMXMXMXMXMXKXGXGXGXGXGXGXGXGXGXGXGXGXGXGXGXGXGXGXGXGXGXGXGXGXGXGXGXMXMXDXMXMXMXMXMXMXMXMXMXMXMXMXMXMXMXMXMXMXMXMXMXMXMXLXKXGXGXGXGXGXGXGXGXGXGXGXGXGXGXGXGXGXGXGXGXGXGXGXGXGXGXGXMXMXMXMXMXMXMXMXMXMXMXMXMXMXMXMX",
"MXMXMXMXMXMXMXMXMXMXMXMXMXMXMXMXMXMXMXMXMXMXMXMXMXMXDXKXGXGXGXGXGXGXGXGXGXGXGXGXGXGXGXGXGXGXGXGXGXGXGXGXGXGXGXMXMXMXMXMXMXMXMXMXMXMXMXMXMXMXMXMXMXMXMXMXMXMXMXMXMXMXKXGXGXGXGXGXGXGXGXGXGXGXGXGXGXGXGXGXGXGXGXGXGXGXGXGXGXGXMXMXMXMXMXMXMXMXMXMXMXMXMXMXMXMXMXMXMXMXMXMXMXMXMXMXMXKXGXGXGXGXGXGXHXKXL.U H.H.H N M k k j u 6 & & 6 6 7 7 7 7 y y p f g g e.e.y.OXaXaXpXaXaXaXsXOXu.w.7.7.7.5.6.6.5.5.5.5.5.5.5.5.5.5.5.5.5.5.5.5.3.3.3.4.4.4.3.3.O. . .| | } } { s s a a p p p 7 7 7 6 6 & & % # % % % % & = = : u i k k M r.J.J.pXHXHXHXGXGXHXGXGXGXGXGXGXGXHXHXGXGXHXLXMXMXLXMXMXMXMXMXMXMXMXMXMXMXMXMXMXMXMXMXMXMXMXMXMXMXKXGXGXGXGXGXGXGXGXGXGXGXGXGXGXGXGXGXGXGXGXGXGXGXGXGXGXGXMXMXDXMXMXMXMXMXMXMXMXMXMXMXMXMXMXMXMXMXMXMXMXMXMXMXDXKXGXGXGXGXGXGXGXGXGXGXGXGXGXGXGXGXGXGXGXGXGXGXGXGXGXGXGXMXMXDXMXMXMXMXMXMXMXMXMXMXMXMXMX",
"MXMXMXMXMXMXMXMXMXMXMXMXMXMXMXMXMXMXMXMXMXMXMXMXMXMXDXKXGXGXGXGXGXGXGXGXGXGXGXGXGXGXGXGXGXGXGXGXGXGXGXGXGXGXGXMXMXMXMXMXMXMXMXMXMXMXMXMXMXMXMXMXMXMXMXMXMXMXMXMXMXMXKXGXGXGXGXGXGXGXGXGXGXGXGXGXGXGXGXGXGXGXGXGXGXGXGXGXGXGXMXMXMXMXMXMXMXMXMXMXMXMXMXMXMXMXMXMXMXMXMXMXMXMXMXMXMXKXGXGXGXGXGXGXHXFXP.H.H.H.H B x k k j u u 6 6 6 6 7 y 7 7 y y p s f s f e.K.OXaXaXpXaXaXaXsXOXu.q.7.8.7.4.3.5.5.5.5.5.5.5.5.5.7.5.5.5.5.5.4.4.4.4.4.4.4.4.4.3.O. . .| | | } } s a a a p p p y 7 7 6 6 & & & # # % % % & = = : u h k k M r.J.J.pXHXHXFXGXGXHXGXGXGXGXGXGXGXHXHXGXGXGXDXMXMXLXMXMXMXMXMXMXMXMXMXMXMXMXMXMXMXMXMXMXMXMXMXMXMXKXGXGXGXGXGXGXGXGXGXGXGXGXGXGXGXGXGXGXGXGXGXGXGXGXGXGXGXMXMXDXMXMXMXMXMXMXMXMXMXMXMXMXMXMXMXMXMXMXMXMXMXMXMXDXKXGXGXGXGXGXGXGXGXGXGXGXGXGXGXGXGXGXGXGXGXGXGXGXGXGXGXGXDXMXDXMXMXMXMXMXMXMXMXMXMXMXMXMX",
"MXMXMXMXMXMXMXMXMXMXMXMXMXMXMXMXMXMXMXMXMXMXMXMXMXMXDXKXGXGXGXGXGXGXGXGXGXGXGXGXGXGXGXGXGXGXGXGXGXGXGXGXGXGXGXMXMXMXMXMXMXMXMXMXMXMXMXMXMXMXMXMXMXMXMXMXMXMXMXMXMXMXKXGXGXGXGXGXGXGXGXGXGXGXGXGXGXGXGXGXGXGXGXGXGXGXGXGXGXGXMXMXMXMXMXMXMXMXMXMXMXMXMXMXMXMXMXMXMXMXMXMXMXMXMXMXMXKXGXGXGXGXGXGXHXFXP.H.H.H.H M x k k k i u 6 6 6 7 y y y y y p p p f X.a t.oXOXaXaXaXaXaXaXsXOXu.q.7.0.8.4.3.5.5.5.5.5.5.5.5.5.5.5.7.5.4.4.4.5.4.4.4.4.4.4.4.4. . .....| | | } { s a a a p p y 7 7 6 6 & & & # # % % % & = = : u h k k M r.D.H.wXHXHXFXGXGXKXGXGXGXGXGXGXGXGXGXGXGXGXLXMXMXLXMXMXMXMXMXMXMXMXMXMXMXMXMXMXMXMXMXMXMXMXMXMXMXKXGXGXGXGXGXGXGXGXGXGXGXGXGXGXGXGXGXGXGXGXGXGXGXGXGXGXGXMXMXDXMXMXMXMXMXMXMXMXMXMXMXMXMXMXMXMXMXMXMXMXMXMXMXDXKXGXGXGXGXGXGXGXGXGXGXGXGXGXGXGXGXGXGXGXGXGXGXGXGXGXGXGXDXMXDXMXMXMXMXMXMXMXMXMXMXMXMXMX",
"MXMXMXMXMXMXMXMXMXMXMXMXMXMXMXMXMXMXMXMXMXMXMXMXMXMXDXKXGXGXGXGXGXGXGXGXGXGXGXGXGXGXGXGXGXGXGXGXGXGXGXGXGXGXGXMXMXMXMXMXMXMXMXMXMXMXMXMXMXMXMXMXMXMXMXMXMXMXMXMXMXMXKXGXGXGXGXGXGXGXGXGXGXGXGXGXGXGXGXGXGXGXGXGXGXGXGXKXGXGXMXMXMXMXMXMXMXMXMXMXMXMXMXMXMXMXMXMXMXMXMXMXMXMXMXMXMXKXGXGXGXGXGXHXHXVXP.U P.D.N M x x k j u u 6 6 6 7 7 7 7 y y p p p a f X.<.K.OXaXaXaXaXaXaXtXW.u.q.7.9.9.7.5.5.5.4.5.5.5.7.7.7.7.7.7.5.7.5.4.4.5.5.4.4.4.3.4.3.O. . .| | | } } { s a a a p p y y 7 6 6 6 & & % % % % % = & = : u u k x M N D.P.5XHXFXHXHXFXGXHXGXGXGXGXGXGXGXGXGXGXHXDXMXMXDXMXMXMXMXMXMXMXMXMXMXMXMXMXMXMXMXMXMXMXMXMXMXMXKXGXGXGXGXGXGXGXGXGXGXGXGXGXGXGXGXGXGXGXGXGXGXGXGXGXGXGXMXMXDXMXMXMXMXMXMXMXMXMXMXMXMXMXMXMXMXMXMXMXMXMXMXMXDXKXGXGXGXGXGXGXGXGXGXGXGXGXGXGXGXGXGXGXGXGXGXGXGXGXGXGXGXDXMXDXMXMXMXMXMXMXMXMXMXMXMXMXMX",
"MXMXMXMXMXMXMXMXMXMXMXMXMXMXMXMXMXMXMXMXMXMXMXMXMXMXLXKXGXGXGXGXGXGXGXGXGXGXGXGXGXGXGXGXGXGXGXGXGXGXGXGXGXGXGXMXMXMXMXMXMXMXMXMXMXMXMXMXMXMXMXMXMXMXMXMXMXMXMXMXMXMXKXGXGXGXGXGXGXGXGXGXGXGXGXGXGXGXGXGXGXGXGXGXGXGXGXKXGXGXMXMXMXMXMXMXMXMXMXMXMXMXMXMXMXMXMXMXMXMXMXMXMXMXMXMXMXKXGXGXGXGXGXHXHXmXP.U P.D.N M x x k k u u 6 6 6 7 7 7 7 y p p p a s f f <.K.OXaXaXaXaXaXaXsXW.w.q.8.8.7.7.5.5.4.4.5.5.7.7.7.7.7.7.7.7.7.7.4.5.5.5.5.5.5.5.4.3. . . .| | | } } { s a a a p p p 7 7 6 6 6 & & % % % % % = & = : u u k x M N D.P.,XFXFXHXFXHXGXHXGXGXGXGXGXGXGXGXGXGXGXDXMXMXDXMXMXMXMXMXMXMXMXMXMXMXMXMXMXMXMXMXMXMXMXMXMXMXKXGXGXGXGXGXGXGXGXGXGXGXGXGXGXGXGXGXGXGXGXGXGXGXGXGXGXGXMXMXDXMXMXMXMXMXMXMXMXMXMXMXMXMXMXMXMXMXMXMXMXMXMXMXDXKXGXGXGXGXGXGXGXGXGXGXGXGXGXGXGXGXGXGXGXGXGXGXGXGXGXGXGXDXMXDXMXMXMXMXMXMXMXMXMXMXMXMXMX",
"MXMXMXMXMXMXMXMXMXMXMXMXMXMXMXMXMXMXMXMXMXMXMXMXMXMXDXKXGXGXGXGXGXGXGXGXGXGXGXGXGXGXGXGXGXGXGXGXGXGXGXGXGXGXGXMXMXMXMXMXMXMXMXMXMXMXMXMXMXMXMXMXMXMXMXMXMXMXMXMXMXMXKXGXGXGXGXGXGXGXGXGXGXGXGXGXGXGXGXGXGXGXGXGXGXGXGXGXGXGXMXMXMXMXMXMXMXMXMXMXMXMXMXMXMXMXMXMXMXMXMXMXMXMXMXMXMXKXGXGXGXGXGXHXHXvXP.H.H.H N M x x k k u u 6 6 7 y 7 7 7 7 p p p a s f X.<.K.tXaXaXaXaXaXaXsXW.w.q.8.8.7.5.5.5.4.4.4.4.5.5.9.9.7.7.5.5.7.9.9.7.5.5.5.5.5.5.5.5.3.,. .| | | } } { s s a a a p p y 7 6 6 6 & & & % % % % = & = : u u k k x B D.P.,XFXHXHXHXHXGXGXGXGXGXGXGXGXGXGXGXGXGXDXMXMXDXMXMXMXMXMXMXMXMXMXMXMXMXMXMXMXMXMXMXMXMXMXMXMXKXGXGXGXGXGXGXGXGXGXGXGXGXGXGXGXGXGXGXGXGXGXGXGXGXGXGXGXMXMXDXMXMXMXMXMXMXMXMXMXMXMXMXMXMXMXMXMXMXMXMXMXMXMXDXKXGXGXGXGXGXGXGXGXGXGXGXGXGXGXGXGXGXGXGXGXGXGXGXGXGXGXGXMXMXMXMXMXMXMXMXMXMXMXMXMXMXMXMX",
"MXMXMXMXMXMXMXMXMXMXMXMXMXMXMXMXMXMXMXMXMXMXMXMXMXMXDXKXGXGXGXGXGXGXGXGXGXGXGXGXGXGXGXGXGXGXGXGXGXGXGXGXGXGXGXMXMXMXMXMXMXMXMXMXMXMXMXMXMXMXMXMXMXMXMXMXMXMXMXMXMXMXKXGXGXGXGXGXGXGXGXGXGXGXGXGXGXGXGXGXGXGXGXGXGXGXGXGXGXGXMXMXMXMXMXMXMXMXMXMXMXMXMXMXMXMXMXMXMXMXMXMXMXMXMXMXMXKXGXGXGXGXGXHXFXkXP.H.J.H N M x k k k i u 6 6 y y 7 7 7 7 p p p a s f <.t.K.tXaXaXaXaXaXaXsXu.6.q.0.8.7.5.5.5.5.5.4.5.5.7.7.7.4.4.7.5.9.7.7.7.5.5.5.5.5.5.5.5.3.3.,.,.| | } } { { s a a a p p 7 7 6 6 6 & & & % % % % = & = : u u k k x B D.P.;XFXFXHXHXHXGXGXGXGXGXGXGXGXGXGXGXGXHXLXMXMXMXMXMXMXMXMXMXMXMXMXMXMXMXMXMXMXMXMXMXMXMXMXMXMXKXGXGXGXGXGXGXGXGXGXGXGXGXGXGXGXGXGXGXGXGXGXGXGXGXGXGXGXMXMXDXMXMXMXMXMXMXMXMXMXMXMXMXMXMXMXMXMXMXMXMXMXMXMXDXKXGXGXGXGXGXGXGXGXGXGXGXGXGXGXGXGXGXGXGXGXGXGXGXGXGXGXGXMXMXMXMXMXMXMXMXMXMXMXMXMXMXMXMX",
"MXMXMXMXMXMXMXMXMXMXMXMXMXMXMXMXMXMXMXMXMXMXMXMXMXMXDXKXGXGXGXGXGXGXGXGXGXGXGXGXGXGXGXGXGXGXGXGXGXGXGXGXGXGXGXMXMXMXMXMXMXMXMXMXMXMXMXMXMXMXMXMXMXMXMXMXMXMXMXMXMXMXKXGXGXGXGXGXGXGXGXGXGXGXGXGXGXGXGXGXGXGXGXGXGXGXGXGXGXGXMXMXMXMXMXMXMXMXMXMXMXMXMXMXMXMXMXMXMXMXMXMXMXMXMXMXMXKXGXGXGXGXGXHXFXeXP.H.J.H M M M k k k i 6 6 6 y y y y y y p p p p s s <.e.u.tXaXaXaXaXaXaXtXu.w.q.0.8.8.q.q.5.5.5.5.5.5.5.5.5.5.5.5.5.7.7.7.7.5.5.5.5.7.7.5.5.5.3.3.,. .| | } { { s a a a p p y 7 7 6 6 & & & # % % % = = = : u u k k x m D.J.#XFXFXHXHXHXGXGXGXGXGXGXGXGXGXGXGXGXGXDXMXMXMXMXMXMXMXMXMXMXMXMXMXMXMXMXMXMXMXMXMXMXMXMXMXMXKXGXGXGXGXGXGXGXGXGXGXGXGXGXGXGXGXGXGXGXGXGXGXGXGXGXGXGXMXMXDXMXMXMXMXMXMXMXMXMXMXMXMXMXMXMXMXMXMXMXMXMXMXMXDXKXGXGXGXGXGXGXGXGXGXGXGXGXGXGXGXGXGXGXGXGXGXGXGXGXGXGXGXDXMXDXMXMXMXMXMXMXMXMXMXMXMXMXMX",
"MXMXMXMXMXMXMXMXMXMXMXMXMXMXMXMXMXMXMXMXMXMXMXMXMXMXDXKXGXGXGXGXGXGXGXGXGXGXGXGXGXGXGXGXGXGXGXGXGXGXGXGXGXGXGXMXMXMXMXMXMXMXMXMXMXMXMXMXMXMXMXMXMXMXMXMXMXMXMXMXMXMXKXGXGXGXGXGXGXGXGXGXGXGXGXGXGXGXGXGXGXGXGXGXGXGXGXGXGXGXMXMXMXMXMXMXMXMXMXMXMXMXMXMXMXMXMXMXMXMXMXMXMXMXMXMXMXKXGXGXGXGXGXHXFX2XH.H.J.N M M M k k k i 6 6 6 y y y y y y p p p a f s <.e.u.tXaXaXaXaXaXaXtXu.w.d.p.8.8.q.q.5.5.7.7.7.7.7.7.7.7.7.7.7.7.7.7.7.7.7.7.7.7.7.7.7.5.4.3.3. . .| } } { { s a a p p p 7 7 6 6 & & & # % % % = = = : u u j k x m D.J.P.FXHXFXHXHXGXGXGXGXGXGXGXGXGXGXGXGXGXDXMXMXMXMXMXMXMXMXMXMXMXMXMXMXMXMXMXMXMXMXMXMXMXMXMXMXKXGXGXGXGXGXGXGXGXGXGXGXGXGXGXGXGXGXGXGXGXGXGXGXGXGXGXGXMXMXDXMXMXMXMXMXMXMXMXMXMXMXMXMXMXMXMXMXMXMXMXMXMXMXDXKXGXGXGXGXGXGXGXGXGXGXGXGXGXGXGXGXGXGXGXGXGXGXGXGXGXGXGXDXMXDXMXMXMXMXMXMXMXMXMXMXMXMXMX",
"MXMXMXMXMXMXMXMXMXMXMXMXMXMXMXMXMXMXMXMXMXMXMXMXMXMXDXKXGXGXGXGXGXGXGXGXGXGXGXGXGXGXGXGXGXGXGXGXGXGXGXGXGXGXGXMXMXMXMXMXMXMXMXMXMXMXMXMXMXMXMXMXMXMXMXMXMXMXMXMXMXMXKXGXGXGXGXGXGXGXGXGXGXGXGXGXGXGXGXGXGXGXGXGXGXGXGXGXGXGXMXMXMXMXMXMXMXMXMXMXMXMXMXMXMXMXMXMXMXMXMXMXMXMXMXMXMXKXGXGXGXGXGXHXFX,XH.H.P.N M M M k k k i 6 6 6 7 7 y y y y p p p a X.s <.t.u.sXaXaXaXaXaXaXtXu.w.q.p.8.7.7.7.5.7.7.7.7.7.7.7.7.q.q.q.q.8.8.7.7.8.7.7.7.7.7.7.7.4.4.3.3.O. . .| } { { s a a p p p y 7 6 6 & & & # % % % = = = : u u j k x M r.J.P.FXFXFXHXHXGXGXGXGXGXGXGXGXGXGXGXGXHXDXMXMXMXMXMXMXMXMXMXMXMXMXMXMXMXMXMXMXMXMXMXMXMXMXMXMXKXGXGXGXGXGXGXGXGXGXGXGXGXGXGXGXGXGXGXGXGXGXGXGXGXGXGXGXMXMXDXMXMXMXMXMXMXMXMXMXMXMXMXMXMXMXMXMXMXMXMXMXMXMXDXKXGXGXGXGXGXGXGXGXGXGXGXGXGXGXGXGXGXGXGXGXGXGXGXGXGXGXGXDXMXDXMXMXMXMXMXMXMXMXMXMXMXMXMX",
"MXMXMXMXMXMXMXMXMXMXMXMXMXMXMXMXMXMXMXMXMXMXMXMXMXMXDXKXGXGXGXGXGXGXGXGXGXGXGXGXGXGXGXGXGXGXGXGXGXGXGXGXGXGXGXMXMXMXMXMXMXMXMXMXMXMXMXMXMXMXMXMXMXMXMXMXMXMXMXMXMXMXKXGXGXGXGXGXGXGXGXGXGXGXGXGXGXGXGXGXGXGXGXGXGXGXGXGXGXGXMXMXMXMXMXMXMXMXMXMXMXMXMXMXMXMXMXMXMXMXMXMXMXMXMXMXMXKXGXGXGXGXGXHXFX;XH.P.H.M M M M k k k i 6 6 6 7 7 7 y y y p p p a X.a <.1.u.sXaXaXaXaXaXaXOXu.q.d.d.0.7.7.q.7.7.q.q.q.7.7.7.7.0.0.0.0.0.0.0.0.0.8.8.8.8.8.7.7.9.4.3.3.O. . .| } { { { s a a p p y 7 6 6 6 & & # % % % = = = : : u j k x M r.J.P.FXFXFXHXGXGXGXGXGXGXGXHXHXGXGXGXGXHXDXMXMXMXMXMXMXMXMXMXMXMXMXMXMXMXMXMXMXMXMXMXMXMXMXMXMXKXGXGXGXGXGXGXGXGXGXGXGXGXGXGXGXGXGXGXGXGXGXGXGXGXGXGXGXMXMXDXMXMXMXMXMXMXMXMXMXMXMXMXMXMXMXMXMXMXMXMXMXMXMXDXKXGXGXGXGXGXGXGXGXGXGXGXGXGXGXGXGXGXGXGXGXGXGXGXGXGXGXGXDXMXDXMXMXMXMXMXMXMXMXMXMXMXMXMX",
"MXMXMXMXMXMXMXMXMXMXMXMXMXMXMXMXMXMXMXMXMXMXMXMXMXMXDXKXGXGXGXGXGXGXGXGXGXGXGXGXGXGXGXGXGXGXGXGXGXGXGXGXGXGXGXMXMXMXMXMXMXMXMXMXMXMXMXMXMXMXMXMXMXMXMXMXMXMXMXMXMXMXKXGXGXGXGXGXGXGXGXGXGXGXGXGXGXGXGXGXGXGXGXGXGXGXGXGXGXGXMXMXMXMXMXMXMXMXMXMXMXMXMXMXMXMXMXMXMXMXMXMXMXMXMXMXMXKXGXGXGXGXGXHXFX.XH.H.H.N M M M k k k i 6 6 7 y y 7 7 7 7 y y a a { | 1.1.OXtXbXaXaXbXaXsXOX}.q.d.q.5.7.q.7.7.7.8.8.0.0.0.8.8.8.8.0.0.0.0.0.0.0.0.8.8.8.8.7.7.7..... .6. .| | | } } { s a a p p p 7 6 6 6 6 & # % # % % & = = : u h k x M N J.U ZXFXHXHXHXGXGXGXGXHXHXHXHXGXGXGXGXHXLXMXMXDXMXMXMXMXMXMXMXMXMXMXMXMXMXMXMXMXMXMXMXMXMXMXMXKXGXGXGXGXGXGXGXGXGXGXGXGXGXGXGXGXGXGXGXGXGXGXGXGXGXGXGXMXMXDXMXMXMXMXMXMXMXMXMXMXMXMXMXMXMXMXMXMXMXMXMXMXMXDXKXGXGXGXGXGXGXGXGXGXGXGXGXGXGXGXGXGXGXGXGXGXGXGXGXGXGXGXMXMXDXMXMXMXMXMXMXMXMXMXMXMXMXMX",
"MXMXMXMXMXMXMXMXMXMXMXMXMXMXMXMXMXMXMXMXMXMXMXMXMXMXDXKXGXGXGXGXGXGXGXGXGXGXGXGXGXGXGXGXGXGXGXGXGXGXGXGXGXGXGXMXMXMXMXMXMXMXMXMXMXMXMXMXMXMXMXMXMXMXMXMXMXMXMXMXMXMXKXGXGXGXGXGXGXGXGXGXGXGXGXGXGXGXGXGXGXGXGXGXGXGXGXGXGXGXMXMXMXMXMXMXMXMXMXMXMXMXMXMXMXMXMXMXMXMXMXMXMXMXMXMXMXKXGXGXGXGXGXHXFXP.H.P.Y M M M M k k k i 6 6 7 y y 7 7 7 y y y p a { } 2.<.OX0XaXaXkXaXaXsXoX}.0.d.q.7.q.q.8.8.8.8.8.8.8.8.8.8.0.0.0.0.0.0.0.0.0.0.8.8.8.8.7.7.7.3.O.3.5.,. .,.} } } { { a a a p p 7 7 6 6 6 & # % % % % * = = : u h k x M N D.H.mXFXHXHXHXGXGXGXGXHXHXHXHXGXGXGXGXGXDXMXMXDXMXMXMXMXMXMXMXMXMXMXMXMXMXMXMXMXMXMXMXMXMXMXMXKXGXGXGXGXGXGXGXGXGXGXGXGXGXGXGXGXGXGXGXGXGXGXGXGXGXGXGXMXMXDXMXMXMXMXMXMXMXMXMXMXMXMXMXMXMXMXMXMXMXMXMXMXMXDXKXGXGXGXGXGXGXGXGXGXGXGXGXGXGXGXGXGXGXGXGXGXGXGXGXGXGXGXMXMXDXMXMXMXMXMXMXMXMXMXMXMXMXMX",
"MXMXMXMXMXMXMXMXMXMXMXMXMXMXMXMXMXMXMXMXMXMXMXMXMXMXDXKXGXGXGXGXGXGXGXGXGXGXGXGXGXGXGXGXGXGXGXGXGXGXGXGXGXGXGXMXMXMXMXMXMXMXMXMXMXMXMXMXMXMXMXMXMXMXMXMXMXMXMXMXMXMXKXGXGXGXGXGXGXGXGXGXGXGXGXGXGXGXGXGXGXGXGXGXGXGXGXGXGXGXMXMXMXMXMXMXMXMXMXMXMXMXMXMXMXMXMXMXMXMXMXMXMXMXMXMXMXKXGXGXGXGXGXHXZXP.H.P.H M N M n z k k i 6 6 7 y y y y p y y p p a } | ,.<.OXtXaXpXbXaXaXsXOXA.d.d.q.7.q.q.0.p.8.0.0.0.0.0.8.8.0.0.0.0.0.0.0.0.0.0.0.0.0.0.7.7.7.5.5.5.3.,. .,.} } } { a a a a p p 7 7 6 6 6 & % % % % = = = = : u i k k x N D.H.mXFXHXHXHXGXGXGXGXHXHXHXHXGXGXGXGXKXDXMXMXDXMXMXMXMXMXMXMXMXMXMXMXMXMXMXMXMXMXMXMXMXMXMXMXKXGXGXGXGXGXGXGXGXGXGXGXGXGXGXGXGXGXGXGXGXGXGXGXGXGXGXGXMXMXDXMXMXMXMXMXMXMXMXMXMXMXMXMXMXMXMXMXMXMXMXMXMXMXDXKXGXGXGXGXGXGXGXGXGXGXGXGXGXGXGXGXGXGXGXGXGXGXGXGXGXGXGXDXMXDXMXMXMXMXMXMXMXMXMXMXMXMXMX",
"MXMXMXMXMXMXMXMXMXMXMXMXMXMXMXMXMXMXMXMXMXMXMXMXMXMXDXKXGXGXGXGXGXGXGXGXGXGXGXGXGXGXGXGXGXGXGXGXGXGXGXGXGXGXGXMXMXMXMXMXMXMXMXMXMXMXMXMXMXMXMXMXMXMXMXMXMXMXMXMXMXMXKXGXGXGXGXGXGXGXGXGXGXGXGXGXGXGXGXGXGXGXGXGXGXGXGXGXGXGXMXMXMXMXMXMXMXMXMXMXMXMXMXMXMXMXMXMXMXMXMXMXMXMXMXMXMXKXGXGXGXGXGXHXVXU U P.H M L M M k k k i 6 7 y y y y p p p p p a p { | 1.X.OXaXaXeXbXbXaXsXOXA.d.z.q.7.q.q.0.p.0.0.0.0.0.0.0.p.0.0.0.0.0.0.0.0.0.0.0.0.q.0.8.7.7.7.5.3.,. . .| } } } { { a a a p p 7 7 6 6 6 & % % % % % = = = : u i j k x N D.H.kXFXFXHXHXGXGXGXGXHXHXHXHXGXGXGXGXKXMXMXMXDXMXMXMXMXMXMXMXMXMXMXMXMXMXMXMXMXMXMXMXMXMXMXMXKXGXGXGXGXGXGXGXGXGXGXGXGXGXGXGXGXGXGXGXGXGXGXGXGXGXGXGXMXMXDXMXMXMXMXMXMXMXMXMXMXMXMXMXMXMXMXMXMXMXMXMXMXMXDXKXGXGXGXGXGXGXGXGXGXGXGXGXGXGXGXGXGXGXGXGXGXGXGXGXGXGXGXDXMXDXMXMXMXMXMXMXMXMXMXMXMXMXMX",
"MXMXMXMXMXMXMXMXMXMXMXMXMXMXMXMXMXMXMXMXMXMXMXMXMXMXDXKXGXGXGXGXGXGXGXGXGXGXGXGXGXGXGXGXGXGXGXGXGXGXGXGXGXGXGXMXMXMXMXMXMXMXMXMXMXMXMXMXMXMXMXMXMXMXMXMXMXMXMXMXMXMXKXGXGXGXGXGXGXGXGXGXGXGXGXGXGXGXGXGXGXGXGXGXGXGXGXGXGXGXMXMXMXMXMXMXMXMXMXMXMXMXMXMXMXMXMXMXMXMXMXMXMXMXMXMXMXKXGXGXGXGXGXHXmXU H.P.H M H M M k k k i y y y y y y p p p p p a p a } | s 0XaXbXbXaXbXbXsXA.A.d.d.0.q.0.0.8.p.0.0.0.0.p.p.p.p.p.p.p.p.p.0.0.0.0.0.0.p.0.0.0.7.7.7.5.3.3.3.,. .| } } { { a a a p p y 7 6 6 6 & % % % % % = = = : u u j x M N D.H.eXFXFXHXHXGXGXGXGXHXHXHXHXGXGXGXGXHXDXMXMXDXMXMXMXMXMXMXMXMXMXMXMXMXMXMXMXMXMXMXMXMXMXMXMXKXGXGXGXGXGXGXGXGXGXGXGXGXGXGXGXGXGXGXGXGXGXGXGXGXGXGXGXMXMXDXMXMXMXMXMXMXMXMXMXMXMXMXMXMXMXMXMXMXMXMXMXMXMXDXKXGXGXGXGXGXGXGXGXGXGXGXGXGXGXGXGXGXGXGXGXGXGXGXGXGXGXGXDXMXDXMXMXMXMXMXMXMXMXMXMXMXMXMX",
"MXMXMXMXMXMXMXMXMXMXMXMXMXMXMXMXMXMXMXMXMXMXMXMXMXMXDXKXGXGXGXGXGXGXGXGXGXGXGXGXGXGXGXGXGXGXGXGXGXGXGXGXGXGXGXMXMXMXMXMXMXMXMXMXMXMXMXMXMXMXMXMXMXMXMXMXMXMXMXMXMXMXKXGXGXGXGXGXGXGXGXGXGXGXGXGXGXGXGXGXGXGXGXGXGXGXGXGXGXGXMXMXMXMXMXMXMXMXMXMXMXMXMXMXMXMXMXMXMXMXMXMXMXMXMXMXMXKXGXGXGXGXGXHXvXU H.P.H M H M M k k j i y y y y y y y p p p p p a { o.{ <.tXaXbXbXbXbXaXsXoXh.d.s.0.q.q.0.i.p.p.p.p.p.p.p.d.d.p.p.p.p.p.p.0.0.0.0.0.p.0.0.0.8.7.7.4.3.3.6.3. .| | } { { a a a p p y 7 6 6 6 & # % % % % = = = : u u j k M N D.H.eXFXFXHXHXGXGXGXGXGXHXHXHXGXGXGXGXGXLXMXMXDXMXMXMXMXMXMXMXMXMXMXMXMXMXMXMXMXMXMXMXMXMXMXMXKXGXGXGXGXGXGXGXGXGXGXGXGXGXGXGXGXGXGXGXGXGXGXGXGXGXGXGXMXMXDXMXMXMXMXMXMXMXMXMXMXMXMXMXMXMXMXMXMXMXMXMXMXMXDXKXGXGXGXGXGXGXGXGXGXGXGXGXGXGXGXGXGXGXGXGXGXGXGXGXGXGXGXDXMXDXMXMXMXMXMXMXMXMXMXMXMXMXMX",
"MXMXMXMXMXMXMXMXMXMXMXMXMXMXMXMXMXMXMXMXMXMXMXMXMXMXDXKXGXGXGXGXGXGXGXGXGXGXGXGXGXGXGXGXGXGXGXGXGXGXGXGXGXGXGXMXMXMXMXMXMXMXMXMXMXMXMXMXMXMXMXMXMXMXMXMXMXMXMXMXMXMXKXGXGXGXGXGXGXGXGXGXGXGXGXGXGXGXGXGXGXGXGXGXGXGXGXGXGXGXMXMXMXMXMXMXMXMXMXMXMXMXMXMXMXMXMXMXMXMXMXMXMXMXMXMXMXKXGXGXGXGXGXHXkXH.H.H.H N N M x k k j i y 7 7 y y y y p p p p p s } { } 1.tXaXaXbXmXbXaXsXOXq.d.s.0.0.d.d.i.p.p.p.d.d.d.d.d.p.p.p.p.p.p.p.p.0.0.0.0.0.p.0.0.0.7.4.4.3.3.3.,. .| | } } { a a a p p y 7 6 6 6 & % % # % % = = = : u u j k x B D.H.,XFXFXHXHXGXGXGXGXGXHXHXHXGXGXGXGXGXDXMXMXDXMXMXMXMXMXMXMXMXMXMXMXMXMXMXMXMXMXMXMXMXMXMXMXKXGXGXGXGXGXGXGXGXGXGXGXGXGXGXGXGXGXGXGXGXGXGXGXGXGXGXGXMXMXDXMXMXMXMXMXMXMXMXMXMXMXMXMXMXMXMXMXMXMXMXMXMXMXDXKXGXGXGXGXGXGXGXGXGXGXGXGXGXGXGXGXGXGXGXGXGXGXGXGXGXGXGXDXMXDXMXMXMXMXMXMXMXMXMXMXMXMXMX",
"MXMXMXMXMXMXMXMXMXMXMXMXMXMXMXMXMXMXMXMXMXMXMXMXMXMXDXKXGXGXGXGXGXGXGXGXGXGXGXGXGXGXGXGXGXGXGXGXGXGXGXGXGXGXGXMXMXMXMXMXMXMXMXMXMXMXMXMXMXMXMXMXMXMXMXMXMXMXMXMXMXMXKXGXGXGXGXGXGXGXGXGXGXGXGXGXGXGXGXGXGXGXGXGXGXGXGXGXGXGXMXMXMXMXMXMXMXMXMXMXMXMXMXMXMXMXMXMXMXMXMXMXMXMXMXMXMXKXGXGXGXGXGXHXpXH.H.H.H N N M x x k j i y y 7 7 y y y y p p p a a { } 2.1.rXbXbXbXbXaXmXOXw.d.s.s.p.0.d.d.i.a.s.s.d.d.d.d.p.p.p.p.p.p.p.p.p.p.0.0.0.0.p.0.0.0.7.5.4.5.4.3. .,.| | } } { s a a p p y 7 6 6 6 & % % % % % = = = : u u j k x M H H.;XFXFXKXHXHXGXGXGXGXHXHXHXGXGXGXGXGXDXMXMXDXMXMXMXMXMXMXMXMXMXMXMXMXMXMXMXMXMXMXMXMXMXMXMXKXGXGXGXGXGXGXGXGXGXGXGXGXGXGXGXGXGXGXGXGXGXGXGXGXGXGXGXMXMXDXMXMXMXMXMXMXMXMXMXMXMXMXMXMXMXMXMXMXMXMXMXMXMXDXKXGXGXGXGXGXGXGXGXGXGXGXGXGXGXGXGXGXGXGXGXGXGXGXGXGXGXGXDXMXDXMXMXMXMXMXMXMXMXMXMXMXMXMX",
"MXMXMXMXMXMXMXMXMXMXMXMXMXMXMXMXMXMXMXMXMXMXMXMXMXMXDXKXGXGXGXGXGXGXGXGXGXGXGXGXGXGXGXGXGXGXGXGXGXGXGXHXGXGXKXKXMXMXMXMXMXMXMXMXMXMXMXMXMXMXMXMXMXMXMXMXMXMXMXMXMXDXKXGXGXGXGXGXGXGXGXGXGXGXGXGXGXGXGXGXGXGXGXGXGXGXGXGXGXKXDXMXMXMXMXMXMXMXMXMXMXMXMXMXMXMXMXMXMXMXMXMXMXMXMXMXDXKXGXGXHXKXGXHXeXP.H.H.D.N H M M k k k i y 7 7 y y p p p p p p a p } { } s rXmXbXaXbXaXbXOX}.z.s.s.d.d.d.d.a.a.d.d.d.d.d.d.d.d.d.p.p.p.p.p.p.8.0.0.0.0.0.0.8.8.7.7.4.5.5.3. .,. .| } } { { a a p p y 7 7 6 6 & & # # # % % & = : u u j k x B N H.P.FXFXHXHXGXHXGXGXHXHXHXHXGXGXGXGXKXDXDXDXMXMXMXMXMXMXMXMXMXMXMXMXMXMXMXMXMXMXMXMXMXMXMXDXKXGXGXGXGXGXGXGXGXGXGXGXGXGXGXGXGXGXGXGXGXGXGXGXGXGXGXKXDXMXMXMXMXMXMXMXMXMXMXMXMXMXMXMXMXMXMXMXMXMXDXMXMXMXDXKXGXGXGXGXGXGXGXGXGXGXGXGXGXGXGXGXGXGXGXGXGXGXGXGXGXGXKXKXMXMXDXDXMXDXMXMXMXMXMXMXMXMXMX",
"KXHXHXHXKXKXKXKXKXKXKXKXHXHXKXKXKXKXKXKXKXKXHXHXKXKXKXKXKXKXKXKXKXKXKXKXKXKXKXKXKXKXKXKXKXKXKXKXKXKXKXDXKXKXDXKXKXKXKXKXHXHXKXKXKXKXKXKXKXKXHXHXKXHXHXHXKXKXKXKXKXKXKXKXKXKXKXKXKXKXKXKXKXKXKXKXKXKXKXKXKXKXKXKXKXKXKXKXKXKXKXKXKXKXKXKXKXKXHXHXKXHXHXHXKXKXKXKXKXHXHXHXKXKXKXKXKXKXKXKXKXKXKXKX,XP.H.J.D.N H M M x k d i y 7 7 y y p p p p p p a a } { } t.rXmXaXmXaXbXaXsX}.d.s.s.d.d.0.p.p.a.d.d.d.d.d.d.d.d.d.p.p.p.p.p.p.8.p.0.0.0.0.0.0.8.7.7.4.5.5.3. .,. .| } } { { a a p p y y 7 6 6 & & # # # % % & = : : u h k x M N H.P.VXFXKXDXKXDXKXKXDXDXKXKXKXKXKXKXKXKXKXKXKXKXKXKXKXKXKXKXHXHXKXKXKXKXHXHXKXKXKXKXKXKXKXKXKXKXKXKXKXKXKXKXKXKXKXKXKXKXKXKXKXKXKXKXKXKXKXKXKXKXKXKXKXKXKXKXKXKXKXKXKXKXHXHXKXKXKXKXKXKXKXKXHXHXKXKXKXKXKXKXKXKXKXKXKXKXKXKXKXKXKXKXKXKXKXKXKXKXKXKXKXKXKXKXKXKXKXKXKXKXKXKXKXKXKXKXKXKXKXKXKXKXKX",
"GXGXGXGXGXGXGXGXGXGXGXGXGXGXGXGXGXGXGXGXGXGXGXGXGXGXGXKXDXMXMXMXMXMXMXMXMXMXMXMXMXMXMXMXMXMXMXMXMXDXMXMXDXDXDXKXGXGXGXGXGXGXGXGXGXGXGXGXGXGXGXGXGXGXGXGXGXGXGXGXGXGXKXDXMXMXDXMXMXMXMXMXMXMXMXMXMXMXMXMXMXMXMXMXMXMXDXDXDXKXGXGXGXGXGXGXGXGXGXGXGXGXGXGXGXGXGXGXGXGXGXGXGXGXGXGXGXKXDXDXLXDXMXBX;XP.H.H.D.N N M x k k d i y 7 y y y p p p p p p a a } } } K.rXmXaXbXbXaXbXOXu.z.j.f.d.d.d.p.p.p.s.s.s.s.s.s.s.d.p.p.p.p.p.p.p.0.0.0.8.0.p.p.0.0.7.7.4.5.5.3.,.,. .| } } { { a a p p y y 7 6 6 & & # # # % % & = = u u h k x M N H.J.mXmXCXMXBXLXBXBXCXCXAXCXLXDXMXMXKXKXGXGXGXGXGXGXGXGXGXGXGXGXGXGXGXGXGXGXGXGXGXGXGXGXGXGXKXMXMXMXMXMXMXMXMXMXMXMXMXMXMXMXMXMXMXMXMXMXMXMXMXMXMXDXKXGXGXGXGXGXGXGXGXGXGXGXGXGXGXGXGXGXGXGXGXGXGXGXGXGXGXKXDXMXMXMXMXMXMXMXMXMXMXMXMXMXMXMXMXMXMXMXMXMXMXMXMXMXDXKXGXGXGXGXGXGXGXGXGXGXGXGXGXGXGX",
"GXGXGXGXGXGXGXGXGXGXGXGXGXGXGXGXGXGXGXGXGXGXGXGXGXGXGXKXMXMXMXDXMXMXMXMXMXMXMXMXMXMXMXMXMXMXMXMXMXDXMXMXMXMXDXGXGXGXGXGXGXGXGXGXGXGXGXGXGXGXGXGXGXGXGXGXGXGXGXGXGXGXKXMXMXMXMXMXMXMXMXMXMXMXMXMXMXMXMXMXMXMXMXMXMXMXMXMXMXDXKXGXGXGXGXGXGXGXGXGXGXGXGXGXGXGXGXGXGXGXGXGXGXGXGXGXGXKXDXMXMXMXMXBX#XP.H.J.D.H N M x x x i i y 7 y y y y p p p p p a { { { } oXrXbXbXaXbXaXbXOXw.z.j.f.s.d.d.d.p.a.s.s.s.s.s.s.s.d.p.p.p.p.p.p.p.p.0.0.0.p.p.p.0.0.7.7.4.4.4.3.,.,. .| } } { { a a p p p y 7 6 6 6 & % # # % % & = = : u h k k M B F.H.mXnXCXNXNXBXBXNXCXCXCXMXLXBXMXMXDXKXGXGXGXGXGXGXGXGXGXGXGXGXGXGXGXGXGXGXGXGXGXGXGXGXGXGXKXMXMXMXMXMXMXMXMXMXMXMXMXMXMXMXMXMXMXMXMXMXMXMXMXMXMXDXGXGXGXGXGXGXGXGXGXGXGXGXGXGXGXGXGXGXGXGXGXGXGXGXGXGXGXKXMXMXMXMXMXMXMXMXMXMXMXMXMXMXMXMXMXMXMXMXMXMXMXMXMXMXMXKXGXGXGXGXGXGXGXGXGXGXGXGXGXGXGX",
"GXGXGXGXGXGXGXGXGXGXGXGXGXGXGXGXGXGXGXGXGXGXGXGXGXGXGXKXMXMXMXDXMXMXMXMXMXMXMXMXMXMXMXMXMXMXMXMXMXDXLXMXDXMXDXGXGXGXGXGXGXGXGXGXGXGXGXGXGXGXGXGXGXGXGXGXGXGXGXGXGXGXKXMXMXMXDXMXMXMXMXMXMXMXMXMXMXMXMXMXMXMXMXMXMXDXDXMXMXMXKXGXGXGXGXGXGXGXGXGXGXGXGXGXGXGXGXGXGXGXGXGXGXGXGXGXGXKXDXMXMXMXMXBXP.H.H.J.D.N N M x x k i i y 7 y 7 y p p p p p p a { { { 1.OXrXbXaXmXaXaXaXsXA.z.j.f.s.d.d.d.p.s.s.s.s.s.s.s.s.s.s.p.p.p.p.p.p.p.0.0.p.p.p.p.0.0.8.7.4.4.4.3.,.,.,.| } } { { a a p p p y 7 6 6 6 & % # # % % & = = : u i k k M M D.D.bXnXZXMXBXDXBXMXCXCXCXMXLXLXAXMXDXKXGXGXGXGXGXGXGXGXGXGXGXGXGXGXGXGXGXGXGXGXGXGXGXGXGXGXKXMXMXMXMXMXMXMXMXMXMXMXMXMXMXMXMXMXMXMXMXMXMXMXMXMXMXKXGXGXGXKXGXGXGXGXGXGXGXGXGXGXGXGXGXGXGXGXGXGXGXGXGXGXHXKXLXMXMXMXMXMXMXMXMXMXMXMXMXMXMXMXMXMXMXMXMXMXMXMXMXMXMXGXGXGXGXGXGXGXGXGXGXGXGXGXGXGXGX",
"GXGXGXGXGXGXGXGXGXGXGXGXGXGXGXGXGXGXGXGXGXGXGXGXGXGXGXKXMXMXMXDXMXMXMXMXMXMXMXMXMXMXMXMXMXMXMXMXMXLXMXMXDXMXMXGXGXGXGXGXGXGXGXGXGXGXGXGXGXGXGXGXGXGXGXGXGXGXGXGXGXGXKXDXMXMXMXMXMXMXMXMXMXMXMXMXMXMXMXMXMXMXMXMXMXMXDXAXMXDXKXGXGXGXGXGXGXGXGXGXGXGXGXGXGXGXGXGXGXGXGXGXGXGXGXGXGXKXDXMXMXMXMXBXP.H.H.J.D.N B M x x x d y 7 7 y 7 y p p p p p p a } } } w.OXaXbXbXbXbXaXaXOXA.z.j.f.d.d.d.d.p.s.s.s.s.s.s.s.s.s.s.p.p.p.p.p.p.p.0.0.p.p.p.p.0.0.8.7.4.4.4.3.,.,.,.| } } { { a a p p p y y 7 6 6 & & # # % % & = = : u h k k M M D.D.pXmXCXCXLXLXBXMXCXCXCXMXLXLXLXMXDXKXGXGXGXGXGXGXGXGXGXGXGXGXGXGXGXGXGXGXGXGXGXGXGXGXGXGXKXMXMXMXMXMXMXMXMXMXMXMXMXMXMXMXMXMXMXMXMXMXMXMXMXMXMXDXGXGXGXGXGXGXGXGXGXGXGXGXGXGXGXGXGXGXGXGXGXGXGXGXGXGXHXKXDXMXMXMXMXMXMXMXMXMXMXMXMXMXMXMXMXMXMXMXMXMXMXMXMXMXLXGXGXGXGXGXGXGXGXGXGXGXGXGXGXGXGX",
"GXGXGXGXGXGXGXGXGXGXGXGXGXGXGXGXGXGXGXGXGXGXGXGXGXGXGXKXDXMXMXMXMXMXMXMXMXMXMXMXMXMXMXMXMXMXMXMXMXMXMXMXDXMXMXGXGXGXGXGXGXGXGXGXGXGXGXGXGXGXGXGXGXGXGXGXGXGXGXGXGXGXKXDXMXMXMXMXMXMXMXMXMXMXMXMXMXMXMXMXMXMXMXMXMXMXMXMXMXDXKXGXGXGXGXGXGXGXGXGXGXGXGXGXGXGXGXGXGXGXGXGXGXGXGXGXGXKXMXMXMXMXMXNXP.H.H.J.J.N M M M x x d y 7 7 y y y p p p p p p a } } { u.K.aXbXbXaXbXaXaXu.h.z.j.s.d.d.d.d.p.s.s.s.s.s.s.s.s.s.s.d.p.p.p.p.p.p.0.p.p.p.p.p.p.0.8.7.4.4.4.3.,.,.,.| } } { { s a p p p y y 6 6 6 & & # # % % & = : : u u k k M B D.H.eXVXNXNXDXMXBXMXCXCXCXMXLXLXAXMXDXGXGXGXGXGXGXGXGXGXGXGXGXGXGXGXGXGXGXGXGXGXGXGXGXGXGXGXKXMXMXMXMXMXMXMXMXMXMXMXMXMXMXMXMXMXMXMXMXMXMXMXMXMXMXDXGXGXGXGXGXGXGXGXGXGXGXGXGXGXGXGXGXGXGXGXGXGXGXGXGXGXGXKXDXMXMXMXMXMXMXMXMXMXMXMXMXMXMXMXMXMXMXMXMXMXMXMXMXMXLXGXGXGXGXGXGXGXGXGXGXGXGXGXGXGXGX",
"GXGXGXGXGXGXGXGXGXGXGXGXGXGXGXGXGXGXGXGXGXGXGXGXGXGXGXKXDXMXMXDXMXMXMXMXMXMXMXMXMXMXMXMXMXMXMXMXDXMXMXMXDXMXDXGXGXGXGXGXGXGXGXGXGXGXGXGXGXGXGXGXGXGXGXGXGXGXGXGXGXGXKXMXMXMXDXMXMXMXMXMXMXMXMXMXMXMXMXMXMXMXMXMXMXMXMXMXMXDXKXGXGXGXGXGXGXGXGXGXGXGXGXGXGXGXGXGXGXGXGXGXGXGXGXGXGXKXMXMXMXDXMXvXP.H.H.J.J.N M M M x x d y 7 7 y y y p p p p p p a } } { u.K.rXaXbXbXbXaXaXoXA.s.k.s.d.s.d.d.d.z.s.s.s.s.s.s.s.s.s.d.p.p.p.p.p.p.0.0.0.p.p.p.p.0.8.7.4.4.4.3.,.3. .| } } { { s a a p p y y 7 6 6 & & # # % % & = : : u u k k M N D.J.eXVXNXNXDXMXMXMXMXCXMXMXLXLXMXMXDXGXGXGXKXGXGXGXGXGXGXGXGXGXGXGXGXGXGXGXGXGXKXGXGXGXGXGXKXDXMXMXMXMXMXMXMXMXMXMXMXMXMXMXMXMXMXMXMXMXMXMXMXMXMXDXKXGXGXGXGXGXGXGXGXGXGXGXGXGXGXGXGXGXGXGXGXGXGXGXGXGXGXKXDXMXMXMXMXMXMXMXMXMXMXMXMXMXMXMXMXMXMXMXMXMXMXMXMXMXMXGXGXGXGXGXGXGXGXGXGXGXGXGXGXGXGX",
"GXGXGXGXGXGXGXGXGXGXGXGXGXGXGXGXGXGXGXGXGXGXGXGXGXGXGXKXMXMXMXMXMXMXMXMXMXMXMXMXMXMXMXMXMXMXMXMXMXMXMXMXDXMXDXGXGXGXGXGXGXGXGXGXGXGXGXGXGXGXGXGXGXGXGXGXGXGXGXGXGXGXKXMXMXMXMXMXMXMXMXMXMXMXMXMXMXMXMXMXMXMXMXMXMXMXMXDXMXMXGXGXGXGXGXGXGXGXGXGXGXGXGXGXGXGXGXGXHXHXHXGXGXGXGXGXHXKXDXNXLXMXMXzXP.Y J.J.D.H M M M x x i y y y y y 6 4 7 p p p a a { | | } K.bXaXaXbXbXbXaXOXZ.l.f.f.d.d.d.s.s.s.s.s.d.s.s.s.s.s.d.s.d.d.d.d.p.p.p.p.p.p.p.p.0.0.0.7.4.4.4.3.O.3. .| | } { { s a a p p y y 7 6 6 6 & % # % % & & = : u u j k M B D.H.,XVXBXMXMXLXAXMXMXMXMXMXMXMXMXMXDXGXGXGXGXGXGXGXGXGXGXGXGXGXGXGXGXGXGXGXGXGXGXGXGXGXGXGXKXMXMXMXMXMXMXMXMXMXMXMXMXMXMXMXMXMXMXMXMXMXMXMXMXMXMXMXGXGXGXGXGXGXGXGXGXGXGXGXGXGXGXGXGXGXGXGXGXGXGXGXGXGXGXKXMXMXMXMXMXMXMXMXMXMXMXMXMXMXMXMXMXMXMXMXMXMXMXMXMXMXMXGXGXGXGXGXGXGXGXGXGXGXGXGXGXGXGX",
"GXGXGXGXGXGXGXGXGXGXGXGXGXGXGXGXGXGXGXGXGXGXGXGXGXGXGXKXMXMXMXMXMXMXMXMXMXMXMXMXMXMXMXMXMXMXMXMXMXMXMXMXDXMXDXGXGXGXGXGXGXGXGXGXGXGXGXGXGXGXGXGXGXGXGXGXGXGXGXGXGXGXKXMXMXMXMXMXMXMXMXMXMXMXMXMXMXMXMXMXMXMXMXMXMXMXMXDXMXMXGXGXGXGXGXGXGXGXGXGXGXGXGXGXGXGXGXGXHXHXHXHXGXGXGXGXGXDXDXNXMXMXNXhXP.Y H.J.D.H M M M x x i y 7 y y y 7 7 p p p p s s { |  .} oXbXbXaXbXmXaXaXOXz.b.j.j.d.d.s.s.s.d.s.s.d.s.s.s.s.s.s.d.p.s.d.8.9.p.p.p.p.p.p.0.0.0.q.7.5.5.5.4.3.3. . .| } { { a a a a p p y 7 6 6 6 & % # % % & = = : u u j k x B H H.;XmXBXMXAXAXAXMXMXMXMXMXMXMXMXMXDXGXGXGXGXGXGXGXGXGXGXGXGXGXGXGXGXGXGXGXGXGXGXGXGXGXGXGXKXMXMXMXMXMXMXMXMXMXMXMXMXMXMXMXMXMXMXMXMXMXMXMXMXMXMXMXGXGXGXGXGXGXGXGXGXGXGXGXGXGXGXGXGXGXGXGXGXGXGXGXGXGXGXKXMXMXMXMXMXMXMXMXMXMXMXMXMXMXMXMXMXMXMXMXMXMXMXMXMXMXMXGXGXGXGXGXGXGXGXGXGXGXGXGXGXGXGX",
"GXGXGXGXGXGXGXGXGXGXGXGXGXGXGXGXGXGXGXGXGXGXGXGXGXGXGXKXMXMXMXMXMXMXMXMXMXMXMXMXMXMXMXMXMXMXMXMXMXMXMXMXDXMXMXGXGXGXGXGXGXGXGXGXGXGXGXGXGXGXGXGXGXGXGXGXGXGXGXGXGXGXKXMXMXMXMXMXMXMXMXMXMXMXMXMXMXMXMXMXMXMXMXMXMXMXMXDXMXMXGXGXGXGXGXGXGXGXGXGXGXGXGXGXGXGXGXGXHXHXHXHXGXGXGXGXGXKXDXNXMXMXNXwXP.H.J.J.D.N B M M x x i y y y y y y p p p p p a s {  .,.} OXaXaXaXbXmXaXaXOX0.Z.j.j.s.s.s.s.s.d.s.s.s.s.s.s.s.s.s.d.d.z.d.7.9.d.p.p.p.p.p.p.0.0.0.7.5.7.5.4.3.3. . .| } } { a a a a p p y y 6 6 6 & & # % % & = = : u u j k x B N H.;XmXBXMXMXAXAXMXMXMXMXMXMXMXMXMXDXGXGXGXGXGXGXGXGXGXGXGXGXGXGXGXGXGXGXGXGXGXGXGXGXGXGXGXKXMXMXMXMXMXMXMXMXMXMXMXMXMXMXMXMXMXMXMXMXMXMXMXMXMXMXMXGXGXGXGXGXGXGXGXGXGXGXGXGXGXGXGXGXGXGXGXGXGXGXGXGXGXGXKXMXMXMXMXMXMXMXMXMXMXMXMXMXMXMXMXMXMXMXMXMXMXMXMXMXMXMXGXGXGXGXGXGXGXGXGXGXGXGXGXGXGXGX",
"GXGXGXGXGXGXGXGXGXGXGXGXGXGXGXGXGXGXGXGXGXGXGXGXGXGXGXKXMXMXMXMXMXMXMXMXMXMXMXMXMXMXMXMXMXMXMXMXMXMXMXMXMXMXMXGXGXGXGXGXGXGXGXGXGXGXGXGXGXGXGXGXGXGXGXGXGXGXGXGXGXGXKXMXMXMXMXMXMXMXMXMXMXMXMXMXMXMXMXMXMXMXMXMXMXMXMXDXMXMXGXGXGXGXGXGXGXGXGXGXGXGXGXGXGXGXGXGXHXHXHXGXGXGXGXGXGXKXAXCXMXMXBX4XP.H.J.J.D.N M M x x x i y 7 y y y y p p p p p p s {  .,.} tXaXaXbXaXmXaXbXOXd.Z.k.j.s.s.s.s.s.d.s.s.s.s.s.s.s.s.d.j.z.d.d.d.p.d.p.p.p.p.p.0.0.0.7.7.5.5.5.4.3.3.,.,.| } } { s a a a p p y y 6 6 6 & & # % % & = = : u u i k x M N H.XXmXZXBXMXAXAXMXMXMXMXMXMXMXMXMXDXGXGXGXGXGXGXGXGXGXGXGXGXGXGXGXGXGXGXGXGXGXGXGXGXGXGXGXKXMXMXMXMXMXMXMXMXMXMXMXMXMXMXMXMXMXMXMXMXMXMXMXMXMXMXMXGXGXGXGXGXGXGXGXGXGXGXGXGXGXGXGXGXGXGXGXGXGXGXGXGXGXGXKXMXMXMXMXMXMXMXMXMXMXMXMXMXMXMXMXMXMXMXMXMXMXMXMXMXMXMXGXGXGXGXGXGXGXGXGXGXGXGXGXGXGXGX",
"GXGXGXGXGXGXGXGXGXGXGXGXGXGXGXGXGXGXGXGXGXGXGXGXGXGXGXKXMXMXMXMXMXMXMXMXMXMXMXMXMXMXMXMXMXMXMXMXMXMXMXMXDXMXDXGXGXGXGXGXGXGXGXGXGXGXGXGXGXGXGXGXGXGXGXGXGXGXGXGXGXGXKXMXMXMXMXMXMXMXMXMXMXMXMXMXMXMXMXMXMXMXMXMXMXMXMXDXMXMXGXGXGXGXGXGXGXGXGXGXGXGXGXGXGXGXGXGXHXHXGXGXGXGXGXGXGXKXMXMXBXBXBX,XP.H.H.P.D.N m M x k k i y 7 p y y y p p p p p p s { |  .} sXaXaXbXaXbXbXaXOXz.l.j.j.s.s.s.s.s.d.s.s.s.s.s.s.s.s.p.s.s.d.d.d.d.p.p.p.p.p.p.0.0.0.7.7.7.5.5.5.4.3.,.,.| | } { s a a a a p y y 7 6 6 & & % % % = = = : u u u k x M N D.P.mXZXBXMXAXAXMXMXMXMXMXMXMXMXMXDXGXGXGXGXGXGXGXGXGXGXGXGXGXGXGXGXGXGXGXGXGXGXGXGXGXGXGXKXMXMXMXMXMXMXMXMXMXMXMXMXMXMXMXMXMXMXMXMXMXMXMXMXMXMXMXGXGXGXGXGXGXGXGXGXGXGXGXGXGXGXGXGXGXGXGXGXGXGXGXGXGXGXKXMXMXMXMXMXMXMXMXMXMXMXMXMXMXMXMXMXMXMXMXMXMXMXMXMXMXMXGXGXGXGXGXGXGXGXGXGXGXGXGXGXGXGX",
"GXGXGXGXGXGXGXGXGXGXGXGXGXGXGXGXGXGXGXGXGXGXGXGXGXGXGXKXMXMXMXMXMXMXMXMXMXMXMXMXMXMXMXMXMXMXMXMXMXMXMXMXDXMXDXGXGXGXGXGXGXGXGXGXGXGXGXGXGXGXGXGXGXGXGXGXGXGXGXGXGXGXKXMXMXMXMXMXMXMXMXMXMXMXMXMXMXMXMXMXMXMXMXMXMXMXMXDXMXMXGXGXGXGXGXGXGXGXGXGXGXGXGXGXGXGXGXGXHXHXGXGXGXGXGXGXGXKXMXMXLXBXZX=XP.H.J.P.D.N m m x k k i y y p p y y p p p a p a { } |  .2.sXaXaXbXaXbXmXaXOXz.j.j.j.s.d.s.s.s.s.s.s.s.s.s.s.s.s.s.d.p.s.z.d.p.d.p.p.p.p.p.0.0.0.7.7.7.5.5.7.5.3.,.,.| | } { { s s a a p y y 7 6 6 & & % % % = = = : : u u k x M N D.P.mXVXBXAXMXAXMXMXMXMXMXMXMXMXMXDXGXGXGXGXGXGXGXGXGXGXGXGXGXGXGXGXGXGXGXGXGXGXGXGXGXGXGXKXMXMXMXMXMXMXMXMXMXMXMXMXMXMXMXMXMXMXMXMXMXMXMXMXMXMXMXGXGXGXGXGXGXGXGXGXGXGXGXGXGXGXGXGXGXGXGXGXGXGXGXGXGXGXKXMXMXMXMXMXMXMXMXMXMXMXMXMXMXMXMXMXMXMXMXMXMXMXMXMXMXMXGXGXGXGXGXGXGXGXGXGXGXGXGXGXGXGX",
"GXGXGXGXGXGXGXGXGXGXGXGXGXGXGXGXGXGXGXGXGXGXGXGXGXGXGXKXMXMXMXMXMXMXMXMXMXMXMXMXMXMXMXMXMXMXMXMXMXMXMXMXDXMXDXGXGXGXGXGXGXGXGXGXGXGXGXGXGXGXGXGXGXGXGXGXGXGXGXGXGXGXKXMXMXMXMXMXMXMXMXMXMXMXMXMXMXMXMXMXMXMXMXMXMXMXMXDXMXMXGXGXGXGXGXGXGXGXGXGXGXGXGXGXGXGXGXGXGXHXGXGXGXGXGXGXGXKXMXMXBXNXZX#XP.H.J.P.D.N m m x k k i y y p p p y p p a a a s { |  .,.1.tXaXaXbXaXbXmXbXOXz.k.k.j.s.d.s.s.d.s.s.s.s.s.s.s.s.s.s.s.s.s.z.d.p.s.p.p.0.0.0.0.8.7.7.7.7.4.4.7.5.3. . . .| } } { { s a a p y y 7 6 6 & & & % % = = = : u u u k x M N D.H.mXVXBXMXMXAXCXMXMXMXNXMXAXMXMXDXGXGXGXGXGXGXGXGXGXGXGXGXGXGXGXGXGXGXGXGXGXGXGXGXGXGXGXKXMXMXMXMXMXMXMXMXMXMXMXMXMXMXMXMXMXMXMXMXMXMXMXMXMXMXMXGXGXKXGXGXGXGXGXGXGXGXGXGXGXGXGXGXGXGXGXGXGXGXGXGXGXGXKXMXMXMXMXMXMXMXMXMXMXMXMXMXMXMXMXMXMXMXMXMXMXMXMXMXMXMXGXGXGXGXGXGXGXGXGXGXGXGXGXGXGXGX",
"GXGXGXGXGXGXGXGXGXGXGXGXGXGXGXGXGXGXGXGXGXGXGXGXGXGXGXKXMXMXMXMXMXMXMXMXMXMXMXMXMXMXMXMXMXMXMXMXMXMXMXMXDXMXDXGXGXGXGXGXGXGXGXGXGXGXGXGXGXGXGXGXGXGXGXGXGXGXGXGXGXGXKXMXMXMXMXMXMXMXMXMXMXMXMXMXMXMXMXMXMXMXMXMXMXMXMXDXMXMXGXGXGXGXGXGXGXGXGXGXGXGXGXGXGXGXGXGXGXHXGXGXGXGXGXGXGXKXMXMXNXNXBX.XP.H.J.P.D.N m m x k d i 7 y p p y 7 p a a a a s { ,. .,.1.OXaXaXaXbXmXaXbXOX0.l.l.j.s.d.p.s.d.s.s.s.s.s.s.s.s.s.8.s.s.p.p.s.s.s.p.p.0.0.0.0.8.7.7.7.5.4.4.5.5.3. .,.| | } } { { s a a p y y 7 6 6 & & & % % & = = : : u u k x M N D.H mXVXBXMXMXMXMXMXMXMXNXMXAXMXMXDXGXGXGXGXGXGXGXGXGXGXGXGXGXGXGXGXGXGXGXGXGXGXGXGXGXGXGXKXMXMXMXMXMXMXMXMXMXMXMXMXMXMXMXMXMXMXMXMXMXMXMXMXMXMXMXGXGXKXGXGXGXGXGXGXGXGXGXGXGXGXGXGXGXGXGXGXGXGXGXGXGXGXKXMXMXMXMXMXMXMXMXMXMXMXMXMXMXMXMXMXMXMXMXMXMXMXMXMXMXMXGXGXGXGXGXGXGXGXGXGXGXGXGXGXGXGX",
"GXGXGXGXGXGXGXGXGXGXGXGXGXGXGXGXGXGXGXGXGXGXGXGXGXGXGXKXMXMXMXMXMXMXMXMXMXMXMXMXMXMXMXMXMXMXMXMXMXMXMXMXDXMXMXGXGXGXGXGXGXGXGXGXGXGXGXGXGXGXGXGXGXGXGXGXGXGXGXGXGXGXKXMXMXMXMXMXMXMXMXMXMXMXMXMXMXMXMXMXMXMXMXMXMXMXMXDXMXMXGXGXGXGXGXGXGXGXGXGXGXGXGXGXGXGXGXGXGXGXGXGXGXGXGXGXGXKXMXMXBXZXVXP.P.H.P.P.N N B x x x d i y y p p p p p p p p a s { |  .| u.OXaXbXaXaXmXbXaXOXs.l.l.s.s.z.s.s.s.d.s.s.s.s.s.s.s.s.s.s.s.s.s.s.s.s.d.d.p.p.0.0.8.8.7.7.5.5.5.5.5.4.3. . .| } { { s a a a p p y 7 6 6 6 & & % % = = = : u u u k x M B r.D.aXZXNXMXMXMXMXMXMXMXMXAXAXMXMXDXGXGXGXGXGXGXGXGXGXGXGXGXGXGXGXGXGXGXGXGXGXGXGXGXGXGXGXKXMXMXMXMXMXMXMXMXMXMXMXMXMXMXMXMXMXMXMXMXMXMXMXMXMXMXMXGXGXGXGXGXGXGXGXGXGXGXGXGXGXGXGXGXGXGXGXGXGXGXGXGXGXGXKXMXMXMXMXMXMXMXMXMXMXMXMXMXMXMXMXMXMXMXMXMXMXMXMXMXMXMXGXGXGXGXGXGXGXGXGXGXGXGXGXGXGXGX",
"GXGXGXGXGXGXGXGXGXGXGXGXGXGXGXGXGXGXGXGXGXGXGXGXGXGXGXKXMXMXMXMXMXMXMXMXMXMXMXMXMXMXMXMXMXMXMXMXMXMXMXMXDXMXMXGXGXGXGXGXGXGXGXGXGXGXGXGXGXGXGXGXGXGXGXGXGXGXGXGXGXGXKXMXMXMXMXMXMXMXMXMXMXMXMXMXMXMXMXMXMXMXMXMXMXMXMXDXMXMXGXGXGXGXGXGXGXGXGXGXGXGXGXGXGXGXGXGXGXGXGXGXGXGXGXGXGXKXMXNXBXBXnXP.P.H.P.P.N N m x x x d i y y p p p p p p p a a s } } 6.| u.oXaXbXaXaXmXbXaXOXd.k.k.s.s.d.s.s.s.d.s.s.s.s.s.s.s.s.s.s.s.s.s.s.d.s.d.d.p.p.0.0.8.7.7.7.7.5.5.5.4.4.3.,. .| } } { { a a a p p y y 6 6 6 & & % % = = = : : u h k x M B r.H.pXVXNXBXAXMXMXMXNXMXMXAXAXMXMXDXGXGXGXGXGXGXGXGXGXGXGXGXGXGXGXGXGXGXGXGXGXGXGXGXGXGXGXKXMXMXMXMXMXMXMXMXMXMXMXMXMXMXMXMXMXMXMXMXMXMXMXMXMXMXMXGXGXGXGXGXGXGXGXGXGXGXGXGXGXGXGXGXGXGXGXGXGXGXGXGXGXGXKXMXMXMXMXMXMXMXMXMXMXMXMXMXMXMXMXMXMXMXMXMXMXMXMXMXMXMXGXGXGXGXGXGXGXGXGXGXGXGXGXGXGXGX",
"GXGXGXGXGXGXGXGXGXGXGXGXGXGXGXGXGXGXGXGXGXGXGXGXGXGXGXKXMXMXMXMXMXMXMXMXMXMXMXMXMXMXMXMXMXMXMXMXMXMXMXMXDXMXMXGXGXGXGXGXGXGXGXGXGXGXGXGXGXGXGXGXGXGXGXGXGXGXGXGXGXGXKXMXMXMXAXMXMXMXMXMXMXMXMXMXMXMXMXMXMXMXMXMXMXMXMXDXMXMXGXGXGXGXGXGXGXGXGXGXGXGXGXGXGXGXGXGXGXHXGXGXGXGXGXGXHXKXMXNXBXBXvXP.H.H.P.J.N N m x x x d i y y p p y p p p a a s { } | 6.| u.oXaXbXaXaXmXbXaXOXd.j.j.s.d.s.s.s.z.s.s.j.j.j.j.j.j.j.j.j.f.s.s.s.s.s.d.p.p.p.0.0.8.7.7.7.7.5.5.5.4.3.3.3.,.| | } { { { a a a p y y 7 6 6 & & % % & & = = : u u k k M N D.H.eXVXNXLXDXMXMXMXNXNXNXAXLXMXMXDXGXGXGXGXGXGXGXGXGXGXGXGXGXGXGXGXGXGXGXGXGXGXGXGXGXGXGXKXMXMXMXMXMXMXMXMXMXMXMXMXMXMXMXMXMXMXMXMXMXMXMXMXMXMXMXGXGXGXGXGXGXGXGXGXGXGXGXGXGXGXGXGXGXGXGXGXGXGXGXGXGXGXKXMXMXMXMXMXMXMXMXMXMXMXMXMXMXMXMXMXMXMXMXMXMXMXMXMXMXMXGXGXGXGXGXGXGXGXGXGXGXGXGXGXGXGX",
"GXGXGXGXGXGXGXGXGXGXGXGXGXGXGXGXGXGXGXGXGXGXGXGXGXGXGXKXMXMXMXMXMXMXMXMXMXMXMXMXMXMXMXMXMXMXMXMXMXMXMXMXDXMXMXGXGXGXGXGXGXGXGXGXGXGXGXGXGXGXGXGXGXGXGXGXGXGXGXGXGXGXKXMXMXMXMXMXMXMXMXMXMXMXMXMXMXMXMXMXMXMXMXMXMXMXMXDXMXMXGXGXGXGXGXGXGXGXGXGXGXGXGXGXGXGXGXGXGXGXGXGXGXGXGXGXHXKXMXNXBXVXkXP.H.H.P.J.r.N m x x x d i y y p p y p p p a a s } }  . . .w.OXaXaXaXaXbXbXaXOXd.j.j.s.s.s.s.s.z.s.s.j.j.j.j.j.j.j.j.f.s.s.s.s.s.d.d.d.p.p.0.0.8.7.q.7.7.5.5.5.4.3.3.3.,.| | } { { { a a a p y y 7 6 6 6 & % % & & = = : u u j k x N D.H.eXVXBXBXMXMXMXNXNXNXMXAXAXMXMXDXGXGXGXGXGXGXGXGXGXGXGXGXGXGXGXGXGXGXGXGXGXGXGXGXGXGXGXKXMXMXMXMXMXMXMXMXMXMXMXMXMXMXMXMXMXMXMXMXMXMXMXMXMXMXMXGXGXGXGXGXGXGXGXGXGXGXGXGXGXGXGXGXGXGXGXGXGXGXGXGXGXGXKXMXMXMXMXMXMXMXMXMXMXMXMXMXMXMXMXMXMXMXMXMXMXMXMXMXMXMXGXGXGXGXGXGXGXGXGXGXGXGXGXGXGXGX",
"GXGXGXGXGXGXGXGXGXGXGXGXGXGXGXGXGXGXGXGXGXGXGXGXGXGXGXKXMXMXMXMXMXMXMXMXMXMXMXMXMXMXMXMXMXMXMXMXMXMXMXMXDXMXDXGXGXGXGXGXGXGXGXGXGXGXGXGXGXGXGXGXGXGXGXGXGXGXGXGXGXGXKXMXMXMXMXMXMXMXMXMXMXMXMXMXMXMXMXMXMXMXMXMXMXMXMXDXMXMXGXGXGXGXGXGXGXGXGXGXGXGXGXGXGXGXGXGXGXGXGXGXGXGXGXGXHXKXMXMXBXVXwXH.H.J.P.J.r.N x x k x d i y y p p p p p a a a s } }  .| ,.w.sXaXaXaXaXbXbXaXOXd.k.k.s.s.z.s.s.s.s.s.s.s.s.s.s.s.j.j.j.s.s.s.s.s.s.s.d.p.p.0.0.0.8.q.7.7.7.5.5.5.3.3.3. .| | } { { { { a a p p y 7 6 6 6 & % % & & = : : u u h k x B r.H.,XVXVXBXMXMXMXNXNXMXMXAXAXMXMXDXGXGXGXGXGXGXGXGXGXGXGXGXGXGXGXGXGXGXGXGXGXGXGXGXGXGXGXKXMXMXMXMXMXMXMXMXMXMXMXMXMXMXMXMXMXMXMXMXMXMXMXMXMXMXMXGXGXGXGXGXGXGXGXGXGXGXGXGXGXGXGXGXGXGXGXGXGXGXGXGXGXGXKXMXMXMXMXMXMXMXMXMXMXMXMXMXMXMXMXMXMXMXMXMXMXMXMXMXMXMXGXGXGXGXGXGXGXGXGXGXGXGXGXGXGXGX",
"GXGXGXGXGXGXGXGXGXGXGXGXGXGXGXGXGXGXGXGXGXGXGXGXGXGXGXKXMXMXMXMXMXMXMXMXMXMXMXMXMXMXMXMXMXMXMXMXMXMXMXMXDXMXDXGXGXGXGXGXGXGXGXGXGXGXGXGXGXGXGXGXGXGXGXGXGXGXGXGXGXGXKXMXMXMXMXMXMXMXMXMXMXMXMXMXMXMXMXMXMXMXMXMXMXMXMXDXMXMXGXGXGXGXGXGXGXGXGXGXGXGXGXGXGXGXGXGXGXGXGXGXGXGXGXGXHXKXMXMXBXVXeXP.H.J.P.J.r.N x x x x d i y y p p p p p a a a { } ..| 3.6.u.OXaXaXbXaXbXbXaXOXz.k.k.s.s.z.s.s.z.s.s.s.s.s.s.s.s.s.j.j.j.j.s.s.s.s.s.d.d.p.p.0.0.0.q.7.7.7.5.5.5.3.3.3.,.| | } } { { a a a p p y 7 6 6 6 & % % & & = = : u u h k x B r.H.;XVXBXNXMXMXMXMXNXMXMXAXAXMXMXDXGXGXGXGXGXGXGXGXGXGXGXGXGXGXGXGXGXGXGXGXGXGXGXGXGXGXGXKXMXMXMXMXMXMXMXMXMXMXMXMXMXMXMXMXMXMXMXMXMXMXMXMXMXMXMXGXGXGXGXGXGXGXGXGXGXGXGXGXGXGXGXGXGXGXGXGXGXGXGXGXGXGXKXMXMXMXMXMXMXMXMXMXMXMXMXMXMXMXMXMXMXMXMXMXMXMXMXMXMXMXGXGXGXGXGXGXGXGXGXGXGXGXGXGXGXGX",
"GXGXGXGXGXGXGXGXGXGXGXGXGXGXGXGXGXGXGXGXGXGXGXGXGXGXGXKXMXMXMXMXMXMXMXMXMXMXMXMXMXMXMXMXMXMXMXMXMXMXMXMXDXMXDXGXGXGXGXGXGXGXGXGXGXGXGXGXGXGXGXGXGXGXGXGXGXGXGXGXGXGXKXMXMXMXMXMXMXMXMXMXMXMXMXMXMXMXMXMXMXMXMXMXMXMXMXDXMXMXGXGXGXGXGXGXGXGXGXGXGXGXGXGXGXGXGXGXGXGXGXGXGXGXGXGXGXKXMXMXNXVXeXP.H.J.P.J.r.B x x x x d i y y p p p p p a a a { } | | 5.6.w.OXaXaXbXbXmXbXbXOXz.k.k.s.s.z.s.s.z.s.s.f.s.s.s.j.s.j.s.s.j.j.f.s.s.s.s.s.d.p.p.0.0.0.q.7.7.7.5.5.5.5.4.3.,. .| } } { { { a a p p y y 6 6 6 & % % % = = = : u u h k x B r.H.;XmXZXBXMXMXMXNXNXMXMXAXAXMXMXDXGXGXGXGXGXGXGXGXGXGXGXGXGXGXGXGXGXGXGXGXGXGXGXGXGXGXGXKXMXMXMXMXMXMXMXMXMXMXMXMXMXMXMXMXMXMXMXMXMXMXMXMXMXMXMXGXGXKXGXGXGXGXGXGXGXGXGXGXGXGXGXGXGXGXGXGXGXGXGXGXGXGXKXMXMXMXMXMXMXMXMXMXMXMXMXMXMXMXMXMXMXMXMXMXMXMXMXMXMXMXGXGXGXGXGXGXGXGXGXGXGXGXGXGXGXGX",
"GXGXGXGXGXGXGXGXGXGXGXGXGXGXGXGXGXGXGXGXGXGXGXGXGXGXGXKXMXMXMXMXMXMXMXMXMXMXMXMXMXMXMXMXMXMXMXMXMXMXMXMXDXMXDXGXGXGXGXGXGXGXGXGXGXGXGXGXGXGXGXGXGXGXGXGXGXGXGXGXGXGXKXMXMXMXMXMXMXMXMXMXMXMXMXMXMXMXMXMXMXMXMXMXMXMXMXDXMXMXGXGXGXGXGXGXGXGXGXGXGXGXGXGXGXGXGXGXGXGXGXGXGXGXGXGXGXKXCXMXNXVXeXP.H J.P.J.r.B x x x x d y y y p p p p p a a a { } | 6.3.6.2.tXbXaXbXbXmXbXbXOXz.l.j.s.s.z.s.s.j.s.s.j.j.j.j.j.j.s.s.s.s.s.s.s.s.s.s.s.s.d.p.p.0.0.7.7.7.5.5.5.5.5.3.3.3.,.| | } { { { s a a p y y 6 6 6 & & % % = = = : u u h k x B r.H.XXmXVXBXDXMXCXMXMXMXMXMXMXMXMXDXGXGXGXGXGXGXGXGXGXGXGXGXGXGXGXGXGXGXGXGXGXGXGXGXGXGXGXKXMXMXMXMXMXMXMXMXMXMXMXMXMXMXMXMXMXMXMXMXMXMXMXMXMXMXMXGXGXKXGXGXGXGXGXGXGXGXGXGXGXGXGXGXGXGXGXGXGXGXGXGXGXGXKXMXMXMXMXMXMXMXMXMXMXMXMXMXMXMXMXMXMXMXMXMXMXMXMXMXMXMXGXGXGXGXGXGXGXGXGXGXGXGXGXGXGXGX",
"GXGXGXGXGXGXGXGXGXGXGXGXGXGXGXGXGXGXGXGXGXGXGXGXGXGXGXKXMXMXMXMXMXMXMXMXMXMXMXMXMXMXMXMXMXMXMXMXMXMXMXMXMXMXDXGXGXGXGXGXGXGXGXGXGXGXGXGXGXGXGXGXGXGXGXGXGXGXGXGXGXGXKXMXMXDXDXMXMXMXMXMXMXMXMXMXMXMXMXMXMXMXMXMXMXMXMXMXMXDXKXGXGXGXGXGXGXGXGXGXGXGXGXGXGXGXGXGXGXGXGXGXGXGXGXGXGXKXDXCXNXVX;XI.H P.P.H.N B x x x d i y y y p a p p p p a s { |  .O.4.6.1.tXaXbXbXbXbXmXaXoXz.j.k.j.s.s.s.s.s.s.s.s.s.j.j.j.s.s.s.s.s.s.s.s.s.s.s.d.d.d.d.p.0.0.q.7.7.q.5.5.5.3.5.3.,.| | | } { { a a a a p p y 7 7 6 6 & % & = = = : u u u k x B N H P.mXVXBXMXAXAXAXAXAXLXMXMXMXMXDXHXGXGXGXGXGXGXGXGXGXGXGXGXGXGXGXGXGXGXGXGXGXGXGXGXGXGXKXMXMXMXMXMXMXMXMXMXMXMXMXMXMXMXMXMXMXMXMXMXMXMXMXMXMXDXHXGXGXGXGXGXGXGXGXGXGXGXGXGXGXGXGXGXGXGXGXGXGXGXGXGXGXKXMXMXMXMXMXMXMXMXMXMXMXMXMXMXMXMXMXMXMXMXMXMXMXMXMXMXDXKXGXGXGXGXGXGXGXGXGXGXGXGXGXGXGX",
"GXGXGXGXGXGXGXGXGXGXGXGXGXGXGXGXGXGXGXGXGXGXGXGXGXGXGXKXMXMXDXDXMXMXMXMXMXMXMXMXMXMXMXMXMXMXMXMXDXDXDXDXMXMXDXKXGXGXGXGXGXGXGXGXGXGXGXGXGXGXGXGXGXGXGXGXGXGXGXGXGXGXKXMXMXDXDXMXMXMXMXMXMXMXMXMXMXMXMXMXMXMXMXMXMXMXDXDXDXDXKXGXGXGXGXGXGXGXGXGXGXGXGXGXGXGXGXGXGXGXGXGXHXHXGXGXHXDXAXCXCXZX;XI.D.J.J.F.r.m c x x d g y 7 p p p p p p p p s { | O.O.O.6.y.sXbXbXbXbXaXaXaXOXA.z.k.j.s.s.s.d.s.f.s.s.s.j.j.j.s.s.s.s.s.s.s.s.s.s.s.s.d.a.p.p.0.0.q.q.7.5.3.5.5.,.3.3.3.,.,.| | } { { a a a p p 7 7 7 6 & & # % & = = : u u h k x M H H H.mXVXNXMXAXCXCXCXAXMXMXNXMXMXDXHXGXGXGXGXGXGXGXGXGXGXGXGXGXGXGXGXGXGXGXGXGXGXGXGXGXGXKXMXMXMXMXMXMXMXMXMXMXMXMXMXMXMXMXMXMXMXMXMXMXMXMXMXMXKXKXGXHXHXGXGXGXGXGXGXGXGXGXGXGXGXGXGXGXGXGXGXGXGXGXGXGXKXMXMXMXMXMXMXMXMXMXMXMXMXMXMXMXMXMXMXMXMXMXMXMXMXMXMXDXKXGXGXGXGXGXGXGXGXGXGXGXGXGXGXGX",
"GXGXGXGXGXGXGXGXGXGXGXGXGXGXGXGXGXGXGXGXGXGXGXGXGXGXGXKXMXMXMXMXMXMXMXMXMXMXMXMXMXMXMXMXMXMXMXMXMXMXDXMXMXMXDXHXGXGXGXGXGXGXGXGXGXGXGXGXGXGXGXGXGXGXGXGXGXGXGXGXGXGXKXMXMXMXMXMXMXMXMXMXMXMXMXMXMXMXMXMXMXMXMXMXMXMXDXDXMXDXKXGXGXGXGXGXGXGXGXGXGXGXGXGXGXGXGXGXGXGXGXGXHXHXGXGXHXKXSXCXCXVX;XI.F.K.K.F.F.&.c c d d g p p p p p p p p p a s { | O.O.O.6.u.sXaXbXaXaXaXaXsXOXA.z.l.f.s.s.d.s.s.j.f.f.f.j.j.j.j.z.s.z.s.s.z.z.z.z.s.s.s.s.p.p.0.0.0.0.q.5.5.q.3.o. .,.3.3.,.| } } { { s a a a p y y y 6 6 & % % = = = : u u u j k M D.H.H.mXVXDXDXAXCXCXCXAXMXMXNXMXMXDXKXGXGXGXGXGXGXGXGXGXGXGXGXGXGXGXGXGXGXGXGXGXGXGXGXGXGXKXMXMXMXMXMXMXMXMXMXMXMXMXMXMXMXMXMXMXMXMXMXMXMXMXMXMXKXGXGXGXGXGXGXGXGXGXGXGXGXGXGXGXGXGXGXGXGXGXGXGXGXGXGXGXKXMXMXMXMXMXMXMXMXMXMXMXMXMXMXMXMXMXMXMXMXMXMXMXMXMXMXDXKXGXGXGXGXGXGXGXGXGXGXGXGXGXGXGX",
"GXGXGXGXGXGXGXGXGXGXGXGXGXGXGXGXGXGXGXGXGXGXGXGXGXGXGXKXMXMXMXMXMXMXMXMXMXMXMXMXMXMXMXMXMXMXMXMXMXMXMXMXMXMXDXKXGXGXGXGXGXGXGXGXGXGXGXGXGXGXGXGXGXGXGXGXGXGXGXGXGXGXKXMXMXMXMXMXMXMXMXMXMXMXMXMXMXMXMXMXMXMXMXMXMXMXMXMXMXDXHXGXGXGXGXGXGXGXGXGXGXGXGXGXGXGXGXGXGXGXGXGXHXHXHXGXGXKXSXNXNXVXXXI.K.W.R.G.G.y.&.&.&.f g 7 7 p p p p p p a s s } ,. .4.4.,.u.sXaXaXaXaXaXaXaX+XA.s.k.k.f.z.z.s.s.s.f.j.f.j.j.j.j.j.z.z.z.s.s.s.s.s.s.s.s.s.s.p.0.0.0.7.q.7.5.q.3.o. .3.3.3. .| | } { { s a a a p p 7 7 6 & & % & = = = : : u u j k M N H H bXVXNXLXAXCXCXAXAXMXMXNXMXMXDXKXGXGXGXGXGXGXGXGXGXGXGXGXGXGXGXGXGXGXGXGXGXGXGXGXGXGXKXMXMXMXMXMXMXMXMXMXMXMXMXMXMXMXMXMXMXMXMXMXMXMXMXMXNXDXGXGXGXGXGXGXGXGXGXGXGXGXGXGXGXGXGXGXGXGXGXGXGXGXGXGXGXKXDXMXMXMXMXMXMXMXMXMXMXMXMXMXMXMXMXMXMXMXMXMXMXMXMXMXDXKXGXGXGXGXGXGXGXGXGXGXGXGXGXGXGX",
"GXGXGXGXGXGXGXGXGXGXGXGXGXGXGXGXGXGXGXGXGXGXGXGXGXHXKXKXKXDXDXDXDXDXDXDXDXDXDXDXDXDXDXDXDXDXDXDXMXDXDXDXDXDXKXKXGXGXGXGXGXGXGXGXGXGXGXGXGXGXGXGXGXGXGXGXGXGXGXGXGXKXKXDXDXDXDXKXDXDXDXDXDXDXDXDXDXDXDXDXDXDXDXDXDXDXDXDXMXDXKXGXGXGXGXGXGXGXGXGXGXGXGXGXGXGXGXGXHXHXGXHXHXHXHXGXHXHXLXLXMXVXI.U.W.W.R.Y.G.G.=.-.&.&.X.g t t p p a a a a s { | ,.3.4.w.6.u.sXaXaXbXbXmXmXsX+Xz.j.k.g.f.z.z.h.d.a.j.j.j.j.j.j.j.j.l.j.j.s.s.s.s.s.s.s.s.s.s.p.p.p.d.7.9.7.5.7.q.7.4.5.5.4.3. .| | } { a a a p p y 6 6 6 & % % % = * * : : u h k M N N H H.zXZXNXMXLXAXAXAXLXMXLXLXDXDXKXKXKXGXGXGXGXGXGXGXGXGXGXGXGXGXGXGXGXGXGXGXGXKXKXKXGXKXKXDXDXDXDXDXDXDXDXDXDXDXDXDXDXDXDXDXDXDXDXDXDXDXDXDXMXDXKXGXGXKXKXKXGXGXGXGXGXGXGXGXGXGXGXGXGXGXGXGXKXKXKXKXKXKXKXDXDXDXDXDXDXDXLXDXDXDXDXDXDXDXDXDXDXDXDXDXDXDXDXDXKXKXKXGXKXKXGXGXGXGXGXGXGXGXGXGXGX",
"DXDXDXDXDXDXDXDXDXDXDXDXDXDXDXDXDXDXDXDXDXDXDXDXAXLXDXKXKXKXGXGXKXKXKXKXKXKXKXKXKXKXKXKXKXKXKXKXKXGXGXGXKXKXKXKXDXDXDXDXDXDXDXDXDXDXDXDXDXDXDXDXDXDXDXDXDXDXDXDXDXKXKXKXKXKXGXGXKXKXKXKXKXKXKXKXKXKXKXKXKXKXKXKXKXHXGXGXGXKXKXDXDXDXDXDXDXDXDXDXDXDXDXDXDXDXDXDXDXDXDXDXDXDXDXDXLXHXKXHXHXVXI.U.R.W.R.Y.Y.;.=.=.-.&.&.&.@.@.o.o.o.o.a s { } .. .w.O.6.,.u.sXaXaXbXbXbXbXsXOXz.l.k.g.f.f.z.d.d.a.j.j.j.j.j.j.j.j.l.l.j.j.s.s.s.s.s.s.s.s.s.a.p.p.d.8.7.8.7.4.7.q.7.5.4.3.O. .| | } { s s s s p y 7 6 6 & & % % - = = : : : u h k M M H P.kXFXFXHXHXHXHXHXKXKXKXKXGXGXKXKXDXDXDXMXDXDXDXDXDXDXDXDXDXDXDXDXDXDXDXDXDXMXDXDXKXKXKXKXKXKXKXKXKXKXKXKXKXKXKXKXKXKXKXKXKXKXKXKXKXKXKXKXKXKXKXDXMXDXDXDXDXDXDXDXDXDXDXDXDXDXDXDXDXDXDXDXMXLXDXDXDXKXKXKXKXKXKXKXKXKXKXKXKXKXKXKXKXKXKXKXKXKXKXKXKXKXKXKXKXKXDXDXDXMXMXDXDXDXDXDXDXDXDXDXDX",
"MXMXMXMXMXMXMXMXMXMXMXMXMXMXMXMXMXMXMXMXMXMXMXMXMXMXDXKXGXGXGXGXGXGXGXGXGXGXGXGXGXGXGXGXGXGXGXGXGXGXGXGXGXGXKXDXMXMXMXMXMXMXMXMXMXMXMXMXMXMXMXMXMXMXMXMXMXMXMXMXMXMXKXGXGXGXGXGXGXGXGXGXGXGXGXGXGXGXGXGXGXGXGXGXGXGXGXGXGXGXDXMXMXMXMXMXMXMXMXMXMXMXMXMXMXMXMXMXCXCXMXMXCXCXCXMXBXHXHXGXFXVXI.U.K.W.R.G.G.=.=.=.=.-.#.] ] ] -.=.] o.o.o.o.o... .w.O.6.1.u.sXbXaXaXbXaXaXsXOXz.k.x.g.f.f.z.s.s.s.j.j.j.j.f.j.j.j.l.j.j.j.j.j.s.s.f.f.s.s.s.s.d.d.p.8.q.h.q.9.9.O.4.4.4.3.O. .| } { { s s g g y y 6 6 6 & & % % * = = : : : : u j k x M U ;XFXHXGXGXGXHXHXGXGXGXGXGXGXGXDXMXMXMXMXMXMXMXMXMXMXMXMXMXMXMXMXMXMXMXMXMXMXMXMXMXMXKXGXGXGXGXGXGXGXGXGXGXGXGXGXGXGXGXGXGXGXGXGXGXGXGXGXGXKXDXMXMXMXMXMXMXMXMXMXMXMXMXMXMXMXMXMXMXMXMXMXMXMXMXMXDXKXGXGXGXGXGXGXGXGXGXGXGXGXGXGXGXGXGXGXGXGXGXGXGXGXGXGXGXDXMXMXMXMXMXMXMXMXMXMXMXMXMXMXMX",
"MXMXMXMXMXMXMXMXMXMXMXMXMXMXMXMXMXMXMXMXMXMXMXMXMXMXDXGXGXGXGXGXGXGXGXGXGXGXGXGXGXGXGXGXGXGXGXGXGXGXGXGXGXGXKXMXMXMXMXMXMXMXMXMXMXMXMXMXMXMXMXMXMXMXMXMXMXMXMXMXMXMXKXGXGXHXKXGXGXGXGXGXGXGXGXGXGXGXGXGXGXGXGXGXGXGXKXGXGXGXKXMXMXMXMXMXMXMXMXMXMXMXMXMXMXMXMXMXCXCXMXMXCXCXAXAXLXHXHXFXFXmXU.U.K.W.G.G.G.=.=.=.*.#.$.*.#.] [ #.] ] @.@.@.o.....w.O.w.w.u.sXaXaXaXbXaXaXsXOXZ.k.x.k.f.j.j.j.j.j.j.j.j.f.g.g.j.j.j.j.j.j.j.j.j.j.j.f.f.s.s.p.p.p.p.8.q.8.7.q.h.7.4.4.4.3.3.,.| } } s s g y 7 6 $ 6 & & & % # % % = * : : h h z k k M M G U VXHXGXGXHXHXHXGXGXGXGXGXGXKXDXMXMXDXLXMXMXMXMXMXMXMXMXMXMXMXMXMXMXMXMXDXMXMXMXMXMXKXGXGXGXGXGXGXGXGXGXGXGXGXGXGXGXGXGXGXGXGXGXGXGXGXGXGXKXMXMXMXDXMXMXMXMXMXMXMXMXMXMXMXMXMXMXMXMXMXMXMXDXMXMXMXKXGXGXGXGXGXGXGXGXGXGXGXGXGXGXGXGXGXGXGXGXGXGXGXGXGXGXGXDXMXMXMXMXMXMXMXMXMXMXMXMXMXMXMX",
"MXMXMXMXMXMXMXMXMXMXMXMXMXMXMXMXMXMXMXMXMXMXMXMXMXMXLXKXGXGXGXGXGXGXGXGXGXGXGXGXGXGXGXGXGXGXGXGXGXGXGXGXGXGXGXMXMXMXMXMXMXMXMXMXMXMXMXMXMXMXMXMXMXMXMXMXMXMXMXMXMXMXKXGXGXGXGXGXGXGXGXGXGXGXGXGXGXGXGXGXGXGXGXGXGXGXGXKXGXGXMXMXMXMXMXMXMXMXMXMXMXMXMXMXMXMXMXMXMXMXMXMXCXCXAXAXLXHXHXGXFXbXI.K.K.K.G.G.=.=.=.*.*.$.$.$.%.%.%.%.[ #.] #.#.#.+.+.+.+.y.y.G.rXmXaXaXaXaXbXsXOXd.l.g.g.f.j.j.j.k.k.f.f.j.j.j.j.g.f.z.j.j.z.j.j.j.s.f.s.s.a.p.p.d.d.0.0.p.0.0.7.7.7.5.4.4.3.,.| } } X.X.f 7 $ $ $ $ $ & & & $ & = = = * : z n n M M j k M G G VXHXGXGXGXGXGXGXGXGXGXGXGXHXLXMXMXDXMXMXMXMXMXMXMXMXMXMXMXMXMXMXMXMXMXMXMXMXMXMXMXKXGXGXGXGXGXGXGXGXGXGXGXGXGXGXGXGXGXGXGXGXGXGXGXGXGXGXGXMXMXDXMXMXMXMXMXMXMXMXMXMXMXMXMXMXMXMXMXMXMXMXMXMXMXDXKXGXGXGXGXGXGXGXGXGXGXGXGXGXGXGXGXGXGXGXGXGXGXGXGXGXGXGXDXMXDXMXMXMXMXMXMXMXMXMXMXMXMXMX",
"MXMXMXMXMXMXMXMXMXMXMXMXMXMXMXMXMXMXMXMXMXMXMXMXMXMXLXKXGXGXGXGXGXGXGXGXGXGXGXGXGXGXGXGXGXGXGXGXGXGXGXGXGXGXGXMXMXMXMXMXMXMXMXMXMXMXMXMXMXMXMXMXMXMXMXMXMXMXMXMXMXMXKXGXGXGXGXGXGXGXGXGXGXGXGXGXGXGXGXGXGXGXGXGXGXGXGXKXGXGXMXMXMXMXMXMXMXMXMXMXMXMXMXMXMXMXMXMXMXMXMXMXCXCXCXAXLXHXHXHXFXrXQ.K.K.K.G.G.=.=.=.*.*.$.$.%.%.%.[ %.%.%.[ #.#.-.-.-.-.=.y.y.G.tXrXtXbXbXaXaXaXOXz.Z.x.k.j.s.s.j.j.k.l.j.s.s.f.k.l.l.j.s.f.j.s.j.l.j.s.s.f.z.s.s.p.0.s.d.0.7.5.7.7.7.4.3.3.6.6.1.1.1.X.X.d 9 4 6 8 4 & & & & & % % = = = , z z h h h j z M G G nXFXFXGXGXGXGXGXGXGXGXGXGXGXDXMXMXDXMXMXMXMXMXMXMXMXMXMXMXMXMXMXMXMXMXMXMXMXMXMXMXKXGXGXGXGXGXGXGXGXGXGXGXGXGXGXGXGXGXGXGXGXGXGXGXGXGXGXGXMXMXDXMXMXMXMXMXMXMXMXMXMXMXMXMXMXMXMXMXMXMXMXMXMXMXDXKXGXGXGXGXGXGXGXGXGXGXGXGXGXGXGXGXGXGXGXGXGXGXGXGXGXGXGXDXMXDXMXMXMXMXMXMXMXMXMXMXMXMXMX",
"MXMXMXMXMXMXMXMXMXMXMXMXMXMXMXMXMXMXMXMXMXMXMXMXMXMXDXKXGXGXGXGXGXGXGXGXGXGXGXGXGXGXGXGXGXGXGXGXGXGXGXGXGXGXGXMXMXMXMXMXMXMXMXMXMXMXMXMXMXMXMXMXMXMXMXMXMXMXMXMXMXMXKXGXGXGXGXGXGXGXGXGXGXGXGXGXGXGXGXGXGXGXGXGXGXGXGXGXGXGXMXMXMXMXMXMXMXMXMXMXMXMXMXMXMXMXMXMXNXMXBXMXCXCXCXAXLXHXHXFXFXrXQ.G.W.W.R.G.=.=.=.*.*.*.$.#.%.[ [ [ %.%.%.%.#.#.-.=.Y.;.Y.R.G.Q.Q.Q.XX0XrXaXsXOXA.j.k.k.j.s.j.l.k.k.f.j.k.k.k.j.l.l.l.j.l.l.j.j.j.s.s.s.s.s.d.d.d.d.d.0.q.q.q.7.5.5.w.w.w.,...{ a a 7 7 0 4 4 4 4 $ $ $ & $ $ % % = * = h z h : : u k z z n G zXFXFXGXGXGXGXGXGXGXGXGXGXKXDXMXMXDXMXMXMXMXMXMXMXMXMXMXMXMXMXMXMXMXMXMXMXMXMXMXMXKXGXGXGXGXGXGXGXGXGXGXGXGXGXGXGXGXGXGXGXGXGXGXGXGXGXGXGXMXMXDXMXMXMXMXMXMXMXMXMXMXMXMXMXMXMXMXMXMXMXMXMXMXMXDXKXGXGXGXGXGXGXGXGXGXGXGXGXGXGXGXGXGXGXGXGXGXGXGXGXGXGXGXDXMXDXMXMXMXMXMXMXMXMXMXMXMXMXMX",
"MXMXMXMXMXMXMXMXMXMXMXMXMXMXMXMXMXMXMXMXMXMXMXMXMXMXDXKXGXGXGXGXGXGXGXGXGXGXGXGXGXGXGXGXGXGXGXGXGXGXGXGXGXGXGXMXMXMXMXMXMXMXMXMXMXMXMXMXMXMXMXMXMXMXMXMXMXMXMXMXMXMXKXGXGXGXGXGXGXGXGXGXGXGXGXGXGXGXGXGXGXGXGXGXGXGXGXGXGXGXMXMXMXMXMXMXMXMXMXMXMXMXMXMXMXMXMXMXNXMXBXMXCXCXCXAXLXHXHXFXZXtXQ.R.W.R.T.G.=.=.=.*.*.#.#.#.#.%.%.%.%.%.%.%.#.#.-.-.=.=.Y.R.W.Q.Q.Q.oXoXI.I.K.u.A.A.Z.z.z.z.z.z.j.f.j.j.l.l.l.j.j.j.l.j.l.j.s.s.l.j.j.j.s.d.d.d.d.d.z.h.h.h.u.w.w.w.{ o.a p t 5 5 5 5 4 4 4 4 8 8 $ $ $ $ $ - & = = % * h z h h h z k z z n Z wXFXFXGXGXGXGXGXGXGXGXGXGXKXMXMXMXDXMXMXMXMXMXMXMXMXMXMXMXMXMXMXMXMXMXMXMXMXMXMXMXKXGXGXGXGXGXGXGXGXGXGXGXGXGXGXGXGXGXGXGXGXGXGXGXGXGXGXGXMXMXDXMXMXMXMXMXMXMXMXMXMXMXMXMXMXMXMXMXMXMXMXMXMXMXDXKXGXGXGXGXGXGXGXGXGXGXGXGXGXGXGXGXGXGXGXGXGXGXGXGXGXGXGXDXMXDXMXMXMXMXMXMXMXMXMXMXMXMXMX",
"MXMXMXMXMXMXMXMXMXMXMXMXMXMXMXMXMXMXMXMXMXMXMXMXMXMXDXKXGXGXGXGXGXGXGXGXGXGXGXGXGXGXGXGXGXGXGXGXGXGXGXGXGXGXGXMXMXMXMXMXMXMXMXMXMXMXMXMXMXMXMXMXMXMXMXMXMXMXMXMXMXMXKXGXGXGXGXGXGXGXGXGXGXGXGXGXGXGXGXGXGXGXGXGXGXGXGXGXGXGXMXMXMXMXMXMXMXMXMXMXMXMXMXMXMXMXMXMXMXBXBXMXCXCXCXSXLXHXHXFXFX0XI.R.R.R.T.Y.;.=.=.-.-.#.#.#.[ [ [ %.%.%.%.#.#.#.-.-.=.G.T.R.W.Q.Q.Q.OXOXOXQ.Q.K.y.y.+.w.h.A.A.A.z.f.j.s.p.s.j.l.l.l.M.l.l.j.s.d.s.s.s.j.l.l.z.z.z.h.w.w.o.o.w q q 5 5 5 5 5 5 5 5 5 4 4 4 4 4 4 8 - $ $ $ $ - - - - - - = h h : h z z z z n Z 2XFXHXGXGXGXGXGXGXGXGXGXGXHXDXMXMXDXMXMXMXMXMXMXMXMXMXMXMXMXMXMXMXMXMXMXMXMXMXMXMXKXGXGXGXGXGXGXGXGXGXGXGXGXGXGXGXGXGXGXGXGXGXGXGXGXGXGXGXMXMXDXMXMXMXMXMXMXMXMXMXMXMXMXMXMXMXMXMXMXMXMXMXMXMXDXKXGXGXGXGXGXGXGXGXGXGXGXGXGXGXGXGXGXGXGXGXGXGXGXGXGXGXGXMXMXMXMXMXMXMXMXMXMXMXMXMXMXMXMX",
"MXMXMXMXMXMXMXMXMXMXMXMXMXMXMXMXMXMXMXMXMXMXMXMXMXMXDXKXGXGXGXGXGXGXGXGXGXGXGXGXGXGXGXGXGXGXGXGXGXGXGXGXGXGXGXMXMXMXMXMXMXMXMXMXMXMXMXMXMXMXMXMXMXMXMXMXMXMXMXMXMXMXKXGXGXGXGXGXGXGXGXGXGXGXGXGXGXGXGXGXGXGXGXGXGXGXGXGXGXGXMXMXMXMXMXMXMXMXMXMXMXMXMXMXMXMXMXMXBXBXBXBXCXCXCXSXLXHXGXHXZX0XK.R.W.R.R.Y.;.=.=.-.-.-.#.#.[ [ [ [ %.%.%.#.#.*.-.-.;.T.R.R.W.Q.Q.Q.OXOXOXQ.Q.Q.R.Y.y.-.o.o.o.w.A.A.Z.Z.Z.Z.l.d.d.s.p.p.j.Z.A.A.A.A.A.z.d.7.O.o.o.w q q q q q e e e e q 5 5 5 5 5 5 4 4 4 4 4 $ $ $ $ $ $ - - - - - = - = h , , h h z z z n Z =XGXGXGXGXGXGXGXGXGXGXGXGXGXDXMXMXDXMXMXMXMXMXMXMXMXMXMXMXMXMXMXMXMXMXMXMXMXMXMXMXKXGXGXGXGXGXGXGXGXGXGXGXGXGXGXGXGXGXGXGXGXGXGXGXGXGXGXGXMXMXDXMXMXMXMXMXMXMXMXMXMXMXMXMXMXMXMXMXMXMXMXMXMXMXDXKXGXGXGXGXGXGXGXGXGXGXGXGXGXGXGXGXGXGXGXGXGXGXGXGXGXGXGXMXMXDXMXMXMXMXMXMXMXMXMXMXMXMXMX",
"MXMXMXMXMXMXMXMXMXMXMXMXMXMXMXMXMXMXMXMXMXMXMXMXMXMXDXKXGXGXGXGXGXGXGXGXGXGXGXGXGXGXGXGXGXGXGXGXGXGXGXGXGXGXGXMXMXMXMXMXMXMXMXMXMXMXMXMXMXMXMXMXMXMXMXMXMXMXMXMXMXMXKXGXGXGXGXGXGXGXGXGXGXGXGXGXGXGXGXGXGXGXGXGXGXGXGXGXGXGXMXMXMXMXMXMXMXMXMXMXMXMXMXMXMXMXMXMXBXBXBXBXMXCXCXSXLXHXHXFXZXXXK.R.W.R.T.G.;.=.=.-.-.-.#.%.[ %.%.%.%.[ #.#.#.-.-.-.=.G.R.G.Q.Q.OXOX!.!.Q.Q.Q.W.R.G.=.-.&.&.&.@.] ` o.O.h.A.A.h.z.Z.d.h.h.h.w.+.+.` ` ` w w w q q q q q q q e q 5 5 5 5 5 5 0 0 5 4 0 0 0 0 4 4 $ $ $ $ $ - - - - - = - 8 h h h h z z z z Z Z #XGXFXGXGXGXGXGXGXGXGXGXGXGXDXMXMXDXMXMXMXMXMXMXMXMXMXMXMXMXMXMXMXMXMXMXMXMXMXMXMXKXGXGXGXGXGXGXGXGXGXGXGXGXGXGXGXGXGXGXGXGXGXGXGXGXGXGXGXMXMXDXMXMXMXMXMXMXMXMXMXMXMXMXMXMXMXMXMXMXMXMXMXMXMXDXKXGXGXGXGXGXGXGXGXGXGXGXGXGXGXGXGXGXGXGXGXGXGXGXGXGXGXGXDXMXDXMXMXMXMXMXMXMXMXMXMXMXMXMX",
"MXMXMXMXMXMXMXMXMXMXMXMXMXMXMXMXMXMXMXMXMXMXMXMXMXMXDXKXGXGXGXGXGXGXGXGXGXGXGXGXGXGXGXGXGXGXGXGXGXGXGXGXGXGXGXMXMXMXMXMXMXMXMXMXMXMXMXMXMXMXMXMXMXMXMXMXMXMXMXMXMXMXKXGXGXGXGXGXGXGXGXGXGXGXGXGXGXGXGXGXGXGXGXGXGXGXGXGXGXGXMXMXMXMXMXMXMXMXMXMXMXMXMXMXMXMXMXMXBXBXBXBXCXCXCXSXLXHXHXFXZXI.K.R.W.R.R.G.;.;.=.-.-.#.#.%.%.%.%.%.#.@.] @.@.-.-.=.=.G.R.R.Q.Q.Q.OX!.!.Q.Q.Q.W.R.G.y.=.&.&.&.@.] ] ` ` ` +.=.;.h.w.O.o.` w w w ` w r r r r r r r q e e e q q q q e 0 0 0 0 0 0 0 4 0 4 4 4 4 4 $ $ $ $ $ $ $ - = = = = h z h h h h z z z Z Z L.HXFXGXGXGXGXGXGXGXGXGXGXGXDXMXMXDXMXMXMXMXMXMXMXMXMXMXMXMXMXMXMXMXMXMXMXMXMXMXMXKXGXGXGXGXGXGXGXGXGXGXGXGXGXGXGXGXGXGXGXGXGXGXGXGXGXGXGXMXMXDXMXMXMXMXMXMXMXMXMXMXMXMXMXMXMXMXMXMXMXMXMXMXMXDXKXGXGXGXGXGXGXGXGXGXGXGXGXGXGXGXGXGXGXGXGXGXGXGXGXGXGXGXDXMXDXMXMXMXMXMXMXMXMXMXMXMXMXMX",
"MXMXMXMXMXMXMXMXMXMXMXMXMXMXMXMXMXMXMXMXMXMXMXMXMXMXDXKXGXGXGXGXGXGXGXGXGXGXGXGXGXGXGXGXGXGXGXGXGXGXGXGXGXGXGXMXMXMXMXMXMXMXMXMXMXMXMXMXMXMXMXMXMXMXMXMXMXMXMXMXMXMXKXGXGXGXGXGXGXGXGXGXGXGXGXGXGXGXGXGXGXGXGXGXGXGXGXGXGXGXMXMXMXMXMXMXMXMXMXMXMXMXMXMXMXMXMXMXMXMXBXBXCXCXAXAXLXKXGXFXZXU.K.W.W.R.Y.G.=.=.=.-.-.#.#.%.[ %.%.%.' R.rXU.&.t @.;.~.Y.T.R.W.Q.OXOXQ.!.Q.Q.Q.W.G.G.y.=.&.&.@.@.@.@.] ] ] ] ` ` ` ` ` ` ` ` ` w w w w r r r r r r e e e e q q q q 5 5 5 5 5 5 0 0 0 0 4 4 4 4 $ $ $ $ $ $ $ $ - - - = % h G = z h z z h G n G Q KXFXHXHXHXHXGXGXGXGXGXGXKXMXMXMXDXMXMXMXMXMXMXMXMXMXMXMXMXMXMXMXMXMXMXMXMXMXMXMXKXGXGXGXGXGXGXGXGXGXGXGXGXGXGXGXGXGXGXGXGXGXGXGXGXGXGXGXMXMXDXMXMXMXMXMXMXMXMXMXMXMXMXMXMXMXMXMXMXMXMXMXMXMXDXKXGXGXGXGXGXGXGXGXGXGXGXGXGXGXGXGXGXGXGXGXGXGXGXGXGXGXGXDXMXDXMXMXMXMXMXMXMXMXMXMXMXMXMX",
"MXMXMXMXMXMXMXMXMXMXMXMXMXMXMXMXMXMXMXMXMXMXMXMXMXMXDXKXGXGXGXGXGXGXGXGXGXGXGXGXGXGXGXGXGXGXGXGXGXGXGXGXGXGXGXMXMXMXMXMXMXMXMXMXMXMXMXMXMXMXMXMXMXMXMXMXMXMXMXMXMXMXKXGXGXGXGXGXGXGXGXGXGXGXGXGXGXGXGXGXGXGXGXGXGXGXGXGXGXGXMXMXMXMXMXMXMXMXMXMXMXMXMXMXMXMXMXMXAXAXBXBXMXCXAXAXAXKXGXFXVXU.K.K.W.R.Y.G.=.=.=.*.-.#.#.$.[ [ $.#.@.rXbXbXbX0XG.&.-.G.R.W.Q.Q.Q.Q.OXQ.Q.Q.W.R.G.G.=.=.&.&.@.@.@.@.@.] ] ] ' ' ' ' ' ' ' ' ' ' ' r w w r r r w w q e e e q q q q q 5 5 5 5 5 5 0 0 4 4 4 4 4 $ $ $ $ $ $ $ - - - = = % h z = h h z z z z z G U KXFXHXHXHXHXGXGXGXGXGXGXKXMXMXMXDXMXMXMXMXMXMXMXMXMXMXMXMXMXMXMXMXMXMXMXMXMXMXMXKXGXGXGXGXGXGXGXGXGXGXGXGXGXGXGXGXGXGXGXGXGXGXGXGXGXGXGXMXMXDXMXMXMXMXMXMXMXMXMXMXMXMXMXMXMXMXMXMXMXMXMXMXMXDXKXGXGXGXGXGXGXGXGXGXGXGXGXGXGXGXGXGXGXGXGXGXGXGXGXGXGXGXDXMXDXMXMXMXMXMXMXMXMXMXMXMXMXMX",
"MXMXMXMXMXMXMXMXMXMXMXMXMXMXMXMXMXMXMXMXMXMXMXMXMXMXDXKXGXGXGXGXGXGXGXGXGXGXGXGXGXGXGXGXGXGXGXGXGXGXGXGXGXGXGXMXMXMXMXMXMXMXMXMXMXMXMXMXMXMXMXMXMXMXMXMXMXMXMXMXMXMXKXGXGXGXGXGXGXGXGXGXGXGXGXGXGXGXGXGXGXGXGXGXGXGXGXGXGXGXMXMXMXMXMXMXMXMXMXMXMXMXMXMXMXMXMXMXAXAXBXBXMXCXAXAXAXKXGXFXmXU.U.K.W.R.G.G.=.=.=.-.-.#.#.%.%.[ $.' U.mXpXiXqXpXbXaXI.G.&.G.Q.Q.!.tXOXoXQ.Q.Q.R.T.G.=.-.-.-.#.#.] ] ] ] ' ' ' ' ' ' ' ' ' ' ' ' ' ' w w r r r r w q e e e q q q q q 5 5 5 5 5 5 5 4 4 4 4 4 4 $ $ $ $ $ $ - - - & = = % = z = h h z h z z z G K ZXFXHXHXHXHXGXGXGXGXGXGXKXAXMXMXDXMXMXMXMXMXMXMXMXMXMXMXMXMXMXMXMXMXMXMXMXMXMXMXKXGXGXGXGXGXGXGXGXGXGXGXGXGXGXGXGXGXGXGXGXGXGXGXGXGXGXGXMXMXDXMXMXMXMXMXMXMXMXMXMXMXMXMXMXMXMXMXMXMXMXMXMXMXDXKXGXGXGXGXGXGXGXGXGXGXGXGXGXGXGXGXGXGXGXGXGXGXGXGXGXGXGXMXMXMXMXMXMXMXMXMXMXMXMXMXMXMXMX",
"MXMXMXMXMXMXMXMXMXMXMXMXMXMXMXMXMXMXMXMXMXMXMXMXMXMXDXKXGXGXGXGXGXGXGXGXGXGXGXGXGXGXGXGXGXGXGXGXGXGXGXGXGXGXGXMXMXMXMXMXMXMXMXMXMXMXMXMXMXMXMXMXMXMXMXMXMXMXMXMXMXMXKXGXGXGXGXGXGXGXGXGXGXGXGXGXGXGXGXGXGXGXGXGXGXGXGXGXGXGXMXMXMXMXMXMXMXMXMXMXMXMXMXMXMXMXMXMXAXAXBXBXCXCXAXAXAXKXGXFXbXU.K.W.W.R.G.G.=.=.=.-.#.-.#.[ %.$.] t eXkXpXpXnXzXpXpXbXbXrXXXI.Q.Q.Q.0XOXOXQ.W.R.G.G.=.-.-.-.#.#.] ] ] ' ' ' ' ' ' ' ' ' ' ' ' r r r r w r r r r w q e e e q q q q 5 5 5 5 5 5 5 5 4 4 4 4 4 4 $ $ $ $ & - - - & & % = % = z = h h z h z z z G G ZXFXHXHXHXHXGXGXGXGXGXGXGXDXMXMXDXMXMXMXMXMXMXMXMXMXMXMXMXMXMXMXMXMXMXMXMXMXMXMXKXGXGXGXGXGXGXGXGXGXGXGXGXGXGXGXGXGXGXGXGXGXGXGXGXGXGXGXMXMXDXMXMXMXMXMXMXMXMXMXMXMXMXMXMXMXMXMXMXMXMXMXMXMXDXKXGXGXGXGXGXGXGXGXGXGXGXGXGXGXGXGXGXGXGXGXGXGXGXGXGXGXGXMXMXMXMXMXMXMXMXMXMXMXMXMXMXMXMX",
"MXMXMXMXMXMXMXMXMXMXMXMXMXMXMXMXMXMXMXMXMXMXMXMXMXMXDXKXGXGXGXGXGXGXGXGXGXGXGXGXGXGXGXGXGXGXGXGXGXGXGXGXGXGXGXMXMXMXMXMXMXMXMXMXMXMXMXMXMXMXMXMXMXMXMXMXMXMXMXMXMXMXKXGXGXGXGXGXGXGXGXGXGXGXGXGXGXGXGXGXGXGXGXGXGXGXGXGXGXGXMXMXMXMXMXMXMXMXMXMXMXMXMXMXMXMXMXMXAXAXBXBXCXCXAXAXAXKXGXFXrXI.K.W.W.T.G.G.=.=.=.-.#.-.#.[ %.*.w F.bXvX;X0 F.0XbXbXbXpXkXzXkXeX0X0XQ.Q.Q.Q.Q.W.G.G.=.-.-.#.#.#.] ] ' r ' ' ' ' ' ' ' ' ' ' r r r r r w r r r w w q e e q q q q q 5 5 5 5 5 5 0 5 4 0 4 4 4 4 4 $ $ $ - $ - $ % % % = - = h , h h h j z z z G G VXFXHXHXHXHXGXGXGXGXGXGXGXDXMXMXMXMXMXMXMXMXMXMXMXMXMXMXMXMXMXMXMXMXMXMXMXMXMXMXKXGXGXGXGXGXGXGXGXGXGXGXGXGXGXGXGXGXGXGXGXGXGXGXGXGXGXGXMXMXDXMXMXMXMXMXMXMXMXMXMXMXMXMXMXMXMXMXMXMXMXMXMXMXDXKXGXGXGXGXGXGXGXGXGXGXGXGXGXGXGXGXGXGXGXGXGXGXGXGXGXGXGXDXMXDXMXMXMXMXMXMXMXMXMXMXMXMXMX",
"MXMXMXMXMXMXMXMXMXMXMXMXMXMXMXMXMXMXMXMXMXMXMXMXMXMXDXKXGXGXGXGXGXGXGXGXGXGXGXGXGXGXGXGXGXGXGXGXGXGXGXGXGXGXGXMXMXMXMXMXMXMXMXMXMXMXMXMXMXMXMXMXMXMXMXMXMXMXMXMXMXMXKXGXGXGXGXGXGXGXGXGXGXGXGXGXGXGXGXGXGXGXGXGXGXGXGXGXGXGXMXMXMXMXMXMXMXMXMXMXMXMXMXMXMXMXMXMXAXAXLXBXCXCXAXAXLXKXGXFXrXI.K.W.W.T.G.G.=.=.=.-.-.#.%.$.%.@.t 0XkXzXc v @.v c I.eXbXnXcXcXnXmXrX0X0XXXI.I.K.G.G.=.-.-.#.#.@.@.] ' ' ' ' ' ' ' ' ' ' ' ' r r r r r w r r r r w q e e q q q q q 5 5 5 5 5 5 0 5 5 0 4 4 4 4 4 $ $ $ $ $ $ $ & % % - - - h h , h h z z k z G Z vXFXHXHXHXHXGXGXGXGXGXGXGXDXMXMXMXMXMXMXMXMXMXMXMXMXMXMXMXMXMXMXMXMXMXMXMXMXMXMXKXGXGXGXGXGXGXGXGXGXGXGXGXGXGXGXGXGXGXGXGXGXGXGXGXGXGXGXMXMXDXMXMXMXMXMXMXMXMXMXMXMXMXMXMXMXMXMXMXMXMXMXMXMXDXKXGXGXGXGXGXGXGXGXGXGXGXGXGXGXGXGXGXGXGXGXGXGXGXGXGXGXGXDXMXDXMXMXMXMXMXMXMXMXMXMXMXMXMX",
"MXMXMXMXMXMXMXMXMXMXMXMXMXMXMXMXMXMXMXMXMXMXMXMXMXMXDXKXGXGXGXGXGXGXGXGXGXGXGXGXGXGXGXGXGXGXGXGXGXGXGXGXGXGXGXMXMXMXMXMXMXMXMXMXMXMXMXMXMXMXMXMXMXMXMXMXMXMXMXMXMXMXKXGXGXGXGXGXGXGXGXGXGXGXGXGXGXGXGXGXGXGXGXGXGXGXGXGXGXGXMXMXMXMXMXMXMXMXMXMXMXMXMXMXMXMXMXMXAXAXLXBXMXCXAXLXAXHXGXKXtXQ.K.W.W.T.G.G.=.=.=.-.-.#.[ $.#.' F.bXbX;X5 &.] -.r &.c J.eXvXnXxXxXnXVXbXeX;XI.G.G.G.=.-.&.&.@.@.@.] ' ] ' ' ' ' ' ' ' ' ' ' r r r r r w r r r r w w r e q q q q q q 5 5 5 5 5 0 0 5 0 4 4 4 4 $ $ $ $ $ $ $ $ & & & % = = , h : h h z z z z G Z zXFXHXHXHXHXGXGXGXGXGXGXGXDXMXMXMXMXMXMXMXMXMXMXMXMXMXMXMXMXMXMXMXMXMXMXMXMXMXMXKXGXGXGXGXGXGXGXGXGXGXGXGXGXGXGXGXGXGXGXGXGXGXGXGXGXGXGXMXMXDXMXMXMXMXMXMXMXMXMXMXMXMXMXMXMXMXMXMXMXMXMXMXMXDXKXGXGXGXGXGXGXGXGXGXGXGXGXGXGXGXGXGXGXGXGXGXGXGXGXGXGXGXDXMXDXMXMXMXMXMXMXMXMXMXMXMXMXMX",
"MXMXMXMXMXMXMXMXMXMXMXMXMXMXMXMXMXMXMXMXMXMXMXMXMXMXDXKXGXGXGXGXGXGXGXGXGXGXGXGXGXGXGXGXGXGXGXGXGXGXGXGXGXGXGXMXMXMXMXMXMXMXMXMXMXMXMXMXMXMXMXMXMXMXMXMXMXMXMXMXMXMXKXGXGXGXGXGXGXGXGXGXGXGXGXGXGXGXGXGXGXGXGXGXGXGXGXGXGXGXMXMXMXMXMXMXMXMXMXMXMXMXMXMXMXMXMXMXAXAXLXBXMXCXMXLXLXKXGXFXtXQ.K.W.W.T.G.G.=.=.=.-.-.#.[ %.#.r 0XbXbXc @.#.=.*.S.-.G.t.D.P.0XkXnXnXzXvXmXmXaX0XI.F.S.&.&.&.&.@.@.] ] ] ] ' ' ' ' ' ' ' ' ' r r r r r w r r r r r w r q q q q q q q 5 5 5 5 5 0 0 0 4 4 4 4 4 $ $ $ $ $ $ $ $ $ - & = = = : h = h h z j z z G Z kXFXHXHXHXHXHXGXGXGXGXGXGXLXMXMXMXMXMXMXMXMXMXMXMXMXMXMXMXMXMXMXMXMXMXMXMXMXMXMXKXGXGXGXGXGXGXGXGXGXGXGXGXGXGXGXGXGXGXGXGXGXGXGXGXGXGXGXMXMXDXMXMXMXMXMXMXMXMXMXMXMXMXMXMXMXMXMXMXMXMXMXMXMXDXKXGXGXGXGXGXGXGXGXGXGXGXGXGXGXGXGXGXGXGXGXGXGXGXGXGXGXGXDXMXDXMXMXMXMXMXMXMXMXMXMXMXMXMX",
"MXMXMXMXMXMXMXMXMXMXMXMXMXMXMXMXMXMXMXMXMXMXMXMXMXMXDXKXGXGXGXGXGXGXGXGXGXGXGXGXGXGXGXGXGXGXGXGXGXGXGXGXGXGXGXMXMXMXMXMXMXMXMXMXMXMXMXMXMXMXMXMXMXMXMXMXMXMXMXMXMXMXKXGXGXGXGXGXGXGXGXGXGXGXGXGXGXGXGXGXGXGXGXGXGXGXGXGXGXGXMXMXMXMXMXMXMXMXMXMXMXMXMXMXMXMXMXMXAXAXLXBXCXCXMXMXMXKXHXFX0XI.K.W.R.T.G.G.=.=.-.-.#.#.#.#.@.&.aXbXI.5 @.@.] -.@.&.&.G.G.U.I.I.0XeXbXmXmXzXvXmXbXeXI.F.v @.&.@.@.#.] ] ] ] ' ' w w r r r ' ' ' ' ` ' w r r r w w w r e q e q q q q 5 e 5 5 5 5 4 4 4 4 4 4 4 - $ $ $ $ $ $ $ $ - - & = % h h : h h h z z z G G 2XFXHXHXHXHXGXGXGXGXGXGXHXLXMXMXDXMXMXMXMXMXMXMXMXMXMXMXMXMXMXMXMXMXMXMXMXMXMXMXKXGXGXGXGXGXGXGXGXGXGXGXGXGXGXGXGXGXGXGXGXGXGXGXGXGXGXGXMXMXDXMXMXMXMXMXMXMXMXMXMXMXMXMXMXMXMXMXMXMXMXMXMXMXDXKXGXGXGXGXGXGXGXGXGXGXGXGXGXGXGXGXGXGXGXGXGXGXGXGXGXGXGXMXMXMXMXMXMXMXMXMXMXMXMXMXMXMXMX",
"MXMXMXMXMXMXMXMXMXMXMXMXMXMXMXMXMXMXMXMXMXMXMXMXMXMXDXKXGXGXGXGXGXGXGXGXGXGXGXGXGXGXGXGXGXGXGXGXGXGXGXGXGXGXGXMXMXMXMXMXMXMXMXMXMXMXMXMXMXMXMXMXMXMXMXMXMXMXMXMXMXMXKXGXGXGXGXGXGXGXGXGXGXGXGXGXGXGXGXGXGXGXGXGXGXGXGXGXGXGXMXMXMXMXMXMXMXMXMXMXMXMXMXMXMXMXMXMXAXAXLXBXCXCXMXMXLXKXHXFX0XI.K.W.R.T.G.G.=.=.-.*.*.#.#.-.r 0XbXbX&.r &.@.#.-.-.=.G.G.G.W.Q.Q.Q.0X;XeXpXzXvXxXzXpXbXrX;XF.v v @.' ] [ #.' ` ' ' @.r w w w w ' ' ' ' w r r r w w w r e q q q q q q 5 5 5 5 5 0 5 0 0 0 0 4 4 $ $ $ $ $ $ $ & - = = - = - h h h h h z z z z Z G ,XFXHXHXHXHXGXGXGXGXGXGXGXDXMXMXDXMXMXMXMXMXMXMXMXMXMXMXMXMXMXMXMXMXMXMXMXMXMXMXKXGXGXGXGXGXGXGXGXGXGXGXGXGXGXGXGXGXGXGXGXGXGXGXGXGXGXGXMXMXDXMXMXMXMXMXMXMXMXMXMXMXMXMXMXMXMXMXMXMXMXMXMXMXDXKXGXGXGXGXGXGXGXGXGXGXGXGXGXGXGXGXGXGXGXGXGXGXGXGXGXGXGXMXMXDXMXMXMXMXMXMXMXMXMXMXMXMXMX",
"MXMXMXMXMXMXMXMXMXMXMXMXMXMXMXMXMXMXMXMXMXMXMXMXMXMXDXKXGXGXGXGXGXGXGXGXGXGXGXGXGXGXGXGXGXGXGXGXGXGXGXGXGXGXGXMXMXMXMXMXMXMXMXMXMXMXMXMXMXMXMXMXMXMXMXMXMXMXMXMXMXMXKXGXGXGXGXGXGXGXGXGXGXGXGXGXGXGXGXGXGXGXGXGXGXGXGXGXGXGXMXMXMXMXMXMXMXMXMXMXMXMXMXMXMXMXMXMXAXAXLXBXCXCXMXMXLXKXHXFXI.Q.W.W.R.T.G.y.=.=.-.*.*.#.-.@.c bXbX0X5 ] ] ] #.] #.-.t.F.G.G.Q.Q.Q.0X0XI.I.;X,XeXpXxXyXiXpXpXtXI.&.r ' ' ' ' ' ' r w ' ' ' ' ' r r r r w r r r w w w r e q q q q q q 5 e 5 5 5 5 5 4 4 4 4 4 4 8 8 8 $ $ $ - $ $ $ - = = = , h h h , z z z z Z G %XFXHXHXHXHXGXGXGXGXGXGXKXDXMXMXDXMXMXMXMXMXMXMXMXMXMXMXMXMXMXMXMXMXMXMXMXMXMXMXKXGXGXGXGXGXGXGXGXGXGXGXGXGXGXGXGXGXGXGXGXGXGXGXGXGXGXGXMXMXDXMXMXMXMXMXMXMXMXMXMXMXMXMXMXMXMXMXMXMXMXMXMXMXDXKXGXGXGXGXGXGXGXGXGXGXGXGXGXGXGXGXGXGXGXGXGXGXGXGXGXGXGXDXMXDXMXMXMXMXMXMXMXMXMXMXMXMXMX",
"MXMXMXMXMXMXMXMXMXMXMXMXMXMXMXMXMXMXMXMXMXMXMXMXMXMXDXKXGXGXGXGXGXGXGXGXGXGXGXGXGXGXGXGXGXGXGXGXGXGXGXGXGXGXGXMXMXMXMXMXMXMXMXMXMXMXMXMXMXMXMXMXMXMXMXMXMXMXMXMXMXMXKXGXGXGXGXGXGXGXGXGXGXGXGXGXGXGXGXGXGXGXGXGXGXGXGXGXGXGXMXMXMXMXMXMXMXMXMXMXMXMXMXMXMXMXMXAXAXAXLXBXCXCXMXMXLXKXHXFXI.I.W.W.R.T.Y.=.=.=.-.*.$.#.#.q I.bXbXc r -.@.@.#.-.-.-.y.G.G.K.Q.Q.Q.0X0X0XQ.I.U.F.P.;XqXkXkXwXrXbXrXI.F.v e e r r ' ' w w ' ' r r r r r w r r r w w w r e q q q q q q q e 5 5 5 5 5 4 0 0 4 4 $ $ $ $ - - - - - = = = % % = = h = h , h z z z G G L.KXHXHXHXHXGXGXGXGXGXGXKXMXMXMXDXMXMXMXMXMXMXMXMXMXMXMXMXMXMXMXMXMXMXMXMXMXMXMXKXGXGXGXGXGXGXGXGXGXGXGXGXGXGXGXGXGXGXGXGXGXGXGXGXGXGXGXMXMXDXMXMXMXMXMXMXMXMXMXMXMXMXMXMXMXMXMXMXMXMXMXMXMXDXKXGXGXGXGXGXGXGXGXGXGXGXGXGXGXGXGXGXGXGXGXGXGXGXGXGXGXGXDXMXDXMXMXMXMXMXMXMXMXMXMXMXMXMX",
"MXMXMXMXMXMXMXMXMXMXMXMXMXMXMXMXMXMXMXMXMXMXMXMXMXMXDXKXGXGXGXGXGXGXGXGXGXGXGXGXGXGXGXGXGXGXGXGXGXGXGXGXGXGXGXMXMXMXMXMXMXMXMXMXMXMXMXMXMXMXMXMXMXMXMXMXMXMXMXMXMXMXKXGXGXGXGXGXGXGXGXGXGXGXGXGXGXGXGXGXGXGXGXGXGXGXGXGXGXGXMXMXMXMXMXMXMXMXMXMXMXMXMXMXMXMXMXAXAXAXLXBXCXCXMXBXBXKXFXFXU.K.W.W.R.R.G.=.=.=.-.*.$.*.@.v rXbXtX5 @.@.' @.@.&.&.&.-.G.R.Q.Q.Q.Q.I.0XQ.Q.Q.Q.U.F.c c F.I.eXpXqXqXuXpXeX;Xc e r r w ' ' ' r r r e e r r r r r r r e e e e q q q q q 5 5 5 5 5 0 5 4 4 4 4 4 4 8 8 8 - - - - # % % % * % , ; l h z z n Z G G U G Q HXHXHXHXHXHXHXGXGXGXGXHXDXMXMXDXMXMXMXMXMXMXMXMXMXMXMXMXMXMXMXMXMXMXMXMXMXMXMXKXGXGXGXGXGXGXGXGXGXGXGXGXGXGXGXGXGXGXGXGXGXGXGXGXGXGXGXMXMXDXMXMXMXMXMXMXMXMXMXMXMXMXMXMXMXMXMXMXMXMXMXMXMXDXKXGXGXGXGXGXGXGXGXGXGXGXGXGXGXGXGXGXGXGXGXGXGXGXGXGXGXGXDXMXDXMXMXMXMXMXMXMXMXMXMXMXMXMX",
"MXMXMXMXMXMXMXMXMXMXMXMXMXMXMXMXMXMXMXMXMXMXMXMXMXMXDXKXGXGXGXGXGXGXGXGXGXGXGXGXGXGXGXGXGXGXGXGXGXGXGXGXGXGXGXMXMXMXMXMXMXMXMXMXMXMXMXMXMXMXMXMXMXMXMXMXMXMXMXMXMXMXKXGXGXGXGXGXGXGXGXGXGXGXGXGXGXGXGXGXGXGXGXGXGXGXGXGXGXGXMXMXMXMXMXMXMXMXMXMXMXMXMXMXMXMXMXAXAXAXLXBXMXCXMXBXBXKXFXVXU.K.W.W.G.G.G.=.=.=.-.*.$.*.r U.aXbXF.e @.] @.&.@.&.&.-.G.G.G.K.I.XX0X0XQ.Q.OXQ.K.U.G.G.&.&.v v H ;XqXiXqX1XeXeX0XF.v v r r r r r r r w r r r r r r r e e e e e q q q q 5 5 5 5 5 5 0 0 4 4 4 4 4 $ $ - # # % % % % * * , , l l b C Z A K K U U U Z K FXHXHXHXHXGXHXGXGXGXGXGXDXMXMXDXMXMXMXMXMXMXMXMXMXMXMXMXMXMXMXMXMXMXMXMXMXMXMXKXGXGXGXGXGXGXGXGXGXGXGXGXGXGXGXGXGXGXGXGXGXGXGXGXGXGXGXMXMXDXMXMXMXMXMXMXMXMXMXMXMXMXMXMXMXMXMXMXMXMXMXMXMXDXKXGXGXGXGXGXGXGXGXGXGXGXGXGXGXGXGXGXGXGXGXGXGXGXGXGXGXGXDXMXDXMXMXMXMXMXMXMXMXMXMXMXMXMX",
"MXMXMXMXMXMXMXMXMXMXMXMXMXMXMXMXMXMXMXMXMXMXMXMXMXMXDXKXGXGXGXGXGXGXGXGXGXGXGXGXGXGXGXGXGXGXGXGXGXGXGXGXGXGXGXMXMXMXMXMXMXMXMXMXMXMXMXMXMXMXMXMXMXMXMXMXMXMXMXMXMXMXKXGXGXGXGXGXGXGXGXGXGXGXGXGXGXGXGXGXGXGXGXGXGXGXGXGXGXGXMXMXMXMXMXMXMXMXMXMXMXMXMXMXMXMXMXAXAXAXLXBXMXCXMXBXBXFXFXmXI.K.W.W.R.G.Y.=.=.=.-.*.>.[ &.rXbX,X9 @.@.#.#.@.@.&.&.-.=.=.G.K.P.I.XXI.OXOXQ.Q.Q.W.G.G.-.&.&.c 9 4 v F.,XwXpXeXeXeXeXUXc v e e w r ` ` r w r r w w r q e e e q q q q q 5 5 5 5 5 0 0 0 0 0 4 4 $ $ $ # = = , h l z Z Z C C Z C C D C Z D A G A G l C FXHXHXHXHXGXGXGXGXGXGXGXDXMXMXDXMXMXMXMXMXMXMXMXMXMXMXMXMXMXMXMXMXMXMXMXMXMXMXKXGXGXGXGXGXGXGXGXGXGXGXGXGXGXGXGXGXGXGXGXGXGXGXGXGXGXGXMXMXDXMXMXMXMXMXMXMXMXMXMXMXMXMXMXMXMXMXMXMXMXMXMXMXDXKXGXGXGXGXGXGXGXGXGXGXGXGXGXGXGXGXGXGXGXGXGXGXGXGXGXGXGXMXMXMXMXMXMXMXMXMXMXMXMXMXMXMXMX",
"MXMXMXMXMXMXMXMXMXMXMXMXMXMXMXMXMXMXMXMXMXMXMXMXMXMXDXKXGXGXGXGXGXGXGXGXGXGXGXGXGXGXGXGXGXGXGXGXGXGXGXGXGXGXGXMXMXMXMXMXMXMXMXMXMXMXMXMXMXMXMXMXMXMXMXMXMXMXMXMXMXMXKXGXGXGXGXGXGXGXGXGXGXGXGXGXGXGXGXGXGXGXGXGXGXGXGXGXGXGXMXMXMXMXMXMXMXMXMXMXMXMXMXMXMXMXMXAXAXAXLXLXMXMXMXMXNXFXFXbXI.K.W.W.G.G.G.=.=.=.-.-.*.` U.mXZXF.e &.@.@.] r -.-.-.=.&.K.tXbXbXbXbXrXI.I.Q.Q.W.G.G.G.&.&.&.&.&.v r 5 4 z P.eXeXeX,XeXeX;XF.c e w r ' r w r r w q q q e e e e q 5 q q 5 0 0 4 4 4 4 $ $ $ 8 h k z G L G G A Z Z C n b C C C Z C K l C l < z z n l l KXHXGXHXGXGXGXGXGXGXGXGXDXMXMXDXMXMXMXMXMXMXMXMXMXMXMXMXMXMXMXMXMXMXMXMXMXMXMXKXGXGXGXGXGXGXGXGXGXGXGXGXGXGXGXGXGXGXGXGXGXGXGXGXGXGXGXMXMXDXMXMXMXMXMXMXMXMXMXMXMXMXMXMXMXMXMXMXMXMXMXMXMXDXKXGXGXGXGXGXGXGXGXGXGXGXGXGXGXGXGXGXGXGXGXGXGXGXGXGXGXGXMXMXMXMXMXMXMXMXMXMXMXMXMXMXMXMX",
"KXKXKXKXKXKXKXKXKXKXKXKXKXKXKXKXKXKXKXKXKXKXKXKXKXKXKXKXKXKXKXKXKXKXKXKXKXKXKXKXKXKXKXKXKXKXKXKXKXKXKXKXKXDXDXGXKXKXKXKXKXKXKXKXKXKXKXKXKXKXKXKXKXKXKXKXKXKXKXKXKXKXKXKXKXKXKXKXKXKXKXKXKXKXKXKXKXKXKXKXKXKXKXKXKXKXKXKXDXDXGXKXKXKXKXKXKXKXKXKXKXKXKXKXKXKXKXKXHXHXHXHXHXHXHXHXKXZXZXrXI.Q.K.W.G.G.=.=.-.=.@.] @.v F.I.F.5 r r r &.F.I.G.@.S.c 0XmXrXtXeXbXvXKXbXI.Q.Q.Q.G.G.G.S.&.&.&.&.@.@.@.v 4 $ 0 F.;XeXpX1X1X4XeX;Xc e e r w r e q 5 0 0 r r q e e 0 5 5 4 $ $ 4 8 j G L Q Q Q Q T P S D A G A A Z Z z l < , ; * h z , = h : h z z z z vXZXKXKXKXKXKXKXKXKXKXKXKXGXKXKXKXKXKXKXKXKXKXKXKXKXKXKXKXKXKXKXKXKXKXKXKXKXGXKXDXKXKXKXKXKXKXKXKXKXKXKXKXKXKXKXKXKXKXKXKXKXKXKXKXKXDXGXGXKXKXKXKXKXKXKXKXKXKXKXKXKXKXKXKXKXKXKXKXKXKXKXGXHXKXKXKXKXKXKXKXKXKXKXKXKXKXKXKXKXKXKXKXKXKXKXKXKXKXKXKXDXGXGXKXKXKXKXKXKXKXKXKXKXKXKXKXKX",
"GXGXGXGXGXGXGXGXGXGXGXGXGXGXGXGXGXGXGXGXGXGXGXGXGXGXGXKXDXDXDXDXMXMXMXMXMXMXMXMXMXMXMXMXMXMXMXMXMXDXMXDXDXMXMXKXGXGXGXGXGXGXGXGXGXGXGXGXGXGXGXGXGXGXGXGXGXGXGXGXGXGXKXDXMXDXDXMXMXMXMXMXMXMXMXMXMXMXMXMXMXMXMXMXMXMXMXDXMXDXGXGXGXGXGXGXGXGXGXGXGXGXGXGXGXGXGXGXHXHXHXHXHXGXHXHXHXZXVXtXI.Q.W.W.R.Y.T.=.=.r Q.rXrXrXrXtXrXrXQ.@.U.bXbXVXU.r v rXmXI.t.U.XXvXxXPXKXeXQ.Q.Q.G.G.y.&.&.&.@.v t ' ' r v v e 5 4 c H.,XqX4X-X2XeX0XF.v t 5 5 c XXXX0XU.e 5 5 $ 8 v r.L U P.P.P.P.P.P.Q Q R T T P S S A Z l , = % # X % * % # , z h h h h j h z z z zXVXBXLXAXAXMXMXMXDXMXDXKXGXGXGXGXGXGXGXGXGXGXGXGXGXGXGXGXGXGXGXGXGXGXGXKXGXGXKXDXMXMXMXMXMXMXMXMXMXMXMXMXMXMXMXMXMXMXMXMXMXMXMXMXDXMXGXGXKXGXGXGXGXGXGXGXGXGXGXGXGXGXGXGXGXGXGXGXGXGXGXGXGXKXDXDXMXMXMXMXMXMXMXMXMXMXMXMXMXMXMXMXMXMXMXMXMXMXMXMXDXGXGXKXGXGXGXGXGXGXGXGXGXGXGXGXGX",
"GXGXGXGXGXGXGXGXGXGXGXGXGXGXGXGXGXGXGXGXGXGXGXGXGXGXGXKXLXMXMXMXMXMXMXMXMXMXMXMXMXMXMXMXMXMXMXMXMXMXMXMXDXMXMXGXGXGXGXGXGXGXGXGXGXGXGXGXGXGXGXGXGXGXGXGXGXGXGXGXGXGXKXMXMXMXMXMXMXMXMXMXMXMXMXMXMXMXMXMXMXMXMXMXMXMXMXMXMXMXGXGXGXGXGXGXGXGXGXGXGXGXGXGXGXGXGXGXHXGXGXGXHXGXHXHXHXFXVX0XI.Q.W.W.E.-.S.G.&.rXbXI.F.&.@.&.S.Q.rXrXaXrXeX;Xv v 0XbXF.&.U.K.I.eXxXBXFXaXQ.Q.W.R.G.G.G.S.&.&.&.@.] ] @.r q e r e 5 $ 4 c I.eXeX,X,XeXeXI.F.4 P.eXeXH.9 # L P.P.;XI.;X;X#XL.L.P.L.L.L.L.P.U G z h , = X X X . X # % - # % - % , h h h h h z h z G G pXVXBXAXAXAXMXMXMXMXMXMXKXGXGXGXGXGXGXGXGXGXGXGXGXGXGXGXGXGXGXGXGXGXGXGXGXGXGXKXAXMXMXMXMXMXMXMXMXMXMXMXMXMXMXMXMXMXMXMXMXMXMXMXMXMXMXGXGXGXGXGXGXGXGXGXGXGXGXGXGXGXGXGXGXGXGXGXGXGXGXGXGXGXKXMXMXMXMXMXMXMXMXMXMXMXMXMXMXMXMXMXMXMXMXMXMXMXMXMXMXDXGXGXGXGXGXGXGXGXGXGXGXGXGXGXGXGX",
"GXGXGXGXGXGXGXGXGXGXGXGXGXGXGXGXGXGXGXGXGXGXGXGXGXGXGXKXMXMXMXMXMXMXMXMXMXMXMXMXAXAXMXMXMXMXMXMXDXDXMXMXDXMXDXGXGXGXGXGXGXGXGXGXGXGXGXGXGXGXGXGXGXGXGXGXGXGXGXGXGXGXKXMXMXMXDXLXMXMXMXMXMXMXMXMXMXMXMXMXMXMXMXMXMXMXMXDXMXMXGXGXGXGXGXGXGXGXGXGXGXGXGXGXGXGXGXGXHXHXHXHXHXGXHXHXHXFXmX0XI.Q.W.R.E.!.=.&.rXtX&.e v 0XrXQ.' w 9 H.bXeXbXXX0 U.bXU.@.G.K.I.I.kXVXkXFXbXQ.Q.W.R.G.G.&.&.&.c v r ' ` w r r r r e r v e e 0 9 D.,XeX,X-X,X;XL ,X,XU - $ z &X9X#X=X;X;X;X#X#XL.P.L z h = - # # # # # # = = * - - % % % - * = = , h , = h h z h z G G eXZXDXLXAXAXLXLXBXMXMXDXGXGXGXGXGXGXGXGXGXGXGXGXGXGXGXGXGXGXGXGXGXGXGXGXGXGXGXKXMXMXAXMXMXMXMXMXMXMXMXMXMXAXAXMXMXMXMXMXMXMXMXMXMXMXMXGXGXGXGXGXGXGXGXGXGXGXGXGXGXGXGXGXGXGXGXGXGXGXGXGXGXGXKXLXMXMXMXMXMXMXAXMXMXMXMXMXMXMXMXMXMXAXAXMXMXMXMXMXMXMXGXGXGXGXGXGXGXGXGXGXGXGXGXGXGXGX",
"GXGXGXGXGXGXGXGXGXGXGXGXGXGXGXGXGXGXGXGXGXGXGXGXGXGXGXKXMXMXMXMXMXMXMXMXMXMXMXMXMXMXMXMXMXMXMXMXMXMXMXMXMXMXMXGXGXGXGXGXGXGXGXGXGXGXGXGXGXGXGXGXGXGXGXGXGXGXGXGXGXGXKXMXMXDXDXDXMXMXMXMXMXMXMXMXMXMXMXMXMXMXMXMXDXDXMXDXMXMXGXGXGXGXGXGXGXGXGXGXGXGXGXGXGXGXGXGXHXHXGXHXHXGXHXHXGXFXmX0XI.Q.W.G.G.G.&.0XrX' -.&.I.VXbX9 ' @.j pXpXqX;XrXeXbX0Xv =.R.G.Q.U.wXVXvXFXaXQ.Q.W.G.G.F.t.&.&.&.@.@.] ] ] ' w w r r r r r q 5 5 $ $ k P.,XpXG P.1XeXh 8 $ P.5X>X%X#XP.H.G z h = # # # # = - $ $ $ - $ $ # # # % % % % % - % - % = h , = , h h k z G G 2XBXBXAXAXAXMXMXNXMXMXDXGXGXGXGXGXGXGXGXGXGXGXGXGXGXGXGXGXGXGXGXGXGXGXGXGXGXGXKXMXMXMXMXMXMXMXMXMXMXMXMXMXMXMXMXMXMXMXMXMXMXMXMXMXDXMXGXGXGXGXGXGXGXGXGXGXGXGXGXGXGXGXGXGXGXGXGXGXGXKXGXGXGXKXLXMXMXMXMXMXMXMXMXMXMXMXMXMXMXMXMXMXMXMXMXMXMXMXMXMXMXGXGXGXGXGXGXGXGXGXGXGXGXGXGXGXGX",
"GXGXGXGXGXGXGXGXGXGXGXGXGXGXGXGXGXGXGXGXGXGXGXGXGXGXGXKXMXMXMXMXMXMXMXMXMXMXMXMXMXMXMXMXMXMXMXMXMXMXMXMXMXMXMXGXGXGXGXGXGXGXGXGXGXGXGXGXGXGXGXGXGXGXGXGXGXGXGXGXGXGXKXMXMXMXMXMXMXMXMXMXMXMXMXMXMXMXMXMXMXMXMXMXMXMXMXMXMXMXGXGXGXGXGXGXGXGXGXGXGXGXGXGXGXGXGXGXHXHXGXHXHXGXHXHXGXZXmXI.I.Q.W.G.R.G.F.bXG.-.=.&.,XmXXX4 S.r I.vXiXeXu 9 eXbXI.t S.Y.G.U.;XVXxXVXFXeXI.Q.Q.K.G.F.&.&.@.@.@.r r r ` ' ' ' r q q q r r r r v 9 4 $ = Z Q eX,XZ 8 9 N I.H.b < % $ # $ # # # # $ $ $ $ $ $ $ 8 4 4 - = = = - % % % % - # - % % , , = = h h z z M Z ,XBXBXAXAXAXMXMXMXMXMXDXGXGXGXGXGXGXGXGXGXGXGXGXGXGXGXGXGXGXGXGXGXGXGXGXGXGXGXKXMXMXMXMXMXMXMXMXMXMXMXMXMXMXMXMXMXMXMXMXMXMXMXMXMXMXMXGXGXGXGXGXGXGXGXGXGXGXGXGXGXGXGXGXGXGXGXGXGXGXGXGXGXGXKXMXMXMXMXMXMXMXMXMXMXMXMXMXMXMXMXMXMXMXMXMXMXMXMXMXMXMXGXGXGXGXGXGXGXGXGXGXGXGXGXGXGXGX",
"GXGXGXGXGXGXGXGXGXGXGXGXGXGXGXGXGXGXGXGXGXGXGXGXGXGXGXKXMXMXMXMXMXMXMXMXMXMXMXMXMXMXMXMXMXMXMXMXDXDXMXMXDXMXDXGXGXGXGXGXGXGXGXGXGXGXGXGXGXGXGXGXGXGXGXGXGXGXGXGXGXGXKXDXMXMXMXMXMXMXMXMXMXMXMXMXMXMXMXMXMXMXMXMXMXMXMXLXMXMXGXGXGXGXGXGXGXGXGXGXGXGXGXGXGXGXGXGXHXHXGXHXHXGXHXHXHXFXmXI.I.Q.W.G.G.&.I.rX' ~.@.G.mXmXc v e v bXpX,XP.v c bXI.rXaXS.R.W.U.pXnXfXFXbX0XQ.Q.Q.K.K.F.y.-.-.@.@.@.@.r ] ' w w e r r ' w r ' w q e e 9 4 j 2X2XP.# v 4 4 5 $ $ $ $ 4 9 0 0 0 0 0 0 4 4 4 4 $ $ - - $ $ # # # # # # % % % = h h - = : : = h h k z M Z ;XZXDXLXLXLXLXLXLXMXMXDXGXGXGXGXGXGXGXGXGXGXGXGXGXGXGXGXGXGXGXGXGXGXGXGXGXGXGXKXMXMXMXMXMXMXMXMXMXMXMXMXMXMXMXMXMXMXMXMXMXMXMXMXMXMXMXGXGXGXGXGXGXGXGXGXGXGXGXGXGXGXGXGXGXGXGXGXGXGXGXGXGXGXKXMXMXMXMXMXMXMXMXMXMXMXMXMXMXMXMXMXMXMXMXMXMXMXMXMXMXMXGXGXGXGXGXGXGXGXGXGXGXGXGXGXGXGX",
"GXGXGXGXGXGXGXGXGXGXGXGXGXGXGXGXGXGXGXGXGXGXGXGXGXGXGXKXDXMXDXMXMXMXMXMXMXMXMXMXMXMXMXMXMXMXMXMXMXDXMXMXDXMXMXGXGXGXGXGXGXGXGXGXGXGXGXGXGXGXGXGXGXGXGXGXGXGXGXGXGXGXKXDXMXMXDXMXMXMXMXMXMXMXMXMXMXMXMXMXMXMXMXMXMXDXMXDXMXMXGXGXGXGXGXGXGXGXGXGXGXGXGXGXGXGXGXGXHXGXGXHXHXGXHXHXGXFXmXI.I.Q.W.G.R.&.XXrX@.S.@.0XbX0X4 &.v 0XbXpX0Xc 5 tXrX6 &.tXR.S.U.;XnXcXVXFXrXI.Q.Q.W.G.F.F.&.&.@.@.@.@.t t r r e r e e e r r w w r r r q e 4 I.eX;XZ j $ 0 e 5 e e 0 4 4 5 5 5 5 5 4 4 4 4 4 4 $ $ - - - - - & - - - & & % # = Z z : = = : = h h h z M Z #XBXBXAXAXAXMXMXNXDXMXDXGXGXGXGXGXGXGXGXGXGXGXGXGXGXGXGXGXGXGXGXGXGXGXGXGXGXGXKXMXMXMXMXMXMXMXMXMXMXMXMXMXMXMXMXMXMXMXMXMXMXMXMXMXMXMXGXGXKXGXGXGXGXGXGXGXGXGXGXGXGXGXGXGXGXGXGXGXGXGXGXGXGXKXMXMXMXMXMXMXMXMXMXMXMXMXMXMXMXMXMXMXMXMXMXMXMXMXMXMXMXGXGXHXGXGXGXGXGXGXGXGXGXGXGXGXGX",
"GXGXGXGXGXGXGXGXGXGXGXGXGXGXGXGXGXGXGXGXGXGXGXGXGXGXGXKXMXMXMXMXMXMXMXMXMXMXMXMXMXMXMXMXMXMXMXMXMXMXMXMXDXMXDXGXGXGXGXGXGXGXGXGXGXGXGXGXGXGXGXGXGXGXGXGXGXGXGXGXGXGXKXMXMXMXMXMXMXMXMXMXMXMXMXMXMXMXMXMXMXMXMXMXMXMXMXDXMXMXGXGXGXGXGXGXGXGXGXGXGXGXGXGXGXGXGXGXHXGXGXHXGXGXHXHXKXFXbXI.Q.W.W.R.R.&.tXtX@.S.&.rXmXF.e e I.bXpXeXU.e F.mXN d &.&.S.G.XXbXxXcXFXbXXXXXQ.Q.R.G.K.G.&.&.@.-.@.@.@.r r q t t r q r r r ' r q @.q q e D.,X5XQ - 9 4 v e 5 e e 9 4 5 q 5 e 5 5 e 4 4 4 $ 8 $ $ = $ # % # - - # - # % # # = n n = : = : : = h k k z L P.BXBXAXDXAXMXDXBXMXMXDXGXGXGXGXGXGXGXGXGXGXGXGXGXGXGXGXGXGXGXGXGXGXGXGXGXGXGXKXMXMXMXMXMXMXMXMXMXMXMXMXMXMXMXMXMXMXMXMXMXMXMXMXMXMXMXGXGXGXGXGXGXGXGXGXGXGXGXGXGXGXGXGXGXGXGXGXGXGXGXGXGXGXKXMXMXMXMXMXMXMXMXMXMXMXMXMXMXMXMXMXMXMXMXMXMXMXMXMXMXMXGXGXGXGXGXGXGXGXGXGXGXGXGXGXGXGX",
"GXGXGXGXGXGXGXGXGXGXGXGXGXGXGXGXGXGXGXGXGXGXGXGXGXGXGXKXMXMXMXMXMXMXMXMXMXMXMXMXMXMXMXMXMXMXMXMXMXMXMXMXDXMXDXGXGXGXGXGXGXGXGXGXGXGXGXGXGXGXGXGXGXGXGXGXGXGXGXGXGXGXKXMXMXMXMXMXMXMXMXMXMXMXMXMXMXMXMXMXMXMXMXMXMXMXMXDXMXMXGXGXGXGXGXGXGXGXGXGXGXGXGXGXGXGXGXGXHXHXGXHXHXGXHXHXHXFXbXI.Q.W.W.R.T.G.0X0X&.&.I.mXrXj 5 I.bXeXbXI.@.q aX0Xg c F.&.&.U.bXkXzXFXVX;XXX0XQ.Q.W.U.U.G.y.&.&.t &.&.@.@.t t r q q r e r @.5 5 e 5 q e 4 ;XeX.Xz 8 4 0 4 5 5 4 4 5 5 5 5 5 5 5 5 5 5 0 4 9 4 $ - $ # & & = = $ # - % = = % h Z n = = * = = = h k z M G Q BXDXAXDXAXMXDXMXMXMXDXGXGXGXGXGXGXGXGXGXGXGXGXGXGXGXGXGXGXGXGXGXGXGXGXGXGXGXKXMXMXMXMXMXMXMXMXMXMXMXMXMXMXMXMXMXMXMXMXMXMXMXMXMXMXMXGXGXGXGXGXGXGXGXGXGXGXGXGXGXGXGXGXGXGXGXGXGXGXGXGXGXGXKXMXMXMXMXMXMXMXMXMXMXMXMXMXMXMXMXMXMXMXMXMXMXMXMXMXMXMXGXGXGXGXGXGXGXGXGXGXGXGXGXGXGXGX",
"GXGXGXGXGXGXGXGXGXGXGXGXGXGXGXGXGXGXGXGXGXGXGXGXGXGXGXKXMXMXMXMXMXMXMXMXMXMXMXMXMXMXMXMXMXMXMXMXMXMXMXMXAXMXMXGXGXGXGXGXGXGXGXGXGXGXGXGXGXGXGXGXGXGXGXGXGXGXGXGXGXGXKXMXMXMXMXMXMXMXMXMXMXMXMXMXMXMXMXMXMXMXMXMXMXMXMXDXMXMXGXGXGXGXGXGXGXGXGXGXGXGXGXGXGXGXGXGXHXHXGXHXHXGXGXHXHXFXkXI.Q.W.W.R.R.&.Q.rX@.@.rXmXU.$ rXrX0XbXrXF.t G.VX9 5 c d U.0XbXbXFXFXrXI.0X0XQ.Q.Q.U.U.F.t.&.&.@.&.e e e q w ' w r q @.5 e 4 9 c 9 0 5 9 U.eXeXM 8 0 4 5 5 4 4 0 4 5 5 q q 5 4 0 0 4 4 4 4 $ $ 4 8 $ - = = # - - - # # # - # % = = % = * , = u h z z z G U BXDXAXAXAXMXDXNXMXMXDXGXGXGXGXGXGXGXGXGXGXGXGXGXGXGXGXGXGXGXGXGXGXGXGXGXGXGXKXMXMXMXMXMXMXMXMXMXMXMXMXMXMXMXMXMXMXMXMXMXMXMXMXMXMXMXGXGXGXGXGXGXGXGXGXGXGXGXGXGXGXGXGXGXGXGXGXGXGXGXGXGXGXKXMXMXMXMXMXMXMXMXMXMXMXMXMXMXMXMXMXMXMXMXMXMXMXMXMXMXMXGXGXGXGXGXGXGXGXGXGXGXGXGXGXGXGX",
"GXGXGXGXGXGXGXGXGXGXGXGXGXGXGXGXGXGXGXGXGXGXGXGXGXGXGXKXMXMXMXMXMXMXMXMXMXMXMXMXMXMXMXMXMXMXMXMXMXMXMXMXMXMXMXGXGXGXGXGXGXGXGXGXGXGXGXGXGXGXGXGXGXGXGXGXGXGXGXGXGXGXKXMXMXMXMXMXMXMXMXMXMXMXMXMXMXMXMXMXMXMXMXMXMXMXMXDXMXMXGXGXGXGXGXGXGXGXGXGXGXGXGXGXGXGXGXGXHXHXGXHXHXGXGXGXHXZXrXI.Q.W.R.T.G.G.U.bXQ.&.S.F.I.bXI.H.bXbXI.v 5 bXU.U.rXrXrXbXbXkXVXrX0XI.0XQ.0XQ.Q.I.I.XXI.Q.G.&.&.&.c F.U.Q.S.w ' r v 5 5 v I.;XeX0XeXF.v eX,X.Xj 4 4 v 5 5 8 8 8 c 5 r q 5 4 $ $ $ 8 4 $ 8 c 8 $ $ 8 - # # # # # % % = # = = - % % * = * = : h h j z z Z K NXDXAXAXAXMXLXNXMXMXDXGXGXGXGXGXGXGXGXGXGXGXGXGXGXGXGXGXGXGXGXGXGXGXGXGXGXGXKXMXMXMXMXMXMXMXMXMXMXMXMXMXMXMXMXMXMXMXMXMXMXMXMXMXMXMXGXGXGXGXGXGXGXGXGXGXGXGXGXGXGXGXGXGXGXGXGXGXGXGXGXGXGXKXMXMXMXMXMXMXMXMXMXMXMXMXMXMXMXMXMXMXMXMXMXMXMXMXMXMXMXGXGXGXGXGXGXGXGXGXGXGXGXGXGXGXGX",
"GXGXGXGXGXGXGXGXGXGXGXGXGXGXGXGXGXGXGXGXGXGXGXGXGXGXGXKXMXMXMXMXMXMXMXMXMXMXMXMXMXMXMXMXMXMXMXMXMXMXMXMXDXMXDXGXGXGXGXGXGXGXGXGXGXGXGXGXGXGXGXGXGXGXGXGXGXGXGXGXGXGXKXMXMXMXMXMXMXMXMXMXMXMXMXMXMXMXMXMXMXMXMXMXMXMXMXDXMXMXGXGXGXGXGXGXGXGXGXGXGXGXGXGXGXGXGXGXHXHXGXHXHXGXGXGXFXZXeXI.Q.W.W.G.R.G.@.Q.bXrXrXaXrXF.0 rXmX;XF.4 I.mXq 0XtXQ.rXrXnXZXP.F.0XQ.Q.Q.0XtXI.XXbXpXmXbXG.&.&.t tXrXeXrXS.' ' r 5 9 H.eXkX;XL 8 c eXeXeX,Xh v 5 5 e e 4 U.eXeXU.q 5 5 4 L P.I.L = # j I.I.8 $ - # # = z z h = # % = % % % % - = = = , = = h h j z z Z U vXDXAXSXAXMXLXNXMXMXDXGXGXGXGXGXGXGXGXGXGXGXGXGXGXGXGXGXGXGXGXGXGXGXGXGXGXGXKXMXMXMXMXMXMXMXMXMXMXMXMXMXMXMXMXMXMXMXMXMXMXMXMXMXMXMXGXGXGXGXGXGXGXGXGXGXGXGXGXGXGXGXGXGXGXGXGXGXGXGXGXGXGXKXMXMXMXMXMXMXMXMXMXMXMXMXMXMXMXMXMXMXMXMXMXMXMXMXMXMXMXGXGXGXGXGXGXGXGXGXGXGXGXGXGXGXGX",
"GXGXGXGXGXGXGXGXGXGXGXGXGXGXGXGXGXGXGXGXGXGXGXGXGXGXGXKXMXMXMXMXMXMXMXMXMXMXMXMXMXMXMXMXMXMXMXMXMXMXMXMXDXMXDXGXGXGXGXGXGXGXGXGXGXGXGXGXGXGXGXGXGXGXGXGXGXGXGXGXGXGXKXMXMXMXMXMXMXMXMXMXMXMXMXMXMXMXMXMXMXMXMXMXMXMXMXDXMXMXGXGXGXGXGXGXGXGXGXGXGXGXGXGXGXGXGXGXHXHXGXGXHXGXGXGXFXZXeXI.Q.W.W.T.G.S.G.-.c r.F.&.e 5 I.bXpXP.v 9 bXU.e @.q t c I.zXxXFX;XUXQ.Q.0XQ.Q.U.eXvXiXZX0X&.&.f J.aXeXeXI.q ' r e 9 I.rXeXL j 4 9 $ P.;X,XH.8 9 5 e q 4 F.,X,XH.4 e 5 0 j ;X;XU u $ - L P.H.# - = X j U L z z G - # # % = * % % * % * z z # h = h z z n G lXDXAXMXDXMXLXNXMXMXDXGXGXGXGXGXGXGXGXGXGXGXGXGXGXGXGXGXGXGXGXGXGXGXGXGXGXGXKXMXMXMXMXMXMXMXMXMXMXMXMXMXMXMXMXMXMXMXMXMXMXMXMXMXMXMXGXGXHXGXGXGXGXGXGXGXGXGXGXGXGXGXGXGXGXGXGXGXGXGXGXGXGXKXMXMXMXMXMXMXMXMXMXMXMXMXMXMXMXMXMXMXMXMXMXMXMXMXMXMXMXGXGXGXGXGXGXGXGXGXGXGXGXGXGXGXGX",
"GXGXGXGXGXGXGXGXGXGXGXGXGXGXGXGXGXGXGXGXGXGXGXGXGXGXGXKXMXMXMXMXMXMXMXMXMXMXMXMXMXMXMXMXMXMXMXMXMXMXMXMXDXMXDXGXGXGXGXGXGXGXGXGXGXGXGXGXGXGXGXGXGXGXGXGXGXGXGXGXGXGXKXMXMXMXMXMXMXMXMXMXMXMXMXMXMXMXMXMXMXMXMXMXMXMXMXDXMXMXGXGXGXGXGXGXGXGXGXGXGXGXGXGXGXGXGXGXHXHXGXHXHXGXGXHXHXVX0XI.Q.W.W.T.G.Y.=.&.J.tXG.q @.v rXbX0XD.4 U.rXc @.-.G.=.&.F.rXpXFXFXI.Q.0XOX0XQ.eXmXkXvXbXF.&.&.N eXeXeXeXN e e v 9 0XrXrXc 9 9 4 4 k ;XqX=Xh j 4 0 e 5 c ,X:X~ $ 0 $ 0 8 P.#XU = # # = H.P.L # # - z P.K * . = L * # % h Z _ , = = % * Z z = z = h z z z G dXBXAXMXDXMXMXMXMXMXDXGXGXGXGXGXGXGXGXGXGXGXGXGXGXGXGXGXGXGXGXGXGXGXGXGXGXGXKXMXMXMXMXMXMXMXMXMXMXMXMXMXMXMXMXMXMXMXMXMXMXMXMXMXMXMXGXGXHXGXGXGXGXGXGXGXGXGXGXGXGXGXGXGXGXGXGXGXGXGXGXGXGXKXMXMXMXMXMXMXMXMXMXMXMXMXMXMXMXMXMXMXMXMXMXMXMXMXMXMXMXGXGXGXGXGXGXGXGXGXGXGXGXGXGXGXGX",
"GXGXGXGXGXGXGXGXGXGXGXGXGXGXGXGXGXGXGXGXGXGXGXGXGXGXGXKXMXMXMXMXMXMXMXMXMXMXMXMXMXMXMXMXMXMXMXMXMXMXMXMXDXMXDXGXGXGXGXGXGXGXGXGXGXGXGXGXGXGXGXGXGXGXGXGXGXGXGXGXGXGXKXMXMXMXMXMXMXMXMXMXMXMXMXMXMXMXMXMXMXMXMXMXMXMXMXDXMXMXGXGXGXGXGXGXGXGXGXGXGXGXGXGXGXGXGXGXHXHXGXGXHXGXGXHXHXVX0XI.Q.W.W.R.;.Y.G.&.eXmXQ.@.&.U.bXpXI.v 0 bXI.4 e &.@.@.&.&.rXkXPXKX;XQ.Q.0XXX0XbXzXzXFXXXc F.d XXpXeXpXF.0 v v 4 XXpXeXF.c 5 e v 0 I.eX5XA 8 4 4 9 5 5 0X,X X= 8 9 9 $ U %X.Xz # h - $ P.P.= # % z Q U * = # h L # % * z Z z % # = = : Z : h Z h h M z Z G wXBXLXMXDXMXMXAXMXMXDXGXGXGXGXGXGXGXGXGXGXGXGXGXGXGXGXGXGXGXGXGXGXGXGXGXGXGXKXMXMXMXMXMXMXMXMXMXMXMXMXMXMXMXMXMXMXMXMXMXMXMXMXMXMXMXGXGXKXGXGXGXGXGXGXGXGXGXGXGXGXGXGXGXGXGXGXGXGXGXGXGXGXKXMXMXMXMXMXMXMXMXMXMXMXMXMXMXMXMXMXMXMXMXMXMXMXMXMXMXMXGXGXGXGXGXGXGXGXGXGXGXGXGXGXGXGX",
"GXGXGXGXGXGXGXGXGXGXGXGXGXGXGXGXGXGXGXGXGXGXGXGXGXGXGXKXMXMXMXMXMXMXMXMXMXMXMXMXMXMXMXMXMXMXMXMXMXMXMXMXDXMXMXGXGXGXGXGXGXGXGXGXGXGXGXGXGXGXGXGXGXGXGXGXGXGXGXGXGXGXKXMXMXMXMXMXMXMXMXMXMXMXMXMXMXMXMXMXMXMXMXMXMXMXMXDXMXMXGXGXGXGXGXGXGXGXGXGXGXGXGXGXGXGXGXGXHXHXGXGXGXGXHXHXFXFXI.Q.Q.W.W.G.G.G.=.y.aXbX&.@.e tXmXeXF.5 U.tXv I.tXF.&.-.S.&.rXzXcXFX0XQ.OXQ.0XkXnXpXFXpXD.F.c I.bXeXpX0X5 r v 5 I.eX5X.Xj 5 5 r 5 U.eX:X X: 9 4 5 v 5 UX,X,Xn = 4 0 4 c =X#XU - 8 $ $ 8 P.L % # ; ~ Q h 8 # # U z X # , Z _ , % * = = z Z , h G h Z U G G Z 1XZXNXLXMXMXDXMXMXMXDXGXGXGXGXGXGXGXGXGXGXGXGXGXGXGXGXGXGXGXGXGXGXGXGXGXGXGXKXMXMXMXMXMXMXMXMXMXMXMXMXMXMXMXMXMXMXMXMXMXMXMXMXMXMXMXGXGXGXGXGXGXGXGXGXGXGXGXGXGXGXGXGXGXGXGXGXGXGXGXGXGXGXKXMXMXMXMXMXMXMXMXMXMXMXMXMXMXMXMXMXMXMXMXMXMXMXMXMXMXMXGXGXGXGXGXGXGXGXGXGXGXGXGXGXGXGX",
"GXGXGXGXGXGXGXGXGXGXGXGXGXGXGXGXGXGXGXGXGXGXGXGXGXGXGXKXMXMXMXMXMXMXMXMXMXMXMXMXMXMXMXMXMXMXMXMXMXMXMXMXDXMXMXGXGXGXGXGXGXGXGXGXGXGXGXGXGXGXGXGXGXGXGXGXGXGXGXGXGXGXKXMXMXMXMXMXMXMXMXMXMXMXMXMXMXMXMXMXMXMXMXMXMXMXMXDXMXMXGXGXGXGXGXGXGXGXGXGXGXGXGXGXGXGXGXGXHXHXGXGXGXGXHXHXFXZXI.Q.W.W.W.G.G.T.&.Q.mX,X@.@.F.bXpXP.c e rXtXaXrX0X&.@.@.&.&.zXiXPXFXtXU.OXXXmXzXiXVXZXH.U.F.F.rX,XpXmXN t @.e c eXeX%XL v 5 @.q v 0XeXeXl h $ 9 e 4 U.eX;XH.= j 4 9 9 P.=X@X, j $ 4 $ c ;X8 X * D ~ Z - # # U _ X * * C Z z * % : X z z n l = : : K G Z Z Z -XVXNXDXBXMXDXMXAXMXDXGXGXGXGXGXGXGXGXGXGXGXGXGXGXGXGXGXGXGXGXGXGXGXGXGXGXGXKXMXMXMXMXMXMXMXMXMXMXMXMXMXMXMXMXMXMXMXMXMXMXMXMXMXMXMXGXGXGXGXGXGXGXGXGXGXGXGXGXGXGXGXGXGXGXGXGXGXGXGXGXGXGXKXMXMXMXMXMXMXMXMXMXMXMXMXMXMXMXMXMXMXMXMXMXMXMXMXMXMXMXGXGXGXGXGXGXGXGXGXGXGXGXGXGXGXGX",
"GXGXGXGXGXGXGXGXGXGXGXGXGXGXGXGXGXGXGXGXGXGXGXGXGXGXGXKXMXMXMXMXMXMXMXMXMXMXMXMXMXMXMXMXMXMXMXMXMXMXMXMXDXMXMXGXGXGXGXGXGXGXGXGXGXGXGXGXGXGXGXGXGXGXGXGXGXGXGXGXGXGXKXMXMXMXMXMXMXMXMXMXMXMXMXMXMXMXMXMXMXMXMXMXMXMXMXDXMXMXGXGXGXGXGXGXGXGXGXGXGXGXGXGXGXGXGXGXHXHXGXGXGXGXHXHXFXVXI.Q.W.Q.W.G.G.G.&.tXZXH.v v ;XbXeXH 4 F.mXtX&.t q t #.=.&.U.zXcXnXKX0XQ.XXaXbXvXbXVX0XF.F.D.eXbXeXVXI.4 v 5 L kXeXeXP.9 5 v e 0 eXeXeXU j 8 4 4 4 J.,X;X,X: = 8 4 $ I.;X#XQ - $ 8 9 $ F.F.P.- z L.K = = h H._ # % . Z A z , # = # : z = K l = * l P.n n Z G #XVXNXBXLXMXLXMXAXMXDXGXGXGXGXGXGXGXGXGXGXGXGXGXGXGXGXGXGXGXGXGXGXGXGXGXGXGXKXMXMXMXMXMXMXMXMXMXMXMXMXMXMXMXMXMXMXMXMXMXMXMXMXMXMXMXGXGXGXGXGXGXGXGXGXGXGXGXGXGXGXGXGXGXGXGXGXGXGXGXGXGXGXKXMXMXMXMXMXMXMXMXMXMXMXMXMXMXMXMXMXMXMXMXMXMXMXMXMXMXMXGXGXGXGXGXGXGXGXGXGXGXGXGXGXGXGX",
"GXGXGXGXGXGXGXGXGXGXGXGXGXGXGXGXGXGXGXGXGXGXGXGXGXGXGXKXMXMXMXMXMXMXMXMXMXMXMXMXMXMXMXMXMXMXMXMXMXMXMXMXDXMXMXGXGXGXGXGXGXGXGXGXGXGXGXGXGXGXGXGXGXGXGXGXGXGXGXGXGXGXKXMXMXMXMXMXMXMXMXMXMXMXMXMXMXMXMXMXMXMXMXMXMXMXMXDXMXMXGXGXGXGXGXGXGXGXGXGXGXGXGXGXGXGXGXGXHXHXGXHXGXGXHXHXFXmXI.Q.W.Q.W.G.G.=.F.aXbXj c &.bXzX;Xj $ bXrXc q r @.-.] #.t 0XnXyXNXKXI.I.mXpXvXkXZXmXI.U.F.I.bXeXbXbX9 c e F.eX2XqX;XL 9 e e 0 I.eX%X%Xz v 0 v 9 H.eX;X,XG = 8 8 $ H.;X;XL.% h $ 4 $ c I.$ z P.Q Q n z U _ j X - X , K C z * # = # Z = % Q < ; h G Q l G K K L.VXBXBXBXMXAXMXAXMXDXGXGXGXGXGXGXGXGXGXGXGXGXGXGXGXGXGXGXGXGXGXGXGXGXGXGXGXKXMXMXMXMXMXMXMXMXMXMXMXMXMXMXMXMXMXMXMXMXMXMXMXMXMXMXMXGXGXGXGXGXGXGXGXGXGXGXGXGXGXGXGXGXGXGXGXGXGXGXGXGXGXGXKXMXMXMXMXMXMXMXMXMXMXMXMXMXMXMXMXMXMXMXMXMXMXMXMXMXMXMXGXGXGXGXGXGXGXGXGXGXGXGXGXGXGXGX",
"GXGXGXGXGXGXGXGXGXGXGXGXGXGXGXGXGXGXGXGXGXGXGXGXGXGXGXKXMXMXMXMXMXMXMXMXMXMXMXMXMXMXMXMXMXMXMXMXMXMXMXMXDXMXDXGXGXGXGXGXGXGXGXGXGXGXGXGXGXGXGXGXGXGXGXGXGXGXGXGXGXGXKXMXMXMXMXMXMXMXMXMXMXMXMXMXMXMXMXMXMXMXMXMXMXMXMXDXMXMXGXGXGXGXGXGXGXGXGXGXGXGXGXGXGXGXGXGXHXHXGXGXGXHXHXHXFXbXI.W.W.Q.W.G.R.&.XXmXXXv c UXVX;XF.0 U.mX&.q &.-.] #.-.=.&.rXvXlXZXkXP.bXpXeXvXVXKX0XU.F.;XkXwXeXKXF.v 9 c rX5X7X:X#Xc 0 v 5 U.;X:XyXQ h 0 5 4 F.;X.X:X X: u $ $ H.,X#X;XG # 8 4 $ j I.4 $ X z Q ~ l % - - # = . h Z Z C , % % % h z X h G l * z K G l K G K L.VXBXBXMXMXAXLXAXMXDXGXGXGXGXGXGXGXGXGXGXGXGXGXGXGXGXGXGXGXGXGXGXGXGXGXGXGXKXMXMXMXMXMXMXMXMXMXMXMXMXMXMXMXMXMXMXMXMXMXMXMXMXMXMXMXGXGXGXGXGXGXGXGXGXGXGXGXGXGXGXGXGXGXGXGXGXGXGXGXGXGXGXKXMXMXMXMXMXMXMXMXMXMXMXMXMXMXMXMXMXMXMXMXMXMXMXMXMXMXMXGXGXGXGXGXGXGXGXGXGXGXGXGXGXGXGX",
"GXGXGXGXGXGXGXGXGXGXGXGXGXGXGXGXGXGXGXGXGXGXGXGXGXGXGXKXMXMXMXMXMXMXMXMXMXMXMXMXMXMXMXMXMXMXMXMXMXMXMXMXDXMXDXGXGXGXGXGXGXGXGXGXGXGXGXGXGXGXGXGXGXGXGXGXGXGXGXGXGXGXKXMXMXMXMXMXMXMXMXMXMXMXMXMXMXMXMXMXMXMXMXMXMXMXMXDXMXMXGXGXGXGXGXGXGXGXGXGXGXGXGXGXGXGXGXGXHXHXHXHXGXHXHXHXFXbXI.Q.W.Q.R.G.R.&.tXVXr.c c rXeXXXc 5 bX0Xt @.` ] -.@.-.t U.bXwXNXFX;XbXeX.XVXxXZXmXI.F.0XbXeXqXmXrXj 0 c rXF.>XqX2XK $ 9 5 0XUXU 1X&XK h 4 e U.I.G qX9XD : $ 8 N ;XH.;X#X= u $ 4 4 I.c 8 $ - G P.K * # - = - = # G z A l * # X h z % % z K l , Z U G n G Z K L.VXBXNXMXMXAXLXAXMXDXGXGXGXGXGXGXGXGXGXGXGXGXGXGXGXGXGXGXGXGXGXGXGXGXGXGXGXKXMXMXMXMXMXMXMXMXMXMXMXMXMXMXMXMXMXMXMXMXMXMXMXMXMXMXMXGXGXGXGXGXGXGXGXGXGXGXGXGXGXGXGXGXGXGXGXGXGXGXGXGXGXGXKXMXMXMXMXMXMXMXMXMXMXMXMXMXMXMXMXMXMXMXMXMXMXMXMXMXMXMXGXGXGXGXGXGXGXGXGXGXGXGXGXGXGXGX",
"GXGXGXGXGXGXGXGXGXGXGXGXGXGXGXGXGXGXGXGXGXGXGXGXGXGXGXKXMXMXMXMXMXMXMXMXMXMXMXMXMXMXMXMXMXMXMXMXMXMXMXMXDXMXDXGXGXGXGXGXGXGXGXGXGXGXGXGXGXGXGXGXGXGXGXGXGXGXGXGXGXGXKXMXMXMXAXMXMXMXMXMXMXMXMXMXMXMXMXMXMXMXMXMXMXMXMXDXMXMXGXGXGXGXGXGXGXGXGXGXGXGXGXGXGXGXGXGXHXHXHXHXHXHXHXHXFXbXI.Q.W.Q.R.G.S.G.bXeXv &.J.bXaXF.0 U.VXF.q @.-.@.&.@.&.F.tXbXiXFXeXrXrXI.pXnXxXFXI.J.rXbXH.pXqXZXP.9 r.bXF.k pX<X:Xn 8 j UXrX4 ;XpXQ = $ 9 0XtX4 P.,X.XX 8 $ F.0X8 P.;XG # - # j 0Xc 4 $ $ - H.P.n % = = # # # L % G Z * * X * z = # = l K l z G U G n n G K ~ VXBXNXDXMXAXLXAXMXDXGXGXGXGXGXGXGXGXGXGXGXGXGXGXGXGXGXGXGXGXGXGXGXGXGXGXGXKXMXMXMXMXMXMXMXMXMXMXMXMXMXMXMXMXMXMXMXMXMXMXMXMXMXMXMXGXGXGXGXGXGXGXGXGXGXGXGXGXGXGXGXGXGXGXGXGXGXGXGXGXGXGXKXMXMXMXMXMXMXMXMXMXMXMXMXMXMXMXMXMXMXMXMXMXMXMXMXMXMXMXGXGXGXGXGXGXGXGXGXGXGXGXGXGXGXGX",
"GXGXGXGXGXGXGXGXGXGXGXGXGXGXGXGXGXGXGXGXGXGXGXGXGXGXGXKXMXMXMXMXMXMXMXMXMXMXMXMXMXMXMXMXMXMXMXMXMXMXMXMXDXMXDXGXGXGXGXGXGXGXGXGXGXGXGXGXGXGXGXGXGXGXGXGXGXGXGXGXGXGXKXMXMXMXMXMXMXMXMXMXMXMXMXMXMXMXMXMXMXMXMXMXMXMXMXDXMXMXGXGXGXGXGXGXGXGXGXGXGXGXGXGXGXGXGXGXHXHXHXHXHXHXHXHXFXaXQ.Q.R.W.G.G.&.Q.ZXU.@.&.0XmX0Xc 0 bXrXc @.] @.@.@.&.v I.bXeXnXFXrX0XU.0XbXkXnXmX0XbXrXF.H.bXeXmX;X0XrX&.4 c aXeXeXI.XXrXI.4 9 0XeX;XH.P.rXI.e 4 ;XeXP.z H I.0Xj $ ;X;XG - 8 F.UXc 4 4 4 8 $ U P.Z # # # # u L z , Z Z * . * z , # , % n Z l h n K z h z K K Q VXBXNXDXLXAXAXAXMXDXGXGXGXGXGXGXGXGXGXGXGXGXGXGXGXGXGXGXGXGXGXGXGXGXGXGXGXKXMXMXMXMXMXMXMXMXMXMXMXMXMXMXMXMXMXMXMXMXMXMXMXMXMXMXMXGXGXGXGXGXGXGXGXGXGXGXGXGXGXGXGXGXGXGXGXGXGXGXGXGXGXGXKXMXMXMXMXMXMXMXMXMXMXMXMXMXMXMXMXMXMXMXMXMXMXMXMXMXMXMXGXGXGXGXGXGXGXGXGXGXGXGXGXGXGXGX",
"GXGXGXGXGXGXGXGXGXGXGXGXGXGXGXGXGXGXGXGXGXGXGXGXGXGXGXKXMXMXMXMXMXMXMXMXMXMXMXMXMXMXMXMXMXMXMXMXMXDXMXMXKXMXMXGXGXGXGXGXGXGXGXGXGXGXGXGXGXGXGXGXGXGXGXGXGXGXGXGXGXGXKXMXMXMXMXMXMXMXMXMXMXMXMXMXMXMXMXMXMXMXMXMXMXMXMXMXMXDXKXGXGXGXGXGXGXGXGXGXGXGXGXGXGXGXGXGXHXHXHXHXGXGXHXHXFXeXU.Q.W.W.R.G.F.rXbXF.&.&.bXpXU.5 Q.rX0Xc @.@.&.&.&.v I.rXeXbXFXeXI.I.I.I.tXmXbXmXmX0XJ.F.J.eXbXaXrXUX&.q t t I.0XrXrXI.c 5 5 5 r.0XrXtXQ.&.5 5 5 F.0XeXeX0XU.0 $ 0 J.0X;X;X0XI.c $ $ 4 8 4 $ z P.H.h h z G H.= # h U h X = z , = # * = l K l : G Q = z n Z K K vXNXBXLXMXAXMXDXMXMXKXGXGXHXGXGXGXGXGXGXGXGXGXGXGXGXGXGXGXGXGXGXGXGXGXGXGXKXMXMXMXMXMXMXMXMXMXMXMXMXMXMXMXMXMXMXMXMXMXMXMXMXMXMXDXGXGXGXGXGXGXGXGXGXGXGXGXGXGXGXGXGXGXGXGXGXGXGXGXGXGXGXKXMXMXMXMXMXMXMXMXMXMXMXMXMXMXMXMXMXMXMXMXMXMXMXMXMXMXMXGXGXKXGXGXGXGXGXGXGXGXGXGXGXGXGX",
"GXGXGXGXGXGXGXGXGXGXGXGXGXGXGXGXGXGXGXGXGXGXGXGXHXGXGXKXMXMXMXLXMXMXMXMXMXMXMXMXMXMXMXMXMXMXMXMXMXDXMXMXDXMXMXGXGXGXGXGXGXGXGXGXGXGXGXGXGXGXGXGXGXGXGXGXGXGXGXGXGXGXKXMXMXDXDXDXMXMXMXMXMXMXMXMXMXMXMXMXMXMXMXMXDXDXDXMXMXDXKXGXGXGXGXGXGXGXGXGXGXGXGXGXGXGXGXGXHXHXHXHXHXHXHXHXFXeXQ.Q.R.W.R.G.F.bXtXc c I.mX5Xr.e mXc rXc r @.@.&.5 F.bXrXrXVX;XU.U.I.Q.XXXXtXeX0XI.F.K.K.r.F.F.&.c v e t @.@.q e t 0 5 5 5 t t e v 0 0 q 5 5 e 5 e v v 9 9 $ 4 0 0 9 c L M j 4 $ 4 4 4 $ 4 8 # L H.P.P.U h $ # X h L G z l , = Z = . l A l > , G K h z K Z K K vXNXBXLXMXAXAXDXMXDXGXGXGXKXGXGXGXGXGXGXGXGXGXGXGXGXGXGXGXGXGXKXGXGXGXGXGXKXMXMXMXMXMXMXMXMXMXMXMXMXMXMXMXMXMXMXMXMXMXMXMXMXMXMXDXGXGXGXGXKXGXGXGXGXGXGXGXGXGXGXGXGXGXGXGXGXGXKXKXGXGXGXKXMXMXMXMXMXMXMXMXMXMXMXMXMXMXMXMXMXMXMXMXMXMXMXMXMXMXMXGXGXKXGXGXGXGXGXGXGXGXGXGXGXGXGX",
"GXGXGXGXGXGXGXGXGXGXGXGXGXGXGXGXGXGXGXGXGXGXGXGXGXGXGXKXMXMXMXMXMXMXMXMXMXMXMXMXMXMXMXMXMXMXMXMXMXMXMXMXMXMXMXGXGXGXGXGXGXGXGXGXGXGXGXGXGXGXGXGXGXGXGXGXGXGXGXGXGXGXKXMXMXMXMXMXMXMXMXMXMXMXMXMXMXMXMXMXMXMXMXMXMXMXMXMXMXDXKXGXGXGXGXGXGXGXGXGXGXGXGXGXGXGXGXGXHXGXHXHXGXGXGXHXFX0XQ.W.R.W.R.F.XXVXU.v c tXmXP.4 tXrX$ bX0Xq @.r &.;XmXbXrXrXF.D.F.J.K.Q.OXQ.Q.Q.I.I.K.K.K.y.G.S.&.c v t @.@.w w r r r r r e r e 5 5 5 q q q q e 5 5 5 5 5 5 0 5 5 5 4 4 4 $ # 4 4 0 9 4 4 4 4 $ - $ # $ $ # # - # - h z l , # % G z = G Z * , : Z G l z G n K K kXNXBXMXMXAXMXMXMXDXGXGXGXGXGXGXGXGXGXGXGXGXGXGXGXGXGXGXGXGXGXGXGXGXGXGXGXKXMXMXMXMXMXMXMXMXMXMXMXMXMXMXMXMXMXMXMXMXMXMXMXMXMXMXDXKXGXGXGXGXGXGXGXGXGXGXGXGXGXGXGXGXGXGXGXGXGXGXGXGXGXGXKXMXMXMXMXMXMXMXMXMXMXMXMXMXMXMXMXMXMXMXMXMXMXMXMXMXMXMXGXGXGXGXGXGXGXGXGXGXGXGXGXGXGXGX",
"GXGXGXGXGXGXGXGXGXGXGXGXGXGXKXGXKXGXGXHXGXKXGXGXGXGXKXKXDXLXMXMXDXDXDXDXDXDXDXDXDXDXDXDXDXDXDXDXDXDXDXDXLXMXDXKXGXGXGXGXGXGXKXGXGXGXGXGXGXGXGXGXGXGXGXGXGXGXKXHXGXKXKXDXDXMXMXMXDXDXDXDXDXDXDXDXDXDXDXDXDXDXDXDXMXMXAXMXDXKXKXGXGXGXGXGXGXGXGXGXGXGXGXGXGXGXKXGXHXHXHXHXHXHXHXFXZX;XQ.W.W.Q.K.t.,XmXF.&.&.tXaXH.I.bXc 4 c bXtXQ.tXbXmXrX0XI.c c F.K.K.K.Q.Q.OXQ.Q.Q.Q.I.K.K.y.G.S.&.&.&.@.@.@.@.@.@.r r r r r e v v v e e e r r e e e e e e 5 0 9 5 5 e e 0 4 9 0 4 4 4 4 0 0 $ 4 $ $ $ $ $ - - = = # # # % # X # = h h z h % < , z U n G z Z I K qXBXDXLXDXDXLXAXMXDXKXHXGXGXGXGXGXGXGXGXGXGXGXGXGXGXGXGXGXGXGXGXGXGXGXGXKXKXDXDXDXDXDXDXDXDXDXDXDXDXDXDXDXDXDXDXDXDXDXDXDXDXDXDXKXKXGXGXGXGXGXGXGXGXGXGXGXGXGXGXGXGXGXGXGXKXGXGXGXGXGXKXKXDXDXDXDXDXDXDXDXDXDXDXDXDXDXDXDXDXDXDXDXDXDXDXDXDXDXKXKXGXGXGXHXKXGXGXGXGXGXGXGXGXGXGX",
"DXDXDXDXDXDXDXDXDXDXDXDXDXDXDXDXDXDXDXDXDXDXDXDXDXDXDXKXKXGXGXGXGXGXHXGXKXGXGXGXGXGXGXGXHXGXHXGXGXKXGXGXGXGXKXKXDXDXDXDXDXDXDXDXDXDXDXDXDXDXDXDXDXDXDXDXDXDXDXDXLXDXKXKXGXGXGXGXGXKXGXGXGXGXGXGXHXGXGXHXGXGXGXGXGXGXGXGXGXKXKXDXDXDXDXDXDXDXDXDXDXDXDXDXDXDXDXDXDXDXLXDXDXDXDXZXVXI.Q.W.Q.Q.G.F.bX,Xv &.v I.mXbXbX&.5 &.t S.tXtXtXI.I.S.v c v r.F.G.R.W.Q.Q.OXOXQ.Q.Q.K.K.G.y.=.-.&.&.&.&.v r r q e e e 5 5 4 4 $ 4 4 4 4 5 e e 5 5 5 5 q 5 5 5 4 5 5 5 5 5 4 4 4 4 0 4 4 4 0 4 4 4 8 - $ $ - - # - - # % # # - % # - # % , , , , h Z z G z Z ~ K 4XFXFXFXGXHXHXGXGXKXKXDXDXLXMXDXDXDXDXDXDXDXDXDXDXDXDXDXDXDXDXMXMXMXDXDXDXKXGXGXGXGXGXKXGXGXGXGXKXGXGXGXGXGXGXHXGXGXGXGXGXHXHXGXKXKXDXMXMXMXMXDXDXDXDXDXDXDXDXDXDXDXDXDXDXDXDXMXMXMXDXDXKXKXGXGXGXHXHXHXGXHXHXGXGXGXGXGXGXKXKXGXGXGXGXKXGXHXGXKXDXMXDXDXDXDXDXDXDXDXDXDXDXDXDXDX",
"MXMXMXMXMXMXMXMXMXMXMXMXMXMXMXMXMXMXMXMXMXMXMXMXMXMXMXKXGXGXGXGXGXGXGXGXGXGXGXGXGXGXGXGXGXGXGXGXGXGXGXGXGXGXGXMXMXMXMXMXMXMXMXMXMXMXMXMXMXMXMXMXMXMXMXMXMXMXMXMXMXMXKXGXGXGXGXGXGXGXGXGXGXGXGXGXGXGXGXGXGXGXGXGXGXGXGXGXGXKXDXMXMXMXMXMXMXMXMXMXMXMXMXMXMXMXMXMXNXMXMXMXLXBXNXBXmXI.Q.W.Q.Q.G.U.ZXI.&.G.&.&.Q.W.&.5 v q @.w w t q t ' ' &.S.F.F.F.G.R.W.Q.Q.Q.0XQ.Q.Q.W.K.G.G.G.G.S.&.c c v t 9 4 8 9 v c L H.I.UXH.c j 8 4 4 4 9 e 0 e e e 0 e e e e e q e 0 5 0 0 0 0 4 4 0 4 4 4 4 4 $ 8 = $ $ - - = = - % = = - - = = = = l h , : l z l l K K :XHXHXHXGXGXGXGXGXHXDXMXMXMXMXMXMXMXMXMXMXMXMXMXMXMXMXMXMXMXMXMXMXMXMXMXMXKXGXGXGXGXGXGXGXGXGXGXGXGXGXGXGXGXGXGXGXGXGXGXGXGXGXGXKXDXMXMXMXMXMXMXMXMXMXMXMXMXMXMXMXMXMXMXMXMXMXMXMXMXMXMXKXGXGXGXGXGXGXGXGXGXGXGXGXGXGXGXGXGXGXGXGXGXGXGXGXGXGXGXMXMXMXMXMXMXMXMXMXMXMXMXMXMXMXMX",
"MXMXMXMXMXMXMXMXMXMXMXMXMXMXMXMXMXMXMXMXMXMXMXMXDXMXMXKXGXGXGXGXGXGXGXGXGXGXGXGXGXGXGXGXGXGXGXGXGXGXGXGXKXGXGXMXMXMXMXMXMXMXMXMXMXMXMXMXMXMXMXMXMXMXMXMXMXMXMXMXMXDXKXGXGXKXKXGXGXGXGXGXGXGXGXGXGXGXGXGXGXGXGXGXGXKXGXGXGXGXDXMXMXMXMXMXMXMXMXMXMXMXMXMXMXMXMXMXBXLXAXLXBXBXBXVXmXI.Q.Q.W.W.G.tXbXr.&.-.-.@.@.] ] &.@.@.%.%.#.@.@.&.] #.-.@.&.G.G.G.R.W.Q.Q.0X0X0XQ.I.K.K.K.G.&.v v v 9 j k L H.P.;X,X2XwXwX7X7X4XqX,X,X;XP.U c $ 4 4 4 4 5 5 5 5 5 5 q 5 5 5 5 0 4 4 4 4 4 0 0 4 4 4 4 4 - $ $ = $ - - % # # % # - - = : # * h z l h z z z n A K %XHXHXKXGXGXGXHXGXHXDXMXMXDXMXMXMXMXMXMXMXMXMXMXMXMXMXMXMXMXMXDXDXLXLXMXMXKXGXGXGXGXGXGXGXGXGXGXGXGXGXGXGXGXGXGXGXGXGXGXGXGXGXGXKXDXMXMXDXDXDXMXMXMXMXMXMXMXMXMXMXMXMXMXMXMXMXDXDXDXMXDXKXGXGXGXGXGXGXGXGXGXGXGXGXGXGXGXGXGXGXGXGXGXGXGXGXGXGXGXMXMXDXMXMXDXMXMXMXMXMXMXMXMXMXMX",
"MXMXMXMXMXMXMXMXMXMXMXMXMXMXMXMXMXMXMXMXMXMXMXMXMXMXMXKXGXGXGXGXGXGXGXGXGXGXGXGXGXGXGXGXGXGXGXGXGXGXGXGXKXGXGXMXMXMXMXMXMXMXMXMXMXMXMXMXMXMXMXMXMXMXMXMXMXMXMXMXMXDXKXGXGXGXGXGXGXGXGXGXGXGXGXGXGXGXGXGXGXGXGXGXGXGXGXGXGXGXDXMXMXMXMXMXMXMXMXMXMXMXMXMXMXMXMXMXMXLXLXLXLXBXBXVXbXI.Q.Q.W.Q.F.aXtXc G.-.=.-.@.#.] @.' ] ` [ ] ' @.] #.#.#.-.G.&.G.G.R.W.Q.Q.0X0X0X0XI.K.F.F.F.c F.U.I.,XeXeXeXeXeXeXeXeXwXwX4X2X,XeXeXeXeXeXeX,X0X;XP.L 9 $ $ 4 4 5 0 9 e e 0 0 0 5 0 9 0 4 4 4 4 4 4 4 4 $ $ - $ $ - - # % = = = = % % # = z = : , z l Z l Z n K #XFXHXFXGXGXGXHXGXGXDXMXDXDXMXMXMXMXMXMXMXMXMXMXMXMXMXMXMXMXMXMXMXMXMXMXMXKXGXGXGXGXGXGXGXGXGXGXGXGXGXGXGXGXGXGXGXGXGXGXGXGXGXGXKXDXMXMXMXMXMXMXMXMXMXMXMXMXMXMXMXMXMXMXMXMXMXMXMXMXMXMXKXGXGXGXGXGXGXGXGXGXGXGXGXGXGXGXGXGXGXGXGXGXGXGXGXGXGXGXMXMXKXMXMXDXMXMXMXMXMXMXMXMXMXMX",
"MXMXMXMXMXMXMXMXMXMXMXMXMXMXMXMXMXMXMXMXMXMXMXMXMXMXDXKXGXGXGXGXGXGXGXGXGXGXGXGXGXGXGXGXGXGXGXGXGXGXGXGXGXGXGXMXMXMXMXMXMXMXMXMXMXMXMXMXMXMXMXMXMXMXMXMXMXMXMXMXMXMXKXGXGXGXGXGXGXGXGXGXGXGXGXGXGXGXGXGXGXGXGXGXGXGXGXGXGXGXMXMXMXMXMXMXMXMXMXMXMXMXMXMXMXMXMXMXMXMXLXLXMXNXVXVXbXI.I.Q.Q.G.0XbXI.&.&.&.&.@.] @.@.] #.#.#.#.@.@.@.-.@.@.-.-.-.S.G.G.K.I.I.Q.UXI.I.I.UX;X0XeXeXpXkXkXkXpXiXiXiXwXrX0X0X0XU.F.&.9 c F.U.I.0X0XeX,X,X:X<X2X,X;XP.L z = $ $ $ $ 4 9 0 0 0 4 4 0 0 4 0 4 4 $ $ $ $ $ $ $ - - $ # # # # = % % % n Z * l , z z z h Z G K L.HXFXGXGXGXHXGXGXHXLXMXMXDXMXMXMXMXMXMXMXMXMXMXMXMXMXMXMXMXMXMXMXMXMXMXMXKXGXGXGXGXGXGXGXGXGXGXGXGXGXGXGXGXGXGXGXGXGXGXGXGXGXGXGXMXMXDXMXMXMXMXMXMXMXMXMXMXMXMXMXMXMXMXMXMXMXMXMXMXMXDXKXGXGXGXGXGXGXGXGXGXGXGXGXGXGXGXGXGXGXGXGXGXGXGXGXGXGXGXDXMXDXMXMXMXMXMXMXMXMXMXMXMXMXMX",
"MXMXMXMXMXMXMXMXMXMXMXMXMXMXMXMXMXMXMXMXMXMXMXMXMXMXDXKXGXGXGXGXGXGXGXGXGXGXGXGXGXGXGXGXGXGXGXGXGXGXGXGXGXGXGXMXMXMXMXMXMXMXMXMXMXMXMXMXMXMXMXMXMXMXMXMXMXMXMXMXMXMXKXGXGXGXGXGXGXGXGXGXGXGXGXGXGXGXGXGXGXGXGXGXGXGXGXGXGXGXMXMXMXMXMXMXMXMXMXMXMXMXMXMXMXMXMXMXMXBXBXLXMXCXBXmXaXI.Q.Q.Q.U.eXbXF.&.=.=.-.&.@.#.@.] ] ] ' ] ' ' ' @.@.@.&.-.&.G.G.U.U.I.I.;X0XeXbXkXbXbXbXbXkXkXkXkXkXrXeX;XP.H.r.v t e 5 q r r r r q q e c F.H.,X,X-X-X-X,X,X,X,X;XP.U z = # # $ 4 4 0 4 4 4 4 $ $ 8 8 $ $ $ $ $ $ # # $ - = = % % % - # K n = l , z z z h n G K P.FXFXGXGXGXHXGXGXGXDXMXMXDXMXMXMXMXMXMXMXMXMXMXMXMXMXMXMXMXMXMXMXMXMXMXMXKXGXGXGXGXGXGXGXGXGXGXGXGXGXGXGXGXGXGXGXGXGXGXGXGXGXGXGXMXMXDXMXMXMXMXMXMXMXMXMXMXMXMXMXMXMXMXMXMXMXMXMXMXMXDXKXGXGXGXGXGXGXGXGXGXGXGXGXGXGXGXGXGXGXGXGXGXGXGXGXGXGXGXDXMXDXMXMXMXMXMXMXMXMXMXMXMXMXMX",
"MXMXMXMXMXMXMXMXMXMXMXMXMXMXMXMXMXMXMXMXMXMXMXMXMXMXDXKXGXGXGXGXGXGXGXGXGXGXGXGXGXGXGXGXGXGXGXGXGXGXGXGXGXGXGXMXMXMXMXMXMXMXMXMXMXMXMXMXMXMXMXMXMXMXMXMXMXMXMXMXMXMXKXGXGXGXGXGXGXGXGXGXGXGXGXGXGXGXGXGXGXGXGXGXGXGXGXGXGXGXMXMXMXMXMXMXMXMXMXMXMXMXMXMXMXMXMXMXMXBXBXLXMXMXBXmXrXI.Q.Q.W.U.aXeX&.&.&.-.-.#.#.] #.#.@.] ] ] #.-.-.-.&.&.&.&.c r.F.P.;XeXpXbXnXnXnXvXvXmXbXkXeXeX0XI.U.&.v r r r r e r @.r ' ] ' r r r q q 5 5 5 4 9 c F.I.UX;X;X;X,X,X;X;X;XL.U z 8 # # $ - - 8 8 4 $ $ 4 8 4 $ - - - - - - # # & % - = # H.z , l , z z z h n G L P.KXHXGXHXHXHXGXGXKXDXMXMXDXMXMXMXMXMXMXMXMXMXMXMXMXMXMXMXMXMXMXMXMXMXMXMXKXGXGXGXGXGXGXGXGXGXGXGXGXGXGXGXGXGXGXGXGXGXGXGXGXGXGXGXMXMXDXMXMXMXMXMXMXMXMXMXMXMXMXMXMXMXMXMXMXMXMXMXMXMXDXKXGXGXGXGXGXGXGXGXGXGXGXGXGXGXGXGXGXGXGXGXGXGXGXGXGXGXGXAXMXDXMXMXMXMXMXMXMXMXMXMXMXMXMX",
"MXMXMXMXMXMXMXMXMXMXMXMXMXMXMXMXMXMXMXMXMXMXMXMXMXMXDXKXGXGXGXGXGXGXGXGXGXGXGXGXGXGXGXGXGXGXGXGXGXGXGXGXGXGXGXMXMXMXMXMXMXMXMXMXMXMXMXMXMXMXMXMXMXMXMXMXMXMXMXMXMXMXKXGXGXGXGXGXGXGXGXGXGXGXGXGXGXGXGXGXGXGXGXGXGXGXGXGXGXGXMXMXMXMXMXMXMXMXMXMXMXMXMXMXMXMXMXMXMXMXLXLXMXMXCXVXtXI.Q.Q.U.I.bXI.&.G.-.-.-.#.*.#.] ] ' @.@.@.@.' r q 5 5 c F.;XeXbXbXmXmXmXmXvXbXbXkXeXeX;XI.F.F.&.&.&.#.#.#.#.#.@.] ] @.' ' ' ` ' ' ' ' r r e r r r e 5 5 0 v c F.I.;X;X;X;X;X;X.XL.P.U z = # # # $ 8 8 4 $ $ $ $ - - - - - - - - & - = # U Z , h h h h h h z G G P.VXGXGXHXHXHXGXGXKXMXMXMXDXMXMXMXMXMXMXMXMXMXMXMXMXMXMXMXMXMXMXMXMXMXMXMXKXGXGXGXGXGXGXGXGXGXGXGXGXGXGXGXGXGXGXGXGXGXGXGXGXGXGXGXMXMXDXMXMXMXMXMXMXMXMXMXMXMXMXMXMXMXMXMXMXMXMXMXMXMXDXKXGXGXGXGXGXGXGXGXGXGXGXGXGXGXGXGXGXGXGXGXGXGXGXGXGXGXGXAXMXLXMXMXMXMXMXMXMXMXMXMXMXMXMX",
"MXMXMXMXMXMXMXMXMXMXMXMXMXMXMXMXMXMXMXMXMXMXMXMXMXMXDXKXGXGXGXGXGXGXGXGXGXGXGXGXGXGXGXGXGXGXGXGXGXGXGXGXGXGXGXMXMXMXMXMXMXMXMXMXMXMXMXMXMXMXMXMXMXMXMXMXMXMXMXMXMXMXKXGXGXGXGXGXGXGXGXGXGXGXGXGXGXGXGXGXGXGXGXGXGXGXGXGXGXGXMXMXMXMXMXMXMXMXMXMXMXMXMXMXMXMXMXMXMXMXLXLXMXNXCXVX0XQ.Q.W.I.tXbXF.@.=.-.#.&.@.@.@.-.@.@.&.@.r e v c F.I.eXpXbXbXpXbXbXbXbXbXrXtX0XXXQ.I.U.U.G.G.G.G.S.-.@.#.] ] ] @.] ] ' ' ' ' ' ` ` w r r r r r w r r r e e e 5 0 4 0 j L P.I.XX;X%X.XL..XP.U G 8 - # # - 8 8 - - = - - # # - = - = % - # _ Z = h h h h h z z G L H.nXFXGXHXHXHXGXGXHXDXMXMXDXMXMXMXMXMXMXMXMXMXMXMXMXMXMXMXMXMXMXMXMXMXMXMXKXGXGXGXGXGXGXGXGXGXGXGXGXGXGXGXGXGXGXGXGXGXGXGXGXGXGXGXMXMXDXMXMXMXMXMXMXMXMXMXMXMXMXMXMXMXMXMXMXMXMXMXMXMXDXKXGXGXGXGXGXGXGXGXGXGXGXGXGXGXGXGXGXGXGXGXGXGXGXGXGXGXGXDXMXDXMXMXMXMXMXMXMXMXMXMXMXMXMX",
"MXMXMXMXMXMXMXMXMXMXMXMXMXMXMXMXMXMXMXMXMXMXMXMXMXMXDXKXGXGXGXGXGXGXGXGXGXGXGXGXGXGXGXGXGXGXGXGXGXGXGXGXGXGXGXMXMXMXMXMXMXMXMXMXMXMXMXMXMXMXMXMXMXMXMXMXMXMXMXMXMXMXKXGXGXGXGXGXGXGXGXGXGXGXGXGXGXGXGXGXGXGXGXGXGXGXGXGXGXGXMXMXMXMXMXMXMXMXMXMXMXMXMXMXMXMXMXMXCXMXLXLXBXNXCXVX0XQ.Q.W.XXaXtX&.=.;.-.-.-.&.&.@.@.r e q e c I.0XrXaXbXbXaXbXbXaXeXeX;XI.I.Q.Q.Q.Q.Q.W.W.R.G.G.G.=.-.-.-.#.#.#.] ' ' ' ' ' ' ' ' ' ' ' ' ' r w w r r r r r r e e e e e 0 4 4 0 j k L P..X.X.XP.P.P.P.L z = # # # # % - - - # # # % = % - % z Z = h h h h h k z Z L H.vXHXGXKXHXHXGXGXHXLXMXMXDXMXMXMXMXMXMXMXMXMXMXMXMXMXMXMXMXMXMXMXMXMXMXMXKXGXGXGXGXGXGXGXGXGXGXGXGXGXGXGXGXGXGXGXGXGXGXGXGXGXGXGXMXMXDXMXMXMXMXMXMXMXMXMXMXMXMXMXMXMXMXMXMXMXMXMXMXMXDXKXGXGXGXGXGXGXGXGXGXGXGXGXGXGXGXGXGXGXGXGXGXGXGXGXGXGXGXDXMXDXMXMXMXMXMXMXMXMXMXMXMXMXMX",
"MXMXMXMXMXMXMXMXMXMXMXMXMXMXMXMXMXMXMXMXMXMXMXMXMXMXDXKXGXGXGXGXGXGXGXGXGXGXGXGXGXGXGXGXGXGXGXGXGXGXGXGXGXGXGXMXMXMXMXMXMXMXMXMXMXMXMXMXMXMXMXMXMXMXMXMXMXMXMXMXMXMXKXGXGXGXGXGXGXGXGXGXGXGXGXGXGXGXGXGXGXGXGXGXGXGXGXGXGXGXMXMXMXMXMXMXMXMXMXMXMXMXMXMXMXMXMXMXCXCXLXLXBXNXCXVX0XQ.Q.K.0XbXU.&.G.-.-.-.&.&.@.v 5 v D.I.eXbXvXkXbXaXbXaXtXQ.U.F.U.U.U.U.I.Q.0X0XQ.!.Q.W.R.G.G.G.G.-.&.@.@.@.] ] ] ] ' ' ' ' ' ' r w w r r r ' @.r r r r r q q q r q q e e e q 5 4 8 8 u c H H.P.P.P.P.P.Q K l , % # # % - = - - % - - = # Z z = , h h h h k z M U Q kXFXHXKXGXHXGXGXGXLXMXMXDXMXMXMXMXMXMXMXMXMXMXMXMXMXMXMXMXMXMXMXMXMXMXMXKXGXGXGXGXGXGXGXGXGXGXGXGXGXGXGXGXGXGXGXGXGXGXGXGXGXGXGXMXMXDXMXMXMXMXMXMXMXMXMXMXMXMXMXMXMXMXMXMXMXMXMXMXMXDXKXGXGXGXGXGXGXGXGXGXGXGXGXGXGXGXGXGXGXGXGXGXGXGXGXGXGXGXDXMXDXMXMXMXMXMXMXMXMXMXMXMXMXMX",
"MXMXMXMXMXMXMXMXMXMXMXMXMXMXMXMXMXMXMXMXMXMXMXMXMXMXDXKXGXGXGXGXGXGXGXGXGXGXGXGXGXGXGXGXGXGXGXGXGXGXGXGXGXGXGXMXMXMXMXMXMXMXMXMXMXMXMXMXMXMXMXMXMXMXMXMXMXMXMXMXMXMXKXGXGXGXGXGXGXGXGXGXGXGXGXGXGXGXGXGXGXGXGXGXGXGXGXGXGXGXMXMXMXMXMXMXMXMXMXMXMXMXMXMXMXMXMXMXCXCXLXLXBXNXCXVX0XQ.Q.W.0XbXF.F.G.&.G.G.@.t v &.XXeXbXbXpXkXbXaXtXI.U.F.&.&.S.S.R.R.Q.Q.Q.Q.Q.Q.Q.Q.W.W.R.G.G.G.=.-.&.@.@.@.@.@.' ' ' r ' r r r r w r r r w w r w w r r r w w r q r r r q q r r e 0 0 4 4 $ 8 h L L H.P.Q T J I G z = X X % % % * % * = # K z : : h , h h k j z U Q kXFXHXGXGXHXGXGXHXLXMXMXDXMXMXMXMXMXMXMXMXMXMXMXMXMXMXMXMXMXMXMXMXMXMXMXKXGXGXGXGXGXGXGXGXGXGXGXGXGXGXGXGXGXGXGXGXGXGXGXGXGXGXGXMXMXDXMXMXMXMXMXMXMXMXMXMXMXMXMXMXMXMXMXMXMXMXMXMXMXDXKXGXGXGXGXGXGXGXGXGXGXGXGXGXGXGXGXGXGXGXGXGXGXGXGXGXGXGXDXMXDXMXMXMXMXMXMXMXMXMXMXMXMXMX",
"MXMXMXMXMXMXMXMXMXMXMXMXMXMXMXMXMXMXMXMXMXMXMXMXMXMXDXKXGXGXGXGXGXGXGXGXGXGXGXGXGXGXGXGXGXGXGXGXGXGXGXGXGXGXGXMXMXMXMXMXMXMXMXMXMXMXMXMXMXMXMXMXMXMXMXMXMXMXMXMXMXMXKXGXGXGXGXGXGXGXGXGXGXGXGXGXGXGXGXGXGXGXGXGXGXGXGXGXGXGXMXMXMXMXMXMXMXMXMXMXMXMXMXMXMXMXMXMXCXDXMXLXDXNXCXVXI.0XQ.K.rXrXv G.G.&.v v H I.eXbXzXaXbXbXrX0XU.&.@.@.@.#.-.-.S.G.G.R.W.Q.Q.Q.Q.Q.Q.Q.Q.W.G.G.G.G.=.-.&.&.@.@.@.] ] ] ' ' ' r r r r r r r r r r r w w w w w w w w q q q q q q q q q 5 e 5 0 0 0 4 $ - h z Z K J J I K G C l = % X % * * % X Z l * , h h h h z z M U H.eXFXHXGXGXGXGXGXHXLXMXMXMXMXMXMXMXMXMXMXMXMXMXMXMXMXMXMXMXMXMXMXMXMXMXMXKXGXGXGXGXGXGXGXGXGXGXGXGXGXGXGXGXGXGXGXGXGXGXGXGXGXGXGXMXMXDXMXMXMXMXMXMXMXMXMXMXMXMXMXMXMXMXMXMXMXMXMXMXMXDXKXGXGXGXGXGXGXGXGXGXGXGXGXGXGXGXGXGXGXGXGXGXGXGXGXGXGXGXMXMXMXMXMXMXMXMXMXMXMXMXMXMXMXMX",
"MXMXMXMXMXMXMXMXMXMXMXMXMXMXMXMXMXMXMXMXMXMXMXMXMXMXDXKXGXGXGXGXGXGXGXGXGXGXGXGXGXGXGXGXGXGXGXGXGXGXGXGXGXGXGXMXMXMXMXMXMXMXMXMXMXMXMXMXMXMXMXMXMXMXMXMXMXMXMXMXMXMXKXGXGXGXGXGXGXGXGXGXGXGXGXGXGXGXGXGXGXGXGXGXGXGXGXGXGXGXMXMXMXMXMXMXMXMXMXMXMXMXMXMXMXMXMXMXCXDXMXLXDXNXCXmXI.Q.W.I.aX;Xv F.c L U.0XaXbXbXbXbXeXI.F.&.@.' ' #.#.#.*.-.=.;.G.Y.R.W.W.Q.Q.!.Q.Q.Q.Q.W.G.G.G.G.=.-.&.@.@.@.@.] ] ' ' ' ' r r r r r r r r r r r w w w w w w w w q q q q q q 5 q q q q 5 0 5 0 0 9 8 $ # # = , l z Z G K K Z l , * % # * o l < ; = h h z h z j z H.Q 1XFXFXGXGXGXGXGXHXDXMXMXMXMXMXMXMXMXMXMXMXMXMXMXMXMXMXMXMXMXMXMXMXMXMXMXKXGXGXGXGXGXGXGXGXGXGXGXGXGXGXGXGXGXGXGXGXGXGXGXGXGXGXGXMXMXDXMXMXMXMXMXMXMXMXMXMXMXMXMXMXMXMXMXMXMXMXMXMXMXDXKXGXGXGXGXGXGXGXGXGXGXGXGXGXGXGXGXGXGXGXGXGXGXGXGXGXGXGXMXMXDXMXMXMXMXMXMXMXMXMXMXMXMXMX",
"MXMXMXMXMXMXMXMXMXMXMXMXMXMXMXMXMXMXMXMXMXMXMXMXMXMXDXKXGXGXGXGXGXGXGXGXGXGXGXGXGXGXGXGXGXGXGXGXGXGXGXGXGXGXGXMXMXMXMXMXMXMXMXMXMXMXMXMXMXMXMXMXMXMXMXMXMXMXMXMXMXMXKXGXGXGXGXGXGXGXGXGXGXGXGXGXGXGXGXGXGXGXGXGXGXGXGXGXGXGXMXMXMXMXMXMXMXMXMXMXMXMXMXMXMXMXMXMXMXMXMXAXLXNXVXmXI.Q.Q.Q.bXH.c c P.5XbXbXbXbXtXQ.&.@.] ] ] #.#.#.#.#.#.-.-.-.=.=.Y.E.W.W.!.!.!.!.Q.Q.Q.W.R.G.G.G.=.-.&.&.@.@.@.] ] ] ' ' ' ' ' w r r r ' ' ' ' ' w w w w w w w w q q q q q 5 5 5 q q q 5 e 5 0 0 0 0 0 4 8 - - # = , l z Z G G G l < = * o l , ; , h h h h z z G H.U -XFXFXGXGXGXGXGXGXDXMXMXMXMXMXMXMXMXMXMXMXMXMXMXMXMXMXMXMXMXMXMXMXMXMXMXKXGXGXGXGXGXGXGXGXGXGXGXGXGXGXGXGXGXGXGXGXGXGXGXGXGXGXGXMXMXDXMXMXMXMXMXMXMXMXMXMXMXMXMXMXMXMXMXMXMXMXMXMXMXDXKXGXGXGXGXGXGXGXGXGXGXGXGXGXGXGXGXGXGXGXGXGXGXGXGXGXGXGXDXMXDXMXMXMXMXMXMXMXMXMXMXMXMXMX",
"MXMXMXMXMXMXMXMXMXMXMXMXMXMXMXMXMXMXMXMXMXMXMXMXMXMXDXKXGXGXGXGXGXGXGXGXGXGXGXGXGXGXGXGXGXGXGXGXGXGXGXGXGXGXGXMXMXMXMXMXMXMXMXMXMXMXMXMXMXMXMXMXMXMXMXMXMXMXMXMXMXMXKXGXGXGXGXGXGXGXGXGXGXGXGXGXGXGXGXGXGXGXGXGXGXGXGXGXGXGXMXMXMXMXMXMXMXMXMXMXMXMXMXMXMXMXMXMXMXMXMXMXMXNXVXbXUXQ.I.0XtX6 U.rXbXbXbXaX0XF.@.@.#.%.%.%.$.[ ] ] #.#.#.-.-.-.=.=.T.R.W.W.!.!.!.!.Q.Q.Q.W.R.G.G.S.=.-.&.@.@.@.@.] ] ] ' ' ' ' ' ' ' ' ' ' ' ' ' ' w w w w w w w w q q q q q q 5 5 5 5 q e e 5 0 0 4 0 0 0 0 0 4 - - % % % = h z n Z G Z l ; Z l * , h , h h z z L H.U %XFXGXGXHXGXGXGXGXDXMXMXMXMXMXMXMXMXMXMXMXMXMXMXMXMXMXMXMXMXMXMXMXMXMXMXKXGXGXGXGXGXGXGXGXGXGXGXGXGXGXGXGXGXGXGXGXGXGXGXGXGXGXGXMXMXDXMXMXMXMXMXMXMXMXMXMXMXMXMXMXMXMXMXMXMXMXMXMXMXDXKXGXGXGXGXGXGXGXGXGXGXGXGXGXGXGXGXGXGXGXGXGXGXGXGXGXGXGXDXMXDXMXMXMXMXMXMXMXMXMXMXMXMXMX",
"MXMXMXMXMXMXMXMXMXMXMXMXMXMXMXMXMXMXMXMXMXMXMXMXMXMXDXKXGXGXGXGXGXGXGXGXGXGXGXGXGXGXGXGXGXGXGXGXGXGXGXGXGXGXGXMXMXMXMXMXMXMXMXMXMXMXMXMXMXMXMXMXMXMXMXMXMXMXMXMXMXMXKXGXGXGXGXGXGXGXGXGXGXGXGXGXGXGXGXGXGXGXGXGXGXGXGXGXGXGXMXMXMXMXMXMXMXMXMXMXMXMXMXMXMXMXMXMXMXMXMXMXMXNXVXbXI.Q.U.XXrX0XbXbXbXrXI.&.@.#.#.#.#.%.[ ] ] ] #.#.[ #.#.-.-.=.y.G.G.W.W.W.Q.!.!.!.Q.Q.Q.W.R.G.G.S.=.-.-.#.@.@.] ] ' ' ' ' ' ' ' ' ` ` ' ' ' ' ' r r r w w w w w w q w e e q q q q 5 e e 5 5 5 0 0 0 0 4 4 4 4 0 0 = - - - % % - = , z Z Z n K G , , , , l h z z G U K .XFXHXHXGXGXGXGXKXMXMXMXDXMXMXMXMXMXMXMXMXMXMXMXMXMXMXMXMXMXMXMXMXMXMXMXKXGXGXGXGXGXGXGXGXGXGXGXGXGXGXGXGXGXGXGXGXGXGXGXGXGXGXGXMXMXDXMXMXMXMXMXMXMXMXMXMXMXMXMXMXMXMXMXMXMXMXMXMXMXLXKXGXGXGXGXGXGXGXGXGXGXGXGXGXGXGXGXGXGXGXGXGXGXGXGXGXGXGXDXMXDXMXMXMXMXMXMXMXMXMXMXMXMXMX",
"MXMXMXMXMXMXMXMXMXMXMXMXMXMXMXMXMXMXMXMXMXMXMXMXMXMXDXKXGXGXGXGXGXGXGXGXGXGXGXGXGXGXGXGXGXGXGXGXGXGXGXGXGXGXGXMXMXMXMXMXMXMXMXMXMXMXMXMXMXMXMXMXMXMXMXMXMXMXMXMXMXMXKXGXGXGXGXGXGXGXGXGXGXGXGXGXGXGXGXGXGXGXGXGXGXGXGXGXGXGXMXMXMXMXMXMXMXMXMXMXMXMXMXMXMXMXMXMXMXNXMXAXSXMXVXrX0XQ.J.tXaXrXbXrXI.&.@.-.=.#.[ $.[ [ #.#.#.] ] ] #.$.*.-.-.-.=.G.G.W.W.W.Q.Q.Q.Q.Q.Q.Q.W.R.G.G.S.=.-.-.#.#.#.@.] ] ] ' ' ' ' ' ' ` ` ' ' ' ' ' r r r r r w w w w w w e e q q q q 5 5 e 5 5 5 5 5 5 0 0 0 0 5 4 4 4 - = = = - % # # = : z z G K n l l , < , h z L L G L.FXHXHXGXGXGXGXKXMXMXMXDXMXMXMXMXMXMXMXMXMXMXMXMXMXMXMXMXMXMXMXMXMXMXMXKXGXGXGXGXGXGXGXGXGXGXGXGXGXGXGXGXGXGXGXGXGXGXGXGXGXGXGXMXMXDXMXMXMXMXMXMXMXMXMXMXMXMXMXMXMXMXMXMXMXMXMXMXMXDXKXGXGXGXGXGXGXGXGXGXGXGXGXGXGXGXGXGXGXGXGXGXGXGXGXGXGXGXDXMXDXMXMXMXMXMXMXMXMXMXMXMXMXMX",
"MXMXMXMXMXMXMXMXMXMXMXMXMXMXMXMXMXMXMXMXMXMXMXMXMXMXDXKXGXGXGXGXGXGXGXGXGXGXGXGXGXGXGXGXGXGXGXGXGXGXGXGXGXGXGXMXMXMXMXMXMXMXMXMXMXMXMXMXMXMXMXMXMXMXMXMXMXMXMXMXMXMXKXGXGXGXGXGXGXGXGXGXGXGXGXGXGXGXGXGXGXGXGXGXGXGXGXGXGXGXMXMXMXMXMXMXMXMXMXMXMXMXMXMXMXMXMXMXBXBXMXLXCXLXVXrXQ.I.I.rXrXtX0X&.&.-.-.-.#.#.#.#.#.#.[ [ %.%.%.#.#.#.-.-.-.-.=.G.T.R.W.Q.Q.Q.Q.Q.Q.Q.W.W.R.G.G.G.=.-.-.&.@.@.@.] ' ' ' ' ' ' ' ' ` r r r r r r r r r r r r r r r r r r e q q q q q 5 e e 5 5 5 5 5 4 4 4 4 4 4 4 4 $ $ $ $ - - = - % # = : l K Z Z Z l l , h z U G G P.FXFXHXGXGXGXGXGXDXMXMXDXMXMXMXMXMXMXMXMXMXMXMXMXMXMXMXMXMXMXMXMXMXMXMXKXGXGXGXGXGXGXGXGXGXGXGXGXGXGXGXGXGXGXGXGXGXGXGXGXGXGXGXMXMXDXMXMXMXMXMXMXMXMXMXMXMXMXMXMXMXMXMXMXMXMXMXMXMXLXKXGXGXGXGXGXGXGXGXGXGXGXGXGXGXGXGXGXGXGXGXGXGXGXGXGXGXGXMXMXMXMXMXMXMXMXMXMXMXMXMXMXMXMX",
"MXMXMXMXMXMXMXMXMXMXMXMXMXMXMXMXMXMXMXMXMXMXMXMXMXMXDXKXGXGXGXGXGXGXGXGXGXGXGXGXGXGXGXGXGXGXGXGXGXGXGXGXGXGXGXMXMXMXMXMXMXMXMXMXMXMXMXMXMXMXMXMXMXMXMXMXMXMXMXMXMXMXKXGXGXGXGXGXGXGXGXGXGXGXGXGXGXGXGXGXGXGXGXGXGXGXGXGXGXGXMXMXMXMXMXMXMXMXMXMXMXMXMXMXMXMXMXMXLXMXAXDXCXLXmXrX0XK.I.rXQ.&.&.G.G.=.-.-.-.#.#.#.#.[ [ [ %.%.%.#.#.#.-.-.-.=.;.Y.Y.R.W.Q.Q.Q.Q.Q.Q.Q.Q.W.R.G.G.G.=.-.-.&.#.@.] ] ` ` ` w w w w w w w w w w w w w w w w w w w w w w w e e q q q q 5 e 5 5 5 5 5 5 4 4 4 4 0 4 4 4 4 4 4 $ $ $ - & $ = & # % h Z < n A A G l h l G n Z H.FXFXHXGXGXGXGXGXMXMXMXDXMXMXMXMXMXMXMXMXMXMXMXMXMXMXMXMXMXMXMXMXMXMXMXKXGXGXGXGXGXGXGXGXGXGXGXGXGXGXGXGXGXGXGXGXGXGXGXGXGXGXGXMXMXDXMXMXMXMXMXMXMXMXMXMXMXMXMXMXMXMXMXMXMXMXMXMXMXLXKXGXGXGXGXGXGXGXGXGXGXGXGXGXGXGXGXGXGXGXGXGXGXGXGXGXGXGXMXMXMXMXMXMXMXMXMXMXMXMXMXMXMXMX",
"MXMXMXMXMXMXMXMXMXMXMXMXMXMXMXMXMXMXMXMXMXMXMXMXDXMXLXKXGXGXGXGXGXGXGXGXGXGXGXGXGXGXGXGXGXGXGXGXGXGXGXGXGXGXGXMXMXMXMXMXMXMXMXMXMXMXMXMXMXMXMXMXMXMXMXMXMXMXMXMXMXDXKXGXGXGXGXGXGXGXGXGXGXGXGXGXGXGXGXGXGXGXGXGXGXGXGXGXGXGXMXDXMXMXMXMXMXMXMXMXMXMXMXMXMXMXMXMXMXNXAXSXCXNXVX0XQ.Q.Q.OX@.-.G.y.=.=.-.-.-.#.#.#.#.[ [ #.[ #.#.#.#.#.#.-.-.=.;.G.R.W.Q.Q.Q.Q.Q.Q.Q.Q.Q.Q.R.G.G.y.=.-.+.] ] ` ` ` ` o...O.h.h.h.9.9.O.` ` w w w w w w w w w w w w r r r q q q e e 5 0 5 5 0 5 0 0 4 5 4 4 4 4 4 4 $ $ & & - $ & & $ & & = % : z : , n Z G K n n G z L U mXHXGXHXGXGXGXHXDXMXMXDXDXMXMXMXMXMXMXMXMXMXMXMXMXMXMXMXMXDXMXMXMXMXMXKXGXGXGXGXGXGXGXGXGXGXGXGXGXGXGXGXGXGXGXGXGXGXGXGXGXGXGXMXMXMXMXLXDXMXMXMXMXMXMXMXMXMXMXMXMXMXMXMXMXMXDXDXMXDXKXGXGXGXGXGXGXGXGXGXGXGXGXGXGXGXGXGXGXGXGXGXGXGXGXGXGXGXDXMXMXMXMXMXMXMXMXMXMXMXMXMXMXMX",
"MXMXMXMXMXMXMXMXMXMXMXMXMXMXMXMXMXMXMXMXMXMXMXMXMXMXMXKXGXGXGXGXGXGXGXGXGXGXGXGXGXGXGXGXGXGXGXGXGXGXGXGXGXGXGXDXMXMXMXMXMXMXMXMXMXMXMXMXMXMXMXMXMXMXMXMXMXMXMXMXMXDXKXGXGXGXGXGXGXGXGXGXGXGXGXGXGXGXGXGXGXGXGXGXGXGXGXGXGXGXMXMXMXMXMXMXMXMXMXMXMXMXMXMXMXMXMXMXLXMXAXSXCXNXVX0X0XQ.W.W.#.=.Y.=.=.=.-.-.-.#.#.[ [ [ [ [ #.] [ #.#.$.-.-.-.=.=.G.R.R.Q.Q.Q.Q.Q.Q.Q.Q.Q.W.G.y.y.y.+.+.+.w.h.h.h.A.Z.Z.}.}.}.}.}.'.}.}.}.Z.Z.A.h.h.+.+.o.` w w w w q q q w w w q 5 e e e e 0 5 5 5 0 5 4 4 4 4 4 4 $ $ $ $ & & = = - $ $ = % : n h , h , l K I K Z z G U bXHXFXHXGXGXGXKXDXMXMXMXMXMXMXMXMXMXMXMXMXMXMXMXMXMXMXMXMXMXMXMXDXDXDXKXGXGXGXGXGXGXGXGXGXGXGXGXGXGXGXGXGXGXGXGXGXGXGXGXGXGXGXMXMXMXMXMXNXMXMXMXMXMXMXMXMXMXMXMXMXMXMXMXMXMXMXMXMXDXKXGXGXGXGXGXGXGXGXGXGXGXGXGXGXGXGXGXGXGXGXGXGXGXGXGXGXGXDXMXDXMXMXDXMXMXMXMXMXMXMXMXMXMX",
"MXMXMXMXMXMXMXMXMXMXMXMXMXMXMXMXMXMXMXMXMXMXMXMXMXMXMXKXGXGXGXGXGXGXGXGXGXGXGXGXGXGXGXGXGXGXGXGXGXGXGXGXGXGXGXDXMXMXMXMXMXMXMXMXMXMXMXMXMXMXMXMXMXMXMXMXMXMXMXMXMXDXKXGXGXGXGXGXGXGXGXGXGXGXGXGXGXGXGXGXGXGXGXGXGXGXGXKXGXGXMXMXMXMXMXMXMXMXMXMXMXMXMXMXMXMXMXMXAXAXAXSXCXMXVX0X0XQ.W.G.&.=.Y.=.=.=.-.-.#.#.#.%.[ [ [ [ [ [ [ #.#.#.#.-.-.=.G.G.T.W.W.Q.Q.OXOXOXW.W.W.A.A.A.h.h.Z.Z.Z.Z.Z.}.}.}.'.(.(.(.B.B.(.^.B.^.'.'.'.}.}.}.}.'.'.'.Z.Z.z.i.w.O.` q q q q q 5 5 5 5 5 q e e 5 5 5 0 0 0 0 6 4 $ $ $ $ - - - - - - = % , n l : , : < l G U n h L H.kXHXGXGXGXGXGXHXDXMXMXMXMXMXMXMXMXMXMXMXMXMXMXMXMXMXMXMXMXMXMXMXMXMXDXKXGXGXGXGXGXGXGXGXGXGXGXGXGXGXGXGXGXGXGXGXGXGXGXGXGXGXGXMXMXDXMXMXMXMXMXMXMXMXMXMXMXMXMXMXMXMXMXMXMXMXMXMXMXDXKXGXGXGXGXGXGXGXGXGXGXGXGXGXGXGXGXGXGXGXGXGXGXGXGXGXGXGXDXMXMXMXMXDXAXMXMXMXMXMXMXMXMXMX",
"MXMXMXMXMXMXMXMXMXMXMXAXMXMXMXMXMXMXMXMXMXMXMXMXDXMXLXKXGXGXGXGXGXGXGXGXGXGXGXGXGXGXGXGXGXGXGXGXGXGXGXGXGXGXGXMXMXMXMXAXMXMXMXMXMXMXMXMXMXMXMXMXMXMXMXAXMXMXMXMXMXDXKXGXGXGXGXGXGXGXGXGXGXGXGXGXGXGXGXGXGXGXGXGXGXGXGXGXGXGXMXDXMXMXMXMXMXMXMXMXMXMXMXAXMXMXMXBXMXLXAXNXCXLXmXI.Q.Q.Q.y.-.=.G.=.=.=.-.-.#.#.#.%.%.[ [ [ [ [ [ [ #.#.#.-.-.=.y.y.T.T.W.W.W.W.W.W.A.A.Z.Z.Z.Z.Z.Z.M.M.C.C.C.B.B.B.B.^.^.^.^.^.^.^.V.^.V.B.N.B.V.^.(.(.(.(./.'.'.Z.Z.Z.Z.A.A.A.h.+...o.o.w q 5 5 5 5 5 5 4 4 4 4 4 4 4 4 & - - - - - - - = * , l l , l l h , z G n h L P.pXHXHXGXHXGXGXKXDXMXMXDXDXMXMXMXMXAXAXMXMXMXMXMXMXMXMXMXAXDXMXMXMXMXMXDXHXGXGXGXGXGXGXGXGXGXGXGXGXGXGXGXGXGXGXGXGXGXGXGXGXGXGXMXMXDXMXDXLXMXMXMXMXMXMXMXAXMXMXMXMXMXMXMXAXDXDXMXMXLXKXGXGXGXGXGXGXGXGXGXGXGXGXGXGXGXGXGXGXGXGXGXGXGXGXGXGXGXLXMXMXMXMXDXMXMXMXMXMXMXMXMXAXMX",
"DXDXDXDXDXDXDXDXDXDXDXDXDXDXDXDXDXDXDXDXDXDXDXDXMXMXDXKXGXGXGXGXGXGXGXGXGXGXGXGXGXGXGXGXGXGXGXGXGXGXGXGXGXGXKXMXDXDXDXDXDXDXDXDXDXDXDXDXDXDXDXDXDXDXDXDXDXDXDXDXMXAXKXGXGXGXGXGXGXGXGXGXGXGXGXGXGXGXGXGXGXGXGXGXGXGXGXGXGXGXMXMXDXDXDXDXDXDXDXDXDXDXDXDXDXDXDXLXLXDXDXMXCXDXmXI.Q.Q.Q.&.-.y.G.G.=.=.-.-.#.#.#.%.%.%.[ [ [ [ [ [ #.#.-.-.-.-.y.y.u.u.A.A.A.u.u.z.z.z.z.l.M.M.M.M.m.N.B.C.V.V.^.^.B.V.^.^.^.^.V.V./././.^.^.^.V.B.^.V.B.m.m.N.B.(.C.C.N.M.Z.Z.Z.Z.Z.Z.Z.z.d.4. .o.t q 5 5 5 4 0 0 4 4 4 $ $ & - - - = - = * 3 l l z h , h h l Z z h G P.eXFXHXGXHXGXGXKXDXMXMXMXMXDXDXDXDXDXDXLXDXDXDXDXDXDXDXDXDXDXDXMXMXMXDXKXGXGXGXGXGXGXGXGXGXGXGXGXGXGXGXGXGXGXGXGXGXGXGXGXGXGXGXMXMXMXMXLXLXDXDXDXDXDXDXDXDXDXDXDXDXDXDXDXDXMXMXMXMXDXKXGXGXGXGXGXGXGXGXGXGXGXGXGXGXGXGXGXGXGXGXGXGXGXGXGXGXGXDXMXMXMXMXDXMXDXDXDXDXDXDXDXDXDX",
"MXMXMXMXMXMXMXMXMXMXMXMXMXMXMXMXMXMXMXMXMXMXMXMXMXMXMXKXGXGXGXGXGXGXGXGXGXGXGXGXGXGXGXGXGXGXGXGXGXGXGXGXGXGXGXDXMXMXMXMXMXMXMXMXMXMXMXMXMXMXMXMXMXMXMXMXMXMXMXMXMXMXKXGXGXGXGXGXGXGXGXGXGXGXGXGXGXGXGXGXGXGXGXGXGXGXGXGXGXGXMXMXMXMXMXMXMXMXMXMXMXMXMXMXMXMXMXMXBXLXDXMXCXLXmXI.OXQ.K.X.-.G.G.=.=.=.-.*.-.#.#.#.[ [ [ [ [ [ [ [ #.#.#.+.+.+.w.w.w.w.w.h.h.q.d.d.z.l.l.l.M.c.c.m.B.B.C.C.B.B.C.C.^.^.V.^.^.^.^.V.B.B.C.V.^.^.^.V.C.V.^.^.V.B.N.N.B.B.B.B.N.m.v.v.k.l.c.c.b.l.z.A.A.u.y.X.X.t 5 5 5 4 4 $ $ $ $ $ - = - = = * l b h h = h l l z z z G P.,XFXHXGXGXGXGXKXDXMXMXMXMXMXMXMXMXMXMXMXMXMXMXMXMXMXMXMXMXMXMXMXMXMXDXKXGXGXGXGXGXGXGXGXGXGXGXGXGXGXGXGXGXGXGXGXGXGXGXGXGXGXGXMXMXMXMXMXMXMXMXMXMXMXMXMXMXMXMXMXMXMXMXMXMXMXMXMXMXLXKXGXGXGXGXGXGXGXGXGXGXGXGXGXGXGXGXGXGXGXGXGXGXGXGXGXGXGXDXMXMXMXMXMXMXMXMXMXMXMXMXMXMXMX",
"AXMXMXMXMXMXMXMXMXMXMXMXMXMXMXMXAXMXMXMXMXMXMXMXDXMXDXKXGXGXGXGXGXGXGXGXGXGXGXGXGXGXGXGXGXGXGXGXGXKXGXGXKXGXGXDXMXMXMXMXMXMXMXMXAXMXMXMXMXMXMXMXMXMXMXMXMXMXMXMXDXDXKXHXGXKXKXGXGXGXGXGXGXGXGXGXGXGXGXGXGXGXGXGXGXKXGXKXGXGXMXDXAXMXMXMXMXMXMXMXMXMXMXMXMXMXMXBXLXLXDXLXCXCXbXI.Q.Q.W.&.-.Y.=.=.=.=.-.-.-.#.#.#.[ [ ] ] ] ] #.#.] +.+.+.+.w.w.w.q.q.q.d.d.d.z.z.j.z.l.c.c.M.M.m.B.B.V.C.C.V.V.^.V.V.C.C.V.V.V.V.'.'.V.V.V.V.V.V.V.V.V.V.C.C.V.V.C.C.V.C.C.N.n.n.n.b.b.x.g.g.j.j.z.z.z.z.z.q.5.,.a p p 7 7 6 4 $ $ 4 $ - - - h C = h h h z h z z z G H.;XFXFXGXGXHXGXKXKXDXDXDXMXMXMXMXMXAXMXMXMXMXMXMXMXMXMXMXMXMXMXMXDXDXDXKXGXGXGXGXGXGXGXGXGXGXGXGXGXGXGXGXGXGXGXGXGXGXGXGXGXKXGXMXMXDXMXDXDXMXMXMXMXMXAXMXMXMXMXMXMXMXMXMXMXMXDXDXDXDXKXHXKXGXGXGXGXGXGXGXGXGXGXGXGXGXGXGXGXGXGXGXGXGXGXGXGXKXMXMXDXMXDXDXMXMXMXMXMXMXMXMXMXMX",
"KXKXKXKXKXKXKXKXKXKXKXKXKXKXKXKXKXKXKXKXKXKXKXKXKXKXKXKXGXKXKXKXKXKXKXKXKXKXKXKXKXKXKXKXKXKXKXKXKXKXKXKXKXGXGXDXKXKXKXKXKXKXKXKXKXKXKXKXKXKXKXKXKXKXKXKXKXKXKXKXKXKXKXKXKXKXKXKXKXKXKXKXKXKXKXKXKXKXKXKXKXKXKXKXKXKXKXDXKXGXDXKXKXKXKXKXKXKXKXKXKXKXKXKXKXKXKXKXKXKXFXKXKXMXbXI.Q.Q.Q.G.=.E.=.;.=.=.-.-.#.#.#.#.] ] ] ] ] ] +.+.+.+.+.w.w.w.q.q.d.q.0.d.d.d.d.z.l.l.l.c.c.M.M.m.B.B.C.V.V.V.V.V.V.V.V.V.V.V.V.V.C.C.V.V.V.V.V.V.V.V.V.V.V.V.V.C.V.V.V.V.C.C.n.n.b.b.b.b.b.x.g.f.f.s.p.0.0.0.0.q.w.y.1.1.X.g 7 6 4 6 $ $ $ & h M $ 8 = h z h z z h n U #XFXZXDXKXKXKXKXKXKXKXKXKXKXKXKXKXKXKXKXKXKXKXKXKXKXKXKXKXKXKXKXGXKXKXKXGXKXKXKXKXKXKXKXKXKXKXKXKXKXKXKXKXKXKXKXKXKXKXKXKXKXGXDXKXHXKXKXKXKXKXKXKXKXKXKXKXKXKXKXKXKXKXKXKXKXKXKXKXKXKXKXKXKXKXKXKXKXKXKXKXKXKXKXKXKXKXKXKXKXKXKXKXKXKXKXKXGXDXDXKXKXKXKXKXKXKXKXKXKXKXKXKXKX",
"GXGXGXGXGXGXGXGXGXGXGXGXGXGXGXGXGXGXGXGXGXGXGXGXGXGXGXKXMXMXMXMXMXMXMXMXMXMXMXMXMXMXMXMXMXMXMXMXMXMXMXMXDXMXDXGXGXGXGXGXGXGXGXGXGXGXGXGXGXGXGXGXGXGXGXGXGXGXGXGXGXGXKXMXMXMXMXMXMXMXMXMXMXMXMXMXMXMXMXMXMXMXMXMXMXMXMXDXMXMXGXGXGXGXGXGXGXGXGXGXGXGXGXGXGXGXGXGXGXHXHXGXHXFXbXI.Q.Q.W.R.G.;.~.=.=.-.-.#.#.#.#.#.] ] o.o.o.......O.O.6.4.4.7.0.0.0.d.d.s.s.s.s.z.l.l.l.M.c.M.m.m.B.B.B.B.B.B.V.V.^.V.V.V.V.V.^.^.V.V.V.V.V.V.V.^.^.^.V.V.V.V.V.V.C.C.C.C.C.C.n.n.n.b.b.b.b.x.g.g.g.f.a.a.i.i.8.8.6.6.6.,.1.X.X.X.s g g 7 4 & 6 u & 8 u h h h h h z z U L.VXDXMXLXMXMXDXGXGXGXGXGXGXGXGXGXGXGXGXGXGXGXGXGXGXGXGXGXGXGXGXGXGXGXKXMXMXMXMXMXMXMXMXMXMXMXMXMXMXMXMXMXMXMXMXMXMXMXMXMXMXMXGXGXGXGXGXGXGXGXGXGXGXGXGXGXGXGXGXGXGXGXGXGXGXGXGXGXGXKXMXMXMXMXMXMXMXMXMXMXMXMXMXMXMXMXMXMXMXMXMXMXMXMXMXMXMXGXGXGXGXGXGXGXGXGXGXGXGXGXGXGXGX",
"GXGXGXGXGXGXGXGXGXGXGXGXGXGXGXGXGXGXGXGXGXGXGXGXGXGXGXKXMXMXMXMXMXMXMXMXMXMXMXMXMXMXMXMXMXMXMXMXMXMXMXMXDXMXDXGXGXGXGXGXGXGXGXGXGXGXGXGXGXGXGXGXGXGXGXGXGXGXGXGXGXGXKXMXMXMXMXMXMXMXMXMXMXMXMXMXMXMXMXMXMXMXMXMXMXMXMXDXMXMXGXGXGXGXGXGXGXGXGXGXGXGXGXGXGXGXGXGXGXHXGXGXHXFXaXI.Q.W.W.R.T.Y.;.-.=.=.-.-.-.@.] o.o.o.o.o.o.} ..|  .O.4.5.5.7.0.0.0.d.d.d.s.s.s.z.l.l.l.M.M.M.M.m.B.B.B.B.B.B.V.V.^.^.V.^.V.^.^.^.^.^.^.^.^.^.^.^.^.^.^.V.V.V.V.C.B.B.C.C.C.n.n.n.v.v.v.x.x.x.k.g.g.g.g.a.a.i.i.i.9.4.4.3. .| } } X.X.f f g 7 6 & 6 u u h h j j h z n U P.VXBXNXLXMXMXDXGXGXGXGXGXGXGXGXGXGXGXGXGXGXGXGXGXGXGXGXGXGXGXGXGXGXGXKXMXMXMXMXMXMXMXMXMXMXMXMXMXMXMXMXMXMXMXMXMXMXMXMXMXMXMXGXGXGXGXGXGXGXGXGXGXGXGXGXGXGXGXGXGXGXGXGXGXGXGXGXGXGXKXMXMXMXMXMXMXMXMXMXMXMXMXMXMXMXMXMXMXMXMXMXMXMXMXMXMXMXGXGXGXGXGXGXGXGXGXGXGXGXGXGXGXGX",
"GXGXGXGXGXGXGXGXGXGXGXGXGXGXGXGXGXGXGXGXGXGXGXGXGXGXGXKXMXMXMXMXMXMXMXMXMXMXMXMXMXMXMXMXMXMXMXMXMXAXMXMXLXMXMXGXGXGXGXGXGXGXGXGXGXGXGXGXGXGXGXGXGXGXGXGXGXGXGXGXGXGXKXMXMXMXMXMXMXMXMXMXMXMXMXMXMXMXMXMXMXMXMXMXMXMXMXDXMXMXGXGXGXGXGXGXGXGXGXGXGXGXGXGXGXGXGXGXGXHXGXGXHXFXrXQ.Q.W.W.W.Y.;.~.G.=.&.&.&.o.o.a a o.o.{ { { } } |  .3.4.5.7.7.0.d.d.d.d.s.s.s.s.z.z.l.l.M.M.M.M.m.B.B.B.B.B.B.B.V.^.^.^.^.^.^.^.^.^.^.^.^.^.^.^.^.V.V.V.V.V.V.V.C.B.B.B.B.B.B.N.m.m.v.c.c.x.x.x.g.g.g.g.a.a.i.i.i.8.9.4.3. .| | } { a a s f d g g i i j j j j j h z k U Q VXBXMXMXMXMXDXGXGXGXGXGXGXGXGXGXGXGXGXGXGXGXGXGXGXGXGXGXGXGXGXGXGXGXKXMXMXMXMXMXMXMXMXMXMXMXMXMXMXMXMXMXMXMXMXMXMXMXMXMXMXMXGXGXGXGXGXGXGXGXGXGXGXGXGXGXGXGXGXGXGXGXGXGXGXGXGXGXGXKXMXMXMXMXMXMXMXMXMXMXMXMXMXMXMXMXMXMXMXMXMXMXMXMXMXMXMXGXGXGXGXGXGXGXGXGXGXGXGXGXGXGXGX",
"GXGXGXGXGXGXGXGXGXGXGXGXGXGXGXGXGXGXGXGXGXGXGXGXGXGXGXKXMXMXMXMXMXMXMXMXMXMXMXMXMXMXMXMXMXMXMXMXMXAXMXMXMXMXMXGXGXGXGXGXGXGXGXGXGXGXGXGXGXGXGXGXGXGXGXGXGXGXGXGXGXGXKXMXMXMXMXMXMXMXMXMXMXMXMXMXMXMXMXMXMXMXMXMXMXMXMXDXMXMXGXGXGXGXGXGXGXGXGXGXGXGXGXGXGXGXGXGXGXHXGXGXHXZXtXQ.Q.W.W.R.G.G.G.G.&.&.X.s a t p a a a s { { { } }  .3.3.5.5.7.0.d.d.d.d.s.s.s.s.z.z.l.l.M.M.M.M.m.B.B.B.B.B.B.B.V.V.V.V.V.^.^.^.^.^.^.^.^.^.^.^.^.V.C.C.C.C.V.V.B.B.B.B.B.B.N.N.m.m.v.c.c.x.x.x.x.g.g.g.a.a.i.i.i.i.9.4.4.O. .| } | { a a a s f d g d j j j j h u k z H K nXNXMXMXMXMXDXGXGXGXGXGXGXGXGXGXGXGXGXGXGXGXGXGXGXGXGXGXGXGXGXGXGXGXKXMXMXMXMXMXMXMXMXMXMXMXMXMXMXMXMXMXMXMXMXMXMXMXMXMXMXMXGXGXGXGXGXGXGXGXGXGXGXGXGXGXGXGXGXGXGXGXGXGXGXGXGXGXGXKXMXMXMXMXMXMXMXMXMXMXMXMXMXMXMXMXMXMXMXMXMXMXMXMXMXMXMXGXGXGXGXGXGXGXGXGXGXGXGXGXGXGXGX",
"GXGXGXGXGXGXGXGXGXGXGXGXGXGXGXGXGXGXGXGXGXGXGXGXGXGXGXKXMXMXMXMXMXMXMXMXMXMXMXMXMXMXMXMXMXMXMXMXMXMXMXMXDXMXDXGXGXGXGXGXGXGXGXGXGXGXGXGXGXGXGXGXGXGXGXGXGXGXGXGXGXGXKXMXMXMXMXMXMXMXMXMXMXMXMXMXMXMXMXMXMXMXMXMXMXMXMXDXMXMXGXGXGXGXGXGXGXGXGXGXGXGXGXGXGXGXGXGXHXHXGXGXHXFX0XQ.Q.W.W.K.G.G.F.c f f f f f p p p a a s { { } } |  .3.3.4.5.7.0.0.d.d.s.s.s.s.z.z.z.l.l.l.M.M.M.M.B.B.B.C.C.C.C.C.B.B.V.V.V.V.^.^.^.V.V.V.V.^.^.^.V.C.C.C.V.C.C.C.C.C.C.C.C.N.m.m.m.v.v.c.x.x.x.x.x.g.g.a.a.i.i.i.i.9.4.4.O. ...| } o.{ o.a a p p d d d j k k j h k z G L vXCXMXCXMXMXDXGXGXGXGXGXGXGXGXGXGXGXGXGXGXGXGXGXGXGXGXGXGXGXGXGXGXGXKXMXMXMXMXMXMXMXMXMXMXMXMXMXMXMXMXMXMXMXMXMXMXMXMXMXMXMXGXGXGXGXGXGXGXGXGXGXGXGXGXGXGXGXGXGXGXGXGXGXGXGXGXGXGXKXMXMXMXMXMXMXMXMXMXMXMXMXMXMXMXMXMXMXMXMXMXMXMXMXMXMXMXGXGXGXGXGXGXGXGXGXGXGXGXGXGXGXGX",
"GXGXGXGXGXGXGXGXGXGXGXGXGXGXGXGXGXGXGXGXGXGXGXGXGXGXGXKXMXMXMXMXMXMXMXMXMXMXMXMXMXMXMXMXMXMXMXMXMXMXMXMXDXMXDXGXGXGXGXGXGXGXGXGXGXGXGXGXGXGXGXGXGXGXGXGXGXGXGXGXGXGXKXMXMXMXMXMXMXMXMXMXMXMXMXMXMXMXMXMXMXMXMXMXMXMXMXDXMXMXGXGXGXGXGXGXGXGXGXGXGXGXGXGXGXGXGXGXHXGXGXGXHXFX0XQ.W.W.Q.K.t.t.e.c c x x d g p p p a a s { { } | |  .6.4.4.5.7.0.0.d.d.s.s.s.s.z.z.z.l.l.l.M.M.M.M.C.C.B.B.C.C.C.C.V.V.V.V.V.^.^.V.^.^.^.^.V.V.^.^.^.V.V.V.V.V.C.C.C.C.C.C.C.N.m.m.v.v.v.v.c.x.x.x.x.g.a.a.a.p.i.8.9.9.4.O.O. . ...o.{ { o.a s s f g d d d x x x z z M L Y zXBXMXMXMXMXDXGXGXGXGXGXGXGXGXGXGXGXGXGXGXGXGXGXGXGXGXGXGXGXGXGXGXGXKXMXMXMXMXMXMXMXMXMXMXMXMXMXMXMXMXMXMXMXMXMXMXMXMXMXMXMXGXGXGXGXGXGXGXGXGXGXGXGXGXGXGXGXGXGXGXGXGXGXGXGXGXGXGXKXMXMXMXMXMXMXMXMXMXMXMXMXMXMXMXMXMXMXMXMXMXMXMXMXMXMXMXGXGXGXGXGXGXGXGXGXGXGXGXGXGXGXGX",
"GXGXGXGXGXGXGXGXGXGXGXGXGXGXGXGXGXGXGXGXGXGXGXGXGXGXGXKXMXMXMXMXMXMXMXMXMXMXMXMXMXMXMXMXMXMXMXMXMXMXMXMXDXMXDXGXGXGXGXGXGXGXGXGXGXGXGXGXGXGXGXGXGXGXGXGXGXGXGXGXGXGXKXMXMXMXAXMXMXMXMXMXMXMXMXMXMXMXMXMXMXMXMXMXMXMXMXDXMXMXGXGXGXGXGXGXGXGXGXGXGXGXGXGXGXGXGXGXGXGXGXGXHXFX;XQ.Q.W.K.F.m c M N B m x d i y p g a s { { { } |  . .6.6.6.9.7.0.p.d.s.s.s.s.s.s.z.l.l.l.M.M.M.M.m.N.B.C.C.C.C.C.C.C.C.V.V.^.^.^.^.^.^.^.^.^.^.^.^.^.V.V.V.V.^.C.B.C.B.B.B.B.N.N.m.v.v.b.b.b.b.b.k.g.f.a.a.p.p.8.8.9.9.4.O.O. .........o.o.a a a s p g d d x x x M M L L Y iXBXMXMXMXMXDXGXGXGXGXGXGXGXGXGXGXGXGXGXGXGXGXGXGXGXGXGXGXGXGXGXGXGXKXMXMXMXMXMXMXMXMXMXMXMXMXMXMXMXMXMXMXMXMXMXMXMXMXMXMXMXGXGXGXGXGXGXGXGXGXGXGXGXGXGXGXGXGXGXGXGXGXGXGXGXGXGXGXKXMXMXMXMXMXMXMXMXMXMXMXMXMXMXMXMXMXMXMXMXMXMXMXMXMXMXMXGXGXGXGXGXGXGXGXGXGXGXGXGXGXGXGX",
"GXGXGXGXGXGXGXGXGXGXGXGXGXGXGXGXGXGXGXGXGXGXGXGXGXGXGXKXMXMXMXMXMXMXMXMXMXMXMXMXMXMXMXMXMXMXMXMXMXMXMXMXDXMXDXGXGXGXGXGXGXGXGXGXGXGXGXGXGXGXGXGXGXGXGXGXGXGXGXGXGXGXKXMXMXMXMXMXMXMXMXMXMXMXMXMXMXMXMXMXMXMXMXMXMXMXMXDXMXMXGXGXGXGXGXGXGXGXGXGXGXGXGXGXGXGXGXGXGXGXHXHXHXFXXXXXQ.F.e.r.D.N M M M M x x d y y p a s { { { .... . .6.6.6.7.8.d.d.d.s.s.s.s.s.s.z.l.l.l.M.M.M.M.m.B.B.B.C.C.C.C.C.V.V.V.^.^.^.^.^.^.^.^.^.V.V.V.^.^.^.V.V.^.V.C.B.B.C.B.B.B.N.N.N.v.b.b.b.b.b.b.k.g.g.a.a.d.p.8.8.9.4.4.O.O. . ...o.o.o.o.a a s s p g d d d k x x M H L Y qXBXNXMXMXMXDXGXGXGXGXGXGXGXGXGXGXGXGXGXGXGXGXGXGXGXGXGXGXGXGXGXGXGXKXMXMXMXMXMXMXMXMXMXMXMXMXMXMXMXMXMXMXMXMXMXMXMXMXMXMXMXGXGXGXGXGXGXGXGXGXGXGXGXGXGXGXGXGXGXGXGXGXGXGXGXGXGXGXKXMXMXMXMXMXMXMXMXMXMXMXMXMXMXMXMXMXMXMXMXMXMXMXMXMXMXMXGXGXGXGXGXGXGXGXGXGXGXGXGXGXGXGX",
"GXGXGXGXGXGXGXGXGXGXGXGXGXGXGXGXGXGXGXGXGXGXGXGXGXGXGXKXMXMXMXMXMXMXMXMXMXMXMXMXMXMXMXMXMXMXMXMXMXMXMXMXDXMXMXGXGXGXGXGXGXGXGXGXGXGXGXGXGXGXGXGXGXGXGXGXGXGXGXGXGXGXKXMXMXMXMXMXMXMXMXMXMXMXMXMXMXMXMXMXMXMXMXMXMXMXMXDXMXMXGXGXGXGXGXGXGXGXGXGXGXGXGXGXGXGXGXGXGXGXGXFXHXVXXXXXD.D.P.H H N M x M m x d g p p p s a s { } } |  .O.3.4.4.7.8.0.p.d.s.s.j.s.s.s.z.j.l.l.l.M.M.M.m.B.B.B.B.B.B.C.V.V.V.V.^.V.^.^.^.^.^.^.^.^.^.V.V.^.^.V.V.V.V.V.C.C.C.C.C.B.N.N.N.n.v.c.x.b.x.x.k.g.f.a.a.a.p.i.8.8.9.9.4.O.O. .....o.{ a a a a a g d d d x x x x M M U U ,XBXBXMXMXMXDXGXGXGXGXGXGXGXGXGXGXGXGXGXGXGXGXGXGXGXGXGXGXGXGXGXGXGXKXMXMXMXMXMXMXMXMXMXMXMXMXMXMXMXMXMXMXMXMXMXMXMXMXMXMXMXGXGXGXGXGXGXGXGXGXGXGXGXGXGXGXGXGXGXGXGXGXGXGXGXGXGXGXKXMXMXMXMXMXMXMXMXMXMXMXMXMXMXMXMXMXMXMXMXMXMXMXMXMXMXMXGXGXGXGXGXGXGXGXGXGXGXGXGXGXGXGX",
"GXGXGXGXGXGXGXGXGXGXGXGXGXGXGXGXGXGXGXGXGXGXGXGXGXGXGXKXMXMXMXMXMXMXMXMXMXMXMXMXMXMXMXMXMXMXMXMXMXMXMXMXDXMXMXGXGXGXGXGXGXGXGXGXGXGXGXGXGXGXGXGXGXGXGXGXGXGXGXGXGXGXKXMXMXMXMXMXMXMXMXMXMXMXMXMXMXMXMXMXMXMXMXMXMXMXMXDXMXMXGXGXGXGXGXGXGXGXGXGXGXGXGXGXGXGXGXGXGXHXGXFXFXmX.X.XH.H.P.H H M M x m m x d g p p p a a s { } } |  .3.3.4.5.7.8.0.p.d.d.s.s.s.s.s.j.j.l.l.l.M.M.M.M.M.m.B.B.B.B.V.V.V.V.V.^.V.^.^.^.^.^.^.^.^.V.V.V.V.V.V.V.V.V.V.C.C.C.C.C.B.N.N.N.v.v.c.x.c.x.x.k.g.f.a.a.a.a.i.8.8.7.9.4.O.O.....} { { a a a a a g d d d x x x x M M Y U -XVXBXMXMXMXDXGXGXGXGXGXGXGXGXGXGXGXGXGXGXGXGXGXGXGXGXGXGXGXGXGXGXGXKXMXMXMXMXMXMXMXMXMXMXMXMXMXMXMXMXMXMXMXMXMXMXMXMXMXMXMXGXGXGXGXGXGXGXGXGXGXGXGXGXGXGXGXGXGXGXGXGXGXGXGXGXGXGXKXMXMXMXMXMXMXMXMXMXMXMXMXMXMXMXMXMXMXMXMXMXMXMXMXMXMXMXGXGXGXGXGXGXGXGXGXGXGXGXGXGXGXGX",
"GXGXGXGXGXGXGXGXGXGXGXGXGXGXGXGXGXGXGXGXGXGXGXGXGXGXGXKXMXMXMXMXMXMXMXMXMXMXMXMXMXMXMXMXMXMXMXMXMXMXMXMXDXMXMXGXGXGXGXGXGXGXGXGXGXGXGXGXGXGXGXGXGXGXGXGXGXGXGXGXGXGXKXMXMXMXMXMXMXMXMXMXMXMXMXMXMXMXMXMXMXMXMXMXMXMXMXDXMXMXGXGXGXGXGXGXGXGXGXGXGXGXGXGXGXGXGXGXGXHXGXFXFXvXP.P.P.P.P.H N M M M m x x d g p p p a a a { { } |  .O.3.4.5.7.8.0.p.d.d.s.s.d.s.s.j.j.l.l.l.M.M.M.M.m.m.B.B.B.B.V.V.V.V.V.^.V.V.^.^.^.^.^.^.^.^.V.V.V.V.V.V.V.V.V.C.C.C.C.C.B.N.N.N.n.v.v.x.c.x.x.k.g.f.a.a.a.a.i.8.8.9.9.4.O.O.....} { { a a s a a g d d d x x x x B M H L #XVXBXMXMXMXDXGXGXGXGXGXGXGXGXGXGXGXGXGXGXGXGXGXGXGXGXGXGXGXGXGXGXGXKXMXMXMXMXMXMXMXMXMXMXMXMXMXMXMXMXMXMXMXMXMXMXMXMXMXMXMXGXGXGXGXGXGXGXGXGXGXGXGXGXGXGXGXGXGXGXGXGXGXGXGXGXGXGXKXMXMXMXMXMXMXMXMXMXMXMXMXMXMXMXMXMXMXMXMXMXMXMXMXMXMXMXGXGXGXGXGXGXGXGXGXGXGXGXGXGXGXGX",
"GXGXGXGXGXGXGXGXGXGXGXGXGXGXGXGXGXGXGXGXGXGXGXGXGXGXGXKXMXMXMXMXMXMXMXMXMXMXMXMXMXMXMXMXMXMXMXMXMXMXMXMXDXMXMXGXGXGXGXGXGXGXGXGXGXGXGXGXGXGXGXGXGXGXGXGXGXGXGXGXGXGXKXMXMXMXMXMXMXMXMXMXMXMXMXMXMXMXMXMXMXMXMXMXMXMXMXDXMXMXGXGXGXGXGXGXGXGXGXGXGXGXGXGXGXGXGXGXHXHXGXHXFXkXP.P.H.P.P.H N M M M m x d d p p p a a a a { { } |  .O.3.4.5.7.8.0.p.d.d.s.s.d.s.s.j.j.l.l.l.M.M.M.M.M.m.m.B.B.B.V.V.V.V.V.^.V.^.^.^.^.^.^.^.^.^.V.V.V.V.V.V.V.V.V.C.C.C.C.C.B.N.N.N.n.v.v.x.x.x.x.k.g.f.a.a.a.a.i.8.8.9.9.4.O.O.....} { { a a s a a s d d d d k x x M M H L P.VXBXMXMXMXDXGXGXGXGXGXGXGXGXGXGXGXGXGXGXGXGXGXGXGXGXGXGXGXGXGXGXGXKXMXMXMXMXMXMXMXMXMXMXMXMXMXMXMXMXMXMXMXMXMXMXMXMXMXMXMXGXGXGXGXGXGXGXGXGXGXGXGXGXGXGXGXGXGXGXGXGXGXGXGXGXGXGXKXMXMXMXMXMXMXMXMXMXMXMXMXMXMXMXMXMXMXMXMXMXMXMXMXMXMXMXGXGXGXGXGXGXGXGXGXGXGXGXGXGXGXGX",
"GXGXGXGXGXGXGXGXGXGXGXGXGXGXGXGXGXGXGXGXGXGXGXGXGXGXGXKXMXMXMXMXMXMXMXMXMXMXMXMXMXMXMXMXMXMXMXMXMXMXMXMXDXMXDXGXGXGXGXGXGXGXGXGXGXGXGXGXGXGXGXGXGXGXGXGXGXGXGXGXGXGXKXMXMXMXMXMXMXMXMXMXMXMXMXMXMXMXMXMXMXMXMXMXMXMXMXDXMXMXGXGXGXGXGXGXGXGXGXGXGXGXGXGXGXGXGXGXHXHXGXHXHXpXP.P.U P.H.H N M M M m x d d p p p a a a a { } } |  . .3.4.5.7.8.0.p.d.d.s.s.d.s.s.z.l.l.l.l.l.M.M.M.M.M.B.B.B.B.V.V.V.V.V.^.V.^.^.^.^.^.^.^.^.^.^.V.V.V.V.V.V.V.C.C.C.C.C.C.N.N.N.N.N.v.v.v.x.x.k.g.g.f.f.a.a.i.i.8.8.9.9.4.O.O. ...} { { a a s a a s d d d d x x x M N L G H.VXBXMXMXMXDXGXGXGXGXGXGXGXGXGXGXGXGXGXGXGXGXGXGXGXGXGXGXGXGXGXGXGXKXMXMXMXMXMXMXMXMXMXMXMXMXMXMXMXMXMXMXMXMXMXMXMXMXMXMXMXGXGXGXGXGXGXGXGXGXGXGXGXGXGXGXGXGXGXGXGXGXGXGXGXGXGXGXKXMXMXMXMXMXMXMXMXMXMXMXMXMXMXMXMXMXMXMXMXMXMXMXMXMXMXMXGXGXGXGXGXGXGXGXGXGXGXGXGXGXGXGX",
"GXGXGXGXGXGXGXGXGXGXGXGXGXGXGXGXGXGXGXGXGXGXGXGXGXGXGXKXMXMXMXMXMXMXMXMXMXMXMXMXMXMXMXMXMXMXMXMXMXMXMXMXDXMXDXGXGXGXGXGXGXGXGXGXGXGXGXGXGXGXGXGXGXGXGXGXGXGXGXGXGXGXKXMXMXMXMXMXMXMXMXMXMXMXMXMXMXMXMXMXMXMXMXMXMXMXMXDXMXMXGXGXGXGXGXGXGXGXGXGXGXGXGXGXGXGXGXGXHXHXGXHXHXeXP.P.U .XH.H N M x x m x d d p p p a a a s { } } |  . .3.4.5.7.7.8.0.p.d.s.s.s.s.z.z.j.l.l.l.l.l.c.M.M.M.B.B.B.B.V.V.V.V.^.^.V.V.^.^.^.^.^.^.^.^.^.^.V.V.V.V.V.V.C.C.V.C.C.C.N.N.N.N.N.v.v.c.x.x.k.g.g.f.f.a.a.i.i.i.7.9.4.4.O.O. ...} { { a a s a a s d d d d x x x M N N G U VXBXMXBXMXDXGXGXGXGXGXGXGXGXGXGXGXGXGXGXGXGXGXGXGXGXGXGXGXGXGXGXGXKXMXMXMXMXMXMXMXMXMXMXMXMXMXMXMXMXMXMXMXMXMXMXMXMXMXMXMXGXGXGXGXGXGXGXGXGXGXGXGXGXGXGXGXGXGXGXGXGXGXGXGXGXGXGXKXMXMXMXMXMXMXMXMXMXMXMXMXMXMXMXMXMXMXMXMXMXMXMXMXMXMXMXGXGXGXGXGXGXGXGXGXGXGXGXGXGXGXGX",
"GXGXGXGXGXGXGXGXGXGXGXGXGXGXGXGXGXGXGXGXGXGXGXGXGXGXGXKXMXMXMXMXMXMXMXMXMXMXMXMXMXMXMXMXMXMXMXMXMXMXMXMXDXMXDXGXGXGXGXGXGXGXGXGXGXGXGXGXGXGXGXGXGXGXGXGXGXGXGXGXGXGXKXMXMXMXMXMXMXMXMXMXMXMXMXMXMXMXMXMXMXMXMXMXMXMXMXDXMXMXGXGXGXGXGXGXGXGXGXGXGXGXGXGXGXGXGXGXHXHXGXFXFX2XH.P.U .XH.H N M x x m x d g p p p a a a s { } } |  . .3.4.5.7.7.0.0.p.d.s.s.s.s.z.j.j.l.l.l.l.l.M.c.M.M.B.B.B.B.V.V.V.V.V.^.V.V.^.^.^.^.^.^.^.^.^.^.V.V.V.V.V.V.V.C.V.V.C.B.N.N.N.N.N.v.v.c.x.x.k.g.f.f.f.a.a.i.i.i.8.7.9.4.O.O. .....{ { a a s a a g g d d d x x x M N N G G VXBXMXMXMXDXGXGXGXGXGXGXGXGXGXGXGXGXGXGXGXGXGXGXGXGXGXGXGXGXGXGXGXKXMXMXMXMXMXMXMXMXMXMXMXMXMXMXMXMXMXMXMXMXMXMXMXMXMXMXMXGXGXGXGXGXGXGXGXGXGXGXGXGXGXGXGXGXGXGXGXGXGXGXGXGXGXGXKXMXMXMXMXMXMXMXMXMXMXMXMXMXMXMXMXMXMXMXMXMXMXMXMXMXMXMXGXGXGXGXGXGXGXGXGXGXGXGXGXGXGXGX",
"GXGXGXGXGXGXGXGXGXGXGXGXGXGXGXGXGXGXGXGXGXGXGXGXGXGXGXKXMXMXMXMXMXMXMXMXMXMXMXMXMXMXMXMXMXMXMXMXMXMXMXMXDXMXDXGXGXGXGXGXGXGXGXGXGXGXGXGXGXGXGXGXGXGXGXGXGXGXGXGXGXGXKXMXMXMXMXMXMXMXMXMXMXMXMXMXMXMXMXMXMXMXMXMXMXMXMXDXMXMXGXGXGXGXGXGXGXGXGXGXGXGXGXGXGXGXGXGXHXHXGXFXFX,XH.P.U .XY H B B x M x x d g p p p a a s s { } } |  . .O.4.5.7.7.0.0.0.p.s.s.s.s.s.j.j.l.l.l.l.l.M.c.M.M.B.B.B.B.B.V.V.V.V.^.V.V.^.^.^.^.^.^.^.^.^.^.V.V.V.V.V.V.C.C.V.V.C.B.N.N.N.N.N.v.v.c.x.x.k.g.f.f.f.a.a.i.i.i.8.9.4.4.O.O. ...} { { a a a a a g g d d d x x x M N N L G VXBXMXBXMXDXGXGXGXGXGXGXGXGXGXGXGXGXGXGXGXGXGXGXGXGXGXGXGXGXGXGXGXKXMXMXMXMXMXMXMXMXMXMXMXMXMXMXMXMXMXMXMXMXMXMXMXMXMXMXMXGXGXGXGXGXGXGXGXGXGXGXGXGXGXGXGXGXGXGXGXGXGXGXGXGXGXGXKXMXMXMXMXMXMXMXMXMXMXMXMXMXMXMXMXMXMXMXMXMXMXMXMXMXMXMXGXGXGXGXGXGXGXGXGXGXGXGXGXGXGXGX",
"GXGXGXGXGXGXGXGXGXGXGXGXGXGXGXGXGXGXGXGXGXGXGXGXGXGXGXKXMXMXMXMXMXMXMXMXMXMXMXMXMXMXMXMXMXMXMXMXMXMXMXMXDXMXDXGXGXGXGXGXGXGXGXGXGXGXGXGXGXGXGXGXGXGXGXGXGXGXGXGXGXGXKXMXMXMXMXMXMXMXMXMXMXMXMXMXMXMXMXMXMXMXMXMXMXMXMXDXMXMXGXGXGXGXGXGXGXGXGXGXGXGXGXGXGXGXGXGXHXHXHXHXFX.XP.P.H..XH.L N M M M x m d g p p p a a s { { } | |  .O.3.4.5.7.7.8.p.p.p.d.s.s.s.s.j.j.l.l.l.l.l.l.M.M.M.m.m.B.B.B.B.V.V.^.^.^.^.^.^.^.^.^.^.^.^.^.V.^.^.^.V.V.V.V.C.V.C.C.C.C.B.N.N.N.v.v.v.x.x.k.k.g.f.f.a.a.a.i.8.8.7.9.4.O.O. ...} { { a a a s s s g d d d x x x M B H H G vXBXNXMXMXDXGXGXGXGXGXGXGXGXGXGXGXGXGXGXGXGXGXGXGXGXGXGXGXGXGXGXGXKXMXMXMXMXMXMXMXMXMXMXMXMXMXMXMXMXMXMXMXMXMXMXMXMXMXMXMXGXGXGXGXGXGXGXGXGXGXGXGXGXGXGXGXGXGXGXGXGXGXGXGXGXGXGXKXMXMXMXMXMXMXMXMXMXMXMXMXMXMXMXMXMXMXMXMXMXMXMXMXMXMXMXGXGXGXGXGXGXGXGXGXGXGXGXGXGXGXGX",
"GXGXGXGXGXGXGXGXGXGXGXGXGXGXGXGXGXGXGXGXGXGXGXGXGXGXGXKXMXMXMXMXMXMXMXMXMXMXMXMXMXMXMXMXMXMXMXMXMXMXMXMXDXMXDXGXGXGXGXGXGXGXGXGXGXGXGXGXGXGXGXGXGXGXGXGXGXGXGXGXGXGXKXMXMXMXMXMXMXMXMXMXMXMXMXMXMXMXMXMXMXMXMXMXMXMXMXDXMXMXGXGXGXGXGXGXGXGXGXGXGXGXGXGXGXGXGXGXHXHXGXHXFXL.P.H.H.P.H.L N M M M m m d g p p p a a s { { } | |  .O.3.4.5.7.7.8.p.p.p.d.s.s.s.s.j.j.j.l.l.l.l.M.M.M.M.m.m.N.B.B.B.V.V.^.^.^.^.^.^.^.^.^.^.^.^.^.^.^.^.^.V.V.V.V.V.C.C.C.C.C.B.N.N.N.v.v.v.x.x.k.k.g.f.f.a.a.a.i.8.8.7.9.4.O.O. ...} { { a a a a s s g g d d x x x M B L L G zXBXNXMXMXDXGXGXGXGXGXGXGXGXGXGXGXGXGXGXGXGXGXGXGXGXGXGXGXGXGXGXGXKXMXMXMXMXMXMXMXMXMXMXMXMXMXMXMXMXMXMXMXMXMXMXMXMXMXMXMXGXGXGXGXGXGXGXGXGXGXGXGXGXGXGXGXGXGXGXGXGXGXGXGXGXGXGXKXMXMXMXMXMXMXMXMXMXMXMXMXMXMXMXMXMXMXMXMXMXMXMXMXMXMXMXGXGXGXGXGXGXGXGXGXGXGXGXGXGXGXGX",
"GXGXGXGXGXGXGXGXGXGXGXGXGXGXGXGXGXGXGXGXGXGXGXGXGXGXGXKXMXMXMXMXMXMXMXMXMXMXMXMXMXMXMXMXMXMXMXMXMXMXMXMXDXMXDXGXGXGXGXGXGXGXGXGXGXGXGXGXGXGXGXGXGXGXGXGXGXGXGXGXGXGXKXMXMXMXAXMXMXMXMXMXMXMXMXMXMXMXMXMXMXMXMXMXMXMXMXDXMXMXGXGXGXGXGXGXGXGXGXGXGXGXGXGXGXGXGXGXHXKXGXHXFXP.P.P.H.P.H.L L M M M m x d g p p p a a s { { } |  . .O.3.4.5.7.7.8.p.p.p.d.d.s.s.s.z.j.j.l.l.l.l.M.M.M.M.N.B.B.B.B.V.V.V.V.^.^.^.^.^.^.^.^.^.^.^.^.^.^.^.^.V.V.V.V.V.C.C.C.C.C.B.B.N.N.v.v.v.x.x.k.g.g.f.f.a.a.a.i.8.8.7.9.4.O.O. ...} { { { a a a s s g g d d x x x M B N G G pXBXNXMXMXDXGXGXGXGXGXGXGXGXGXGXGXGXGXGXGXGXGXGXGXGXGXGXGXGXGXGXGXKXMXMXMXMXMXMXMXMXMXMXMXMXMXMXMXMXMXMXMXMXMXMXMXMXMXMXMXGXGXGXGXGXGXGXGXGXGXGXGXGXGXGXGXGXGXGXGXGXGXGXGXGXGXGXKXMXMXMXMXMXMXMXMXMXMXMXMXMXMXMXMXMXMXMXMXMXMXMXMXMXMXMXGXGXGXGXGXGXGXGXGXGXGXGXGXGXGXGX",
"GXGXGXGXGXGXGXGXGXGXGXGXGXGXGXGXGXGXGXGXGXGXGXGXGXGXGXKXMXMXMXMXMXMXMXMXMXMXMXMXMXMXMXMXMXMXMXMXMXMXMXMXDXMXDXGXGXGXGXGXGXGXGXGXGXGXGXGXGXGXGXGXGXGXGXGXGXGXGXGXGXGXKXMXMXMXMXMXMXMXMXMXMXMXMXMXMXMXMXMXMXMXMXMXMXMXMXDXMXMXGXGXGXGXGXGXGXGXGXGXGXGXGXGXGXGXGXGXHXKXGXHXFXQ P.P.H.P.Y L L M M M m x d g p p p a a s { { } |  . .3.3.4.5.7.8.8.p.p.p.p.d.d.s.s.z.j.j.l.l.l.l.M.M.M.M.N.B.B.B.B.V.V.V.V.^.^.^.^.^.^.^.^.^.^.^.^.^.^.^.^.V.V.V.V.V.C.C.C.C.B.B.B.N.n.v.v.v.x.x.k.g.g.f.f.a.a.a.i.8.8.7.9.4.O.O. ...} { { { a a a s s g g d d x x x M B N G G eXVXNXMXMXDXGXGXGXGXGXGXGXGXGXGXGXGXGXGXGXGXGXGXGXGXGXGXGXGXGXGXGXKXMXMXMXMXMXMXMXMXMXMXMXMXMXMXMXMXMXMXMXMXMXMXMXMXMXMXMXGXGXGXGXGXGXGXGXGXGXGXGXGXGXGXGXGXGXGXGXGXGXGXGXGXGXGXKXMXMXMXMXMXMXMXMXMXMXMXMXMXMXMXMXMXMXMXMXMXMXMXMXMXMXMXGXGXGXGXGXGXGXGXGXGXGXGXGXGXGXGX",
"GXGXGXGXGXGXGXGXGXGXGXGXGXGXGXGXGXGXGXGXGXGXGXGXGXGXGXKXMXMXMXMXMXMXMXMXMXMXMXMXMXMXMXMXMXMXMXMXMXMXMXMXMXMXDXGXGXGXGXGXGXGXGXGXGXGXGXGXGXGXGXGXGXGXGXGXGXGXGXGXGXGXKXMXMXMXMXMXMXMXMXMXMXMXMXMXMXMXMXMXMXMXMXMXMXMXMXDXMXMXGXGXGXGXGXGXGXGXGXGXGXGXGXGXGXGXGXGXHXKXGXHXVXQ P.P.H.P.Y L N M M M x x d g p p p a a a { { } |  . .3.3.4.5.7.7.8.0.0.p.p.p.d.d.s.s.s.j.j.l.l.l.M.M.M.M.N.B.B.B.B.V.V.V.V.V.^.^.^.^.^.^.^.^.^.^.^.^.^.V.V.V.V.V.V.V.C.C.C.C.B.B.N.N.N.v.v.v.x.x.k.g.g.f.f.a.a.a.i.8.8.7.9.4.3.O. .....{ { { a a a s s g g d d x x x m B N L G ,XBXBXBXMXDXGXGXGXGXGXGXGXGXGXGXGXGXGXGXGXGXGXGXGXGXGXGXGXGXGXGXGXKXMXMXMXMXMXMXMXMXMXMXMXMXMXMXMXMXMXMXMXMXMXMXMXMXMXMXMXGXGXGXGXGXGXGXGXGXGXGXGXGXGXGXGXGXGXGXGXGXGXGXGXGXGXGXKXMXMXMXMXMXMXMXMXMXMXMXMXMXMXMXMXMXMXMXMXMXMXMXMXMXMXMXGXGXGXGXGXGXGXGXGXGXGXGXGXGXGXGX",
"GXGXGXGXGXGXGXGXGXGXGXGXGXGXGXGXGXGXGXGXGXGXGXGXGXGXGXKXMXMXMXMXMXMXMXMXMXMXMXMXMXMXMXMXMXMXMXMXMXMXMXMXMXMXMXGXGXGXGXGXGXGXGXGXGXGXGXGXGXGXGXGXGXGXGXGXGXGXGXGXGXGXKXMXMXMXMXMXMXMXMXMXMXMXMXMXMXMXMXMXMXMXMXMXMXMXMXDXMXMXGXGXGXGXGXGXGXGXGXGXGXGXGXGXGXGXGXGXHXHXGXHXvXQ P.P.P.P.Y N N M M M x d d g p p a a a a { { } |  . .3.3.4.5.7.7.8.0.p.p.p.p.d.d.d.s.s.j.j.l.l.l.M.M.M.M.N.B.B.B.V.V.V.V.V.V.^.^.^.^.^.^.^.^.^.^.^.^.^.V.V.V.V.V.V.V.C.C.C.C.B.N.N.N.N.v.v.v.x.x.k.g.g.f.f.a.a.a.i.8.8.7.9.4.O.O. ...| { { { a a a a s g g d d x x x x B N G L =XZXBXBXMXDXGXGXGXGXGXGXGXGXGXGXGXGXGXGXGXGXGXGXGXGXGXGXGXGXGXGXGXKXMXMXMXMXMXMXMXMXMXMXMXMXMXMXMXMXMXMXMXMXMXMXMXMXMXMXMXGXGXGXGXGXGXGXGXGXGXGXGXGXGXGXGXGXGXGXGXGXGXGXGXGXGXGXKXMXMXMXMXMXMXMXMXMXMXMXMXMXMXMXMXMXMXMXMXMXMXMXMXMXMXMXGXGXGXGXGXGXGXGXGXGXGXGXGXGXGXGX",
"GXGXGXGXGXGXGXGXGXGXGXGXGXGXGXGXGXGXGXGXGXGXGXGXGXGXGXKXMXMXMXMXMXMXMXMXMXMXMXMXMXMXMXMXMXMXMXMXMXMXMXMXDXMXDXGXGXGXGXGXGXGXGXGXGXGXGXGXGXGXGXGXGXGXGXGXGXGXGXGXGXGXKXMXMXMXMXMXMXMXMXMXMXMXMXMXMXMXMXMXMXMXMXMXMXMXMXDXMXMXGXGXGXGXGXGXGXGXGXGXGXGXGXGXGXGXGXGXHXHXFXHXzXP.P.P.P.P.H N L M M M x d d g p p a a a a { { } |  . .3.3.4.7.7.7.8.0.0.p.p.p.p.d.d.s.j.j.l.l.l.l.M.M.M.M.m.B.B.B.V.^.V.V.V.V.^.^.^.^.^.^.^.^.^.^.^.^.^.^.V.V.V.V.V.V.C.C.C.C.B.N.N.n.v.v.v.c.x.x.k.g.g.f.f.a.a.a.i.8.8.7.9.4.3.O. ...| } { a a a a a s g g d d x x x x B N G L #XZXBXBXMXDXGXGXGXGXGXGXGXGXGXGXGXGXGXGXGXGXGXGXGXGXGXGXGXGXGXGXGXKXMXMXMXMXMXMXMXMXMXMXMXMXMXMXMXMXMXMXMXMXMXMXMXMXMXMXMXGXGXGXGXGXGXGXGXGXGXGXGXGXGXGXGXGXGXGXGXGXGXGXGXGXGXGXKXMXMXMXMXMXMXMXMXMXMXMXMXMXMXMXMXMXMXMXMXMXMXMXMXMXMXMXGXGXGXGXGXGXGXGXGXGXGXGXGXGXGXGX",
"GXGXGXGXGXGXGXGXGXGXGXGXGXGXGXGXGXGXGXGXGXGXGXGXGXGXGXKXMXMXMXMXMXMXMXMXMXMXMXMXMXMXMXMXMXMXMXMXMXMXMXMXDXMXMXGXGXGXGXGXGXGXGXGXGXGXGXGXGXGXGXGXGXGXGXGXGXGXGXGXGXGXKXMXMXMXMXMXMXMXMXMXMXMXMXMXMXMXMXMXMXMXMXMXMXMXMXDXMXMXGXGXGXGXGXGXGXGXGXGXGXGXGXGXGXGXGXGXHXGXKXHXkXP.P.P.P.P.H N N M M m m f d g p p a a a a s { } |  .O.3.4.4.9.7.7.8.8.0.p.p.p.p.d.d.s.j.j.l.l.l.M.M.M.M.M.m.B.B.B.V.^.V.V.V.V.^.^.^.^.^.^.^.^.^.^.^.^.^.V.V.V.V.V.V.V.C.C.C.C.B.N.N.n.v.v.v.c.x.x.g.g.g.f.f.a.a.p.i.8.8.9.9.4.O.O. ...| } { a s a a a s g g d d x x x x B N N L .XVXBXBXMXDXGXGXGXGXGXGXGXGXGXGXGXGXGXGXGXGXGXGXGXGXGXGXGXGXGXGXGXKXMXMXMXMXMXMXMXMXMXMXMXMXMXMXMXMXMXMXMXMXMXMXMXMXMXMXMXGXGXGXGXGXGXGXGXGXGXGXGXGXGXGXGXGXGXGXGXGXGXGXGXGXGXGXKXMXMXMXMXMXMXMXMXMXMXMXMXMXMXMXMXMXMXMXMXMXMXMXMXMXMXMXGXGXGXGXGXGXGXGXGXGXGXGXGXGXGXGX",
"GXGXGXGXGXGXGXGXGXGXGXGXGXGXGXGXGXGXGXGXGXGXGXGXGXGXGXDXMXMXMXMXMXMXMXMXMXMXMXMXMXMXMXMXMXMXMXMXMXMXMXMXMXMXDXGXGXGXGXGXGXGXGXGXGXGXGXGXGXGXGXGXGXGXGXGXGXGXGXGXGXGXKXMXMXDXDXDXMXMXAXAXMXMXMXMXMXMXMXMXMXMXMXMXMXMXDXMXMXMXKXGXGXGXGXGXGXGXGXGXGXGXGXGXGXGXGXGXGXHXHXFX5XP.P.P.P.H.Y L M B M x m x d p p p a s a a s { } |  .O.3.4.9.9.7.7.8.0.0.0.p.p.p.d.s.s.j.j.l.l.l.M.c.M.c.M.B.B.B.B.V.V.V.V.V.V.V.V.^.^.^.^.^.V.V.V.V.V.V.V.V.V.V.V.V.V.C.C.C.C.B.N.N.N.v.v.v.x.x.x.x.g.g.f.a.a.a.p.i.8.8.9.9.4.O.O. ...} { { { s a s a s g g d d x x x M x N H G L.ZXBXBXMXDXGXGXGXGXGXGXGXGXGXGXGXGXGXGXGXGXGXGXGXGXGXGXGXGXGXGXGXKXMXMXMXMXMXMXMXMXMXMXMXMXMXMXMXMXMXMXMXMXMXMXMXMXMXMXKXGXGXGXKXGXGXGXGXGXGXGXGXGXGXGXGXGXGXGXGXGXGXGXKXGXGXGXDXMXMXMXMXMXMXMXMXMXMXMXMXMXMXMXMXMXMXMXMXMXMXMXMXMXMXMXKXGXGXGXGXGXGXGXGXGXGXGXGXGXGXGX",
"GXGXGXGXGXGXGXGXGXGXGXGXGXGXGXGXGXGXGXGXGXGXGXGXGXGXGXKXMXMXMXMXMXMXMXMXMXMXMXMXMXMXMXMXMXMXMXMXMXMXMXMXMXMXDXGXGXGXGXGXGXGXGXGXGXGXGXGXGXGXGXGXGXGXGXGXGXGXGXGXGXGXKXMXMXMXMXMXMXMXMXMXMXMXMXMXMXMXMXMXMXMXMXMXMXMXMXMXMXDXKXGXGXGXGXGXGXGXGXGXGXGXGXGXGXGXGXGXHXGXHXFX,XP.P.P.P.H.H L M M M x x x d p p p a s a a s { } |  .O.O.4.4.9.7.7.8.0.8.0.p.p.p.d.s.s.j.j.l.l.l.l.M.M.c.M.m.B.B.B.B.V.V.V.V.V.V.V.^.^.^.^.^.V.V.V.^.^.V.V.V.V.V.V.V.V.C.C.C.C.N.N.N.N.v.v.v.c.x.x.x.g.g.f.a.a.a.p.i.8.8.9.9.4.3.O. ...} { { { s a s a s g d d d x x x M M N H G U VXNXNXMXDXFXGXGXGXGXGXGXGXGXGXGXGXGXGXGXGXGXGXGXGXGXGXGXGXGXGXGXKXMXMXMXMXMXMXMXMXMXMXMXMXMXMXMXMXMXMXMXMXMXMXMXMXMXMXDXGXGXGXGXGXGXGXGXGXGXGXGXGXGXGXGXGXGXGXGXGXGXGXGXGXGXGXKXMXMXMXMXMXMXMXMXMXMXMXMXMXMXMXMXMXMXMXMXMXMXMXMXMXMXDXKXGXGXGXGXGXGXGXGXGXGXGXGXGXGXGX",
"KXKXKXKXKXKXKXKXKXKXKXKXKXKXKXKXKXKXKXKXKXKXKXKXGXGXGXKXDXDXDXDXDXDXDXDXDXDXDXDXDXDXDXDXDXDXDXDXDXMXMXDXDXDXDXKXKXKXKXKXKXKXKXKXKXKXKXKXKXKXKXKXKXKXKXKXKXKXKXKXKXKXKXDXDXDXDXMXDXDXDXDXDXDXDXDXDXDXDXDXDXDXDXDXDXDXDXMXDXKXKXKXKXKXKXKXKXKXKXKXKXKXKXKXKXKXKXKXHXKXFXZX:XP.P.P.P.H.H N M M m x m x d p p p a a a a s { } |  .3.O.4.4.9.9.7.8.8.0.0.p.p.p.p.s.s.j.j.j.l.l.l.M.M.c.M.m.B.B.B.B.V.V.V.V.V.V.V.V.V.^.^.^.^.^.^.^.^.V.V.V.V.V.V.V.V.C.C.C.C.N.N.n.v.n.v.v.v.x.x.x.x.g.f.a.a.a.p.i.8.8.9.9.4.4.O. ...| { { { a a s a s g d d x x x x x M N L G G ZXBXLXDXDXKXKXKXGXGXKXKXKXKXKXKXKXKXKXKXKXKXKXKXKXKXGXGXGXKXKXKXKXKXDXDXDXDXDXDXDXDXDXDXDXDXDXDXDXDXDXDXDXDXDXDXDXDXDXKXKXKXGXGXHXKXKXKXKXKXKXKXKXKXKXKXKXKXKXKXKXKXGXHXGXGXKXKXDXDXDXDXDXDXDXDXDXDXDXDXDXDXDXDXDXDXDXDXDXDXDXDXDXDXKXKXKXKXGXGXGXKXKXKXKXKXKXKXKXKXKX",
"DXDXDXDXDXDXDXDXDXDXDXDXDXDXDXDXDXDXDXDXDXDXDXDXMXDXKXKXKXGXGXGXGXGXGXGXGXGXGXGXGXGXGXGXGXGXGXGXGXGXKXKXGXKXKXKXDXDXLXLXDXDXDXDXDXDXDXDXDXDXDXDXDXDXDXDXDXDXDXDXLXDXKXKXKXKXKXKXGXGXGXGXGXGXGXGXGXGXGXGXGXGXGXGXKXKXKXGXGXKXDXMXDXDXDXDXDXDXDXDXDXDXDXDXDXDXDXLXLXLXDXVX%XP.P.P.P.H.H N N M m x m x d p p p a a a s { { } |  .3.O.4.4.9.9.7.8.8.8.0.p.p.p.d.s.s.j.j.j.j.l.l.M.M.c.M.m.m.B.B.B.V.V.V.V.V.V.V.V.V.^.^.^.^.^.^.^.^.^.^.V.V.V.V.V.V.C.C.V.C.N.N.n.v.N.v.v.v.c.x.x.x.g.f.a.a.p.p.i.8.8.7.9.4.3.O. ...| { { { a a a a s g d d d x x x x M N L L G FXKXHXKXKXKXDXDXDXMXDXDXDXDXDXDXDXDXDXLXDXDXDXDXDXDXDXKXDXDXDXDXKXGXGXGXGXGXGXGXGXGXGXGXGXGXGXGXGXGXGXGXGXGXGXGXGXGXGXKXDXMXDXDXDXDXDXLXDXDXDXDXDXDXDXLXDXDXDXDXDXDXDXDXDXKXKXKXKXKXGXGXGXGXGXGXGXGXGXGXGXGXGXGXGXGXGXGXGXGXGXGXGXGXKXKXDXDXDXDXDXMXDXLXDXDXDXDXDXDXDX",
"MXMXMXMXMXMXMXMXMXMXMXMXMXMXMXMXMXMXMXMXMXMXMXMXMXMXDXKXGXGXGXGXGXGXGXGXGXGXGXGXGXGXGXGXGXGXGXGXGXGXGXGXGXGXKXDXMXMXMXMXMXMXMXMXMXMXMXMXMXMXMXMXMXMXMXMXMXMXMXMXMXDXKXGXGXGXGXGXGXGXGXGXGXGXGXGXGXGXGXGXGXGXGXGXGXGXGXGXGXGXDXNXMXMXMXMXMXMXMXMXMXMXMXMXMXMXMXMXMXMXNXVX.XP.P.H.P.H.H L N M m m x d d p p p a a a a { { } |  .3.O.4.4.9.7.7.8.8.8.0.p.p.p.p.d.s.s.j.j.j.l.l.M.c.c.M.m.B.B.B.B.V.V.V.V.V.^.^.V.V.^.^.^.^.^.^.^.V.^.^.^.V.V.V.V.V.C.C.C.C.B.N.n.v.N.v.v.v.c.x.x.x.g.f.a.a.p.p.i.8.8.7.9.4.4.O. ...| } { { a a a a s g g d d x x x x M N L H Z ZXFXGXGXGXDXMXMXMXMXMXMXMXMXMXMXMXMXMXMXMXMXMXMXMXMXMXMXMXMXMXMXKXGXGXGXGXGXGXGXGXGXGXGXGXGXGXGXGXGXGXGXGXGXGXGXGXGXGXHXDXMXMXMXMXMXMXMXMXMXMXMXMXMXMXMXMXMXMXMXMXMXMXMXMXMXDXKXGXGXGXGXGXGXGXGXGXGXGXGXGXGXGXGXGXGXGXGXGXGXGXGXGXGXKXDXMXMXMXMXMXMXMXMXMXMXMXMXMXMXMX",
"MXMXMXMXMXMXMXMXMXMXMXMXMXMXMXMXMXMXMXMXMXMXMXMXMXMXDXKXGXGXGXGXGXGXGXGXGXGXGXGXGXGXGXGXGXGXGXGXGXGXGXGXGXGXKXDXMXMXMXMXMXMXMXMXMXMXMXMXMXMXMXMXMXMXMXMXMXMXMXMXMXMXKXGXGXGXGXGXGXGXGXGXGXGXGXGXGXGXGXGXGXGXGXGXGXGXGXGXGXGXKXMXMXMXMXMXMXMXMXMXMXMXMXMXMXMXMXMXAXLXBXVXL.H.P.H.P.H.H L N M m m c d d p p p a a a s { { } |  .O.O.4.4.7.7.7.8.8.0.0.p.p.p.d.s.s.s.j.j.j.l.l.c.M.c.M.m.m.B.B.B.V.V.V.V.V.^.^.^.^.^.^.^.^.^.^.^.^.^.^.^.V.V.V.V.V.C.C.C.C.B.N.N.m.v.v.v.v.c.x.x.g.g.f.a.a.p.p.i.8.8.9.9.4.4.O. ...| } { { a a a a s g g d d x x x x M B L L Z mXFXHXGXGXDXMXMXDXMXMXMXMXMXMXMXMXMXMXMXMXMXMXMXMXMXMXMXMXMXMXMXKXGXGXGXGXGXGXGXGXGXGXGXGXGXGXGXGXGXGXGXGXGXGXGXGXGXGXKXDXMXDXDXMXMXMXMXMXMXMXMXMXMXMXMXMXMXMXMXMXMXMXMXMXMXLXKXGXGXGXGXGXGXGXGXGXGXGXGXGXGXGXGXGXGXGXGXGXGXGXGXGXGXHXDXMXMXMXDXMXMXMXMXMXMXMXMXMXMXMX",
"MXMXMXMXMXMXMXMXMXMXMXMXMXMXMXMXMXMXMXMXMXMXMXMXLXMXDXKXGXGXGXGXGXGXGXGXGXGXGXGXGXGXGXGXGXGXGXGXGXGXGXGXGXGXKXDXMXMXMXMXMXMXMXMXMXMXMXMXMXMXMXMXMXMXMXMXMXMXMXMXMXDXKXGXGXKXGXGXGXGXGXGXGXGXGXGXGXGXGXGXGXGXGXGXGXGXHXHXGXKXKXMXMXMXMXMXMXMXMXMXMXMXMXMXMXMXMXMXLXDXBXmXP.H.P.H.P.H.L N N M x m c d d p p p a a a s { { } |  .O.O.4.4.9.7.8.8.8.0.p.p.p.d.d.s.s.s.j.j.j.l.l.c.c.c.m.m.m.B.B.B.V.V.V.V.V.^.^.^.^.^.^.^.^.^.^.^.^.^.^.^.^.V.V.V.V.C.C.C.C.B.N.N.N.v.v.v.c.x.x.x.g.g.f.a.a.p.p.i.8.8.8.9.4.4.O. . .| } { { a a a a a g g d d x x x x M B N L Z zXFXKXGXGXMXMXDXDXDXMXMXMXMXMXMXMXMXMXMXMXMXMXMXMXMXLXMXMXMXMXMXKXGXGXGXGXGXGXGXGXGXGXGXGXGXGXGXGXGXGXGXGXGXGXGXGXGXGXKXDXDXDXDXMXMXMXMXMXMXMXMXMXMXMXMXMXMXMXMXMXMXMXMXMXMXDXKXGXGXGXGXGXGXGXGXGXGXGXGXGXGXGXGXGXGXGXGXGXGXGXGXGXGXKXDXMXMXDXDXDXDXMXMXMXMXMXMXMXMXMX",
"MXMXMXMXMXMXMXMXMXMXMXMXMXMXMXMXMXMXMXMXMXMXMXMXMXMXMXKXGXGXGXGXGXGXGXGXGXGXGXGXGXGXGXGXGXGXGXGXGXGXGXGXGXGXKXDXMXMXMXMXMXMXMXMXMXMXMXMXMXMXMXMXMXMXMXMXMXMXMXMXMXDXKXGXGXGXGXGXGXGXGXGXGXGXGXGXGXGXGXGXGXGXGXGXGXGXGXGXGXHXDXMXMXMXMXMXMXMXMXMXMXMXMXMXMXMXMXMXMXDXNXmXQ H.P.H.P.H.L N M M x x c d d p p p a a a s { } |  .O.3.O.4.9.7.8.8.8.8.0.p.p.d.d.s.s.s.s.j.j.j.l.l.c.c.m.m.m.m.m.B.B.V.V.V.V.V.^.^.^.^.^.^.^.^.^.^.^.^.^.^.^.^.V.V.V.V.C.C.C.C.B.N.N.N.v.v.v.x.x.x.x.g.g.f.a.a.a.p.i.8.8.8.9.4.4.O. . .| } { { a a a a a g g d d x x x x x B H L G kXFXFXGXGXMXNXMXLXMXMXMXMXMXMXMXMXMXMXMXMXMXMXMXMXMXMXMXMXMXMXDXKXGXGXGXGXGXGXGXGXGXGXGXGXGXGXGXGXGXGXGXGXGXGXGXGXGXGXKXDXMXMXMXAXMXMXMXMXMXMXMXMXMXMXMXMXMXMXMXMXMXMXMXMXMXMXKXGXGXGXGXGXGXGXGXGXGXGXGXGXGXGXGXGXGXGXGXGXGXGXGXGXGXGXDXMXMXMXMXMXMXMXMXMXMXMXMXMXMXMX",
"MXMXMXMXMXMXMXMXMXMXMXMXMXMXMXMXMXMXMXMXMXMXMXMXMXMXDXKXGXGXGXGXGXGXGXGXGXGXGXGXGXGXGXGXGXGXGXGXGXGXGXGXGXGXGXMXMXMXMXMXMXMXMXMXMXMXMXMXMXMXMXMXMXMXMXMXMXMXMXMXMXMXKXGXGXGXGXGXGXGXGXGXGXGXGXGXGXGXGXGXGXGXGXGXGXGXGXGXGXGXMXMXMXMXMXMXMXMXMXMXMXMXMXMXMXMXMXMXLXNXDXzX~ H.P.H.P.Y L L M M m x x d g p p a a a a s { { }  .O.O.4.4.9.7.7.8.8.0.0.0.p.p.d.s.s.s.j.j.l.l.l.l.c.c.c.m.m.N.N.B.B.V.V.V.V.V.V.V.^.^.V.^.^.^.^.^.^.^.^.^.^.V.V.V.V.C.C.C.V.C.C.N.N.N.v.v.v.c.x.x.x.g.g.f.a.a.a.p.i.8.8.8.9.9.4.O. ...| } { { a a a a s s d d d x x x x M M L L G wXHXHXGXGXDXMXMXMXMXMXMXMXMXMXMXMXMXMXMXMXMXMXMXMXMXMXMXMXMXMXMXKXGXGXGXGXGXGXGXGXGXGXGXGXGXGXGXGXGXGXGXGXGXGXGXGXGXGXGXMXMXDXMXMXMXMXMXMXMXMXMXMXMXMXMXMXMXMXMXMXMXMXMXMXMXDXKXGXGXGXGXGXGXGXGXGXGXGXGXGXGXGXGXGXGXGXGXGXGXGXGXGXGXGXDXMXMXMXMXMXMXMXMXMXMXMXMXMXMXMX",
"MXMXMXMXMXMXMXMXMXMXMXMXMXMXMXMXMXMXMXMXMXMXMXMXMXMXDXKXGXGXGXGXGXGXGXGXGXGXGXGXGXGXGXGXGXGXGXGXGXGXGXGXGXGXGXMXMXMXMXMXMXMXMXMXMXMXMXMXMXMXMXMXMXMXMXMXMXMXMXMXMXMXKXGXGXGXGXGXGXGXGXGXGXGXGXGXGXGXGXGXGXGXGXGXGXGXGXGXGXGXMXMXMXMXMXMXMXMXMXMXMXMXMXMXMXMXMXMXAXMXZXkXP.H.P.H.P.Y L N M M m c x d g p p a a a a s { } |  .3.O.4.4.7.7.7.8.8.0.0.0.p.p.d.s.s.s.f.j.l.l.l.l.c.m.m.m.N.N.N.B.B.V.V.V.V.V.V.V.^.^.V.V.^.^.^.^.^.^.^.^.^.V.V.V.V.C.C.C.V.C.C.N.N.N.v.v.v.c.c.x.x.g.g.f.a.a.a.p.i.8.8.9.9.9.4.O. . .| } { { o.a a a s s d d d x x x x x B H L G qXFXHXGXGXDXMXMXMXMXMXMXMXMXMXMXMXMXMXMXMXMXMXMXMXMXMXMXMXMXMXMXKXGXGXGXGXGXGXGXGXGXGXGXGXGXGXGXGXGXGXGXGXGXGXGXGXGXGXGXMXMXDXMXMXMXMXMXMXMXMXMXMXMXMXMXMXMXMXMXMXMXMXMXMXMXDXKXGXGXGXGXGXGXGXGXGXGXGXGXGXGXGXGXGXGXGXGXGXGXGXGXGXGXGXDXMXDXMXMXMXMXMXMXMXMXMXMXMXMXMX",
"MXMXMXMXMXMXMXMXMXMXMXMXMXMXMXMXMXMXMXMXMXMXMXMXMXMXDXKXGXGXGXGXGXGXGXGXGXGXGXGXGXGXGXGXGXGXGXGXGXGXGXGXGXGXGXMXMXMXMXMXMXMXMXMXMXMXMXMXMXMXMXMXMXMXMXMXMXMXMXMXMXMXKXGXGXGXGXGXGXGXGXGXGXGXGXGXGXGXGXGXGXGXGXGXGXGXGXGXGXGXMXMXMXMXMXMXMXMXMXMXMXMXMXMXMXMXMXMXAXMXZXpXP.P.P.H.P.Y L N B m m c x d g p p a a s a { { } |  .O.O.4.9.7.7.7.7.8.0.0.0.p.p.d.s.s.s.f.j.k.k.l.c.c.m.m.M.N.N.N.B.C.V.V.V.V.V.V.V.^.^.V.V.^.^.^.^.^.^.^.^.^.V.V.V.V.C.C.C.V.C.C.N.N.N.v.v.v.c.c.x.x.g.g.g.a.a.a.p.i.8.8.9.9.4.4.O. .....} { { o.a a a a s d d d x x x x x B H H G ,XFXHXGXGXDXMXMXMXMXMXMXMXMXMXMXMXMXMXMXMXMXMXMXMXMXMXMXMXMXMXMXKXGXGXGXGXGXGXGXGXGXGXGXGXGXGXGXGXGXGXGXGXGXGXGXGXGXGXGXMXMXDXMXMXMXMXMXMXMXMXMXMXMXMXMXMXMXMXMXMXMXMXMXMXMXDXKXGXGXGXGXGXGXGXGXGXGXGXGXGXGXGXGXGXGXGXGXGXGXGXGXGXGXGXLXMXDXMXMXMXMXMXMXMXMXMXMXMXMXMX",
"MXMXMXMXMXMXMXMXMXMXMXMXMXMXMXMXMXMXMXMXMXMXMXMXMXMXDXKXGXGXGXGXGXGXGXGXGXGXGXGXGXGXGXGXGXGXGXGXGXGXGXGXGXGXGXMXMXMXMXMXMXMXMXMXMXMXMXMXMXMXMXMXMXMXMXMXMXMXMXMXMXMXKXGXGXGXGXGXGXGXGXGXGXGXGXGXGXGXGXGXGXGXGXGXGXGXGXGXGXGXMXMXMXMXMXMXMXMXMXMXMXMXMXMXMXMXMXMXAXMXZXqXP.P.P.H.P.H L N M M m c x d g p p a a s a { { } |  .O.O.4.7.9.7.7.7.0.0.0.0.p.p.d.s.s.s.f.j.j.k.l.c.c.m.m.m.N.N.N.B.C.V.V.V.V.V.V.V.^.^.V.V.^.^.^.^.^.^.^.V.V.V.V.V.V.V.C.C.V.C.C.N.N.N.v.v.v.c.c.x.x.g.g.g.a.a.a.p.p.i.8.8.9.4.4.O. .....} { { a a a a s s g d d d x x x x B N H G ;XFXHXGXGXDXMXMXMXMXMXMXMXMXMXMXMXMXMXMXMXMXMXMXMXMXMXMXMXMXMXMXKXGXGXGXGXGXGXGXGXGXGXGXGXGXGXGXGXGXGXGXGXGXGXGXGXGXGXGXMXMXDXMXMXMXMXMXMXMXMXMXMXMXMXMXMXMXMXMXMXMXMXMXMXMXDXKXGXGXGXGXGXGXGXGXGXGXGXGXGXGXGXGXGXGXGXGXGXGXGXGXGXGXGXLXMXDXMXMXMXMXMXMXMXMXMXMXMXMXMX",
"MXMXMXMXMXMXMXMXMXMXMXMXMXMXMXMXMXMXMXMXMXMXMXMXMXMXDXKXGXGXGXGXGXGXGXGXGXGXGXGXGXGXGXGXGXGXGXGXGXGXGXGXGXGXGXMXMXMXMXMXMXMXMXMXMXMXMXMXMXMXMXMXMXMXMXMXMXMXMXMXMXMXKXGXGXGXGXGXGXGXGXGXGXGXGXGXGXGXGXGXGXGXGXGXGXGXGXGXGXGXMXMXMXMXMXMXMXMXMXMXMXMXMXMXMXMXMXMXAXMXBX2XP.P.P.H.P.H L N M M m c d d g p p a a s a { { } |  .O.O.4.7.9.7.7.7.8.0.0.p.p.p.p.s.s.s.f.f.j.k.l.c.c.m.m.m.m.N.N.B.C.V.V.V.V.V.^.V.^.^.V.^.^.^.^.^.^.V.^.^.^.V.V.V.V.C.C.C.V.C.C.B.N.N.n.v.v.c.c.x.x.g.g.f.a.a.a.p.p.8.8.8.9.4.4.O.O. .....{ { { a a a a s g d d x x x x x B N H G .XFXHXGXGXDXMXMXMXMXMXMXMXMXMXMXMXMXMXMXMXMXMXMXMXMXMXMXMXMXMXMXKXGXGXGXGXGXGXGXGXGXGXGXGXGXGXGXGXGXGXGXGXGXGXGXGXGXGXGXMXMXDXMXMXMXMXMXMXMXMXMXMXMXMXMXMXMXMXMXMXMXMXMXMXMXDXKXGXGXGXGXGXGXGXGXGXGXGXGXGXGXGXGXGXGXGXGXGXGXGXGXGXGXGXDXMXDXMXMXMXMXMXMXMXMXMXMXMXMXMX",
"MXMXMXMXMXMXMXMXMXMXMXMXMXMXMXMXMXMXMXMXMXMXMXMXMXMXDXKXGXGXGXGXGXGXGXGXGXGXGXGXGXGXGXGXGXGXGXGXGXGXGXGXGXGXGXMXMXMXMXMXMXMXMXMXMXMXMXMXMXMXMXMXMXMXMXMXMXMXMXMXMXMXKXGXGXGXGXGXGXGXGXGXGXGXGXGXGXGXGXGXGXGXGXGXGXGXGXGXGXGXMXMXMXMXMXMXMXMXMXMXMXMXMXMXMXMXMXMXAXNXBX-XP.P.P.H.P.H L N M M m x d d g p p a a s a { { } |  .O.O.4.4.7.7.7.7.8.0.p.p.p.p.p.d.s.s.f.f.j.k.l.c.c.m.m.m.N.N.N.B.C.V.V.V.V.V.V.V.^.^.V.V.^.^.^.^.V.V.^.^.V.V.V.V.V.V.C.C.C.C.C.B.N.N.n.v.v.v.c.x.x.g.g.f.a.a.a.p.p.8.8.8.9.9.4.O.O. ...| { { { a a s a s g d d x x x x x B N L L L.FXHXGXGXDXMXMXMXMXMXMXMXMXMXMXMXMXMXMXMXMXMXMXMXMXMXMXMXMXMXMXKXGXGXGXGXGXGXGXGXGXGXGXGXGXGXGXGXGXGXGXGXGXGXGXGXGXGXGXMXMXDXMXMXMXMXMXMXMXMXMXMXMXMXMXMXMXMXMXMXMXMXMXMXMXDXKXGXGXGXGXGXGXGXGXGXGXGXGXGXGXGXGXGXGXGXGXGXGXGXGXGXGXGXDXMXDXMXMXMXMXMXMXMXMXMXMXMXMXMX",
"MXMXMXMXMXMXMXMXMXMXMXMXMXMXMXMXMXMXMXMXMXMXMXMXMXMXDXKXGXGXGXGXGXGXGXGXGXGXGXGXGXGXGXGXGXGXGXGXGXGXGXGXGXGXGXMXMXMXMXMXMXMXMXMXMXMXMXMXMXMXMXMXMXMXMXMXMXMXMXMXMXMXKXGXGXGXGXGXGXGXGXGXGXGXGXGXGXGXGXGXGXGXGXGXGXGXGXGXGXGXMXMXMXMXMXMXMXMXMXMXMXMXMXMXMXMXMXMXAXNXBX%XP.P.H.H.J.H N N B M m x d d g p p a a s a { { } |  .3.3.4.4.7.7.7.7.8.0.p.p.p.p.d.d.s.s.f.j.j.k.l.l.c.m.m.m.B.B.B.B.B.C.V.V.V.V.V.V.^.^.V.V.^.^.^.^.V.V.V.^.V.V.V.V.V.V.C.C.C.C.C.B.N.N.v.v.v.v.c.c.x.g.g.f.f.a.a.p.p.i.8.8.9.9.4.O.O. .....{ { { a a a a s g d d d x x x x B N H L Q FXHXGXGXDXMXMXMXMXMXMXMXMXMXMXMXMXMXMXMXMXMXMXMXMXMXMXMXMXMXMXKXGXGXGXGXGXGXGXGXGXGXGXGXGXGXGXGXGXGXGXGXGXGXGXGXGXGXGXMXMXDXMXMXMXMXMXMXMXMXMXMXMXMXMXMXMXMXMXMXMXMXMXMXMXDXKXGXGXGXGXGXGXGXGXGXGXGXGXGXGXGXGXGXGXGXGXGXGXGXGXGXGXGXDXMXDXMXMXMXMXMXMXMXMXMXMXMXMXMX",
"MXMXMXMXMXMXMXMXMXMXMXMXMXMXMXMXMXMXMXMXMXMXMXMXMXMXDXKXGXGXGXGXGXGXGXGXGXGXGXGXGXGXGXGXGXGXGXGXGXGXGXGXGXGXGXMXMXMXMXMXMXMXMXMXMXMXMXMXMXMXMXMXMXMXMXMXMXMXMXMXMXMXKXGXGXGXGXGXGXGXGXGXGXGXGXGXGXGXGXGXGXGXGXGXGXGXGXGXGXGXMXMXMXMXMXMXMXMXMXMXMXMXMXMXMXMXMXMXDXBXBX#XP.P.H.P.H.H N N B M m c d d g p p a a s a { { } |  .O.3.4.4.7.7.7.7.8.0.p.p.p.p.d.d.s.s.j.j.j.k.l.l.c.c.m.m.B.B.B.B.B.C.V.V.V.V.V.V.^.V.V.V.^.^.^.^.V.V.^.^.V.V.V.V.V.V.C.C.C.C.C.B.N.N.N.v.v.v.c.x.x.g.g.f.f.a.a.p.p.i.8.8.9.9.4.O.O.....| { { { a a a a s g d d x x x x x B N H L U FXHXGXGXDXMXMXMXMXMXMXMXMXMXMXMXMXMXMXMXMXMXMXMXMXMXMXMXMXMXMXKXGXGXGXGXGXGXGXGXGXGXGXGXGXGXGXGXGXGXGXGXGXGXGXGXGXGXGXMXMXDXMXMXMXMXMXMXMXMXMXMXMXMXMXMXMXMXMXMXMXMXMXMXMXDXKXGXGXGXGXGXGXGXGXGXGXGXGXGXGXGXGXGXGXGXGXGXGXGXGXGXGXGXDXMXDXMXMXMXMXMXMXMXMXMXMXMXMXMX",
"MXMXMXMXMXMXMXMXMXMXMXMXMXMXMXMXMXMXMXMXMXMXMXMXMXMXDXKXGXGXGXGXGXGXGXGXGXGXGXGXGXGXGXGXGXGXGXGXGXGXGXGXGXGXGXMXMXMXMXMXMXMXMXMXMXMXMXMXMXMXMXMXMXMXMXMXMXMXMXMXMXMXKXGXGXGXGXGXGXGXGXGXGXGXGXGXGXGXGXGXGXGXGXGXGXGXGXGXGXGXMXMXMXMXMXMXMXMXMXMXMXMXMXMXMXMXMXMXDXNXZXL.P.P.H.P.H.H G M B M x c d d g p p a a s s { } } |  .O.O.O.4.9.7.7.8.8.p.0.p.p.p.p.d.s.s.f.j.k.k.l.l.c.m.m.m.B.B.B.B.V.V.V.V.V.V.V.V.V.V.^.^.V.^.^.V.^.^.V.V.V.V.^.V.V.V.V.V.C.C.C.B.N.N.n.v.v.c.x.x.x.g.g.g.f.a.a.a.i.i.8.8.9.4.4.O.O. ...| } { { a a a a s g d d d d x x x M M H L L FXHXKXGXMXMXMXMXMXMXMXMXMXMXMXMXMXMXMXMXMXMXMXMXMXMXMXMXMXMXMXKXGXGXGXGXGXGXGXGXGXGXGXGXGXGXGXGXGXGXGXGXGXGXGXGXGXGXGXMXMXDXMXMXMXMXMXMXMXMXMXMXMXMXMXMXMXMXMXMXMXMXMXMXMXDXKXGXGXGXGXGXGXGXGXGXGXGXGXGXGXGXGXGXGXGXGXGXGXGXGXGXGXGXMXMXMXMXMXMXMXMXMXMXMXMXMXMXMXMX",
"MXMXMXMXMXMXMXMXMXMXMXMXMXMXMXMXMXMXMXMXMXMXMXMXMXMXDXKXGXGXGXGXGXGXGXGXGXGXGXGXGXGXGXGXGXGXGXGXGXGXGXGXGXGXGXMXMXMXMXMXMXMXMXMXMXMXMXMXMXMXMXMXMXMXMXMXMXMXMXMXMXMXKXGXGXGXGXGXGXGXGXGXGXGXGXGXGXGXGXGXGXGXGXGXGXGXGXGXGXGXMXMXMXMXMXMXMXMXMXMXMXMXMXMXMXMXMXMXDXNXVXL.P.P.H.P.H.H L M B M x c d d g p p a a s a { } } |  .O.O.O.4.9.7.7.8.8.p.p.p.p.d.s.s.s.s.j.j.k.k.l.c.c.c.m.m.B.B.B.B.V.V.V.V.V.V.V.V.V.V.^.^.V.^.V.V.^.^.^.^.V.^.^.V.V.V.V.V.C.C.C.C.B.N.n.v.v.c.x.x.x.g.g.g.f.a.a.a.i.i.8.8.9.4.4.O.O. ...| } { { a a a a s g g d d d x x x M M H L H VXHXKXGXMXMXMXMXMXMXMXMXMXMXMXMXMXMXMXMXMXMXMXMXMXMXMXMXMXMXMXKXGXGXGXGXGXGXGXGXGXGXGXGXGXGXGXGXGXGXGXGXGXGXGXGXGXGXGXMXMXDXMXMXMXMXMXMXMXMXMXMXMXMXMXMXMXMXMXMXMXMXMXMXMXDXKXGXGXGXGXGXGXGXGXGXGXGXGXGXGXGXGXGXGXGXGXGXGXGXGXGXGXGXMXMXDXMXMXMXMXMXMXMXMXMXMXMXMXMX",
"MXMXMXMXMXMXMXMXMXMXMXMXMXMXMXMXMXMXMXMXMXMXMXMXMXMXDXKXGXGXGXGXGXGXGXGXGXGXGXGXGXGXGXGXGXGXGXGXGXGXGXGXGXGXGXMXMXMXMXMXMXMXMXMXMXMXMXMXMXMXMXMXMXMXMXMXMXMXMXMXMXMXKXGXGXGXGXGXGXGXGXGXGXGXGXGXGXGXGXGXGXGXGXGXGXGXGXGXGXGXMXMXMXMXMXMXMXMXMXMXMXMXMXMXMXMXMXMXBXBXVXP.P.P.H.H.U H N M B M m c d d g p p a s { a { { } |  .O.O.O.4.9.7.7.8.8.p.p.p.s.s.s.s.s.j.j.j.k.l.l.c.c.M.m.B.B.B.B.B.V.V.V.V.^.^.^.^.^.^.V.^.V.V.V.V.^.^.^.^.V.V.V.V.V.V.V.V.C.C.C.C.B.N.n.v.v.v.x.x.x.k.g.g.f.a.a.a.i.i.8.8.9.9.4.4.O. ...| } { { a a a a s g g d d d x x x M M H L L mXHXKXGXMXMXMXMXMXMXMXMXMXMXMXMXMXMXMXMXMXMXMXMXMXMXMXMXMXMXMXKXGXGXGXGXGXGXGXGXGXGXGXGXGXGXGXGXGXGXGXGXGXGXGXGXGXGXGXMXMXDXMXMXMXMXMXMXMXMXMXMXMXMXMXMXMXMXMXMXMXMXMXMXMXDXKXGXGXGXGXGXGXGXGXGXGXGXGXGXGXGXGXGXGXGXGXGXGXGXGXGXGXGXDXMXDXMXMXMXMXMXMXMXMXMXMXMXMXMX",
"MXMXMXMXMXMXMXMXMXMXMXMXMXMXMXMXMXMXMXMXMXMXMXMXMXMXDXKXGXGXGXGXGXGXGXGXGXGXGXGXGXGXGXGXGXGXGXGXGXGXGXGXGXGXGXMXMXMXMXMXMXMXMXMXMXMXMXMXMXMXMXMXMXMXMXMXMXMXMXMXMXMXKXGXGXGXGXGXGXGXGXGXGXGXGXGXGXGXGXGXGXGXGXGXGXGXGXGXGXGXMXMXMXMXMXMXMXMXMXMXMXMXMXMXMXMXMXMXNXBXvX~ P.P.H.H.U H N M B M x c f d p p p a { a a { { } |  .O.O.O.4.9.7.8.8.0.p.p.p.s.s.s.s.s.j.j.j.k.l.c.c.c.M.m.B.B.B.V.V.V.V.V.^.^.^.^.^.^.^.V.V.V.V.V.V.^.^.^.^.V.V.V.V.V.V.V.V.V.C.C.C.B.N.n.v.v.v.x.x.x.k.g.g.f.f.a.a.i.i.8.8.9.9.4.4.O. ...| } { { a a a a s g g d d d x x x M M L L L bXHXKXGXMXMXMXMXMXMXMXMXMXMXMXMXMXMXMXMXMXMXMXMXMXMXMXMXMXMXMXKXGXGXGXGXGXGXGXGXGXGXGXGXGXGXGXGXGXGXGXGXGXGXGXGXGXGXGXMXMXDXMXMXMXMXMXMXMXMXMXMXMXMXMXMXMXMXMXMXMXMXMXMXMXDXKXGXGXGXGXGXGXGXGXGXGXGXGXGXGXGXGXGXGXGXGXGXGXGXGXGXGXGXDXMXDXMXMXMXMXMXMXMXMXMXMXMXMXMX",
"MXMXMXMXMXMXMXMXMXMXMXMXMXMXMXMXMXMXMXMXMXMXMXMXMXMXDXKXGXGXGXGXGXGXGXGXGXGXGXGXGXGXGXGXGXGXGXGXGXGXGXGXGXGXGXMXMXMXMXMXMXMXMXMXMXMXMXMXMXMXMXMXMXMXMXMXMXMXMXMXMXMXKXGXGXGXGXGXGXGXGXGXGXGXGXGXGXGXGXGXGXGXGXGXGXGXGXGXGXGXMXMXMXMXMXMXMXMXMXMXMXMXMXMXMXMXMXMXNXBXvXQ P.P.H.P.Y H M M M m c f f d p p p a s a a { { } |  .3.O.4.4.7.7.7.8.0.p.p.p.p.s.s.s.s.j.j.j.k.l.c.M.M.m.m.B.B.B.V.V.V.V.V.V.^.^.^.^.^.^.^.^.^.V.V.V.V.V.^.^.^.V.V.V.V.V.V.V.C.C.C.C.B.N.n.n.v.v.v.x.x.k.g.g.f.f.a.a.i.i.8.8.9.9.4.4.O. ...| } { { a a a a s g d d d d x x M M M L L H pXHXKXGXMXMXMXMXMXMXMXMXMXMXMXMXMXMXMXMXMXMXMXMXMXMXMXMXMXMXMXKXGXGXGXGXGXGXGXGXGXGXGXGXGXGXGXGXGXGXGXGXGXGXGXGXGXGXGXMXMXDXMXMXMXMXMXMXMXMXMXMXMXMXMXMXMXMXMXMXMXMXMXMXMXDXKXGXGXGXGXGXGXGXGXGXGXGXGXGXGXGXGXGXGXGXGXGXGXGXGXGXGXGXDXMXDXMXMXMXMXMXMXMXMXMXMXMXMXMX",
"MXMXMXMXMXMXMXMXMXMXMXMXMXMXMXMXMXMXMXMXMXMXMXMXMXMXDXKXGXGXGXGXGXGXGXGXGXGXGXGXGXGXGXGXGXGXGXGXGXGXGXGXGXGXGXMXMXMXMXMXMXMXMXMXMXMXMXMXMXMXMXMXMXMXMXMXMXMXMXMXMXMXKXGXGXGXGXGXGXGXGXGXGXGXGXGXGXGXGXGXGXGXGXGXGXGXGXGXGXGXMXMXMXMXMXMXMXMXMXMXMXMXMXMXMXMXMXMXNXBXkX~ P.P.H.P.H H M M M m c c d g p p p a { a a { { } |  .3.O.4.4.7.7.7.8.0.p.p.p.p.s.s.s.s.f.j.j.k.l.c.c.M.m.B.B.B.B.V.V.V.V.V.V.^.^.^.^.^.^.^.^.^.V.V.V.V.^.^.^.V.V.V.V.V.V.V.V.C.C.C.C.N.N.n.n.v.v.v.x.x.k.g.g.f.f.a.a.p.i.8.8.7.9.4.4.O. ...| } { { a a a a s g d d d d x x M M M L L H eXHXKXGXMXMXMXMXMXMXMXMXMXMXMXMXMXMXMXMXMXMXMXMXMXMXMXMXMXMXMXKXGXGXGXGXGXGXGXGXGXGXGXGXGXGXGXGXGXGXGXGXGXGXGXGXGXGXGXMXMXDXMXMXMXMXMXMXMXMXMXMXMXMXMXMXMXMXMXMXMXMXMXMXMXDXKXGXGXGXGXGXGXGXGXGXGXGXGXGXGXGXGXGXGXGXGXGXGXGXGXGXGXGXDXMXDXMXMXMXMXMXMXMXMXMXMXMXMXMX",
"MXMXMXMXMXMXMXMXMXMXMXMXMXMXMXMXMXMXMXMXMXMXMXMXMXMXDXKXGXGXGXGXGXGXGXGXGXGXGXGXGXGXGXGXGXGXGXGXGXGXGXGXGXGXGXMXMXMXMXMXMXMXMXMXMXMXMXMXMXMXMXMXMXMXMXMXMXMXMXMXMXMXKXGXGXGXGXGXGXGXGXGXGXGXGXGXGXGXGXGXGXGXGXGXGXGXGXGXGXGXMXMXMXMXMXMXMXMXMXMXMXMXMXMXMXMXMXMXNXBXuXP.P.P.Y P.H L M M B m c c d g p p p a s a { { } } |  .3.O.4.4.7.7.7.8.0.p.p.p.p.s.s.s.s.s.j.j.k.l.c.c.m.m.B.B.V.V.V.V.V.V.V.V.V.^.^.^.V.V.^.^.V.V.V.V.^.^.^.^.V.V.V.V.V.V.V.C.C.C.C.B.N.N.n.n.v.v.v.x.x.k.g.g.f.f.a.a.p.i.i.8.9.9.4.4.O. ...| } { { a a a a g g g d d d x x M M M L L H eXHXHXGXNXMXMXMXMXMXMXMXMXMXMXMXMXMXMXMXMXMXMXMXMXMXMXMXMXMXMXKXGXGXGXGXGXGXGXGXGXGXGXGXGXGXGXGXGXGXGXGXGXGXGXGXGXGXGXMXMXDXMXMXMXMXMXMXMXMXMXMXMXMXMXMXMXMXMXMXMXMXMXMXMXDXKXGXGXGXGXGXGXGXGXGXGXGXGXGXGXGXGXGXGXGXGXGXGXGXGXGXGXGXMXMXMXMXMXMXMXMXMXMXMXMXMXMXMXMX",
"MXMXMXMXMXMXMXMXMXMXMXMXMXMXMXMXMXMXMXMXMXMXMXMXMXMXDXKXGXGXGXGXGXGXGXGXGXGXGXGXGXGXGXGXGXGXGXGXGXGXGXGXGXGXGXMXMXMXMXMXMXMXMXMXMXMXMXMXMXMXMXMXMXMXMXMXMXMXMXMXMXMXKXGXGXGXGXGXGXGXGXGXGXGXGXGXGXGXGXGXGXGXGXGXGXGXGXGXGXGXMXMXMXMXMXMXMXMXMXMXMXMXMXMXMXMXMXMXNXBXwXP.P.P.Y P.H G M M B m c c d g p p p a s a { { } } |  .3.O.4.9.7.7.8.8.0.p.p.p.p.s.s.s.s.j.j.j.k.l.c.c.m.m.B.B.V.V.V.V.V.V.V.V.V.^.^.V.V.V.^.^.V.V.V.V.^.^.^.^.V.V.V.V.V.V.V.C.C.C.C.B.N.N.n.n.v.v.v.x.x.k.g.g.f.f.a.a.i.i.i.8.9.9.4.4.O. ...| } { { o.a a a s s g d d d x x M M N L L L ,XHXKXGXNXMXMXMXMXMXMXMXMXMXMXMXMXMXMXMXMXMXMXMXMXMXMXMXMXMXMXKXGXGXGXGXGXGXGXGXGXGXGXGXGXGXGXGXGXGXGXGXGXGXGXGXGXGXGXMXMXDXMXMXMXMXMXMXMXMXMXMXMXMXMXMXMXMXMXMXMXMXMXMXMXDXKXGXGXGXGXGXGXGXGXGXGXGXGXGXGXGXGXGXGXGXGXGXGXGXGXGXGXGXMXMXMXMXMXMXMXMXMXMXMXMXMXMXMXMX",
"MXMXMXMXMXMXMXMXMXMXMXMXMXMXMXMXMXMXMXMXMXMXMXMXDXMXDXKXGXGXGXGXGXGXGXGXGXGXGXGXGXGXGXGXGXGXGXGXGXGXGXGXKXGXGXMXMXMXMXMXMXMXMXMXMXMXMXMXMXMXMXMXMXMXMXMXMXMXMXMXMXDXKXGXGXGXGXGXGXGXGXGXGXGXGXGXGXGXGXGXGXGXGXGXGXGXGXGXGXGXDXMXMXMXMXMXMXMXMXMXMXMXMXMXMXMXMXMXNXBX1XL.P.P.H.P.H L M M M m m f d g p p a a a { { { } }  . .3.4.4.9.7.7.8.0.p.p.d.d.s.s.s.s.j.j.j.k.l.l.c.c.m.m.N.N.B.V.V.V.V.V.V.^.^.^.^.V.^.^.^.^.^.^.^.^.^.V.^.^.^.V.V.V.V.V.C.C.C.C.C.B.B.B.N.n.v.c.x.x.x.k.g.g.f.a.a.a.a.p.i.8.8.9.4.O.O.O. ...| { { { a a a s s g d d d x x M x M H N H .XHXGXKXDXMXMXDXDXMXMXMXMXMXMXMXMXMXMXMXMXMXMXMXMXMXMXMXMXMXDXKXGXGXGXGXGXGXGXGXGXGXGXGXGXGXGXGXGXGXGXGXGXGXGXGXGXGXKXDXMXMXMXMXDXMXMXMXMXMXMXMXMXMXMXMXMXMXMXMXMXMXDXAXMXMXKXGXGXGXGXGXGXGXGXGXGXGXGXGXGXGXGXGXGXGXGXGXGXGXGXGXGXGXLXMXDXMXMXMXLXMXMXMXMXMXMXMXMXMX",
"MXMXMXMXMXMXMXMXMXMXMXMXMXMXMXMXMXMXMXMXMXMXMXMXMXMXMXKXGXGXGXGXGXGXGXGXGXGXGXGXGXGXGXGXGXGXGXGXGXGXGXGXGXGXGXDXMXMXMXMXMXMXMXMXMXMXMXMXMXMXMXMXMXMXMXMXMXMXMXMXMXDXKXGXGXGXGXGXGXGXGXGXGXGXGXGXGXGXGXGXGXGXGXGXGXGXGXGXGXGXDXMXMXMXMXMXMXMXMXMXMXMXMXMXMXMXMXMXBXBX:XP.P.P.H.J.H L M M M m m x d g p p a a { { { { } }  . .O.O.4.9.7.7.7.0.p.p.p.p.p.d.s.s.s.j.j.k.k.l.c.c.m.m.N.B.B.V.V.V.V.V.V.V.^.^.V.V.^.^.^.^.^.^.^.^.^.^.^.^.^.V.V.V.V.V.C.C.C.C.C.B.B.B.N.n.v.c.x.x.x.k.k.g.f.f.a.a.a.p.i.8.8.9.4.O.O.O. ...} { { { a a s s s g d d d x x M M M H N H .XHXGXKXDXMXMXMXMXMXMXMXMXMXMXMXMXMXMXMXMXMXMXMXMXMXMXMXMXMXDXKXGXGXGXGXGXGXGXGXGXGXGXGXGXGXGXGXGXGXGXGXGXGXGXGXGXGXKXDXMXMXMXMXMXMXMXMXMXMXMXMXMXMXMXMXMXMXMXMXMXMXDXDXMXMXKXGXGXGXGXGXGXGXGXGXGXGXGXGXGXGXGXGXGXGXGXGXGXGXGXGXGXGXMXMXDXMXMXMXMXMXMXMXMXMXMXMXMXMX",
"MXMXMXMXMXMXMXMXMXMXMXMXMXMXMXMXMXMXMXMXMXMXMXMXMXMXMXKXGXGXGXGXGXGXGXGXGXGXGXGXGXGXGXGXGXGXGXGXGXGXGXGXHXGXGXLXMXMXMXMXMXMXMXMXMXMXMXMXMXMXMXMXMXMXMXMXMXMXMXMXMXDXKXGXGXGXGXGXGXGXGXGXGXGXGXGXGXGXGXGXGXGXGXGXGXGXGXGXGXHXDXMXMXMXMXMXMXMXMXMXMXMXMXMXMXMXMXMXBXBX&XP.P.P.H.H.H N M M M m m f d g p p a a { { { { { }  . .O.O.4.9.7.7.7.0.p.p.p.p.p.p.d.s.s.j.j.k.k.l.c.c.m.m.N.B.B.B.C.V.V.V.V.V.^.^.V.V.V.^.^.^.^.^.^.^.V.V.^.^.V.V.V.V.V.V.C.C.C.C.C.B.B.N.N.n.v.c.x.x.x.k.k.g.f.f.a.a.a.p.i.8.8.9.4.O.O.O. .....{ { { a a s s s g d d d x x M M M H N H P.HXGXHXDXMXMXMXMXMXMXMXMXMXMXMXMXMXMXMXMXMXMXMXMXMXMXDXDXMXLXKXGXGXGXGXGXGXGXGXGXGXGXGXGXGXGXGXGXGXGXGXGXGXGXGXGXGXKXDXMXMXDXMXMXMXMXMXMXMXMXMXMXMXMXMXMXMXMXMXMXMXDXDXMXDXKXGXGXGXGXGXGXGXGXGXGXGXGXGXGXGXGXGXGXGXGXGXGXGXGXGXGXGXMXMXDXMXMXMXMXMXMXMXMXMXMXMXMXMX",
"MXMXMXMXMXMXMXMXMXMXMXMXMXMXMXMXMXMXMXMXMXMXMXMXDXMXMXKXGXGXGXGXGXGXGXGXGXGXGXGXGXGXGXGXGXGXGXGXGXGXGXGXGXGXHXMXMXMXMXMXMXMXMXMXMXMXMXMXMXMXMXMXMXMXMXMXMXMXMXMXMXDXKXGXGXGXGXGXGXGXGXGXGXGXGXGXGXGXGXGXGXGXGXGXGXGXKXGXGXGXDXMXMXMXMXMXMXMXMXMXMXMXMXMXMXMXMXMXBXBX#XP..XP.H.H.H N B M M m m f f g p p a a { { { { { }  . .O.O.4.9.7.7.7.0.p.p.p.p.p.p.d.s.s.j.j.k.k.l.c.c.m.M.N.B.B.B.C.V.V.^.V.V.V.V.V.V.V.^.^.^.^.V.V.V.V.V.^.^.V.V.V.V.V.V.C.C.C.C.C.B.B.N.N.n.v.v.v.c.x.k.k.g.f.f.a.a.a.p.i.i.8.9.4.O.O.O. ...} { { { a a s a s g d d d x x x x M N N H H.HXGXKXDXMXMXMXMXMXMXMXMXMXMXMXMXMXMXMXMXMXMXMXMXMXMXMXMXMXMXKXGXGXGXGXGXGXGXGXGXGXGXGXGXGXGXGXGXGXGXGXGXGXGXGXGXGXKXMXMXMXDXLXMXMXMXMXMXMXMXMXMXMXMXMXMXMXMXMXMXMXDXMXMXMXKXGXGXGXGXGXGXGXGXGXGXGXGXGXGXGXGXGXGXGXGXGXGXGXGXGXGXGXMXMXMXMXMXLXMXMXMXMXMXMXMXMXMXMX",
"MXMXMXMXMXMXMXMXMXMXMXMXMXMXMXMXMXMXMXMXMXMXMXMXLXMXDXKXGXGXGXGXGXGXGXGXGXGXGXGXGXGXGXGXGXGXGXGXGXGXGXGXGXGXKXMXMXMXMXMXMXMXMXMXMXMXMXMXMXMXMXMXMXMXMXMXMXMXMXMXMXDXKXGXGXGXGXGXGXGXGXGXGXGXGXGXGXGXGXGXGXGXGXGXGXGXGXGXGXGXDXMXMXMXMXMXMXMXMXMXMXMXMXMXMXMXMXMXBXBX.XP.P.H.H.H.H N M M M m m d f g p p a a { { { { { }  . .O.O.4.9.7.7.7.0.p.p.p.p.p.d.s.s.j.j.k.k.k.c.c.c.m.M.N.B.B.B.C.C.V.^.V.V.V.V.V.V.^.^.^.^.V.V.V.V.V.V.^.^.V.V.V.V.V.V.C.C.C.C.C.B.N.N.n.v.v.v.v.c.x.k.k.g.f.f.f.a.a.p.i.i.8.9.4.4.O.O. .....{ { { o.a s a s g g d d d x x M M N N H Y HXGXKXDXMXMXMXMXMXMXMXMXMXMXMXMXMXMXMXMXMXMXMXMXMXMXMXMXMXMXKXGXGXGXGXGXGXGXGXGXGXGXGXGXGXGXGXGXGXGXGXGXGXGXGXGXGXGXDXMXMXMXMXMXMXMXMXMXMXMXMXMXMXMXMXMXMXMXMXMXMXMXMXMXMXKXGXGXGXGXGXGXGXGXGXGXGXGXGXGXGXGXGXGXGXGXGXGXGXGXGXGXGXDXMXMXMXMXLXMXMXMXMXMXMXMXMXMXMX",
"MXMXMXMXMXMXMXMXMXMXMXMXMXMXMXMXMXMXMXMXMXMXMXMXLXLXDXKXGXGXGXGXGXGXGXGXGXGXGXGXGXGXGXGXGXGXGXGXGXKXGXGXGXGXKXDXMXMXMXMXMXMXMXMXMXMXMXMXMXMXMXMXMXMXMXMXMXMXMXMXMXDXKXGXGXGXGXGXGXGXGXGXGXGXGXGXGXGXGXGXGXGXGXGXGXGXGXGXGXKXDXMXMXMXMXMXMXMXMXMXMXMXMXMXMXMXMXBXBXZXL.P.P.Y H.H.L N M M M m c d f g p p a s { { { { { |  .O.3.4.4.9.7.7.7.0.p.p.p.p.d.s.s.z.j.j.k.k.l.c.c.c.m.M.N.B.B.B.C.C.V.V.V.V.V.V.V.V.^.^.^.^.V.V.^.^.V.V.^.^.V.V.V.V.V.V.C.C.C.C.C.B.N.N.n.v.v.v.v.v.x.k.k.g.f.f.f.a.a.p.i.i.8.9.4.4.O.O. .....{ { { a a s a s g d d d x x x M M N N H L FXGXKXKXDXDXDXMXMXMXMXMXMXMXMXMXMXMXMXMXMXMXMXMXDXDXAXMXMXDXKXGXGXGXGXGXGXGXGXGXGXGXGXGXGXGXGXGXGXGXGXGXGXGXGXGXGXGXKXDXAXLXMXMXMXMXMXMXMXMXMXMXMXMXMXMXMXMXMXMXLXMXMXMXDXKXGXGXGXGXGXGXGXGXGXGXGXGXGXGXGXGXGXGXGXGXGXGXGXGXGXGXKXDXDXDXMXMXDXMXMXMXMXMXMXMXMXMXMX",
"KXKXKXKXKXKXKXKXKXKXKXKXKXKXKXKXKXKXKXKXKXKXKXKXKXKXKXKXKXKXKXKXKXKXKXKXKXKXKXKXKXKXKXKXKXKXKXKXKXKXKXKXDXKXKXKXKXKXKXKXKXKXKXKXKXKXKXKXKXKXKXKXKXKXKXKXKXKXKXKXKXKXKXKXKXKXKXKXKXKXKXKXKXKXKXKXKXKXKXKXKXKXKXKXKXKXKXKXKXKXKXKXKXKXKXKXKXKXKXKXKXKXKXKXKXKXKXKXKXZXP.P..XY P.D.N B M M M m c d f g p p a s { a { { } .. .3.3.4.4.9.7.7.7.0.p.p.p.p.p.s.s.j.j.j.k.l.c.c.c.c.m.m.N.B.C.V.C.C.V.V.V.V.^.^.V.V.^.^.^.^.V.V.^.^.^.^.V.V.V.V.V.V.V.V.V.C.C.C.C.N.N.N.n.v.v.v.v.v.x.k.k.g.f.f.f.a.a.p.i.i.8.9.4.4.O.O. ...| { { { a a s a s s g d d d x x x M M N H G BXDXKXKXKXKXKXKXKXKXKXKXKXKXKXKXKXKXKXKXKXKXKXKXKXKXKXKXKXKXKXKXKXKXKXKXKXKXKXKXKXKXKXKXKXKXKXKXKXKXKXKXKXKXKXKXKXKXKXKXKXKXKXKXKXKXKXKXKXKXKXKXKXKXKXKXKXKXKXKXKXKXKXKXKXKXKXKXKXKXKXKXKXKXKXKXKXKXKXKXKXKXKXKXKXKXKXKXKXKXKXKXKXKXKXKXKXKXKXKXKXKXKXKXKXKXKXKXKX",
"GXGXGXGXGXGXGXGXGXGXGXGXGXGXGXGXGXGXGXGXGXGXGXGXGXGXGXKXMXMXMXMXMXMXMXMXMXMXMXMXMXMXMXMXMXMXMXMXDXMXMXMXMXMXKXKXGXGXGXGXGXGXGXGXGXGXGXGXGXGXGXGXGXGXGXGXGXGXGXGXGXGXKXDXMXMXMXMXMXMXMXMXMXMXMXMXMXMXMXMXMXMXMXMXMXMXMXMXMXDXGXGXGXGXGXGXGXGXGXGXGXGXGXGXGXGXGXGXFXZXQ P..XY P.Y N B M M B m c d f g p p a s { a { } } |  .6.3.4.4.9.7.7.7.0.p.p.p.p.d.s.s.j.j.j.k.l.c.c.c.v.m.m.N.B.C.V.V.V.V.V.V.^.^.^.^.^.^.^.^.^.V.V.^.^.^.^.V.V.V.V.V.V.V.V.V.C.C.C.B.N.N.n.n.v.v.v.b.c.x.x.k.g.g.f.f.a.a.a.i.8.8.9.4.4.O.O. ...| } { { { a a a s s g d d d x x M M M N H G vXMXKXKXGXGXGXGXGXGXGXGXGXGXGXGXGXGXGXGXGXGXGXGXGXGXGXGXGXGXKXDXMXMXMXMXMXMXMXMXMXMXMXMXMXMXMXMXMXMXMXMXMXMXMXMXMXDXKXGXGXGXGXGXGXGXGXGXGXGXGXGXGXGXGXGXGXGXGXGXGXGXGXGXGXKXDXMXMXMXMXMXMXMXMXMXMXMXMXMXMXMXMXMXMXMXMXMXMXMXMXMXKXKXGXGXGXGXGXGXGXGXGXGXGXGXGXGXGX",
"GXGXGXGXGXGXGXGXGXGXGXGXGXGXGXGXGXGXGXGXGXGXGXGXGXGXGXKXMXMXMXMXMXMXMXMXMXMXMXMXMXMXMXMXMXMXMXMXMXMXMXMXDXMXMXGXGXGXGXGXGXGXGXGXGXGXGXGXGXGXGXGXGXGXGXGXGXGXGXGXGXGXKXMXMXMXMXMXMXMXMXMXMXMXMXMXMXMXMXMXMXMXMXMXMXMXMXDXMXMXGXGXGXGXGXGXGXGXGXGXGXGXGXGXGXGXGXHXFXvX~ L.P.U H.H L N M M B B m d f g p p a s { a { } } |  .3.3.3.4.4.7.7.8.0.p.p.p.p.s.s.s.f.j.k.l.c.c.c.c.v.m.N.B.C.C.V.V.^.^.^.^.^.^.^.^.^.^.^.^.^.^.^.^.^.^.^.^.^.^.^.V.V.V.V.V.V.V.C.C.B.B.N.n.n.v.v.c.x.x.x.k.g.g.f.a.a.a.i.i.8.8.9.4.4.O.O. ...| } { { a a a s s g g d d x x x x M N N N G zXMXMXGXGXGXHXGXGXGXGXGXGXHXHXHXGXGXGXGXGXGXGXGXGXGXGXGXGXGXKXMXMXMXMXMXMXMXMXMXMXMXMXMXMXMXMXMXMXMXMXMXMXMXMXMXMXMXGXGXGXGXGXGXGXGXGXGXGXGXGXGXGXGXGXGXGXGXGXGXGXGXGXGXGXKXMXMXMXMXMXMXMXMXMXMXMXMXMXMXMXMXMXMXMXMXMXMXMXMXMXMXMXGXGXGXGXGXGXGXGXGXGXGXGXGXGXGXGX",
"GXGXGXGXGXGXGXGXGXGXGXGXGXGXGXGXGXGXGXGXGXGXGXGXGXGXGXKXMXMXMXMXMXMXMXMXMXMXMXMXMXMXMXMXMXMXMXMXMXMXMXMXDXMXMXGXGXGXGXGXGXGXGXGXGXGXGXGXGXGXGXGXGXGXGXGXGXGXGXGXGXGXKXMXMXMXMXMXMXMXMXMXMXMXMXMXMXMXMXMXMXMXMXMXMXMXMXDXMXMXGXGXGXGXGXGXGXGXGXGXGXGXGXGXGXGXGXHXFXbX~ P.P.U H.H L M M m B m c d f p p p s s s a { } | |  .3.3.3.4.4.7.7.8.0.p.p.p.d.s.s.f.j.j.k.k.c.b.c.v.m.m.N.B.C.C.V.V.^.^.^.^.^.^.^.^.^.^.^.^.^.^.^.^.^.^.^.^.^.^.^.V.V.V.V.V.V.V.C.C.B.N.N.n.n.v.v.c.x.x.x.x.g.g.f.a.a.a.i.i.8.8.7.4.4.O.O. .| | } { { a a a s f g g d d x x x M M N N N G kXNXMXGXGXGXGXGXGXGXGXGXHXHXHXHXGXGXGXGXGXGXGXGXGXGXGXGXGXGXKXMXMXMXMXMXMXMXMXMXMXMXMXMXMXMXMXMXMXMXMXMXMXMXMXMXMXMXGXGXGXGXGXGXGXGXGXGXGXGXGXGXGXGXGXGXGXGXGXGXGXGXGXGXGXKXMXMXMXMXMXMXMXMXMXMXMXMXMXMXMXMXMXMXMXMXMXMXMXMXMXMXMXGXGXGXGXGXGXGXGXGXGXGXGXGXGXGXGX",
"GXGXGXGXGXGXGXGXGXGXGXGXGXGXGXGXGXGXGXGXGXGXGXGXGXGXGXKXMXMXMXMXMXMXMXMXMXMXMXMXMXMXMXMXMXMXMXMXMXMXMXMXDXMXMXGXGXGXGXGXGXGXGXGXGXGXGXGXGXGXGXGXGXGXGXGXGXGXGXGXGXGXKXMXMXMXMXMXMXMXMXMXMXMXMXMXMXMXMXMXMXMXMXMXMXMXMXDXMXMXGXGXGXGXGXGXGXGXGXGXGXGXGXGXGXGXGXHXFXkXP.P.P.U H.H L N M m B m m d f p p p s s s a { } }  . .3.3.3.4.7.7.7.8.0.p.p.p.s.s.s.f.j.k.k.k.c.b.v.v.m.N.N.B.C.C.V.V.^.^.^.^.^.^.^.^.^.^.^.^.^.^.^.^.^.^.^.^.^.^.V.V.V.V.V.V.V.V.C.C.B.B.N.n.n.v.c.x.x.x.x.x.g.g.f.f.a.a.i.i.8.8.7.4.4.3.O. .| | } { { a a a s f g g d d d x x M M M N N L iXNXBXHXGXGXGXGXGXGXGXGXHXHXHXHXGXGXGXGXGXGXGXGXGXGXGXGXGXGXKXMXMXMXMXMXMXMXMXMXMXMXMXMXMXMXMXMXMXMXMXMXMXMXMXMXMXMXGXGXGXGXGXGXGXGXGXGXGXGXGXGXGXGXGXGXGXGXGXGXGXGXGXGXGXKXMXMXMXMXMXMXMXMXMXMXMXMXMXMXMXMXMXMXMXMXMXMXMXMXMXMXMXGXGXGXGXGXGXGXGXGXGXGXGXGXGXGXGX",
"GXGXGXGXGXGXGXGXGXGXGXGXGXGXGXGXGXGXGXGXGXGXGXGXGXGXGXKXMXMXMXMXMXMXMXMXMXMXMXMXMXMXMXMXMXMXMXMXMXMXMXMXDXMXMXGXGXGXGXGXGXGXGXGXGXGXGXGXGXGXGXGXGXGXGXGXGXGXGXGXGXGXKXMXMXMXMXMXMXMXMXMXMXMXMXMXMXMXMXMXMXMXMXMXMXMXMXDXMXMXGXGXGXGXGXGXGXGXGXGXGXGXGXGXGXGXGXHXFXwXL.L.P.U H.H L B M m B m m d f p p p s s s a { } |  . .3.3.3.4.7.7.7.8.0.p.p.p.s.s.s.j.j.k.k.k.l.b.v.m.m.N.N.B.C.C.V.V.^.^.^.V.^.^.^.^.^.^.^.^.^.^.^.^.^.^.^.^.^.^.V.V.V.V.V.V.V.V.C.C.B.B.N.n.n.v.c.c.x.x.x.x.g.g.f.a.a.a.i.i.8.8.9.9.4.3.O. .| | } { { a a a a s g g d d d x x x M M N H H 4XNXMXHXGXGXGXGXGXGXGXGXGXHXHXHXGXGXGXGXGXGXGXGXGXGXGXGXGXGXKXMXMXMXMXMXMXMXMXMXMXMXMXMXMXMXMXMXMXMXMXMXMXMXMXMXMXMXGXGXGXGXGXGXGXGXGXGXGXGXGXGXGXGXGXGXGXGXGXGXGXGXGXGXGXKXMXMXMXMXMXMXMXMXMXMXMXMXMXMXMXMXMXMXMXMXMXMXMXMXMXMXMXGXGXGXGXGXGXGXGXGXGXGXGXGXGXGXGX",
"GXGXGXGXGXGXGXGXGXGXGXGXGXGXGXGXGXGXGXGXGXGXGXGXGXGXGXKXMXMXMXMXMXMXMXMXMXMXMXMXMXMXMXMXMXMXMXMXMXMXMXMXDXMXDXGXGXGXGXGXGXGXGXGXGXGXGXGXGXGXGXGXGXGXGXGXGXGXGXGXGXGXKXMXMXMXMXMXMXMXMXMXMXMXMXMXMXMXMXMXMXMXMXMXMXMXMXDXMXMXGXGXGXGXGXGXGXGXGXGXGXGXGXGXGXGXGXHXFXeXP.P.P.U H.H L B M m m m m d f p p p s s s a { { |  .,.3.3.3.5.7.7.7.8.0.0.p.p.s.s.f.j.j.k.k.k.c.b.M.m.m.N.N.C.C.C.V.V.^.V.V.V.V.^.^.^.^.^.^.^.^.^.^.^.^.^.^.V.V.V.V.V.V.V.V.C.C.V.C.C.B.N.N.N.n.v.v.v.c.x.x.x.k.g.f.f.a.a.i.i.8.8.9.4.4.3.O. . .| } } { a a s a s g g d d d x x x M M N H L :XCXNXFXGXGXGXGXGXGXGXGXGXHXHXHXGXGXGXGXGXGXGXGXGXGXGXGXGXGXKXMXMXMXMXMXMXMXMXMXMXMXMXMXMXMXMXMXMXMXMXMXMXMXMXMXMXMXGXGXGXGXGXGXGXGXGXGXGXGXGXGXGXGXGXGXGXGXGXGXGXGXGXGXGXKXMXMXMXMXMXMXMXMXMXMXMXMXMXMXMXMXMXMXMXMXMXMXMXMXMXMXMXGXGXGXGXGXGXGXGXGXGXGXGXGXGXGXGX",
"GXGXGXGXGXGXGXGXGXGXGXGXGXGXGXGXGXGXGXGXGXGXGXGXGXGXGXKXMXMXMXMXMXMXMXMXMXMXMXMXMXMXMXMXMXMXMXMXMXMXMXMXDXMXDXGXGXGXGXGXGXGXGXGXGXGXGXGXGXGXGXGXGXGXGXGXGXGXGXGXGXGXKXMXMXMXMXMXMXMXMXMXMXMXMXMXMXMXMXMXMXMXMXMXMXMXMXDXMXMXGXGXGXGXGXGXGXGXGXGXGXGXGXGXGXGXGXHXFX;XP.P.P.U H.H N B M m m m m d f a p p a s s a { } |  .,.3.3.4.5.7.7.7.8.0.0.p.p.d.s.f.j.j.j.k.k.c.c.M.m.m.N.B.C.C.C.V.V.V.V.V.V.V.V.^.^.^.^.^.^.^.^.^.^.^.^.^.V.V.V.V.V.V.V.V.V.C.V.C.C.B.N.N.N.n.n.v.v.v.x.x.x.k.g.f.f.a.a.a.i.8.8.9.4.4.3.O. . .| } } { a a s a s g g d d d x x x M M N H H %XCXBXFXGXGXGXGXGXGXGXGXGXGXHXHXGXGXGXGXGXGXGXGXGXGXGXGXGXGXKXMXMXMXMXMXMXMXMXMXMXMXMXMXMXMXMXMXMXMXMXMXMXMXMXMXMXMXGXGXGXGXGXGXGXGXGXGXGXGXGXGXGXGXGXGXGXGXGXGXGXGXGXGXGXKXMXMXMXMXMXMXMXMXMXMXMXMXMXMXMXMXMXMXMXMXMXMXMXMXMXMXMXGXGXGXGXGXGXGXGXGXGXGXGXGXGXGXGX",
"GXGXGXGXGXGXGXGXGXGXGXGXGXGXGXGXGXGXGXGXGXGXGXGXGXGXGXKXMXMXMXMXMXMXMXMXMXMXMXMXMXMXMXMXMXMXMXMXMXMXMXMXDXMXDXGXGXGXGXGXGXGXGXGXGXGXGXGXGXGXGXGXGXGXGXGXGXGXGXGXGXGXKXMXMXMXAXMXMXMXMXMXMXMXMXMXMXMXMXMXMXMXMXMXMXMXMXDXMXMXGXGXGXGXGXGXGXGXGXGXGXGXGXGXGXGXGXHXFX;XP.P.P.U H.H N B M m m m f d f a p p a s s a { } |  .,.3.3.4.5.7.7.7.8.8.0.p.p.p.s.s.j.j.j.j.l.c.c.m.m.N.B.B.C.C.C.V.V.V.V.V.^.^.V.^.^.^.^.^.^.^.^.^.^.^.^.^.^.^.V.V.V.V.V.V.C.C.V.C.C.B.N.N.N.n.n.v.v.c.x.x.x.k.g.f.f.a.a.a.i.8.8.9.4.4.O.O. . .| } } { a a s a s f g d d d x x x M B N H H .XBXBXFXGXGXGXGXGXGXGXGXGXGXHXHXGXGXGXGXGXGXGXGXGXGXGXGXGXGXKXMXMXMXMXMXMXMXMXMXMXMXMXMXMXMXMXMXMXMXMXMXMXMXMXMXMXMXGXGXGXGXGXGXGXGXGXGXGXGXGXGXGXGXGXGXGXGXGXGXGXGXGXGXGXKXMXMXMXMXMXMXMXMXMXMXMXMXMXMXMXMXMXMXMXMXMXMXMXMXMXMXMXGXGXGXGXGXGXGXGXGXGXGXGXGXGXGXGX",
"GXGXGXGXGXGXGXGXGXGXGXGXGXGXGXGXGXGXGXGXGXGXGXGXGXGXGXKXMXMXMXMXMXMXMXMXMXMXMXMXMXMXMXMXMXMXMXMXMXMXMXMXDXMXDXGXGXGXGXGXGXGXGXGXGXGXGXGXGXGXGXGXGXGXGXGXGXGXGXGXGXGXKXMXMXMXMXMXMXMXMXMXMXMXMXMXMXMXMXMXMXMXMXMXMXMXMXDXMXMXGXGXGXGXGXGXGXGXGXGXGXGXGXGXGXGXGXHXFX.XP.P.P.U H.L N B M m m m f f f a p p a s s a { } |  .3.3.3.4.5.7.7.7.8.8.0.p.p.p.s.s.j.j.j.j.l.c.c.m.m.N.B.B.C.C.V.V.V.V.V.V.^.^.V.V.V.V.V.V.^.^.^.^.^.^.^.^.^.V.V.V.V.V.V.V.C.C.C.C.C.B.N.N.n.n.v.v.c.c.x.x.x.k.g.g.f.a.a.a.i.i.8.9.4.4.O.O. . .| } { { { a a s s s g d d d x x x M B N H H L.BXBXFXGXHXGXGXGXGXGXGXGXGXGXGXGXGXGXGXGXGXGXGXGXGXGXGXGXGXKXMXMXMXMXMXMXMXMXMXMXMXMXMXMXMXMXMXMXMXMXMXMXMXMXMXMXMXGXGXGXGXGXGXGXGXGXGXGXGXGXGXGXGXGXGXGXGXGXGXGXGXGXGXGXKXMXMXMXMXMXMXMXMXMXMXMXMXMXMXMXMXMXMXMXMXMXMXMXMXMXMXMXGXGXGXGXGXGXGXGXGXGXGXGXGXGXGXGX",
"GXGXGXGXGXGXGXGXGXGXGXGXGXGXGXGXGXGXGXGXGXGXGXGXGXGXGXKXMXMXMXMXMXMXMXMXMXMXMXMXMXMXMXMXMXMXMXMXMXMXMXMXDXMXDXGXGXGXGXGXGXGXGXGXGXGXGXGXGXGXGXGXGXGXGXGXGXGXGXGXGXGXKXMXMXMXMXMXMXMXMXMXMXMXMXMXMXMXMXMXMXMXMXMXMXMXMXDXMXMXGXGXGXGXGXGXGXGXGXGXGXGXGXGXGXGXGXHXFXP.P..XU H.H.N M M M m m m f f f p p a a a { { { } |  .3.3.3.4.7.4.9.0.q.0.8.p.p.p.s.s.j.j.j.j.l.c.c.m.m.N.N.B.C.C.V.V.V.^.^.^.^.^.V.^.^.^.^.^.^.^.^.^.^.^.V.V.^.^.V.V.V.V.V.V.V.V.V.C.C.B.B.B.N.n.v.v.c.x.x.x.x.k.g.g.f.a.a.a.p.i.8.8.9.4.4.O.O. .| } } { { a s s s s g f d d x x x M B N N H Q ZXNXHXGXFXGXGXGXGXGXGXGXGXGXGXGXGXGXGXGXGXGXGXGXGXGXGXGXGXKXMXMXMXMXMXMXMXMXMXMXMXMXMXMXMXMXMXMXMXMXMXMXMXMXMXMXMXGXGXGXGXGXGXGXGXGXGXGXGXGXGXGXGXGXGXGXGXGXGXGXGXGXGXGXKXMXMXMXMXMXMXMXMXMXMXMXMXMXMXMXMXMXMXMXMXMXMXMXMXMXMXMXGXGXGXGXGXGXGXGXGXGXGXGXGXGXGXGX",
"GXGXGXGXGXGXGXGXGXGXGXGXGXGXGXGXGXGXGXGXGXGXGXGXGXGXGXKXMXMXMXMXMXMXMXMXMXMXMXMXMXMXMXMXMXMXMXMXMXMXMXMXDXMXDXGXGXGXGXGXGXGXGXGXGXGXGXGXGXGXGXGXGXGXGXGXGXGXGXGXGXGXKXMXMXMXMXMXMXMXMXMXMXMXMXMXMXMXMXMXMXMXMXMXMXMXMXDXMXMXGXGXGXGXGXGXGXGXGXGXGXGXGXGXGXGXGXHXZXP.P..XU H.H.G M M M m m m f f f p p a a a { { { } |  .3.3.3.4.5.7.8.8.8.0.0.0.p.d.s.s.j.j.k.k.l.c.m.m.m.N.B.C.C.C.V.V.V.^.^.^.^.^.^.^.^.^.^.^.^.^.^.^.^.^.V.V.^.^.V.V.V.V.V.V.V.V.V.C.C.C.B.B.N.n.n.v.v.x.x.x.x.k.g.f.f.a.a.a.p.i.8.8.9.4.4.3.O. .| } } { { a s s s s g f d d x x x M B N N H U VXNXHXHXGXGXGXGXGXGXGXGXGXGXGXGXGXGXGXGXGXGXGXGXGXGXGXGXGXKXMXMXMXMXMXMXMXMXMXMXMXMXMXMXMXMXMXMXMXMXMXMXMXMXMXMXMXGXGXGXGXGXGXGXGXGXGXGXGXGXGXGXGXGXGXGXGXGXGXGXGXGXGXGXKXMXMXMXMXMXMXMXMXMXMXMXMXMXMXMXMXMXMXMXMXMXMXMXMXMXMXMXGXGXGXGXGXGXGXGXGXGXGXGXGXGXGXGX",
"GXGXGXGXGXGXGXGXGXGXGXGXGXGXGXGXGXGXGXGXGXGXGXGXGXGXGXKXMXMXMXMXMXMXMXMXMXMXMXMXMXMXMXMXMXMXMXMXMXMXMXMXDXMXDXGXGXGXGXGXGXGXGXGXGXGXGXGXGXGXGXGXGXGXGXGXGXGXGXGXGXGXKXMXMXMXMXMXMXMXMXMXMXMXMXMXMXMXMXMXMXMXMXMXMXMXMXDXMXMXGXGXGXGXGXGXGXGXGXGXGXGXGXGXGXGXGXHXVXP.P.P.H.H.U L M M M m m m f f f p p a a s { { { } .. .3.3.3.4.5.q.q.7.7.0.p.p.d.s.s.j.j.j.k.k.c.c.m.M.N.N.B.C.C.C.V.V.V.^.^.^.^.^.^.^.^.^.^.^.^.^.^.^.^.^.V.V.^.^.V.V.V.V.V.V.V.V.V.C.C.B.B.B.N.N.n.v.v.c.x.x.x.k.g.g.f.a.a.a.p.i.8.8.9.9.4.O.O. .| } } { { a s s s s g g d d x x x x M N N H G NXBXFXHXGXGXGXGXGXGXGXGXGXGXGXGXGXGXGXGXGXGXGXGXGXGXGXGXGXKXMXMXMXMXMXMXMXMXMXMXMXMXMXMXMXMXMXMXMXMXMXMXMXMXMXMXMXGXGXGXGXGXGXGXGXGXGXGXGXGXGXGXGXGXGXGXGXGXGXGXGXGXGXGXKXMXMXMXMXMXMXMXMXMXMXMXMXMXMXMXMXMXMXMXMXMXMXMXMXMXMXMXGXGXGXGXGXGXGXGXGXGXGXGXGXGXGXGX",
"GXGXGXGXGXGXGXGXGXGXGXGXGXGXGXGXGXGXGXGXGXGXGXGXGXGXGXKXMXMXMXMXMXMXMXMXMXMXMXMXMXMXMXMXMXMXMXMXMXMXMXMXDXMXDXGXGXGXGXGXGXGXGXGXGXGXGXGXGXGXGXGXGXGXGXGXGXGXGXGXGXGXKXMXMXMXMXMXMXMXMXMXMXMXMXMXMXMXMXMXMXMXMXMXMXMXMXDXMXMXGXGXGXGXGXGXGXGXGXGXGXGXGXGXGXGXGXHXVXH.P.P.H.H.Y L M M M m m m f f f p p a a s { { { } |  .O.3.4.4.7.q.0.7.7.0.p.p.s.s.s.j.j.j.l.l.c.c.c.M.m.N.B.B.C.C.V.V.V.^.^.^.^.^.^.^.^.^.^.^.^.^.^.^.^.^.V.V.^.^.V.V.V.V.V.V.V.V.V.V.C.C.B.B.N.N.n.v.v.c.x.x.x.k.g.g.f.f.a.a.a.i.i.8.9.9.4.O.O. .| | } { { a s s s s g g d d x x x x M B N H G vXVXKXHXHXKXGXHXHXGXGXGXGXGXGXGXGXGXGXGXGXGXGXGXGXGXGXGXGXKXMXMXMXMXMXMXMXMXMXMXMXMXMXMXMXMXMXMXMXMXMXMXMXMXMXMXMXGXGXGXGXGXGXGXGXGXGXGXGXGXGXGXGXGXGXGXGXGXGXGXGXGXGXGXKXMXMXMXMXMXMXMXMXMXMXMXMXMXMXMXMXMXMXMXMXMXMXMXMXMXMXMXGXGXGXGXGXGXGXGXGXGXGXGXGXGXGXGX",
"GXGXGXGXGXGXGXGXGXGXGXGXGXGXGXGXGXGXGXGXGXGXGXGXGXGXGXKXMXMXMXMXMXMXMXMXMXMXMXMXMXMXMXMXMXMXMXMXMXMXMXMXMXMXDXGXGXGXGXGXGXGXGXGXGXGXGXGXGXGXGXGXGXGXGXGXGXGXGXGXGXGXKXMXMXMXMXMXMXMXMXMXMXMXMXMXMXMXMXMXMXMXMXMXMXMXMXDXMXMXGXGXGXGXGXGXGXGXGXGXGXGXGXGXGXGXGXHXvXP.P.P.H.U H N B M m m m m f f f p p a a s { { } | |  .O.3.4.4.7.4.4.7.0.0.p.d.s.s.f.j.j.k.l.l.c.c.m.m.N.N.B.C.V.V.V.V.V.V.V.^.^.^.^.^.^.^.^.^.^.^.^.^.^.^.^.^.^.^.^.^.^.V.V.V.V.V.V.V.C.C.C.B.N.N.N.n.v.c.x.x.x.k.k.g.f.f.a.a.a.i.i.8.8.9.4.4.O. .| | } { { { s s a s g g d d d x x x M N N H G kXZXKXHXHXKXGXHXHXHXHXGXGXGXGXGXGXGXGXGXGXGXGXGXGXGXGXGXGXKXMXMXMXMXMXMXMXMXMXMXMXMXMXMXMXMXMXMXMXMXMXMXMXMXMXMXMXGXGXGXGXGXGXGXGXGXGXGXGXGXGXGXGXGXGXGXGXGXGXGXGXGXGXGXKXMXMXMXMXMXMXMXMXMXMXMXMXMXMXMXMXMXMXMXMXMXMXMXMXMXMXMXGXGXGXGXGXGXGXGXGXGXGXGXGXGXGXGX",
"GXGXGXGXGXGXGXGXGXGXGXGXGXGXGXGXGXGXGXGXGXGXGXGXGXGXGXKXMXMXMXMXMXMXMXMXMXMXMXMXMXMXMXMXMXMXMXMXMXMXMXMXMXMXMXGXGXGXGXGXGXGXGXGXGXGXGXGXGXGXGXGXGXGXGXGXGXGXGXGXGXGXKXMXMXMXMXMXMXMXMXMXMXMXMXMXMXMXMXMXMXMXMXMXMXMXMXDXMXMXGXGXGXGXGXGXGXGXGXGXGXGXGXGXGXGXGXHXkXP.P.P.H.U H B B M m m m m f f s p p a a s { { } | |  .O.3.4.4.7.4.O.7.0.0.0.d.s.s.f.j.j.l.l.l.c.c.m.m.B.B.C.V.V.V.V.V.V.V.V.^.^.^.^.^.^.^.^.^.^.^.^.^.^.^.^.V.^.^.^.^.^.^.V.V.V.V.V.V.V.C.C.B.N.N.N.n.v.v.c.x.x.k.k.g.g.f.a.a.a.p.i.8.8.9.4.4.O. .| | } { { { s s s s g g d d d x x x M N N H L eXVXFXFXGXHXGXHXHXHXHXGXGXGXGXGXGXGXGXGXGXGXGXGXGXGXGXGXGXKXMXMXMXMXMXMXMXMXMXMXMXMXMXMXMXMXMXMXMXMXMXMXMXMXMXMXMXGXGXGXGXGXGXGXGXGXGXGXGXGXGXGXGXGXGXGXGXGXGXGXGXGXGXGXKXMXMXMXMXMXMXMXMXMXMXMXMXMXMXMXMXMXMXMXMXMXMXMXMXMXMXMXGXGXGXGXGXGXGXGXGXGXGXGXGXGXGXGX",
"GXGXGXGXGXGXGXGXGXGXGXGXGXGXGXGXGXGXGXGXGXGXGXGXGXGXGXKXMXMXMXMXMXMXMXMXMXMXMXMXMXMXMXMXMXMXMXMXMXMXMXMXDXMXDXGXGXGXGXGXGXGXGXGXGXGXGXGXGXGXGXGXGXGXGXGXGXGXGXGXGXGXKXMXMXMXMXMXMXMXMXMXMXMXMXMXMXMXMXMXMXMXMXMXMXMXMXDXMXMXGXGXGXGXGXGXGXGXGXGXGXGXGXGXGXGXGXHXwXP..XP.U U H B B M m m m m m f s p p a a s } { } | |  .3.3.4.5.7.7.4.7.0.0.p.p.s.s.f.j.j.l.l.l.c.M.m.m.B.B.C.V.V.V.V.V.V.V.V.^.^.^.^.^.^.^.^.^.^.^.^.^.^.^.V.V.^.^.^.^.^.^.^.^.^.^.V.V.V.C.C.B.N.n.N.n.v.v.v.c.x.x.k.g.g.f.a.a.a.i.i.8.8.7.4.4.O. . .| } { { { s s s s g g d d d x x x M B N H U ,XVXHXFXHXGXGXHXHXHXHXGXGXGXGXGXGXGXGXGXGXGXGXGXGXGXGXGXGXKXMXMXMXMXMXMXMXMXMXMXMXMXMXMXMXMXMXMXMXMXMXMXMXMXMXMXMXGXGXGXGXGXGXGXGXGXGXGXGXGXGXGXGXGXGXGXGXGXGXGXGXGXGXGXKXMXMXMXMXMXMXMXMXMXMXMXMXMXMXMXMXMXMXMXMXMXMXMXMXMXMXMXGXGXGXGXGXGXGXGXGXGXGXGXGXGXGXGX",
"GXGXGXGXGXGXGXGXGXGXGXGXGXGXGXGXGXGXGXGXGXGXGXGXGXGXGXKXMXMXMXMXMXMXMXMXMXMXMXMXMXMXMXMXMXMXMXMXMXMXMXMXDXMXMXGXGXGXGXGXGXGXGXGXGXGXGXGXGXGXGXGXGXGXGXGXGXGXGXGXGXGXKXMXMXMXMXMXMXMXMXMXMXMXMXMXMXMXMXMXMXMXMXMXMXMXMXDXMXMXGXGXGXGXGXGXGXGXGXGXGXGXGXGXGXGXGXHXeXH..XP.U U H M B M m m m m m f s p p a a s } { | |  . .3.4.4.5.8.0.0.8.0.d.d.p.s.s.f.j.j.l.l.l.c.c.m.m.B.B.B.V.C.C.V.V.V.V.V.^.^.^.^.^.^.^.^.^.^.^.^.^.^.^.V.V.^.^.^.^.^.^.^.^.^.V.V.V.V.C.C.B.N.N.N.n.n.v.v.c.x.x.k.g.g.f.a.a.a.i.i.8.8.9.9.4.O. . .| } } { { s s s s s g d d d d x x M B N H Y %XVXHXFXHXGXHXHXHXHXGXGXGXGXGXGXGXGXGXGXGXGXGXGXGXGXGXGXGXKXMXMXMXMXMXMXMXMXMXMXMXMXMXMXMXMXMXMXMXMXMXMXMXMXMXMXMXGXGXGXGXGXGXGXGXGXGXGXGXGXGXGXGXGXGXGXGXGXGXGXGXGXGXGXKXMXMXMXMXMXMXMXMXMXMXMXMXMXMXMXMXMXMXMXMXMXMXMXMXMXMXMXGXGXGXGXGXGXGXGXGXGXGXGXGXGXGXGX",
"GXGXGXGXGXGXGXGXGXGXGXGXGXGXGXGXGXGXGXGXGXGXGXGXGXGXGXKXMXMXMXMXMXMXMXMXMXMXMXMXMXMXMXMXMXMXMXMXMXMXMXMXDXMXDXGXGXGXGXGXGXGXGXGXGXGXGXGXGXGXGXGXGXGXGXGXGXGXGXGXGXGXKXMXMXMXMXMXMXMXMXMXMXMXMXMXMXMXMXMXMXMXMXMXMXMXMXDXMXMXGXGXGXGXGXGXGXGXGXGXHXGXGXKXGXGXGXHX;XP.P.P.H H.N L M M m m m m f f s a p a s s { } | |  .4.4.4.9.7.8.8.8.0.p.p.p.p.s.s.j.j.j.j.l.l.M.M.m.B.B.B.B.B.B.V.V.^.^.^.^.V.^.^.^.^.^.^.^.^.^.^.^.^.^.^.^.^.^.^.^.^.^.^.^.^.V.^.^.V.V.C.V.V.V.C.N.N.n.v.v.b.x.x.g.g.g.f.a.a.p.i.i.8.8.9.9.4.O.O. ...| } { { { s s s s f d d d x x x M M N H H L.VXFXGXKXHXHXHXHXGXGXGXGXGXGXGXGXGXGXGXGXGXGXGXGXGXGXGXGXKXMXMXMXMXMXMXMXMXMXMXMXMXMXMXMXMXMXMXMXMXMXMXMXMXMXMXMXGXGXGXGXGXGXGXGXGXGXGXGXGXGXGXGXGXGXGXGXGXGXGXGXGXGXGXKXMXMXMXMXMXMXMXMXMXMXMXMXMXMXMXMXMXMXMXMXMXMXMXMXMXMXMXGXGXGXGXGXGXGXGXGXGXGXGXGXGXGXGX",
"GXGXGXGXGXGXGXGXGXGXGXGXGXGXGXGXGXGXGXGXGXGXGXGXGXGXGXKXMXMXMXMXMXMXMXMXMXMXMXMXMXMXMXMXMXMXMXMXMXMXMXMXDXMXDXGXGXGXGXGXGXGXGXGXGXGXGXGXGXGXGXGXGXGXGXGXGXGXGXGXGXGXKXMXMXMXMXMXMXMXMXMXMXMXMXMXMXMXMXMXMXMXMXMXMXMXMXDXMXMXGXGXGXHXGXGXGXGXGXGXGXGXGXGXGXGXHXHX%XP.P.P.H H.L L M M m m m m f f s a p a s { { } .. .O.4.4.4.9.8.8.8.0.p.p.p.d.d.s.s.j.j.j.k.l.l.M.M.m.B.B.B.B.B.B.V.V.^.^.^.^.^.^.^.^.^.^.^.^.^.^.^././.^.^.^.^.^.^.^.^.^.^.^.^.^.^.^.V.V.C.V.V.C.C.N.N.N.n.v.v.x.x.x.g.g.g.g.a.a.p.i.8.8.9.9.4.O.O. ...| } { { a s s s s s f d d x x x M M N H H P.VXFXGXHXHXHXHXGXGXGXGXGXGXGXGXGXGXGXGXGXGXGXGXGXGXGXGXGXKXMXMXMXMXMXMXMXMXMXMXMXMXMXMXMXMXMXMXMXMXMXMXMXMXMXMXMXGXGXGXGXGXGXGXGXGXGXGXGXGXGXGXGXGXGXGXGXGXGXGXGXGXGXGXKXMXMXMXMXMXMXMXMXMXMXMXMXMXMXMXMXMXMXMXMXMXMXMXMXMXMXMXGXGXGXGXGXGXGXGXGXGXGXGXGXGXGXGX",
"GXGXGXGXGXGXGXGXGXGXGXGXGXGXGXGXGXGXGXGXGXGXGXGXGXGXGXKXMXMXMXMXMXMXMXMXMXMXMXMXMXMXMXMXMXMXMXMXMXMXMXMXDXMXMXGXGXGXGXGXGXGXGXGXGXGXGXGXGXGXGXGXGXGXGXGXGXGXGXGXGXGXKXMXMXMXAXMXMXMXMXMXMXMXMXMXMXMXMXMXMXMXMXMXMXMXMXDXMXMXGXGXGXGXGXGXGXGXGXGXGXHXHXGXGXHXHXHX.XP.P.H.H H.G N M M M m m m f f s a p a s { { } | ..O.4.4.4.9.8.8.0.p.p.p.p.s.s.s.s.j.j.j.l.l.c.c.M.m.B.B.B.V.B.V.V.V.^.^.^.^.^.^.^.^.^.^.^.^.^././././././.^.^.^.^.^.^.^.^.^.^.^.^.^.^.V.V.V.V.C.C.N.N.N.n.v.v.x.x.x.x.x.g.g.f.a.p.i.8.8.8.9.9.O.O. .| | } { { a s s s s g f d d d x x x M N H L U VXFXGXHXGXHXHXGXGXGXGXGXGXGXGXGXGXGXGXGXGXGXGXGXGXGXGXGXKXMXMXMXMXMXMXMXMXMXMXMXMXMXMXMXMXMXMXMXMXMXMXMXMXMXMXMXGXGXGXGXGXGXGXGXGXGXGXGXGXGXGXGXGXGXGXGXGXGXGXGXGXGXGXKXMXMXMXMXMXMXMXMXMXMXMXMXMXMXMXMXMXMXMXMXMXMXMXMXMXMXMXGXGXGXGXGXGXGXGXGXGXGXGXGXGXGXGX",
"GXGXGXGXGXGXGXGXGXGXGXGXGXGXGXGXGXGXGXGXGXGXGXGXGXGXGXKXMXMXMXMXMXMXMXMXMXMXMXMXMXMXMXMXMXMXMXMXMXMXMXMXMXMXMXGXGXGXGXGXGXGXGXGXGXGXGXGXGXGXGXGXGXGXGXGXGXGXGXGXGXGXKXMXMXMXMXMXMXMXMXMXMXMXMXMXMXMXMXMXMXMXMXMXMXMXMXDXMXMXGXGXGXGXGXGXGXGXGXGXGXKXHXGXGXHXGXHXP.P.P.H.H H.L M M M m m m m f f s a a a { { { | |  .O.4.4.9.9.8.8.p.p.p.p.s.s.s.s.j.j.j.l.l.l.c.c.M.m.m.B.B.V.B.V.V.^.^.^.^.^.^.^.^.^.^.^./.^././././././././.^.^.^.^.^.^.^.^.^.^.^.^.^.V.V.V.V.C.N.N.N.N.N.n.v.c.x.x.x.x.k.g.f.a.p.p.i.8.8.9.9.4.O. .| | } { { a s s s s g d d d x x x x M N H H G mXFXGXHXGXHXGXGXGXGXGXGXGXGXGXGXGXGXGXGXGXGXGXGXGXGXGXGXKXMXMXMXMXMXMXMXMXMXMXMXMXMXMXMXMXMXMXMXMXMXMXMXMXMXMXMXGXGXGXGXGXGXGXGXGXGXGXGXGXGXGXGXGXGXGXGXGXGXGXGXGXGXGXKXMXMXMXMXMXMXMXMXMXMXMXMXMXMXMXMXMXMXMXMXMXMXMXMXMXMXMXGXGXGXGXGXGXGXGXGXGXGXGXGXGXGXGX",
"GXGXGXGXGXGXGXGXGXGXGXGXGXGXGXGXGXGXGXGXGXGXGXGXGXGXGXKXMXMXMXMXMXMXMXMXMXMXMXMXMXMXMXMXMXMXMXMXMXMXMXMXDXMXDXGXGXGXGXGXGXGXGXGXGXGXGXGXGXGXGXGXGXGXGXGXGXGXGXGXGXGXKXMXMXMXMXMXMXMXMXMXMXMXMXMXMXMXMXMXMXMXMXMXMXMXMXDXMXMXGXGXGXGXGXGXGXGXGXGXGXKXGXGXGXGXGXFXU P.P.U Y Y L M M M m m m m m f s a a s { { } |  . .O.4.4.9.7.8.0.p.p.p.p.s.s.s.s.j.j.l.l.l.l.M.c.M.M.m.B.(.^.V.V.^.^.^.^.^.^.^././.^./.^./././././././././././.^././././.^.^.^.^.^.^.^.^.V.V.V.C.C.N.N.N.N.n.v.b.b.x.x.x.g.g.g.a.a.p.i.8.8.9.9.4.3. . .| } { { { s s s s g d d d x x x x M N H H G kXHXGXGXGXHXGXGXGXHXGXGXGXGXGXGXGXGXGXGXGXGXGXGXGXGXGXGXKXMXMXMXMXMXMXMXMXMXMXMXMXMXMXMXMXMXMXMXMXMXMXMXMXMXMXMXGXGXGXGXGXGXGXGXGXGXGXGXGXGXGXGXGXGXGXGXGXGXGXGXGXGXGXKXMXMXMXMXMXMXMXMXMXMXMXMXMXMXMXMXMXMXMXMXMXMXMXMXMXMXMXGXGXGXGXGXGXGXGXGXGXGXGXGXGXGXGX",
"GXGXGXGXGXGXGXGXGXGXGXGXGXGXGXGXGXGXGXGXGXGXGXGXGXGXGXKXMXMXMXMXMXMXMXMXMXMXMXMXMXMXMXMXMXMXMXMXMXMXMXMXDXMXDXGXGXGXGXGXGXGXGXGXGXGXGXGXGXGXGXGXGXGXGXGXGXGXGXGXGXGXKXMXMXMXMXMXMXMXMXMXMXMXMXMXMXMXMXMXMXMXMXMXMXMXMXDXMXMXGXGXGXGXGXGXGXGXGXGXGXKXGXGXHXGXGXVXU P.P.U U H G M M M m m m m m f s a a s { { } |  . .O.4.9.9.8.8.p.p.p.p.p.s.s.s.j.j.j.l.l.l.l.M.M.M.B.m.B.(.^.^.^.^.^.^.^.^.^.^././././././././././././././././.^./././.^.^.^.^.^.^.^.^.^.^.V.V.C.C.C.C.N.N.n.v.b.v.x.x.x.g.f.g.s.a.a.i.i.8.9.9.4.3. . .| } { { { s a s s g d d d x x x x M M N H L eXFXHXGXGXHXGXGXGXHXGXGXGXGXGXGXGXGXGXGXGXGXGXGXGXGXGXGXKXMXMXMXMXMXMXMXMXMXMXMXMXMXMXMXMXMXMXMXMXMXMXMXMXMXMXMXGXGXGXGXGXGXGXGXGXGXGXGXGXGXGXGXGXGXGXGXGXGXGXGXGXGXGXKXMXMXMXMXMXMXMXMXMXMXMXMXMXMXMXMXMXMXMXMXMXMXMXMXMXMXMXGXGXGXGXGXGXGXGXGXGXGXGXGXGXGXGX",
"GXGXGXGXGXGXGXGXGXGXGXGXGXGXGXGXGXGXGXGXGXGXGXGXGXGXGXKXMXMXMXMXMXMXMXMXMXMXMXMXMXMXMXMXMXMXMXMXMXMXMXMXDXMXDXGXGXGXGXGXGXGXGXGXGXGXGXGXGXGXGXGXGXGXGXGXGXGXGXGXGXGXKXMXMXMXMXMXMXMXMXMXMXMXMXMXMXMXMXMXMXMXMXMXMXMXMXDXMXMXGXGXGXGXGXGXGXGXGXGXGXKXGXGXKXHXHXxXP.P.P.U U L G M M M m m m m V f a a a s { { } |  . .O.4.9.9.8.0.p.p.p.a.s.s.s.s.j.j.l.l.l.l.l.M.M.M.M.m.B.(.^.(.^.^.^.^.^.^.^././././././././././././././././././././././././.^.^.^.^.^.^.^.V.V.V.C.C.C.B.N.v.v.b.b.x.x.x.k.g.f.f.a.a.p.i.8.8.9.4.4.O. .| } } { { s { s s g g d d x x x x M B N H H -XFXFXGXGXGXGXGXGXHXGXGXGXGXGXGXGXGXGXGXGXGXGXGXGXGXGXGXKXMXMXMXMXMXMXMXMXMXMXMXMXMXMXMXMXMXMXMXMXMXMXMXMXMXMXMXGXGXGXGXGXGXGXGXGXGXGXGXGXGXGXGXGXGXGXGXGXGXGXGXGXGXGXKXMXMXMXMXMXMXMXMXMXMXMXMXMXMXMXMXMXMXMXMXMXMXMXMXMXMXMXGXGXGXGXGXGXGXGXGXGXGXGXGXGXGXGX",
"GXGXGXGXGXGXGXGXGXGXGXGXGXGXGXGXGXGXGXGXGXGXGXGXGXGXGXKXMXMXMXMXMXMXMXMXMXMXMXMXMXMXMXMXMXMXMXMXMXMXMXMXDXMXDXGXGXGXGXGXGXGXGXGXGXGXGXGXGXGXGXGXGXGXGXGXGXGXGXGXGXGXKXMXMXMXMXMXMXMXMXMXMXMXMXMXMXMXMXMXMXMXMXMXMXMXMXDXMXMXGXGXGXGXGXGXGXGXGXGXGXHXGXGXKXHXFXhXP.P.P.U H.L G M M M m m m m f f a a a { { { } |  . .O.4.9.9.8.p.d.p.a.s.s.s.f.f.j.j.l.l.l.l.l.M.M.M.B.B.B.(.^.^.^.^.^.^.^.^./././././././././././././././././.)./././././././.^.^.^.^.^.^.^.V.V.V.V.C.C.B.N.v.v.v.v.x.x.x.x.g.g.f.s.a.p.p.8.8.9.4.4.O. .| } } { { a s s s g g d d x x x x M B N N Y .XFXFXGXGXGXGXGXGXHXGXGXGXGXGXGXGXGXGXGXGXGXGXGXGXGXGXGXKXMXMXMXMXMXMXMXMXMXMXMXMXMXMXMXMXMXMXMXMXMXMXMXMXMXMXMXGXGXGXGXGXGXGXGXGXGXGXGXGXGXGXGXGXGXGXGXGXGXGXGXGXGXGXKXMXMXMXMXMXMXMXMXMXMXMXMXMXMXMXMXMXMXMXMXMXMXMXMXMXMXMXGXGXGXGXGXGXGXGXGXGXGXGXGXGXGXGX",
"GXGXGXGXGXGXGXGXGXGXGXGXGXGXGXGXGXGXGXGXGXGXGXGXGXGXGXKXDXMXMXMXMXMXMXMXMXMXMXMXMXMXMXMXMXMXMXMXMXMXMXMXMXMXKXGXGXGXGXGXGXGXGXGXGXGXGXGXGXGXGXGXGXGXGXGXGXGXGXGXGXGXKXMXMXMXMXMXMXMXMXMXMXMXMXMXMXMXMXMXMXMXMXMXMXMXMXMXMXDXGXGXGXGXGXGXGXGXGXGXGXGXHXKXHXKXHX-XP.P.H.L H.G M M M M c c m V f f a a a s { { } |  .3.4.4.9.7.8.i.p.p.a.s.s.s.s.j.j.j.l.l.l.M.M.M.M.M.m.B.B.^.^.^.^.^.^.^./././././././././././.)././././.).).)././././././.^.^.^.^.^.^.^.^.V.V.V.V.C.C.C.B.N.N.N.v.v.x.x.x.x.k.g.f.f.a.a.p.i.8.7.9.4.3. .| | } { { { { s s g g d d d x x x M B N H H H.FXHXGXGXGXGXGXGXHXGXGXGXGXGXGXGXGXGXGXGXGXGXGXGXGXGXGXKXMXMXMXMXMXMXMXMXMXMXMXMXMXMXMXMXMXMXMXMXMXMXMXMXMXMXDXKXGXGXGXGXGXGXGXGXGXGXGXGXGXGXGXGXGXGXGXGXGXGXGXGXGXGXKXMXMXMXMXMXMXMXMXMXMXMXMXMXMXMXMXMXMXMXMXMXMXMXMXMXMXDXKXGXGXGXGXGXGXGXGXGXGXGXGXGXGXGX",
"GXGXGXGXGXGXGXGXGXGXGXGXGXGXGXGXGXGXGXGXGXGXGXGXGXGXGXKXDXDXMXMXMXMXMXMXMXMXMXMXMXMXMXMXMXMXMXMXMXDXDXDXDXDXDXKXGXGXGXGXGXGXGXGXGXGXGXGXGXGXGXGXGXGXGXGXGXGXGXGXGXGXKXKXDXDXMXDXMXMXMXMXMXMXMXMXMXMXMXMXMXMXMXMXMXDXDXDXDXDXKXKXGXGXGXGXGXGXGXGXGXHXHXFXHXFXFX=XP.P.U Y U G M M M M c m m V f f a a a { { { } |  .O.4.4.9.8.8.i.p.p.s.s.s.s.f.j.j.j.l.l.l.M.M.M.M.M.M.B.B.^.(.^.^.^.^.^././././././././././.).)./././.)./.).)./././././././.^.^.^.^.^.^.^.^.V.V.V.V.C.C.B.N.N.N.v.v.x.x.x.x.k.g.f.f.a.a.p.i.8.8.9.4.3. .| | } } { { { s s g g d d d x x x M B N H H U ZXZXHXKXHXGXGXHXHXGXGXGXGXGXGXGXGXGXGXGXGXHXKXKXKXGXGXKXKXMXMXMXMXMXMXMXMXMXMXMXMXMXMXMXMXMXMXMXMXMXMXMXMXDXKXKXKXKXKXGXGXGXGXGXGXGXGXGXGXGXGXGXGXGXGXGXGXGXGXGXKXKXDXDXMXMXMXMXMXMXMXMXMXMXMXMXMXMXMXMXMXMXMXMXMXMXMXMXMXKXKXGXGXKXKXHXGXGXGXGXGXGXGXGXGXGX",
"MXMXMXMXMXMXMXMXMXMXMXMXMXMXMXMXMXMXMXMXMXMXMXMXDXDXDXKXKXGXGXKXGXGXGXGXGXGXGXGXGXGXGXGXGXGXGXGXKXKXGXGXGXKXKXDXMXMXMXMXMXMXMXMXMXMXMXMXMXMXMXMXMXMXMXMXMXMXMXMXMXDXKXKXGXGXGXGXGXGXGXGXGXGXGXGXGXGXGXGXGXGXGXGXKXKXGXGXGXKXKXDXLXLXLXAXMXMXMXMXMXNXLXBXBXBXvXP.P.P.U U U G M M M M x m m V f f a a a { { { } |  .3.4.4.7.8.8.i.p.a.s.s.s.f.j.j.l.l.l.l.l.M.M.M.M.M.m.B.(.(.(.(.^.^.^.^.^././././././././.).).).).).).).).).)./././././././././././.^.^.^.^.^.V.V.V.C.C.B.N.N.N.v.v.c.x.x.x.k.g.f.f.s.a.p.p.8.8.9.4.3. . .| } } { { { s s f d d d d x x x M M B H H Y bXNXDXDXDXMXNXNXNXMXMXAXAXAXMXMXMXMXMXMXMXDXDXLXMXDXDXKXKXGXGXGXGXGXGXGXGXGXGXGXGXGXGXGXGXGXGXGXGXGXGXGXGXKXKXDXDXDXDXDXDXMXMXMXMXMXMXMXMXMXMXMXMXMXMXMXMXDXDXDXLXDXKXGXGXGXGXGXGXGXGXGXGXGXGXGXGXGXGXGXGXGXGXGXGXGXGXGXGXKXKXDXDXDXDXDXDXMXMXMXMXMXMXMXMXMX",
"MXMXMXMXMXMXMXMXMXMXMXMXMXMXMXMXMXMXMXMXMXMXMXMXMXMXMXKXGXGXGXGXGXGXGXGXGXGXGXGXGXGXGXGXGXGXGXGXGXGXGXGXGXGXKXDXMXMXMXMXMXMXMXMXMXMXMXMXMXMXMXMXMXMXMXMXMXMXMXMXNXMXKXGXGXGXGXGXGXGXGXGXGXGXGXGXGXGXGXGXGXGXGXGXGXGXGXGXGXGXKXMXBXBXMXMXMXMXMXMXMXNXBXBXBXZXkXQ P.P.Y U L G M M M x x c m V f s a a a { { { } |  .3.4.9.7.8.8.p.a.a.s.s.s.f.j.j.l.l.l.l.l.M.M.M.M.M.B.B.(.(.(.^.^.^.^.^.^././././././././.).).).).).).).).).).)././././././././././.^.^.^.^.^.^.V.V.C.C.B.N.N.N.N.v.v.c.b.x.k.g.f.f.s.a.a.p.8.8.9.4.3. . .| } } { { s s s a g d d d d x x M M B N H Y eXBXNXBXMXNXNXNXNXMXMXAXMXMXMXMXMXMXMXMXMXMXMXMXMXMXMXKXGXGXGXGXGXGXGXGXGXGXGXGXGXGXGXGXGXGXGXGXGXGXGXGXGXGXKXMXMXMXMXMXMXMXMXMXMXMXMXMXMXMXMXMXMXMXMXMXMXMXMXMXMXMXKXGXGXGXGXGXGXGXGXGXGXGXGXGXGXGXGXGXGXGXGXGXGXGXGXGXGXGXDXMXMXMXMXMXMXMXMXMXMXMXMXMXMXMX",
"DXDXDXDXMXMXMXMXMXMXMXMXDXDXDXDXDXDXDXDXLXLXDXDXDXMXLXKXGXGXGXGXGXGXGXGXGXGXGXGXGXGXGXGXGXGXGXGXGXGXHXHXGXGXKXMXMXMXMXMXDXDXDXDXMXMXMXMXDXDXMXMXDXDXDXDXDXDXDXMXMXDXKXGXGXGXGXGXGXGXGXGXGXGXGXGXGXGXGXGXGXGXGXGXGXGXGXGXGXKXDXMXLXLXLXLXDXLXMXMXDXMXBXDXVXZXqX~ P.P.K U G G M M M M x m m V f s a a a { { } |  . .3.4.9.7.8.8.p.a.a.s.s.f.f.j.j.l.l.l.l.M.M.M.M.M.M.B.(.(.(.^.^.^.^.^.^.^./././././././././././.).)./.)./././././././././././././.^.^.^.^.^.^.^.V.V.C.C.B.B.N.N.N.v.b.c.x.x.k.g.f.f.s.a.a.p.8.8.9.4.3. . .| } } { { a s a a g d d d x x x M M M N L U #XZXNXDXMXLXLXLXLXLXDXLXLXAXMXMXDXDXMXLXDXMXDXDXMXMXDXKXGXGXGXGXGXGXGXGXGXGXGXGXGXGXGXGXGXGXGXGXGXGXGXGXGXGXKXDXMXMXDXMXMXDXDXDXDXMXMXMXMXMXMXMXMXDXDXDXDXMXMXMXMXMXKXGXGXGXGXGXGXGXGXGXGXGXGXGXGXGXGXGXGXGXGXGXGXGXGXGXGXGXDXMXMXDXDXMXMXDXDXDXDXMXDXDXDXDX",
"MXMXMXMXMXMXMXMXMXMXMXMXMXMXMXMXNXNXMXMXMXMXMXMXDXMXMXKXGXGXGXGXGXGXGXGXGXGXGXGXGXGXGXGXGXGXGXGXGXGXGXKXGXGXKXDXMXMXMXMXMXMXMXMXMXMXMXMXMXMXMXMXMXMXMXMXMXMXMXMXMXDXKXGXGXGXGXGXGXGXGXGXGXGXGXGXGXGXGXGXGXGXGXGXGXGXGXGXGXKXDXMXAXAXAXAXMXMXMXMXMXMXNXBXBXVX%XQ P.Q K U G M M M M M x m m V f s a a a { { } |  . .3.4.9.7.8.8.i.a.a.s.s.s.f.j.j.l.l.l.l.M.M.M.M.M.M.B.(.(.(.(.^.^.^.^.^.^./././././././././././././.)././././././././././././././.^.^.^.^.^.^.^.V.V.V.C.B.B.N.N.N.v.v.x.x.x.k.g.f.f.s.a.p.p.8.8.9.4.3. . .| } } { s a s s a g d g d d x x x M M B N Y P.VXNXDXMXNXNXNXNXMXMXAXMXMXMXMXMXMXMXMXMXMXDXDXDXMXDXKXGXGXGXGXGXGXGXGXGXGXGXGXGXGXGXGXGXGXGXGXGXGXGXGXGXGXKXDXMXMXDXMXMXMXMXMXMXMXMXMXMXMXMXMXMXMXMXMXMXMXDXAXMXDXKXGXGXGXGXGXGXGXGXGXGXGXGXGXGXGXGXGXGXGXGXGXGXGXGXGXGXGXDXMXMXDXDXMXMXMXMXMXMXMXMXMXMXMX",
"MXMXDXDXDXMXDXDXDXDXMXMXMXDXDXDXLXLXMXMXAXAXDXDXMXNXMXKXGXGXGXGXGXGXGXGXGXGXGXGXGXGXGXGXGXGXGXGXGXGXGXGXGXGXGXDXDXDXMXMXMXDXDXDXMXMXDXDXDXDXMXMXMXMXDXDXDXDXDXDXMXMXKXHXGXGXGXGXGXGXGXGXGXGXGXGXGXGXGXGXGXGXGXGXGXGXGXGXGXKXDXBXLXLXLXAXLXLXMXMXMXKXCXZXZXvXL.P.P.U K L G n M x x x x m m f f s a a a { { } |  . .O.4.9.7.8.8.i.a.a.s.s.s.f.j.j.l.l.l.l.M.M.M.M.M.M.M.B.(.(.(.(.^.^.^.^./././././././././././././././././././././././././././.^./.^.^.^.^.^.^.V.V.V.V.C.C.B.N.N.v.v.c.x.x.x.g.f.f.f.a.a.p.i.8.8.9.4.3. . .| } } { s a a s a g d g d d x x x M M M H G K nXBXNXMXLXLXLXLXLXDXLXLXLXMXMXMXDXDXLXDXMXMXMXMXMXDXKXGXGXGXGXGXGXGXGXGXGXGXGXGXGXGXGXGXGXGXGXGXGXGXGXGXGXKXDXMXMXMXMXMXMXMXDXDXDXMXDXDXDXDXMXMXMXDXDXDXMXMXMXMXDXGXGXGXGXGXGXGXGXGXGXGXGXGXGXGXGXGXGXGXGXGXGXGXGXGXGXGXKXMXMXMXDXMXMXMXMXDXMXMXMXMXDXDXDX",
"MXMXMXMXMXMXMXMXMXMXMXMXMXMXMXMXMXMXMXMXMXMXMXMXDXMXMXKXGXKXGXGXGXGXGXGXGXGXGXGXGXGXGXGXGXGXGXGXGXGXGXGXGXGXKXMXMXMXMXMXMXMXMXMXMXMXMXMXMXMXMXMXMXMXMXMXMXMXMXMXMXDXKXGXGXGXGXKXGXGXGXGXGXGXGXGXGXGXGXGXGXGXGXGXGXGXGXGXGXKXLXMXMXAXAXSXMXMXMXMXNXDXNXBXZXvXK Q P.I K G G z M k M x x m m f f s a a a { { } |  . .O.4.4.7.8.8.8.a.a.a.s.s.s.j.j.j.l.l.l.M.M.M.M.M.M.M.B.(.(.^.^.^.^.^.^.^././././././././././././././././././././././././.^.^.^./.^.^.^.^.^.V.V.V.V.V.C.C.B.N.N.v.v.x.x.x.x.g.f.f.f.a.a.p.i.8.7.9.4.3. . .| } } { s a a s a g g g d d x k k M M M H n G kXBXNXBXNXMXMXMXMXMXMXMXMXMXMXMXMXMXMXMXDXMXMXMXMXDXKXGXGXGXGXGXGXGXGXGXGXGXGXGXGXGXGXGXGXGXGXGXGXGXGXGXGXGXKXMXMXMXDXDXMXMXMXMXMXMXMXMXMXMXMXMXMXMXMXMXMXDXMXMXMXKXGXGXGXGXGXGXGXGXGXGXGXGXGXGXGXGXGXGXGXGXGXGXGXGXGXGXGXDXMXMXDXMXMXMXMXMXMXMXMXMXMXMXMX",
"MXMXMXMXMXMXMXMXMXMXMXMXMXMXMXMXMXMXMXMXMXMXMXMXMXMXLXKXGXGXGXGXGXGXGXGXGXGXGXGXGXGXGXGXGXGXGXGXGXGXGXGXGXGXGXMXMXMXMXMXMXMXMXMXMXMXMXMXMXMXMXMXMXMXMXMXMXMXMXMXMXMXKXGXGXGXGXGXGXGXGXGXGXGXGXGXGXGXGXGXGXGXGXGXGXGXGXKXGXGXMXMXAXAXAXAXAXAXAXAXDXMXnXKXVX:XQ I U U K G Z n n n M x x m f f f f p a a s { { } |  . .3.4.9.9.8.8.p.p.p.d.s.s.j.j.j.j.l.l.l.M.M.M.M.M.M.M.m.B.B.V.^.^.^.^.^.^./.^.(.(.^./././././././././././././././.^.^.^.^.^.^.^.^.^.V.V.V.V.V.V.C.C.C.B.B.N.n.v.v.v.x.x.x.g.g.f.a.a.a.i.8.8.7.4.4.3. .| | } { { s s s s g g d d d k k k M M M n M G L ,XVXBXNXAXSXSXSXAXAXBXBXMXMXMXMXMXMXMXMXMXMXMXMXMXMXKXGXGXGXGXGXGXGXGXGXGXGXGXGXGXGXGXGXGXGXGXGXGXGXGXGXGXGXMXMXDXMXMXMXMXMXMXMXMXMXMXMXMXMXMXMXMXMXMXMXMXMXMXMXDXKXGXGXGXGXGXGXGXGXGXGXGXGXGXGXGXGXGXGXGXGXGXGXGXGXGXGXGXDXMXDXMXMXMXMXMXMXMXMXMXMXMXMXMX",
"MXMXMXMXMXMXMXMXMXMXMXMXMXMXMXMXMXMXMXMXMXMXMXMXMXMXLXKXGXGXGXGXGXGXGXGXGXGXGXGXGXGXGXGXGXGXGXGXGXGXGXGXGXGXGXMXMXMXMXMXMXMXMXMXMXMXMXMXMXMXMXMXMXMXMXMXMXMXMXMXMXMXKXGXGXGXGXGXGXGXGXGXGXGXGXGXGXGXGXGXGXGXGXGXGXGXGXKXGXGXMXMXAXAXAXAXAXAXAXAXMXLXBXBXBXL.I U I I K A n n n n M x x m f f f g a a a s { { } |  . .3.4.9.7.8.i.p.p.p.p.s.s.s.j.l.l.l.l.l.M.M.M.M.M.M.M.m.B.B.B.^.^.^.^.^.^.^.^.^.(.(.^.^./././././././././././.^.^.^.^.^.^.^.^.^.^.^.V.V.V.V.V.C.C.C.C.B.B.N.v.v.v.x.x.x.x.g.g.f.a.a.a.i.8.8.7.4.3.6. .| | { { { a s s s a g d d d k k k k n n n M G G P.VXVXBXAXSXSXSXSXAXBXBXMXMXMXMXMXMXMXMXMXMXMXMXMXMXKXGXGXGXGXGXGXGXGXGXGXGXGXGXGXGXGXGXGXGXGXGXGXGXGXGXGXGXMXMXDXMXMXMXMXMXMXMXMXMXMXMXMXMXMXMXMXMXMXMXMXMXMXMXDXKXGXGXGXGXGXGXGXGXGXGXGXGXGXGXGXGXGXGXGXGXGXGXGXGXGXGXGXMXMXLXMXMXMXMXMXMXMXMXMXMXMXMXMX",
"MXMXMXMXMXMXMXMXMXMXMXMXMXMXMXMXMXMXMXMXMXMXMXMXMXMXDXKXGXGXGXGXGXGXGXGXGXGXGXGXGXGXGXGXGXGXGXGXGXGXGXGXGXGXGXMXMXMXMXMXMXMXMXMXMXMXMXMXMXMXMXMXMXMXMXMXMXMXMXMXMXMXKXGXGXGXGXGXGXGXGXGXGXGXGXGXGXGXGXGXGXGXGXGXGXGXGXGXGXGXMXMXAXAXAXAXAXAXAXAXMXDXDXNXvXI K Q I I G Z n n n k M x x m f f f a p a a s { { } | .. .O.4.9.8.8.p.p.p.p.p.s.s.s.s.l.l.l.l.M.M.M.M.M.M.M.B.B.B.B.B.V.V.V.V.^.^.^.^.^.^.^.^.^.^.^.^.^.^././././.^.^.^.^.^.^.^.^.^.^.^.^.V.V.V.V.V.V.C.C.C.B.N.N.N.v.v.v.x.x.x.k.g.g.g.a.a.i.i.8.9.9.4.3. . .| | { { { a a a a g g d d d d k k k k n z n G M L mXVXBXAXSXSXSXAXAXBXBXMXMXMXMXMXMXMXMXMXMXMXMXMXMXKXGXGXGXGXGXGXGXGXGXGXGXGXGXGXGXGXGXGXGXGXGXGXGXGXGXGXGXMXMXDXMXMXMXMXMXMXMXMXMXMXMXMXMXMXMXMXMXMXMXMXMXMXMXDXKXGXGXGXGXGXGXGXGXGXGXGXGXGXGXGXGXGXGXGXGXGXGXGXGXGXGXGXDXMXDXMXMXMXMXMXMXMXMXMXMXMXMXMX",
"MXMXMXMXMXMXMXMXMXMXMXMXMXMXMXMXMXMXMXMXMXMXMXMXMXMXDXKXGXGXGXGXGXGXGXGXGXGXGXGXGXGXGXGXGXGXGXGXGXGXGXGXGXGXGXMXMXMXMXMXMXMXMXMXMXMXMXMXMXMXMXMXMXMXMXMXMXMXMXMXMXMXKXGXGXGXGXGXGXGXGXGXGXGXGXGXGXGXGXGXGXGXGXGXGXGXGXGXGXGXMXMXAXAXAXAXAXAXAXAXMXLXNXBXqXK K I I K A Z n n n k M x x m f f f a p p a a s { } } .. .O.4.4.7.8.8.p.p.p.p.d.s.s.s.j.l.l.l.l.M.M.M.M.M.B.B.B.B.B.B.V.V.V.V.V.V.V.^.^.^.^.^.^.^.^.^.^.^.^./.^.^.^.^.^.^.^.^.^.^.^.^.^.^.V.V.V.V.V.C.C.C.B.N.N.N.v.v.v.v.x.x.k.g.g.g.g.a.a.i.i.8.9.9.4.3. . .| | } { s a a a a g g g g i d k k k k k z n M G G pXVXBXAXSXSXSXAXAXBXBXMXMXMXMXMXMXMXMXMXMXMXMXMXMXKXGXGXGXGXGXGXGXGXGXGXGXGXGXGXGXGXGXGXGXGXGXGXGXGXGXGXGXMXMXDXMXMXMXMXMXMXMXMXMXMXMXMXMXMXMXMXMXMXMXMXMXMXMXDXKXGXGXGXGXGXGXGXGXGXGXGXGXGXGXGXGXGXGXGXGXGXGXGXGXGXGXGXDXMXDXMXMXMXMXMXMXMXMXMXMXMXMXMX",
"MXMXMXMXMXMXMXMXMXMXMXMXMXMXMXMXMXMXMXMXMXMXMXMXMXMXDXKXGXGXGXGXGXGXGXGXGXGXGXGXGXGXGXGXGXGXGXGXGXGXGXGXGXGXGXMXMXMXMXMXMXMXMXMXMXMXMXMXMXMXMXMXMXMXMXMXMXMXMXMXMXMXKXGXGXGXGXGXGXGXGXGXGXGXGXGXGXGXGXGXGXGXGXGXGXGXGXGXGXGXMXMXAXAXAXAXAXAXAXAXLXLXNXFX@XK I I K K A Z n n n k M x x m f f f p p p a a a { { { |  .O.3.4.9.9.8.0.0.0.p.p.d.s.s.j.j.l.l.l.M.M.M.M.M.M.m.M.B.B.B.B.C.C.C.V.V.V.V.V.V.^.^.^.^.^.^.^.^.^.^.^.^.^.^.^.^.^.^.^.^.V.V.V.V.V.V.C.C.C.C.N.N.N.n.n.n.v.v.x.x.x.x.g.g.f.a.a.a.a.i.i.8.7.4.4.3. . .| | { { { a a s s g g g d i d k k k k k z n M G G ;XVXBXAXAXSXAXAXAXMXNXMXMXMXMXMXMXMXMXMXMXMXMXMXMXKXGXGXGXGXGXGXGXGXGXGXGXGXGXGXGXGXGXGXGXGXGXGXGXGXGXGXGXMXMXDXMXMXMXMXMXMXMXMXMXMXMXMXMXMXMXMXMXMXMXMXMXMXMXDXKXGXGXGXGXGXGXGXGXGXGXGXGXGXGXGXGXGXGXGXGXGXGXGXGXGXGXGXDXMXDXMXMXMXMXMXMXMXMXMXMXMXMXMX",
"MXMXMXMXMXMXMXMXMXMXMXMXMXMXMXMXMXMXMXMXMXMXMXMXMXMXDXKXGXGXGXGXGXGXGXGXGXGXGXGXGXGXGXGXGXGXGXGXGXGXGXGXGXGXGXMXMXMXMXMXMXMXMXMXMXMXMXMXMXMXMXMXMXMXMXMXMXMXMXMXMXMXKXGXGXGXGXGXGXGXGXGXGXGXGXGXGXGXGXGXGXGXGXGXGXGXGXGXGXGXMXMXAXAXAXAXAXAXAXAXBXDXNXBXK K K K K K A n n z n k n k x m f f f a p p a a a s { } |  .O.3.4.4.9.7.8.8.8.0.p.d.s.s.j.j.l.l.l.M.M.M.M.M.M.M.m.m.B.N.B.B.C.C.C.C.V.V.V.V.V.V.V.^.^.^.^.^.^.^.^.^.^.^.^.^.V.V.V.V.V.V.V.V.C.C.C.B.N.N.n.n.n.n.v.v.v.c.x.x.x.k.g.f.a.a.a.a.i.i.8.8.9.4.4.3. . .| } { { s a a a a g g g d i k k k k k z n n n M H U mXBXBXAXSXSXAXAXMXMXMXMXMXMXMXMXMXMXMXMXMXMXMXMXKXGXGXGXGXGXGXGXGXGXGXGXGXGXGXGXGXGXGXGXGXGXGXGXGXGXGXGXMXMXDXMXMXMXMXMXMXMXMXMXMXMXMXMXMXMXMXMXMXMXMXMXMXMXDXKXGXGXGXGXGXGXGXGXGXGXGXGXGXGXGXGXGXGXGXGXGXGXGXGXGXGXGXLXMXDXMXMXMXMXMXMXMXMXMXMXMXMXMX",
"MXMXMXMXMXMXMXMXMXMXMXMXMXMXMXMXMXMXMXMXMXMXMXMXMXMXDXKXGXGXGXGXGXGXGXGXGXGXGXGXGXGXGXGXGXGXGXGXGXGXGXGXGXGXGXMXMXMXMXMXMXMXMXMXMXMXMXMXMXMXMXMXMXMXMXMXMXMXMXMXMXMXKXGXGXGXGXGXGXGXGXGXGXGXGXGXGXGXGXGXGXGXGXGXGXGXGXGXGXGXMXMXAXAXAXAXAXAXAXAXMXBXDXqXK G K K K A Z n l z z z k k x f f d f p p p a a a s { { | |  .O.3.4.4.7.7.7.7.0.0.d.s.s.j.j.l.l.l.l.l.l.l.M.M.M.M.m.N.N.N.N.B.C.C.C.C.C.B.B.C.V.V.V.V.V.^.V.V.V.V.V.V.V.V.V.V.V.C.C.C.C.C.C.C.B.B.N.N.N.n.v.v.v.v.v.x.x.x.k.g.g.f.f.a.a.i.i.8.8.8.7.9.4.3.O. .| | } { { a a a a p p g g i i j k k k k z z z n M G G kXBXBXAXAXAXAXAXMXMXMXMXMXMXMXMXMXMXMXMXMXMXMXMXKXGXGXGXGXGXGXGXGXGXGXGXGXGXGXGXGXGXGXGXGXGXGXGXGXGXGXGXMXMXDXMXMXMXMXMXMXMXMXMXMXMXMXMXMXMXMXMXMXMXMXMXMXMXDXKXGXGXGXGXGXGXGXGXGXGXGXGXGXGXGXGXGXGXGXGXGXGXGXGXGXGXGXMXMXDXMXMXMXMXMXMXMXMXMXMXMXMXMX",
"MXMXMXMXMXMXMXMXMXMXMXMXMXMXMXMXMXMXMXMXMXMXMXMXMXMXDXKXGXGXGXGXGXGXGXGXGXGXGXGXGXGXGXGXGXGXGXGXGXGXGXGXGXGXGXMXMXMXMXMXMXMXMXMXMXMXMXMXMXMXMXMXMXMXMXMXMXMXMXMXMXMXKXGXGXGXGXGXGXGXGXGXGXGXGXGXGXGXGXGXGXGXGXGXGXGXGXGXGXGXMXMXAXAXAXAXAXAXAXMXBXBXBX XI K K K K A Z b l l z z k k x x d d g p p p p a a a { { } } |  .O.3.4.4.7.7.7.8.0.d.d.s.s.j.j.l.l.l.l.l.l.l.M.M.M.M.m.m.m.N.N.B.B.C.C.C.B.B.B.C.C.V.V.V.V.V.V.V.V.V.V.V.V.V.C.C.C.C.C.C.C.C.B.N.N.N.n.n.v.v.v.v.v.x.x.x.x.k.g.f.a.a.a.a.i.8.8.8.9.9.4.3.O. . .| } { { a a a a p p p g g i i j k k k k h h h G G G G eXmXBXBXAXAXAXAXMXMXMXMXMXMXMXMXMXMXMXMXMXMXMXMXKXGXGXGXGXGXGXGXGXGXGXGXGXGXGXGXGXGXGXGXGXGXGXGXGXGXGXGXMXMXDXMXMXMXMXMXMXMXMXMXMXMXMXMXMXMXMXMXMXMXMXMXMXMXDXKXGXGXGXGXGXGXGXGXGXGXGXGXGXGXGXGXGXGXGXGXGXGXGXGXGXGXGXMXMXMXMXMXMXMXMXMXMXMXMXMXMXMXMX",
"MXMXMXMXMXMXMXMXMXMXMXMXMXMXMXMXMXMXMXMXMXMXMXMXMXMXDXKXGXGXGXGXGXGXGXGXGXGXGXGXGXGXGXGXGXGXGXGXGXGXGXGXGXGXGXMXMXMXMXMXMXMXMXMXMXMXMXMXMXMXMXMXMXMXMXMXMXMXMXMXMXMXKXGXGXGXGXGXGXGXGXGXGXGXGXGXGXGXGXGXGXGXGXGXGXGXGXGXGXGXMXMXMXMXMXMXAXAXBXMXBXNXBXA A K U Z A A Z b l l l z k k x x d d g p p p p a a a s { { } } |  . .3.3.4.4.7.7.0.0.d.d.d.d.s.j.j.j.l.l.l.l.l.l.c.c.v.v.v.m.N.C.B.B.B.B.B.B.B.B.C.B.B.B.N.B.B.C.C.C.B.B.B.B.B.B.N.N.N.N.N.N.v.v.v.v.v.v.v.v.c.x.x.x.k.g.f.f.a.a.a.a.i.i.8.8.8.7.9.4.4.6. .| | } } { { a a a p p p p y i i j j h h h h h l l n G L L P.VXVXNXLXAXAXDXMXMXMXMXMXMXMXMXMXMXMXMXMXMXMXMXKXGXGXGXGXGXGXGXGXGXGXGXGXGXGXGXGXGXGXGXGXGXGXGXGXGXGXGXMXMXDXMXMXMXMXMXMXMXMXMXMXMXMXMXMXMXMXMXMXMXMXMXMXMXDXKXGXGXGXGXGXGXGXGXGXGXGXGXGXGXGXGXGXGXGXGXGXGXGXGXGXGXGXDXMXDXMXMXMXMXMXMXMXMXMXMXMXMXMX",
"MXMXMXMXMXMXMXMXMXMXMXMXMXMXMXMXMXMXMXMXMXMXMXMXMXMXDXKXGXGXGXGXGXGXGXGXGXGXGXGXGXGXGXGXGXGXGXGXGXGXGXGXGXGXGXMXMXMXMXMXMXMXMXMXMXMXMXMXMXMXMXMXMXMXMXMXMXMXMXMXMXMXKXGXGXGXGXGXGXGXGXGXGXGXGXGXGXGXGXGXGXGXGXGXGXGXGXGXGXGXMXMXMXMXMXMXAXAXBXMXBXDX7XK K G K K G A n b l l l l z k k x d d d y y p p p p a a s { { { } |  . . .3.3.5.7.q.q.q.q.d.d.d.s.s.s.s.j.j.j.l.l.l.l.c.c.c.v.v.m.m.m.N.N.m.N.N.N.N.N.N.N.N.N.N.N.N.N.N.N.N.N.N.N.N.N.N.m.N.m.v.v.m.v.v.v.b.b.x.x.x.k.g.g.f.a.a.a.p.p.i.8.9.7.9.4.4.3.O. .| | } } { { { a a p p p p g i i i i h h : , , < l h n n G G P.zXVXBXBXMXAXDXMXMXMXMXMXMXMXMXMXMXMXMXMXMXMXMXKXGXGXGXGXGXGXGXGXGXGXGXGXGXGXGXGXGXGXGXGXGXGXGXGXGXGXGXMXMXDXMXMXMXMXMXMXMXMXMXMXMXMXMXMXMXMXMXMXMXMXMXMXMXDXKXGXGXGXGXGXGXGXGXGXGXGXGXGXGXGXGXGXGXGXGXGXGXGXGXGXGXGXDXMXDXMXMXMXMXMXMXMXMXMXMXMXMXMX",
"MXMXMXMXMXMXMXMXMXMXMXMXMXMXMXMXMXMXMXMXMXMXMXMXMXMXDXKXGXGXGXGXGXGXGXGXGXGXGXGXGXGXGXGXGXGXGXGXGXGXGXGXGXGXGXMXMXMXMXMXMXMXMXMXMXMXMXMXMXMXMXMXMXMXMXMXMXMXMXMXMXMXKXGXGXGXGXGXGXGXGXGXGXGXGXGXGXGXGXGXGXGXGXGXGXGXGXGXGXGXMXMXMXMXMXMXMXMXMXMXNXKX^ K I G G K A Z b l l 1 l l z k k k d d d y 7 y p p p p p a s { { } | ..|  . .,.3.5.5.7.q.q.0.0.0.d.0.d.d.s.s.j.j.j.j.k.k.k.x.c.c.v.v.v.v.v.v.v.v.m.m.N.N.N.N.N.N.N.N.N.N.N.N.N.N.N.N.N.N.m.v.v.v.v.v.b.c.x.b.x.x.k.g.g.f.s.a.a.p.p.p.8.8.8.4.4.4.4.O. . . .| } { { { a a p p p p p p i i i u u u : : : , < 1 < b n G G U ,XVXZXBXMXDXAXMXLXMXMXMXMXMXMXMXMXMXMXMXMXMXMXKXGXGXGXGXGXGXGXGXGXGXGXGXGXGXGXGXGXGXGXGXGXGXGXGXGXGXGXMXMXDXMXMXMXMXMXMXMXMXMXMXMXMXMXMXMXMXMXMXMXMXMXMXMXDXKXGXGXGXGXGXGXGXGXGXGXGXGXGXGXGXGXGXGXGXGXGXGXGXGXGXGXGXDXMXDXMXMXMXMXMXMXMXMXMXMXMXMXMX",
"MXMXMXMXMXMXMXMXMXMXMXMXMXMXMXMXMXMXMXMXMXMXMXMXMXMXDXKXGXGXGXGXGXGXGXGXGXGXGXGXGXGXGXGXGXGXGXGXGXGXGXGXGXGXGXMXMXMXMXMXMXMXMXMXMXMXMXMXMXMXMXMXMXMXMXMXMXMXMXMXMXMXKXGXGXGXGXGXGXGXGXGXGXGXGXGXGXGXGXGXGXGXGXGXGXGXGXGXGXGXMXMXMXMXMXMXMXMXMXMXNXnXK D K K G A A Z b l l 1 < < l z k k k k i y y y y p p p p a s s { { } } ....|  .,.3.6.5.5.5.5.7.q.0.0.0.0.d.s.s.s.s.j.j.k.k.k.k.x.c.x.c.c.c.v.v.v.v.v.m.v.N.m.m.m.m.m.m.m.N.v.m.v.v.v.v.v.v.b.b.b.c.x.x.k.k.g.g.f.f.a.a.a.p.p.p.p.8.8.8.7.7.4.3.3.3. . .| | } { { { a a a p p p p y y i i i u u : : ; ; , , 1 l l z G L G .XmXZXBXNXDXMXMXAXMXMXMXMXMXMXMXMXMXMXMXMXMXMXKXGXGXGXGXGXGXGXGXGXGXGXGXGXGXGXGXGXGXGXGXGXGXGXGXGXGXGXMXMXDXMXMXMXMXMXMXMXMXMXMXMXMXMXMXMXMXMXMXMXMXMXMXMXDXKXGXGXGXGXGXGXGXGXGXGXGXGXGXGXGXGXGXGXGXGXGXGXGXGXGXGXGXDXMXDXMXMXMXMXMXMXMXMXMXMXMXMXMX",
"MXMXMXMXMXMXMXMXMXMXMXMXMXMXMXMXMXMXMXMXMXMXMXMXMXMXDXKXGXGXGXGXGXGXGXGXGXGXGXGXGXGXGXGXGXGXGXGXGXGXGXGXGXGXGXMXMXMXMXMXMXMXMXMXMXMXMXMXMXMXMXMXMXMXMXMXMXMXMXMXMXMXKXGXGXGXGXGXGXGXGXGXGXGXGXGXGXGXGXGXGXGXGXGXGXGXGXGXGXGXMXMXMXBXMXMXMXMXMXMXKX2XD A G G K Z Z Z b l l 1 1 < 1 h z k k k i 6 7 7 y y p p p p a a a a s { { } } |  .,.,.3.6.6.5.5.7.7.q.q.0.0.0.d.d.s.s.j.j.j.k.l.l.k.k.k.x.c.v.v.v.v.v.v.v.v.v.v.c.c.c.c.v.v.x.x.x.x.x.x.x.x.x.x.k.k.k.k.f.f.f.a.a.a.a.a.p.p.i.8.8.8.7.7.4.4.3.,. . .| | } } { { { a a a p p p p p y i i i u u : : ; ; ; , , < l l z M L H H.kXVXBXMXDXMXMXMXMXMXMXMXMXMXMXMXMXMXMXMXMXMXKXGXGXGXGXGXGXGXGXGXGXGXGXGXGXGXGXGXGXGXGXGXGXGXGXGXGXGXMXMXDXMXMXMXMXMXMXMXMXMXMXMXMXMXMXMXMXMXMXMXMXMXMXMXDXKXGXGXGXGXGXGXGXGXGXGXGXGXGXGXGXGXGXGXGXGXGXGXGXGXGXGXGXMXMXMXMXMXMXMXMXMXMXMXMXMXMXMXMX",
"MXMXMXMXMXMXMXMXMXMXMXMXMXMXMXMXMXMXMXMXMXMXMXMXMXMXDXKXGXGXGXGXGXGXGXGXGXGXGXGXGXGXGXGXGXGXGXGXGXGXGXGXGXGXGXMXMXMXMXMXMXMXMXMXMXMXMXMXMXMXMXMXMXMXMXMXMXMXMXMXMXMXKXGXGXGXGXGXGXGXGXGXGXGXGXGXGXGXGXGXGXGXGXGXGXGXGXGXGXGXMXMXBXBXMXMXMXMXMXMXDX/ K K K Z G Z Z n l l 1 < < < < , < h u u i 6 6 7 y y y y y p p p a a a s s { { { | | .. .,.,.3.5.5.5.5.5.7.q.q.0.0.d.d.s.j.j.j.j.k.k.k.k.k.k.x.x.x.x.x.x.x.x.x.x.x.x.x.x.x.x.x.x.x.x.k.k.k.k.k.j.k.g.g.f.f.f.a.a.a.a.a.p.i.8.8.7.7.9.4.4.4.3. . . .| | } } { { s a a a a p p p y y y y i i u : : : ; ; > > , < 1 l z M L H U ,XmXBXBXDXMXLXMXMXMXMXMXMXMXMXMXMXMXMXMXMXMXKXGXGXGXGXGXGXGXGXGXGXGXGXGXGXGXGXGXGXGXGXGXGXGXGXGXGXGXMXMXDXMXMXMXMXMXMXMXMXMXMXMXMXMXMXMXMXMXMXMXMXMXMXMXDXKXGXGXGXGXGXGXGXGXGXGXGXGXGXGXGXGXGXGXGXGXGXGXGXGXGXGXGXMXMXDXMXMXMXMXMXMXMXMXMXMXMXMXMX",
"MXMXMXMXMXMXMXMXMXMXMXMXMXMXMXMXMXMXMXMXMXMXMXMXMXMXDXKXGXGXGXGXGXGXGXGXGXGXGXGXGXGXGXGXGXGXGXGXGXGXGXGXGXGXGXMXMXMXMXMXMXMXMXMXMXMXMXMXMXMXMXMXMXMXMXMXMXMXMXMXMXMXKXGXGXGXGXGXGXGXGXGXGXGXGXGXGXGXGXGXGXGXGXGXGXGXGXGXGXGXMXMXBXBXMXMXMXMXBXMXjXA K K K A G Z n n l l 1 < < , < , : : u u u & 6 6 7 y y y y y p p p a a a a a o.{ { } } | |  .,.3.3.3.3.3.5.5.7.7.q.0.p.p.s.s.a.s.s.s.f.f.f.k.g.k.g.k.k.k.k.k.k.k.k.k.k.k.k.k.k.k.k.k.k.k.g.g.f.f.f.f.f.f.a.a.a.i.i.i.i.i.8.8.9.9.4.4.4.O.O. . .| | | } { { { a a a a a p p p y y y y y 6 u = = * * ; ; > > > , < h z n M H U P.bXBXNXDXMXDXMXMXMXMXMXMXMXMXMXMXMXMXMXMXMXKXGXGXGXGXGXGXGXGXGXGXGXGXGXGXGXGXGXGXGXGXGXGXGXGXGXGXGXMXMXDXMXMXMXMXMXMXMXMXMXMXMXMXMXMXMXMXMXMXMXMXMXMXMXDXKXGXGXGXGXGXGXGXGXGXGXGXGXGXGXGXGXGXGXGXGXGXGXGXGXGXGXGXDXMXDXMXMXMXMXMXMXMXMXMXMXMXMXMX",
"MXMXMXMXMXMXMXMXMXMXMXMXMXMXMXMXMXMXMXMXMXMXMXMXMXMXDXKXGXGXGXGXGXGXGXGXGXGXGXGXGXGXGXGXGXGXGXGXGXGXGXGXGXGXGXMXMXMXMXMXMXMXMXMXMXMXMXMXMXMXMXMXMXMXMXMXMXMXMXMXMXMXKXGXGXGXGXGXGXGXGXGXGXGXGXGXGXGXGXGXGXGXGXGXGXGXGXGXGXGXMXMXMXMXMXMXMXMXBXBX1XZ K A K K K Z n b l 1 1 < < , < , , : : u u & & 6 6 6 y 7 y y y y p p p p p p a a { { { } } } | |  .,.,.3.3.5.5.5.7.q.0.0.p.p.p.p.p.p.a.a.s.f.a.a.a.a.f.f.f.f.f.f.f.g.f.f.f.a.f.f.f.f.f.f.f.s.a.a.a.a.a.p.p.i.i.8.8.8.8.8.9.9.4.4.3.O.O. .....| } } { { { a a a a a p p p p y y y y 6 6 6 & = = * * ; ; > > > , 1 l z z n H Y G pXVXBXBXMXDXMXMXMXMXMXMXMXMXMXMXMXMXMXMXMXKXGXGXGXGXGXGXGXGXGXGXGXGXGXGXGXGXGXGXGXGXGXGXGXGXGXGXGXMXMXDXMXMXMXMXMXMXMXMXMXMXMXMXMXMXMXMXMXMXMXMXMXMXMXDXKXGXGXGXGXGXGXGXGXGXGXGXGXGXGXGXGXGXGXGXGXGXGXGXGXGXGXGXDXMXDXMXMXMXMXMXMXMXMXMXMXMXMXMX",
"MXMXMXMXMXMXMXMXMXMXMXMXMXMXMXMXMXMXMXMXMXMXMXMXMXMXLXKXGXGXGXGXGXGXGXGXGXGXGXGXGXGXGXGXGXGXGXGXGXGXGXGXGXGXKXMXMXMXMXMXMXMXMXMXMXMXMXMXMXMXMXMXMXMXMXMXMXMXMXMXMXDXKXGXGXGXGXGXGXGXGXGXGXGXGXGXGXGXGXGXGXGXGXGXGXGXGXGXGXKXDXMXAXHXMXNXKXNXKXBXK K K K K G A Z C b l 1 < < < , , , : , , : * X % & : : 6 6 6 y 7 y y y y p p p p p a a a { { } } } } | | ,.,.3.5.7.7.7.8.8.8.8.8.i.i.i.i.i.i.i.p.a.a.a.a.a.a.a.a.a.a.a.a.a.a.a.a.a.a.p.p.p.p.p.i.p.p.8.8.8.8.0.8.7.7.9.9.4.4.3.3.O. . .| | | } } { { a a a a p p p p p p y 7 7 6 6 6 = = & % % * * * * ; > > > , < 1 l l n G H H.P.VXVXVXLXLXAXAXMXMXMXMXMXMXMXMXMXMXLXLXLXKXGXGXGXGXGXGXGXGXGXGXGXGXGXGXGXGXGXGXGXGXGXGXGXGXGXGXGXKXMXMXMXMXMXMXMXMXMXMXMXMXMXMXMXMXMXMXMXMXMXMXMXMXMXLXKXGXGXGXGXGXGXGXGXGXGXGXGXGXGXGXGXGXGXGXGXGXGXGXGXGXGXGXDXMXMXDXMXMXDXMXMXMXMXMXMXMXMXMX",
"MXMXMXMXMXMXMXMXMXMXMXMXMXMXMXMXMXMXMXMXMXMXMXMXMXMXDXKXGXGXGXGXGXGXGXGXGXGXGXGXGXGXGXGXGXGXGXGXGXGXGXGXGXGXKXMXMXMXMXMXMXMXMXMXMXMXMXMXMXMXMXMXMXMXMXMXMXMXMXMXDXDXKXGXGXGXGXGXGXGXGXGXGXGXGXGXGXGXGXGXGXGXGXGXGXGXGXGXGXHXDXMXSXSXDXKXNXDXNXdXK K K K K G A Z b b 1 1 < < < , , , > ; ; ; % X X # % % % & & & 6 6 7 y y y p p p p p p a a a s { { } } } | ,.,.3.4.5.5.7.7.7.8.8.8.8.8.8.8.8.8.8.8.8.8.i.8.i.8.i.p.i.i.i.8.i.8.p.0.0.0.8.8.8.8.8.8.8.7.9.4.4.4.4.4.3.O.O. . . ...| | } { { { a a a a a a p p p p y y y y 7 7 6 & & & % % % % % * * * * ; > > > , < < l l n Z H Y H.aXmXZXnXKXSXAXMXMXMXMXMXMXMXDXDXLXDXBXBXKXGXGXGXGXGXGXGXGXGXGXGXGXGXGXGXGXGXGXGXGXGXGXGXGXGXGXKXDXMXMXAXDXDXMXMXMXMXMXMXMXMXMXMXMXMXMXMXMXMXMXDXMXMXDXKXGXGXGXGXGXGXGXGXGXGXGXGXGXGXGXGXGXGXGXGXGXGXGXGXGXGXGXDXMXMXMXMXMXMXMXMXMXMXMXMXMXMXMX",
"MXMXMXMXMXMXMXMXMXMXMXMXMXMXMXMXMXMXMXMXMXMXMXMXMXMXDXKXGXGXGXGXGXGXGXGXGXGXGXGXGXGXGXGXGXGXGXGXGXGXGXGXGXGXKXMXMXMXMXAXMXMXMXMXMXMXMXMXMXMXMXMXMXMXMXMXMXMXMXMXMXDXKXGXGXGXGXGXGXGXGXGXGXGXGXGXGXGXGXGXGXGXGXGXGXGXGXGXGXHXDXMXDXNXAXKXNXFXNX XK G G G K A Z C b b 1 < < < < , , , > ; ; * o . . X X # # # # % & & & 6 7 7 7 7 p p p a a s s { a o.{ { { } | | ,.,.3.3.3.3.4.4.4.4.4.4.4.4.4.4.4.4.4.4.9.4.9.4.9.7.9.9.9.7.9.9.9.9.9.4.4.4.4.4.9.4.4.4.O.O.O.O. . . .....| } } { { { { a a a a a p p p p p p y 7 7 7 6 6 6 & & # # # # o o % % * * * * ; ; > > > , < 1 l b n G H H.XXVXVXBXAXAXAXCXMXMXMXMXMXMXMXMXBXMXMXMXKXGXGXGXGXGXGXGXGXGXGXGXGXGXGXGXGXGXGXGXGXGXGXGXGXGXGXKXDXMXMXMXMXMXMXMXMXMXMXMXMXMXMXMXMXMXMXMXMXMXMXMXMXMXLXKXGXGXGXGXGXGXGXGXGXGXGXGXGXGXGXGXGXGXGXGXGXGXGXGXGXGXGXDXMXMXMXMXMXMXMXMXMXMXMXMXMXMXMX",
"MXMXMXMXMXMXMXMXMXMXMXMXMXMXMXMXMXMXMXMXMXMXMXMXMXMXMXKXGXGXGXGXGXGXGXGXGXGXGXGXGXGXGXGXGXGXGXGXGXGXGXGXGXGXKXMXMXMXMXMXMXMXMXMXMXMXMXMXMXMXMXMXMXMXMXMXMXMXMXMXMXMXKXGXGXGXGXGXGXGXGXGXGXGXGXGXGXGXGXGXGXGXGXGXGXGXGXGXGXKXDXMXLXAXNXDXMXNXvXK D D G K K A Z b b l 1 < < < < , , > ; ; ; * O . X X X X X X X X # # & & 6 6 6 7 7 7 7 p p p p p a a a a a a o.{ } } | | | |  . . . .O.O. . .O.O. . . . . . . . . . . . .,.,.,.O.O.O.O.O.O.O.O.O.O.O. . . .....| ..| } } { { { { a a a a a p p p p p y 7 7 7 7 7 6 6 6 & & & # # # X X X o o + * + + + * ; ; > > > , < < l l n G H H.H.bXVXFXNXAXAXMXMXMXMXMXMXMXMXMXMXMXNXBXFXGXGXGXGXGXGXGXGXGXGXGXGXGXGXGXGXGXGXGXGXGXGXGXGXGXGXKXDXMXMXMXMXMXMXMXMXMXMXMXMXMXMXMXMXMXMXMXMXMXMXMXMXMXLXKXGXGXGXGXGXGXGXGXGXGXGXGXGXGXGXGXGXGXGXGXGXGXGXGXGXGXGXDXMXMXMXMXMXMXMXMXMXMXMXMXMXMXMX",
"MXMXMXMXMXMXMXMXMXMXMXMXMXMXMXMXMXMXMXMXMXMXMXMXLXDXDXKXGXGXGXGXGXGXGXGXGXGXGXGXGXGXGXGXGXGXGXGXGXGXGXGXGXGXHXKXMXMXMXMXMXMXMXMXMXMXMXMXMXMXMXMXMXMXMXMXMXMXMXMXMXDXKXHXGXGXGXGXGXGXGXGXGXGXGXGXGXGXGXGXGXGXGXGXGXGXGXGXGXKXKXAXSXDXLXDXNXNX<XA D K K K G A Z b l l 1 < < < < , > > > ; ; * O X X X X X X X . X X X # & & 6 6 6 7 7 7 7 y p p p p p p p p p p a a s { { } } } | | | | | | | | | | ....| | | | } } } } | | } } | | ......| | | | } } } } } o.{ { { { { { a a a a a p p p p p p p p y 7 7 7 6 6 & & & & % # # X X X X o o o O O + + + * * * ; ; ; > , , < l l n n H H P..XZXZXNXAXMXMXMXMXMXMXMXMXMXMXLXMXMXDXKXGXGXGXGXGXGXGXGXGXGXGXGXGXGXGXGXGXGXGXGXGXGXGXGXGXGXKXDXMXMXDXLXMXMXMXMXMXMXMXMXMXMXMXMXMXMXMXMXMXMXMXMXDXDXKXGXGXGXGXGXGXGXGXGXGXGXGXGXGXGXGXGXGXGXGXGXGXGXGXGXGXKXDXMXMXMXMXMXMXMXMXMXMXMXMXMXMXMX",
"KXKXKXKXKXKXKXKXKXKXKXKXKXKXKXKXKXKXKXKXKXKXKXKXKXKXKXKXKXKXKXDXKXKXKXKXKXKXKXKXKXKXKXKXKXKXKXKXKXKXKXKXKXKXKXKXKXKXKXKXKXKXKXKXKXKXKXKXKXKXKXKXKXKXKXKXKXKXKXKXKXKXKXKXKXKXKXKXKXKXKXKXKXKXKXKXKXKXKXKXKXKXKXKXKXKXKXKXKXKXKXKXHXKXKXHXDXFXQ D K K K K D Z n b l 1 1 < < < , , > > ; ; ; ; O           X X X X X X % % & & & 6 6 7 6 y y y y y y y y y p y p p p p a a a s { { { } } } { { { { } } } } { { { { { { { { { { { { { { { { { { { { { { { { { { { { a a a a a a a a a p p p p p p y y y y 6 6 6 & & % % % # X X X X X X O o O O O O + + + * * ; ; ; , , , < 1 l b n G H P.U zXFXKXHXKXKXKXKXKXKXKXKXKXKXKXKXKXKXKXKXKXKXKXKXKXKXKXKXKXKXKXKXKXKXKXKXKXKXKXKXKXKXKXKXKXKXKXKXKXKXKXKXKXKXKXKXKXKXKXKXKXKXKXKXKXKXKXKXKXKXKXKXKXKXKXKXKXKXKXKXKXKXKXKXKXKXKXKXKXKXKXKXKXKXKXKXKXKXKXKXKXKXKXKXKXKXKXKXKXKXKXKXKXKXKXKXKX",
"GXGXGXGXGXGXGXGXGXGXGXGXGXGXGXGXGXGXGXGXGXGXGXGXGXGXGXKXDXDXDXMXMXMXMXMXMXMXMXMXMXMXMXMXMXMXMXMXMXMXMXMXMXMXDXKXGXGXGXGXGXGXGXGXGXGXGXGXGXGXGXGXGXGXGXGXGXGXGXGXHXGXKXDXMXMXDXMXMXMXMXMXMXMXMXMXMXMXMXMXMXMXMXMXMXMXDXMXDXKXKXGXGXHXHXHXGXjXA D K K K G A Z b l l l 1 < < , , , > > > ; > ; O                 X X X X X X # # # # % % & & & & & & & 6 6 6 6 6 7 7 7 p p p a a a a a a a a a a a a a a a a a a a a a a a a a a s { { { { a a a a { a a a { { s a a a a a a a a p p p p p y y 7 7 6 6 6 6 & & & % # X X X X X X X X X   O O O O O + + + * ; ; ; ; ; , , , < l l n M H Y P.#XZXFXHXGXGXGXGXGXGXGXGXGXGXGXGXGXGXKXMXMXMXMXMXMXMXMXMXMXMXMXMXMXMXMXMXMXMXMXMXMXMXMXMXMXDXKXGXGXGXGXGXGXGXGXGXGXGXGXGXGXGXGXGXGXGXGXGXGXGXGXGXGXKXDXDXMXMXMXMXMXMXMXMXMXMXMXMXMXMXMXMXMXMXMXMXMXMXMXMXKXKXGXGXGXGXGXGXGXGXGXGXGXGXGXGXGX",
"GXGXGXGXGXGXGXGXGXGXGXGXGXGXGXGXGXGXGXGXGXGXGXGXGXGXGXKXMXMXMXMXMXMXMXMXMXMXMXMXMXMXMXMXMXMXMXMXMXMXMXMXMXMXKXGXGXGXGXGXGXGXGXGXGXGXGXGXGXGXGXGXGXGXGXGXGXGXGXGXGXGXKXMXMXMXMXMXMXMXMXMXMXMXMXMXMXMXMXMXMXMXMXMXMXMXMXMXMXMXKXGXKXGXGXFXHXW A K K K K G A n b l l l 1 < < , , , > > > ; ; * o . @ @           X X X X X X X X X X X X X # # # # # # # # # & & & 6 7 7 7 p p p p p p p p p p p p p p p p p p p a a a a a a a a a a a a a a a a a a a a p a a p p p p p p p p p p y 7 7 7 7 7 6 6 & $ $ # # # # X X X X X X X X         O O O O O + + + + * ; ; ; ; , , , < 1 l z n G H H.U bXFXFXHXGXGXGXGXGXGXGXGXGXGXGXGXGXKXMXMXMXMXMXMXMXMXMXMXMXMXMXMXMXMXMXMXMXMXMXMXMXMXMXMXDXGXGXGXGXGXGXGXGXGXGXGXGXGXGXGXGXGXGXGXGXGXGXGXGXGXGXGXKXMXMXMXMXMXMXMXMXMXMXMXMXMXMXMXMXMXMXMXMXMXMXMXMXMXMXMXKXGXGXGXGXGXGXGXGXGXGXGXGXGXGXGX",
"GXGXGXGXGXGXGXGXGXGXGXGXGXGXGXGXGXGXGXGXGXGXGXGXGXGXGXKXMXMXMXMXMXMXMXMXMXMXMXMXMXMXMXMXMXMXMXMXMXMXMXMXDXMXMXGXGXGXGXGXGXGXGXGXGXGXGXGXGXGXGXGXGXGXGXGXGXGXGXGXGXGXKXMXMXMXMXMXMXMXMXMXMXMXMXMXMXMXMXMXMXMXMXMXMXMXMXLXNXMXGXGXGXKXGXFXlXK A G K K G A Z n b l 1 1 1 < , , , > > > ; ; ; * o X @ @       X X X X X . . X X X # # % # % % % & & & & & & & & & 6 y y y p p p p a a a p a p p a p a a a a a a a a a a a a a a a a a a a a a a a a a a p p p p p p p p p p p p 7 7 7 7 7 7 6 6 6 6 & & $ $ # # # # X X X X X X X X X X O O O O + O + + + + + * ; ; ; ; , , < < l l z G H Y P..XFXFXGXDXGXGXKXGXHXGXGXGXGXGXGXGXKXMXMXMXMXMXMXMXMXMXMXMXMXMXMXMXMXMXMXMXMXMXMXMXMXMXMXMXGXGXGXGXGXGXGXGXGXGXGXGXGXGXGXGXGXGXGXGXGXGXGXGXGXGXGXKXMXMXMXMXMXMXMXMXMXMXMXMXMXMXMXMXMXMXMXMXMXMXMXMXMXMXMXGXGXGXGXGXGXGXGXGXGXGXGXGXGXGXGX",
"GXGXGXGXGXGXGXGXGXGXGXGXGXGXGXGXGXGXGXGXGXGXGXGXGXGXGXKXMXMXMXMXMXMXMXMXMXMXMXMXMXMXMXMXMXMXMXMXMXMXMXMXDXMXMXGXGXGXGXGXGXGXGXGXGXGXGXGXGXGXGXGXGXGXGXGXGXGXGXGXGXGXKXMXMXMXMXMXMXMXMXMXMXMXMXMXMXMXMXMXMXMXMXMXMXMXMXLXMXMXGXGXGXGXFXFX@XK A K K G A Z Z b l l 1 1 1 < < , , , > ; ; ; ; * + X       X X X X X X X X X % & % & & & & & & & & 6 6 6 6 6 6 6 6 6 y y p p p p a a a a a a a a a a a a a a a { { { { { { { { { { { s { { { s a a a s a a a a a a a p p p p p p p 7 7 7 7 7 7 7 7 6 6 6 6 & & & & % # # X X X X X X X X X O O O O O + + + + * ; ; ; ; , , , 2 < l l z n M Y U H.wXFXDXGXGXKXGXKXGXGXGXGXGXGXGXGXKXMXMXMXMXMXMXMXMXMXMXMXMXMXMXMXMXMXMXMXMXMXMXMXMXMXMXMXGXGXGXGXGXGXGXGXGXGXGXGXGXGXGXGXGXGXGXGXGXGXGXGXGXGXGXKXMXMXMXMXMXMXMXMXMXMXMXMXMXMXMXMXMXMXMXMXMXMXMXMXMXMXMXGXGXGXGXGXGXGXGXGXGXGXGXGXGXGXGX",
"GXGXGXGXGXGXGXGXGXGXGXGXGXGXGXGXGXGXGXGXGXGXGXGXGXGXGXKXMXMXMXMXMXMXMXMXMXMXMXMXMXMXMXMXMXMXMXMXMXMXMXMXDXMXMXGXGXGXGXGXGXGXGXGXGXGXGXGXGXGXGXGXGXGXGXGXGXGXGXGXGXGXKXMXMXMXMXMXMXMXMXMXMXMXMXMXMXMXMXMXMXMXMXMXMXMXMXLXMXMXGXGXGXHXGXjXA K A K K G A Z b b l l 1 1 < < < , , , , ; ; ; ; * o X . X X X X X o # % % % & u u 6 6 6 6 6 7 6 y 7 7 7 7 7 7 7 7 7 y p p p p a a a a a a a a { { { { { { { } { } } } { } } } } } } } } } } { { { { { { { a a a a a a a a a p p p p p p p p y y y 7 y 7 6 6 6 6 6 & & & & % # % X X X X X X X o o o O + + + + * * * * : : , , , < 1 l b n M H H H.P.ZXFXGXGXKXGXFXGXGXGXGXGXGXGXGXKXMXMXMXMXMXMXMXMXMXMXMXMXMXMXMXMXMXMXMXMXMXMXMXMXMXMXMXGXGXGXGXGXGXGXGXGXGXGXGXGXGXGXGXGXGXGXGXGXGXGXGXGXGXGXKXMXMXMXMXMXMXMXMXMXMXMXMXMXMXMXMXMXMXMXMXMXMXMXMXMXMXMXGXGXGXGXGXGXGXGXGXGXGXGXGXGXGXGX",
"GXGXGXGXGXGXGXGXGXGXGXGXGXGXGXGXGXGXGXGXGXGXGXGXGXGXGXKXMXMXMXMXMXMXMXMXMXMXMXMXMXMXMXMXMXMXMXMXMXMXMXMXDXMXMXGXGXGXGXGXGXGXGXGXGXGXGXGXGXGXGXGXGXGXGXGXGXGXGXGXGXGXKXMXMXMXMXMXMXMXMXMXMXMXMXMXMXMXMXMXMXMXMXMXMXMXMXLXMXMXGXGXGXDXHXL.A D G K K G Z Z b l l l 1 1 < < , , , , , : ; ; * * % X X X # # % % & & & & & 6 y y 6 7 7 7 7 7 y 7 p p y p p p p p p p p p a a a a a { { { { { } } } } } | | | | | | | | | | | | | | | } } } } } } } } } } { { { { { a { { a a a a a a p p p p p p p p y y y y y y 7 6 6 6 & & & & % % # # # # # o o o + + + + * * ; ; : : , , , 2 < 1 b n M L H P.U eXHXKXGXGXFXGXGXGXGXGXGXGXGXGXKXMXMXMXMXMXMXMXMXMXMXMXMXMXMXMXMXMXMXMXMXMXMXMXMXMXMXMXGXGXGXGXGXGXGXGXGXGXGXGXGXGXGXGXGXGXGXGXGXGXGXGXGXGXGXKXMXMXMXMXMXMXMXMXMXMXMXMXMXMXMXMXMXMXMXMXMXMXMXMXMXMXMXGXGXGXGXGXGXGXGXGXGXGXGXGXGXGXGX",
"GXGXGXGXGXGXGXGXGXGXGXGXGXGXGXGXGXGXGXGXGXGXGXGXGXGXGXKXMXMXMXMXMXMXMXMXMXMXMXMXMXMXMXMXMXMXMXMXMXMXMXMXDXMXDXGXGXGXGXGXGXGXGXGXGXGXGXGXGXGXGXGXGXGXGXGXGXGXGXGXGXGXKXMXMXMXMXMXMXMXMXMXMXMXMXMXMXMXMXMXMXMXMXMXMXMXMXLXMXMXGXGXHXHXwXZ K A K G K G Z n b l l l 1 < < , , , > > , : : ; : : % # % % % & & & & 6 6 6 7 7 y y 7 7 p p p p p p p p p p p a a a a a a a a a { { { { } } } } | | ..| ......|  . . . . . . . .|  . .| | | | | | | | | ..| } } } } { { { { { { { { a a a a a a a a p a p p p p p y y y y y 6 6 6 6 6 & & & & % % % % % % * * * * ; ; ; ; : > > > , < 1 l n n M H H.H.H.nXGXKXGXKXGXKXGXGXGXGXGXGXGXKXMXMXMXMXMXMXMXMXMXMXMXMXMXMXMXMXMXMXMXMXMXMXMXMXMXMXMXGXGXHXGXGXGXGXGXGXGXGXGXGXGXGXGXGXGXGXGXGXGXGXGXGXGXGXKXMXMXMXMXMXMXMXMXMXMXMXMXMXMXMXMXMXMXMXMXMXMXMXMXMXMXMXGXGXGXGXGXGXGXGXGXGXGXGXGXGXGXGX",
"GXGXGXGXGXGXGXGXGXGXGXGXGXGXGXGXGXGXGXGXGXGXGXGXGXGXGXKXMXMXMXMXMXMXMXMXMXMXMXMXMXMXMXMXMXMXMXMXMXMXMXMXDXMXDXGXGXGXGXGXGXGXGXGXGXGXGXGXGXGXGXGXGXGXGXGXGXGXGXGXGXGXKXMXMXMXMXMXMXMXMXMXMXMXMXMXMXMXMXMXMXMXMXMXMXMXMXDXMXMXGXGXFXHXT A K G K K G G Z n l l l l < < < , , , , , : : : : : : = & & & & & & 6 6 6 6 y y 7 y p p p p p p p p a a a a a a a a a a a a { { { { } } |  .| |  . . . . . . . . . . . . . . . . . . . . . . . . . . . . . . .| | | | | | | | } } { { { { { s s s a a a a a p p p p p p p y y y y 7 7 7 7 6 6 & & & & % % % * * * * * ; * ; ; ; > > , 2 < 1 l n M L H H.U %XGXKXGXGXKXGXGXGXGXGXGXGXGXKXMXMXMXMXMXMXMXMXMXMXMXMXMXMXMXMXMXMXMXMXMXMXMXMXMXMXMXGXGXGXGXGXGXGXGXGXGXGXGXGXGXGXGXGXGXGXGXGXGXGXGXGXGXGXKXMXMXMXMXMXMXMXMXMXMXMXMXMXMXMXMXMXMXMXMXMXMXMXMXMXMXMXGXGXGXGXGXGXGXGXGXGXGXGXGXGXGXGX",
"GXGXGXGXGXGXGXGXGXGXGXGXGXGXGXGXGXGXGXGXGXGXGXGXGXGXGXKXMXMXMXMXMXMXMXMXMXMXMXMXMXMXMXMXMXMXMXMXMXMXMXMXDXMXDXGXGXGXGXGXGXGXGXGXGXGXGXGXGXGXGXGXGXGXGXGXGXGXGXGXGXGXKXMXMXMXAXMXMXMXMXMXMXMXMXMXMXMXMXMXMXMXMXMXMXMXMXDXMXMXGXGXKX4XZ I A K K K A Z Z b l l l 1 < < , , , , , , , : : : u h : & & 6 6 6 6 7 7 y 7 y y p p p p p p p a a a a a a a a a a s { { { { } } | | .... . . . . .O.O.O.O.O.O.O.O.3.3.3.3.3.3.3.3.O.3.3.O.O.3.3.3.3.3.3.3.3.,. . . . . . . .....| | } { } } { { { { s s s a a a a a a p p p p p p y y y y y 6 6 u 6 = : = = * * * * * * * ; ; ; > > > , < h h n M B H H.H.Q lXGXGXGXKXGXGXGXGXGXGXHXHXKXMXMXMXMXMXMXMXMXMXMXMXMXMXMXMXMXMXMXMXMXMXMXMXMXMXMXMXGXGXKXGXGXGXGXGXGXGXGXGXGXGXGXGXGXGXGXGXGXGXGXGXGXGXGXKXMXMXMXMXMXMXMXMXMXMXMXMXMXMXMXMXMXMXMXMXMXMXMXMXMXMXMXGXGXGXGXGXGXGXGXGXGXGXGXGXGXGXGX",
"GXGXGXGXGXGXGXGXGXGXGXGXGXGXGXGXGXGXGXGXGXGXGXGXGXGXGXKXMXMXMXMXMXMXMXMXMXMXMXMXMXMXMXMXMXMXMXMXMXMXMXMXDXMXDXGXGXGXGXGXGXGXGXGXGXGXGXGXGXGXGXGXGXGXGXGXGXGXGXGXGXGXKXMXMXMXMXMXMXMXMXMXMXMXMXMXMXMXMXMXMXMXMXMXMXMXMXLXMXBXGXGXBXb K K A K K A A Z n b l l 1 1 < < , , , < h h h h h h h u u & 6 6 7 7 7 y y y y p p p p p p p a a a a a a a s { { { { { } } } } | |  . . . .O.O.O.O.O.O.4.4.4.4.4.4.4.4.4.4.4.4.4.4.4.4.4.4.4.4.4.4.4.4.4.4.4.3.3.3.3.3.3.O.O. . . . . ...| | } } } } { { { { { { s a a a a a a p p p p p p p y y y y i i u u u : : : : : : = * ; ; ; > > , < < h n k M H H H.P.L.FXHXDXGXGXHXGXGXGXGXGXGXKXMXMXMXMXMXMXMXMXMXMXMXMXMXMXMXMXMXMXMXMXMXMXMXMXMXMXMXGXGXHXGXGXGXGXGXGXGXGXGXGXGXGXGXGXGXGXGXGXGXGXGXGXGXGXKXMXMXMXMXMXMXMXMXMXMXMXMXMXMXMXMXMXMXMXMXMXMXMXMXMXMXMXGXGXGXGXGXGXGXGXGXGXGXGXGXGXGXGX",
"GXGXGXGXGXGXGXGXGXGXGXGXGXGXGXGXGXGXGXGXGXGXGXGXGXGXGXKXMXMXMXMXMXMXMXMXMXMXMXMXMXMXMXMXMXMXMXMXMXMXMXMXDXMXDXGXGXGXGXGXGXGXGXGXGXGXGXGXGXGXGXGXGXGXGXGXGXGXGXGXGXGXKXMXMXMXMXMXMXMXMXMXMXMXMXMXBXBXMXMXMXMXAXAXCXLXDXPXHXNXFXHXL.U G G K K K A Z Z b b l l l 1 < , , , h h k k k k i i i i y 6 7 7 7 7 7 7 y p p p p p p p p a a a a a a a { { } } } } | | | |  . .O.O. . .O.O.O.4.4.4.4.4.9.9.4.4.4.9.9.9.4.4.9.9.9.9.9.9.9.4.4.4.4.4.4.4.4.4.4.4.4.4.4.4.3.O.O.O.O. . . . . .| | | } } } { { { { { { a a a a a a a a p p p p p y y y y y y y i u u u u u : = = ; ; ; ; , < < < < l z n G L H.P.H.eXFXFXDXHXKXGXGXHXHXGXGXKXCXMXMXMXMXMXMXMXMXMXMXMXMXMXMXMXMXMXMXMXMXMXMXMXMXMXMXGXGXGXGXGXGXGXGXGXGXGXGXGXGXGXGXGXGXGXGXGXGXGXGXGXGXGXKXMXMXMXMXMXMXMXMXMXMXMXMXMXMXMXMXMXMXMXMXMXMXMXMXMXMXMXGXGXGXGXGXGXGXGXGXGXGXGXGXGXGXGX",
"GXGXGXGXGXGXGXGXGXGXGXGXGXGXGXGXGXGXGXGXGXGXGXGXGXGXGXKXMXMXMXMXMXMXMXMXMXMXMXMXMXMXMXMXMXMXMXMXMXMXMXMXDXMXDXGXGXGXGXGXGXGXGXGXGXGXGXGXGXGXGXGXGXGXGXGXGXGXGXGXGXGXKXMXMXMXMXMXMXMXMXMXMXMXMXMXBXBXMXMXMXMXAXCXSXKXNXKXNXBXHX4XK K K K I K A A Z b b l l l 1 l z h h h k k k k k k i i i g i 7 7 7 y y y p p p p p p a p a a a { { { { { { } } ..| ..| .. . . .O.O.O.3.3.4.4.4.4.9.9.9.4.4.4.4.9.9.9.9.7.9.7.7.7.7.7.7.7.7.9.9.9.9.7.7.7.9.9.9.9.4.4.4.4.4.4.4.3.3.O.O.O. . . . . .| | ..| | } } } { { { { { { a a a a a p p p p p p p y y y y i i i i i i u u : : : : : , , , < < l l n Z G Y F.P.H.mXFXFXKXHXGXGXHXHXGXGXKXMXMXMXMXMXMXMXMXMXMXMXMXMXMXMXMXMXMXMXMXMXMXMXMXMXMXMXGXGXGXGXGXGXGXGXGXGXGXGXGXGXGXGXGXGXGXGXGXGXGXGXGXGXGXKXMXMXMXMXMXMXMXMXMXMXMXMXMXMXMXMXMXMXMXMXMXMXMXMXMXMXMXGXGXGXGXGXGXGXGXGXGXGXGXGXGXGXGX",
"GXGXGXGXGXGXGXGXGXGXGXGXGXGXGXGXGXGXGXGXGXGXGXGXGXGXGXKXMXMXMXMXMXMXMXMXMXMXMXMXMXMXMXMXMXMXMXMXMXMXMXMXDXMXMXGXGXGXGXGXGXGXGXGXGXGXGXGXGXGXGXGXGXGXGXGXGXGXGXGXGXGXKXMXMXMXMXMXMXMXMXMXMXMXMXMXBXBXMXMXMXMXAXAXAXAXLXMXKXNXBXR A G K I I K A A Z b b l l l l z z z z k k k k k k k k d d d i y 7 y p p p p p p p p a a a a a { { { { { { } } ....| .. . . . .6.3.3.4.4.4.4.9.7.4.4.9.7.9.9.7.7.9.7.8.8.8.8.8.8.8.8.8.8.8.8.8.8.8.8.8.8.7.7.7.7.7.7.7.7.9.9.9.4.4.4.4.3.3.3.3.3.,. . . . . .| | | } } } { { { { { s a a a a a p p p p p p p y y i i i i i i i i u u : : : : , , < < 1 l l n G H H.J.H..XFXZXHXGXGXGXGXGXGXGXKXMXMXMXMXMXMXMXMXMXMXMXMXMXMXMXMXMXMXMXMXMXMXMXMXMXMXMXGXGXGXGXGXGXGXGXGXGXGXGXGXGXGXGXGXGXGXGXGXGXGXGXGXGXGXKXMXMXMXMXMXMXMXMXMXMXMXMXMXMXMXMXMXMXMXMXMXMXMXMXMXMXMXGXGXGXGXGXGXGXGXGXGXGXGXGXGXGXGX",
"GXGXGXGXGXGXGXGXGXGXGXGXGXGXGXGXGXGXGXGXGXGXGXGXGXGXGXKXMXMXMXMXMXMXMXMXMXMXMXMXMXMXMXMXMXMXMXMXMXMXMXMXMXMXMXGXGXGXGXGXGXGXGXGXGXGXGXGXGXGXGXGXGXGXGXGXGXGXGXGXGXGXKXMXMXMXMXMXMXMXMXMXMXMXMXMXBXBXMXMXMXMXAXAXSXHXNXMXNXDX%XK K K K K K A A A n b l l l l z z z z z k k k k k k x d d d d i y y p p p p p p p p p a a a s { { { { } } } } .... . . . . .6.3.3.4.4.4.4.4.4.4.9.O.4.9.7.7.8.8.8.8.8.8.8.8.8.8.8.0.0.8.8.8.8.8.8.8.8.8.8.8.8.7.7.8.7.7.7.7.7.7.7.5.4.4.4.4.3.3.3.3.3. . . . . . .| | | } } } } } { { s a a a a a a a p p p p p p y i i i i i i i j h h u : , , , < < < l z z Z L D.J.P.H.eXFXZXHXGXGXGXGXGXGXKXMXMXMXMXMXMXMXMXMXMXMXMXMXMXMXMXMXMXMXMXMXMXMXMXMXMXMXGXGXGXGXGXGXGXGXGXGXGXGXGXGXGXGXGXGXGXGXGXGXGXGXGXGXGXKXMXMXMXMXMXMXMXMXMXMXMXMXMXMXMXMXMXMXMXMXMXMXMXMXMXMXMXGXGXGXGXGXGXGXGXGXGXGXGXGXGXGXGX",
"GXGXGXGXGXGXGXGXGXGXGXGXGXGXGXGXGXGXGXGXGXGXGXGXGXGXGXKXMXMXMXMXMXMXMXMXMXMXMXMXMXMXMXMXMXMXMXMXMXMXMXMXDXMXDXGXGXGXGXGXGXGXGXGXGXGXGXGXGXGXGXGXGXGXGXGXGXGXGXGXGXGXKXMXMXMXMXMXMXMXMXMXMXMXMXMXBXBXMXMXMXMXAXAXNXKXNXKXBXwXK K I I K K K A A Z n b z l z z z z z k k n k x k k d d d d d d g y p p p p p p a a a a a a s { { } { { } | .... . . .,. .3.3.3.3.4.4.4.4.4.4.4.9.7.9.7.7.8.8.8.8.8.8.8.8.8.0.0.0.p.p.p.p.p.8.8.8.8.8.8.8.8.8.8.8.8.8.8.7.7.7.8.7.7.7.7.7.7.4.4.4.4.4.3.3.3.3.O.O. . .| | | | } } } { { { s s s a a a a a a p p p p p g g i g i i i j j j i u h h < h < h l l z n G N J.H.P.H.mXFXHXHXHXHXHXGXGXKXBXMXMXMXMXMXMXMXMXMXMXMXMXMXMXMXMXMXMXMXMXMXMXMXMXMXMXGXGXGXGXGXGXGXGXGXGXGXGXGXGXGXGXGXGXGXGXGXGXGXGXGXGXGXKXMXMXMXMXMXMXMXMXMXMXMXMXMXMXMXMXMXMXMXMXMXMXMXMXMXMXMXGXGXGXGXGXGXGXGXGXGXGXGXGXGXGXGX",
"GXGXGXGXGXGXGXGXGXGXGXGXGXGXGXGXGXGXGXGXGXGXGXGXGXGXGXKXMXMXMXMXMXMXMXMXMXMXMXMXMXMXMXMXMXMXMXMXMXMXMXMXDXMXDXGXGXGXGXGXGXGXGXGXGXGXGXGXGXGXGXGXGXGXGXGXGXGXGXGXGXGXKXMXMXMXMXMXMXMXMXMXMXMXMXMXMXMXMXMXMXMXAXMXDXNXFXBXNXQ Q K K K K K K G Z b n z z z z n n k k k k x x x x d d d d d g g g p p p p p p a a a a a s { { { { } } | |  . . . .6.3.3.3.3.3.4.4.4.4.4.9.7.7.7.q.q.q.8.8.8.8.8.8.8.8.8.i.p.p.p.p.p.p.p.p.p.p.p.p.8.p.p.p.p.p.p.p.0.i.8.8.8.8.8.8.8.8.7.7.7.7.7.7.5.4.4.4.4.4.4.O.O. . . .| | | } } } { { { { { s a a a a a a a p p g g g g g g d d i i j j j j h z h h h l z z n n M H P.P.P.%XFXFXHXHXHXHXGXGXKXBXMXMXMXMXMXMXMXMXMXMXMXMXMXMXMXMXMXMXMXMXMXMXMXMXMXMXGXGXGXGXGXGXGXGXGXGXGXGXGXGXGXGXGXGXGXGXGXGXGXGXGXGXGXKXMXMXMXMXMXMXMXMXMXMXMXMXMXMXMXMXMXMXMXMXMXMXMXMXMXMXMXGXGXGXGXGXGXGXGXGXGXGXGXGXGXGXGX",
"GXGXGXGXGXGXGXGXGXGXGXGXGXGXGXGXGXGXGXGXGXGXGXGXGXGXGXKXMXMXMXMXMXMXMXMXMXMXMXMXMXMXMXMXMXMXMXMXMXMXMXMXDXMXDXGXGXGXGXGXGXGXGXGXGXGXGXGXGXGXGXGXGXGXGXGXGXGXGXGXGXGXKXMXMXMXMXMXMXMXMXMXMXMXMXMXNXMXMXMXMXMXMXMXLXBXNXBX%XI K K K K K K G G Z n n n z n n k k k x x x x x x x d d d d g g g g p p p p p p p a a a s { { { { } } |  . .,.6.6.6.3.3.3.4.4.4.4.4.4.4.7.7.7.7.8.8.0.8.8.8.8.p.p.p.p.i.i.p.p.p.p.p.p.p.p.p.p.p.p.p.p.p.p.d.p.p.p.p.p.p.p.8.8.8.0.8.0.8.8.8.8.8.7.7.7.7.4.4.4.4.4.4.O.3.,. . . .| | | } } } { { { { { { { s a s s s a a g g g g g g g d d d d k k k k z z z z z z z n M G Y P.P.P.eXFXFXFXHXHXGXGXKXBXBXMXMXMXMXMXMXMXMXMXMXMXMXMXMXMXMXMXMXMXMXMXMXMXMXMXGXGXGXGXGXGXGXGXGXGXGXGXGXGXGXGXGXGXGXGXGXGXGXGXGXGXGXKXMXMXMXMXMXMXMXMXMXMXMXMXMXMXMXMXMXMXMXMXMXMXMXMXMXMXMXGXGXGXGXGXGXGXGXGXGXGXGXGXGXGXGX",
"GXGXGXGXGXGXGXGXGXGXGXGXGXGXGXGXGXGXGXGXGXGXGXGXGXGXGXKXMXMXMXMXMXMXMXMXMXMXMXMXMXMXMXMXMXMXMXMXMXMXMXMXDXMXDXGXGXGXGXGXGXGXGXGXGXGXGXGXGXGXGXGXGXGXGXGXGXGXGXGXGXGXKXMXMXMXMXMXMXMXMXMXMXMXMXMXMXMXMXMXMXMXMXMXBXBXBXuXI Q G U I I K G G G Z n n n n M M M x x x m M x x x x f d d d g g g g p p p p p p p p a a a { { { } } | .. . .O.6.3.O.O.4.4.4.4.4.4.9.9.7.7.7.7.7.8.8.8.8.8.8.8.p.p.p.p.i.p.p.p.a.p.a.p.a.a.a.a.a.p.p.p.p.p.a.p.p.p.p.p.a.p.p.8.i.p.p.p.p.p.p.0.8.8.8.8.7.7.9.4.9.4.4.4.3.3.3. . . . .| | } } } } } { { { { { { s a s s a p p g g g g g g d g d d x k k k k z z z k z z n M Y Y P.P.U VXFXFXHXHXHXGXKXBXBXMXMXMXMXMXMXMXMXMXMXMXMXMXMXMXMXMXMXMXMXMXMXMXMXMXGXGXGXGXGXGXGXGXGXGXGXGXGXGXGXGXGXGXGXGXGXGXGXGXGXGXGXKXMXMXMXMXMXMXMXMXMXMXMXMXMXMXMXMXMXMXMXMXMXMXMXMXMXMXMXGXGXGXGXGXGXGXGXGXGXGXGXGXGXGXGX",
"GXGXGXGXGXGXGXGXGXGXGXGXGXGXGXGXGXGXGXGXGXGXGXGXGXGXGXKXMXMXMXMXMXMXMXMXMXMXMXMXMXMXMXMXMXMXMXMXMXMXMXMXDXMXMXGXGXGXGXGXGXGXGXGXGXGXGXGXGXGXGXGXGXGXGXGXGXGXGXGXGXGXKXMXMXMXMXMXMXMXMXMXMXMXMXMXMXLXMXMXLXBXNXBXNXFXVXQ I U K U I K K G G Z n n n n M M M M M x x x c m m m f f f f f f f s f s s s s a a s { { { } } | | | |  . .O.O.O.3.O.3.4.4.4.4.4.9.9.9.8.8.7.8.8.8.8.8.p.p.p.a.a.a.a.a.a.a.a.a.a.a.s.s.s.f.s.f.s.a.a.a.a.a.a.a.a.a.a.a.a.a.p.p.p.p.p.p.p.p.p.p.p.i.i.8.8.8.8.7.7.7.7.9.4.4.3.3.3.3.3. . .| | | | } } } } } } { { { { s a s s s a g g g g g g g d d d x x k k k k k n n n n n H H.J.P.P..XFXFXFXKXHXHXKXBXBXMXMXMXMXMXMXMXMXMXMXMXMXMXMXMXMXMXMXMXMXMXMXMXMXMXGXGXGXGXGXGXGXGXGXGXGXGXGXGXGXGXGXGXGXGXGXGXGXGXGXGXGXKXMXMXMXMXMXMXMXMXMXMXMXMXMXMXMXMXMXMXMXMXMXMXMXMXMXMXMXGXGXGXGXGXGXGXGXGXGXGXGXGXGXGXGX",
"GXGXGXGXGXGXGXGXGXGXGXGXGXGXGXGXGXGXGXGXGXGXGXGXGXGXGXKXMXMXMXMXMXMXMXMXMXMXMXMXMXMXMXMXMXMXMXMXMXMXMXMXDXMXMXGXGXGXGXGXGXGXGXGXGXGXGXGXGXGXGXGXGXGXGXGXGXGXGXGXGXGXKXMXMXMXMXMXMXMXMXMXMXMXMXMXMXMXMXLXDXMXNXBXBXBX%XP.K Y U U I K K G Z M M M M M M M M M x x x c c m m f f f f f f f s s s X.s s s a s { { } } } ..| | |  . .3.O.O.O.3.4.4.4.4.4.4.9.9.8.8.8.8.8.8.8.8.8.p.p.a.a.a.a.a.a.a.a.a.a.a.s.f.f.f.f.f.f.f.f.f.a.a.a.a.a.a.a.a.a.a.a.a.a.a.p.p.p.p.p.p.p.p.p.p.p.i.i.8.8.8.7.8.7.9.9.4.4.3.3.3.3. . . .| | | | } } } } } } { { { s s a a s s s s s g g g g d d d d x x k k k k k M n n n M H J.P.P.P.eXFXFXKXHXKXBXBXMXMXMXMXMXMXMXMXMXMXMXMXMXMXMXMXMXMXMXMXMXMXMXMXMXMXGXGXGXGXGXGXGXGXGXGXGXGXGXGXGXGXGXGXGXGXGXGXGXGXGXGXGXKXMXMXMXMXMXMXMXMXMXMXMXMXMXMXMXMXMXMXMXMXMXMXMXMXMXMXMXGXGXGXGXGXGXGXGXGXGXGXGXGXGXGXGX",
"GXGXGXGXGXGXGXGXGXGXGXGXGXGXGXGXGXGXGXGXGXGXGXGXGXGXGXKXMXMXMXMXMXMXMXMXMXMXMXMXMXMXMXMXMXMXMXMXMXMXMXMXDXMXMXGXGXGXGXGXGXGXGXGXGXGXGXGXGXGXGXGXGXGXGXGXGXGXGXGXGXGXKXMXMXMXAXMXMXMXMXMXMXMXMXMXMXLXDXMXMXDXBXNXFXkXK P.U H U U U K G Z M M M M M M m m m m m x c c m m m f f f f f f f f X.{ { { { { { { } } } } | | |  . . . .3.O.3.3.4.4.4.4.9.9.9.7.9.8.8.8.8.8.8.8.8.p.p.a.a.a.a.s.s.a.a.a.a.f.f.f.f.f.f.f.f.f.f.f.f.f.a.a.a.a.a.a.a.a.a.s.a.a.a.a.a.a.a.a.a.a.a.p.p.p.p.p.8.8.8.8.8.8.7.9.9.4.4.4.4.4.3.O.,.,. . .| | | | } } } } } { { { s s s a s s s s s g f d d d d d d x x x x x M M M M M N D.H.P.P.P.zXFXFXZXHXBXDXMXMXMXMXMXMXMXMXMXMXMXMXMXMXMXMXMXMXMXMXMXMXMXMXMXMXGXGXGXGXGXGXGXGXGXGXGXGXGXGXGXGXGXGXGXGXGXGXGXGXGXGXGXKXMXMXMXMXMXMXMXMXMXMXMXMXMXMXMXMXMXMXMXMXMXMXMXMXMXMXMXGXGXGXGXGXGXGXGXGXGXGXGXGXGXGXGX",
"GXGXGXGXGXGXGXGXGXGXGXGXGXGXGXGXGXGXGXGXGXGXGXGXGXGXGXKXMXMXMXMXMXMXMXMXMXMXMXMXMXMXMXMXMXMXMXMXMXMXMXMXDXMXMXGXGXGXGXGXGXGXGXGXGXGXGXGXGXGXGXGXGXGXGXGXGXGXGXGXGXGXKXMXMXMXMXMXMXMXMXMXMXMXMXMXMXMXMXMXNXBXBXBXvX#XI K H.U U U K G G G M M M M M M m m m m m f m m m m m f f f f f f f X.{ { { { { { { { } } | | | |  . . . .O.3.3.3.3.4.4.4.4.7.7.7.7.8.8.8.8.8.8.8.p.p.p.a.s.a.a.a.a.a.s.a.a.f.f.f.f.f.f.f.f.f.f.f.f.f.f.f.f.f.f.f.a.f.f.f.f.f.s.s.s.a.a.a.a.a.a.a.a.a.a.p.p.p.i.8.8.8.8.7.9.7.7.9.4.4.4.3.3.3.3.,.,. . . .| | | | } } } { { { { { s s s s s s g f f f d d d d d x x x x x M M M M M H H.H.P.P..XFXFXHXFXHXMXMXMXMXMXMXMXMXMXMXMXMXMXMXMXMXMXMXMXMXMXMXMXMXMXMXMXGXGXGXGXGXGXGXGXGXGXGXGXGXGXGXGXGXGXGXGXGXGXGXGXGXGXGXKXMXMXMXMXMXMXMXMXMXMXMXMXMXMXMXMXMXMXMXMXMXMXMXMXMXMXMXGXGXGXGXGXGXGXGXGXGXGXGXGXGXGXGX",
"GXGXGXGXGXGXGXGXGXGXGXGXGXGXGXGXGXGXGXGXGXGXGXGXGXGXGXKXMXMXMXMXMXMXMXMXMXMXMXMXMXMXMXMXMXMXMXMXMXMXMXMXDXMXDXGXGXGXGXGXGXGXGXGXGXGXGXGXGXGXGXGXGXGXGXGXGXGXGXGXGXGXKXMXMXMXMXMXMXMXMXMXMXMXMXMXKXNXNXKXDXNXNXZX-XK H.G U U Y Y G G G G G N M M M M m m m m m m m m m V f f f f f f f X.X.X.{ } } } { { { } } } | |  . . .O.O.O.3.3.4.4.4.4.9.9.7.7.8.8.8.8.8.8.p.p.p.p.a.a.s.f.s.a.a.a.a.a.f.g.f.f.g.g.g.g.g.g.g.g.k.g.g.g.g.g.f.f.f.f.f.f.f.f.f.f.f.f.f.a.a.a.s.s.s.a.a.a.a.a.p.p.p.i.8.8.8.8.8.7.9.9.9.4.4.3.3.3.3.,.,. . . .| | | } } } } { { { { { s s s s s f f f d d d d d d x x x x x m M M M M B H H.P.P.P.,XZXFXHXDXMXMXMXMXMXMXMXMXMXMXMXMXMXMXMXMXMXMXMXMXMXMXMXMXMXMXMXGXGXGXGXGXGXGXGXGXGXGXGXGXGXGXGXGXGXGXGXGXGXGXGXGXGXGXKXMXMXMXMXMXMXMXMXMXMXMXMXMXMXMXMXMXMXMXMXMXMXMXMXMXMXMXGXGXGXGXGXGXGXGXGXGXGXGXGXGXGXGX",
"GXGXGXGXGXGXGXGXGXGXGXGXGXGXGXGXGXGXGXGXGXGXGXGXGXGXGXKXMXMXMXMXMXMXMXMXMXMXMXMXMXMXMXMXMXMXMXMXMXMXMXMXDXMXDXGXGXGXGXGXGXGXGXGXGXGXGXGXGXGXGXGXGXGXGXGXGXGXGXGXGXGXKXMXMXMXMXMXMXMXMXMXMXMXMXMXMXMXDXMXNXKXBXdXQ U Q U U U U H G G G L L N M M B m m m m m m m m m m V V f f f f f X.X.X.} } } } } } { } } } | |  . . .O.O.3.3.4.4.4.4.4.4.9.9.7.7.8.8.8.8.8.i.p.p.p.a.s.s.f.f.f.f.f.a.f.f.f.f.f.g.g.g.k.k.k.k.k.k.k.k.k.k.g.g.g.g.g.g.f.f.f.f.g.f.g.g.f.f.f.f.f.f.f.s.a.a.a.a.p.p.d.p.8.8.8.8.8.8.9.9.9.9.4.4.4.3.3.3.3.,. . .| | | | | | } } { { { { { s s s s f f f f f d d d d d x x x x x M M M M M B Y J.J.I.H.bXFXHXDXAXMXMXMXMXMXMXMXMXMXMXMXMXMXMXMXMXMXMXMXMXMXMXMXMXMXMXGXGXGXGXGXGXGXGXGXGXGXGXGXGXGXGXGXGXGXGXGXGXGXGXGXGXGXKXMXMXMXMXMXMXMXMXMXMXMXMXMXMXMXMXMXMXMXMXMXMXMXMXMXMXMXGXGXGXGXGXGXGXGXGXGXGXGXGXGXGXGX",
"GXGXGXGXGXGXGXGXGXGXGXGXGXGXGXGXGXGXGXGXGXGXGXGXGXGXGXKXMXMXMXMXMXMXMXMXMXMXMXMXMXMXMXMXMXMXMXMXMXMXMXMXDXMXDXGXGXGXGXGXGXGXGXGXGXGXGXGXGXGXGXGXGXGXGXGXGXGXGXGXGXGXKXMXMXMXMXMXMXMXMXMXMXMXMXMXNXDXKXNXNXKXxXL.I ~ U P.U Y Y G G G G G N N B M B m m m m m m m m e.m V V V V <.f X.X.X.} } X.} } } { { } } | |  . . .3.O.3.4.4.4.4.4.4.4.7.7.7.8.8.8.8.8.p.p.p.p.a.a.s.f.f.f.f.f.f.f.f.f.g.g.g.g.g.g.k.k.k.k.k.x.x.k.k.x.k.k.g.g.g.g.g.g.g.g.f.f.g.f.f.g.g.f.f.f.f.f.s.s.a.s.a.d.d.d.p.0.8.8.8.8.8.8.7.7.7.7.4.4.4.3.3.3.,.,.,. . .| | | | } } } } } { { { { s s f f f f f f d f d d d x x c x x M M M M B N D.J.J.P.P.ZXBXHXSXMXMXMXMXMXMXMXMXMXMXMXMXMXMXMXMXMXMXMXMXMXMXMXMXMXMXGXGXGXGXGXGXGXGXGXGXGXGXGXGXGXGXGXGXGXGXGXGXGXGXGXGXGXKXMXMXMXMXMXMXMXMXMXMXMXMXMXMXMXMXMXMXMXMXMXMXMXMXMXMXMXGXGXGXGXGXGXGXGXGXGXGXGXGXGXGXGX",
"GXGXGXGXGXGXGXGXGXGXGXGXGXGXGXGXGXGXGXGXGXGXGXGXGXGXGXKXMXMXMXMXMXMXMXMXMXMXMXMXMXMXMXMXMXMXMXMXMXMXMXMXDXMXDXGXGXGXGXGXGXGXGXGXGXGXGXGXGXGXGXGXGXGXGXGXGXGXGXGXGXGXKXMXMXMXMXMXMXMXMXMXMXMXMXMXHXNXNXDXDXnX<XK Q U U U H.U H H H H G N N N B B B B m m m m m m e.<.<.<.<.<.<.<.<.<.X.} } } } 2.} } } { } | |  . .O.3.3.4.4.4.4.4.4.5.7.7.7.8.8.8.8.8.8.p.p.d.a.a.a.s.f.f.f.f.f.j.f.f.f.g.g.g.k.k.k.k.k.x.x.x.x.k.x.x.x.x.x.k.k.k.k.g.g.g.f.f.f.g.f.g.g.g.f.f.f.f.f.f.f.s.a.a.a.a.a.a.p.p.8.8.8.8.8.8.8.8.7.7.7.4.4.4.4.3.3.3.,. . . .| | | | } } } } } } { { s s s f f f f f f f f f d x x c c M M M M B B N H J.H.P.P.;XFXLXMXMXMXMXMXMXMXMXMXMXMXMXMXMXMXMXMXMXMXMXMXMXMXMXMXMXMXGXGXGXGXGXGXGXGXGXGXGXGXGXGXGXGXGXGXGXGXGXGXGXGXGXGXGXKXMXMXMXMXMXMXMXMXMXMXMXMXMXMXMXMXMXMXMXMXMXMXMXMXMXMXMXGXGXGXGXGXGXGXGXGXGXGXGXGXGXGXGX",
"GXGXGXGXGXGXGXGXGXGXGXGXGXGXGXGXGXGXGXGXGXGXGXGXGXGXKXKXKXMXMXMXDXDXDXDXDXDXMXMXMXDXDXDXDXDXDXDXMXMXMXLXMXMXKXKXGXGXGXGXGXGXGXGXGXGXGXGXGXGXGXGXGXGXGXGXGXGXGXGXGXHXKXDXAXMXMXDXBXBXBXBXBXBXMXMXMXDXNXDXNXpXK U U U H.H.Y H H H H H L N N B B B m m m m m m m m e.e.<.X.X.X.X.<.} 2.2.2.| | | } } } } | | |  .,.3.3.4.4.4.4.4.9.9.9.7.7.8.8.8.8.8.8.i.p.a.a.a.a.a.s.f.f.f.f.f.f.k.k.k.k.k.k.k.k.x.x.x.x.x.x.x.x.x.x.x.x.x.x.x.k.k.k.k.g.g.g.g.k.g.g.k.k.k.g.g.g.f.f.f.f.f.f.f.f.s.s.a.a.a.a.p.i.i.i.8.8.8.8.8.7.7.7.4.4.4.4.3.3.3.3. . . . .| | | } } } } } { } { s s s s s f f f f d d x f x c x x m m m B N H H.H P.P.U pXZXVXDXNXMXLXMXMXDXMXLXLXMXMXLXLXLXLXDXDXMXMXDXDXDXDXMXDXKXGXGXGXGXGXGXGXGXGXGXGXGXGXGXGXGXGXGXGXGXGXGXGXGXKXKXKXDXMXDXDXMXMXDXDXDXDXDXDXMXMXDXDXDXDXDXDXMXMXDXDXDXDXKXKXGXGXGXGXGXGXGXGXGXGXGXGXGXGXGX",
"DXDXDXDXDXDXDXDXDXDXDXDXDXDXDXDXDXDXDXDXDXDXDXDXMXMXDXKXKXKXHXGXGXGXGXGXGXGXKXKXHXGXGXGXGXGXGXGXGXKXKXGXKXKXGXKXDXDXDXDXDXDXDXDXDXDXDXDXDXDXDXDXDXDXDXDXDXDXDXDXDXDXKXHXHXGXGXGXFXFXHXHXFXKXKXKXKXGXHXZXVXK U H.U H.H.H.Y H H H H H N N B B B B m m m c m m m e.e.<.<.<.X.X.X.X.2.} } 2.| } } | } } | | |  .,.3.3.3.4.4.4.4.9.9.7.7.8.8.8.8.8.8.i.i.p.a.a.a.a.a.a.f.f.f.f.f.f.f.g.g.k.k.j.k.l.k.x.x.x.x.x.x.x.x.x.x.x.x.x.x.x.x.x.k.k.k.k.k.k.k.k.k.k.k.k.k.g.g.g.g.g.f.f.f.f.f.f.f.f.a.a.a.a.i.i.i.p.8.8.8.8.8.8.7.9.4.4.4.4.4.3.3.3.,.,. . .| | | } } } } } { { { { s s s s f f f d d d f f c x m m m m B N N H H H.H.P.P.bXFXKXHXGXKXGXHXHXHXHXHXHXHXHXHXFXFXGXHXKXKXGXGXGXGXHXKXKXDXMXMXMXDXDXDXDXDXDXDXDXDXDXDXDXDXDXDXDXDXMXDXDXDXKXKXGXGXGXHXKXKXGXGXGXGXGXHXKXKXGXGXGXGXGXHXKXKXGXGXGXGXKXDXDXDXMXDXKXMXDXDXDXDXDXDXDXDXDX",
"MXMXMXMXMXMXMXMXMXMXMXMXMXMXMXMXMXMXMXMXMXMXMXMXMXMXMXKXGXGXGXGXGXGXGXGXGXGXGXGXGXGXGXGXGXGXGXGXGXGXGXGXGXGXGXDXMXMXMXMXMXMXMXMXMXMXMXMXMXMXMXMXMXMXMXMXMXMXMXMXMXLXKXGXGXGXGXGXGXGXGXGXGXGXGXGXHXKXHXFX#XU L H.H.H.Y Y H H H H H N N N B B B B B m m m m m m e.e.e.<.X.X.X.X.X.2.2.} | | } | } } | | |  .,.,.3.3.3.4.4.4.9.9.7.8.8.8.8.8.i.p.p.a.a.a.a.a.s.f.f.f.f.g.g.g.g.g.g.f.g.g.k.k.l.x.x.x.x.x.x.x.x.x.c.c.c.c.c.c.x.x.x.x.x.x.x.k.x.k.k.k.k.k.k.k.k.k.k.g.g.g.g.g.f.f.f.f.f.f.f.a.a.a.a.p.p.p.p.p.8.8.8.8.7.7.7.7.4.4.4.4.3.3.3.3.,.,. .| | | } } } } } { { { { s s f f f f f d f f f f x x m m m B B N H H D.H.H.U ;XFXHXKXGXKXGXHXKXGXGXGXGXGXGXGXHXHXGXGXGXGXGXGXGXGXGXHXDXMXNXMXMXMXMXMXMXMXMXMXMXMXMXMXMXMXMXMXMXMXMXMXMXMXMXKXGXGXGXGXGXGXGXGXGXGXGXGXGXGXGXGXGXGXGXGXGXGXGXGXGXGXGXDXMXMXMXMXMXMXMXMXMXMXMXMXMXMXMX",
"MXMXMXMXMXMXMXMXMXMXMXMXMXMXMXMXMXMXMXMXMXMXMXMXDXMXDXKXGXGXHXHXGXGXGXGXGXGXGXGXGXGXGXGXGXGXGXGXGXKXKXGXGXGXKXMXMXMXMXMXMXMXMXMXMXMXMXMXMXMXMXMXMXMXMXMXMXMXMXMXMXLXKXGXGXGXKXKXGXGXGXGXGXGXGXGXFXHXZXwXK U P.L H.U Y H H H H L N N N B B B B m B m m m m m e.e.e.<.<.X.X.X.X.X.2.2.| | } | | | | | | ,.,.3.3.3.3.4.4.7.7.7.7.8.8.8.8.0.p.p.p.p.a.a.a.a.a.s.f.f.g.g.k.k.k.k.g.g.g.g.k.k.k.x.c.x.c.c.c.c.c.c.c.c.b.b.b.b.c.c.c.c.c.c.c.c.x.x.x.x.x.k.k.k.k.k.k.k.k.k.k.k.g.g.g.f.f.f.f.f.f.f.f.s.p.p.p.p.p.p.0.0.8.8.7.7.7.7.4.4.5.4.4.3.3.3.,.,. .| | | | } } } } } { { { { s f f f f f f f d f x x m m m m m B N H D.H.Y P.H.eXFXKXKXGXKXHXGXGXGXGXGXGXGXGXHXHXGXGXGXGXGXGXGXGXGXKXDXMXDXDXDXMXMXMXMXMXMXMXMXMXMXMXMXMXMXMXMXMXDXDXMXMXMXKXGXGXGXGXGXGXGXGXGXGXGXGXGXGXGXGXGXGXGXGXGXGXGXGXGXGXGXDXMXMXMXDXDXMXMXMXMXMXMXMXMXMXMX",
"MXMXMXMXMXMXMXMXMXMXMXMXMXMXMXMXMXMXMXMXMXMXMXMXMXMXDXKXGXGXGXGXGXGXGXGXGXGXGXGXGXGXGXGXGXGXGXGXGXGXGXGXGXGXGXMXMXMXMXMXMXMXMXMXMXMXMXMXMXMXMXMXMXMXMXMXMXMXMXMXMXLXKXGXGXGXGXGXGXHXGXHXHXHXGXGXFXFXmXK U H.G P.U Y Y H H H L L N N N B B B B m m m m m m e.e.e.<.<.<.X.X.X.X.} 2...| | } | | | |  . .,.6.3.3.3.4.4.7.7.7.7.8.8.8.i.i.p.p.p.p.p.a.a.a.a.f.f.g.g.k.k.k.k.k.k.k.k.k.k.k.x.x.x.x.c.v.v.v.v.v.v.v.v.v.v.v.v.v.c.c.c.c.c.c.c.c.c.x.x.x.x.k.k.k.k.x.x.x.x.k.k.k.k.k.k.f.f.f.g.g.g.f.f.a.a.a.p.p.p.p.p.8.8.8.7.7.7.4.4.4.4.4.3.3.3.3. .,.,.| | | | } } } } } } { { f s f f f f f f f f x x m m m m m M B H N H P.H P.H.nXHXDXHXHXHXGXGXGXGXGXGXGXGXHXHXGXGXGXGXGXGXGXGXGXKXDXMXMXDXMXNXMXMXMXMXMXMXMXMXMXMXMXMXMXMXMXMXMXMXMXMXDXKXGXGXGXGXGXGXGXGXGXGXGXGXGXGXGXGXGXGXGXGXGXGXGXGXGXGXGXMXMXMXMXDXDXMXMXMXMXMXMXMXMXMXMX",
"MXMXMXMXMXMXMXMXMXMXMXMXMXMXMXMXMXMXMXMXMXMXMXMXMXMXMXKXGXGXGXGXGXGXGXGXGXGXGXGXGXGXGXGXGXGXGXGXGXGXGXGXGXGXGXMXMXMXMXMXMXMXMXMXMXMXMXMXMXMXMXMXMXMXMXMXMXMXMXMXMXDXKXGXGXGXGXHXHXHXGXHXHXHXHXHXFXFXL.I U U U H.Y Y H H H L L L N B B N B B B m m m m m e.<.e.<.<.<.<.X.X.X.} } ....| | | | | |  . . .3.3.3.4.4.5.7.7.8.8.8.8.p.i.p.p.p.p.p.a.a.a.a.a.f.f.f.g.k.k.k.x.x.x.x.x.k.x.x.x.c.x.c.b.c.v.v.v.v.v.v.v.v.v.v.v.v.v.v.v.v.v.c.c.c.c.c.c.c.x.x.x.x.x.x.x.x.x.x.x.x.x.k.k.k.k.g.g.g.g.g.f.g.f.s.a.a.a.p.p.p.0.8.8.8.8.7.7.4.7.4.4.4.4.3.3.3.,.,.,. .| | | ..} } } } } } X.f f f f f f f f f x x m m m m m m N B N D.H.H.J.H.%XFXZXHXHXHXDXGXGXGXGXGXGXGXHXHXGXGXGXGXGXGXGXGXGXKXLXMXMXMXDXMXMXMXMXMXMXMXMXMXMXMXMXMXMXMXMXMXMXMXMXMXDXKXGXGXGXGXGXGXGXGXGXGXGXGXGXGXGXGXGXGXGXGXGXGXGXGXGXGXGXMXMXDXDXMXMXMXMXMXMXMXMXMXMXMXMX",
"MXMXMXMXMXMXMXMXMXMXMXMXMXMXMXMXMXMXMXMXMXMXMXMXDXMXMXKXGXGXGXGXGXGXGXGXGXGXGXGXGXGXGXGXGXGXGXGXGXGXGXGXKXGXGXMXMXMXMXMXMXMXMXMXMXMXMXMXMXMXMXMXMXMXMXMXMXMXMXMXMXLXKXHXGXHXHXHXHXHXHXHXGXGXGXHXFX;XU U U U H.H H H H H H L L L N N N B B B m m m m m e.<.<.<.<.1.<.<.<.2.} ......| | | | | |  . .,.3.3.3.4.5.7.7.7.8.8.8.8.0.p.p.p.p.a.a.a.a.a.f.f.f.f.f.g.g.k.x.x.x.x.x.x.x.x.c.c.c.c.b.c.b.b.v.v.v.v.v.m.v.m.v.m.v.v.v.v.v.v.v.v.v.v.v.v.v.v.c.c.c.c.c.c.x.x.c.b.x.x.x.x.x.l.k.k.k.k.k.j.f.g.f.f.f.f.a.a.a.p.p.p.p.0.0.8.7.7.7.7.7.4.4.4.3.3.3.3.,.,. .| | | | } } } } } { { s s f f f f f f f m m m m m m m B B N D.N P.D.P.P.pXFXFXHXHXGXGXGXGXGXGXGXGXHXHXGXGXGXGXGXGXGXGXGXKXDXMXMXDXKXDXMXMXMXMXMXMXMXMXMXMXMXMXMXMXMXMXMXLXMXMXMXKXGXGXGXGXGXGXGXGXGXGXGXGXGXGXGXGXGXGXGXGXGXGXGXGXGXGXGXDXMXDXMXMXMXMXMXMXMXMXMXMXMXMXMX",
"MXMXMXMXMXMXMXMXMXMXMXMXMXMXMXMXMXMXMXMXMXMXMXMXDXMXMXKXGXGXGXGXGXGXGXGXGXGXGXGXGXGXGXGXGXGXGXGXGXGXGXGXGXGXGXMXMXMXMXMXMXMXMXMXMXMXMXMXMXMXMXMXMXMXMXMXMXMXMXMXNXLXKXGXGXHXHXHXHXHXGXGXGXHXHXHXeXU U U U H.H.H H H H H H H L N N N N B B m m m m e.e.e.<.<.<.<.<.<.<.2.2.2.....| | | | | |  . .3.3.3.4.4.5.9.7.7.8.8.8.8.8.0.p.p.a.a.a.a.s.s.f.f.f.f.k.k.k.k.k.x.x.c.c.c.c.c.x.c.c.c.c.c.v.v.v.v.v.m.m.m.m.N.N.N.N.N.m.m.m.m.v.m.m.m.v.v.v.v.v.v.v.v.v.v.v.v.v.c.c.x.x.x.x.x.x.x.k.k.k.k.k.k.f.k.j.f.f.f.s.a.a.s.p.p.p.p.0.8.8.8.7.7.7.7.4.4.4.3.3.,.,. . .| | | | } } } } } { X.s f f f f f f f m m m m m m m x N N B J.H J.P.P.P.mXFXFXFXHXKXGXGXGXGXGXGXHXHXGXGXGXGXGXGXGXGXGXKXKXMXMXMXMXMXMXMXMXMXMXMXMXMXMXMXMXMXMXMXMXMXMXMXMXMXMXKXGXGXGXGXGXGXGXGXGXGXGXGXGXGXGXGXGXGXGXGXGXGXGXGXGXGXGXMXMXMXMXMXMXMXMXMXMXMXMXMXMXMXMX",
"MXMXMXMXMXMXMXMXMXMXMXMXMXMXMXMXMXMXMXMXMXMXMXMXMXMXLXKXGXGXGXGXGXGXGXGXGXGXGXGXGXGXGXGXGXGXGXGXGXGXGXGXGXGXGXMXMXMXMXMXMXMXMXMXMXMXMXMXMXMXMXMXMXMXMXMXMXMXMXMXBXNXKXGXGXHXHXHXHXHXHXGXHXHXHXxXU U U U U U U U H H H H H H N N N B B m m m m m e.<.<.<.<.<.<.<.<.} } } 1.2.....| | |  . . . . .O.3.4.4.4.7.7.7.0.8.0.p.p.p.p.p.a.a.a.s.s.f.f.f.f.g.g.g.k.k.x.x.x.c.c.c.c.c.c.v.c.c.c.v.v.v.v.v.m.m.m.m.m.m.N.N.m.N.N.m.m.N.N.v.m.m.m.m.v.v.m.m.m.m.m.m.m.v.v.v.v.v.v.v.v.b.c.c.x.k.k.k.k.k.k.k.k.k.g.f.f.f.s.s.a.a.p.p.p.p.0.8.8.7.7.7.7.7.4.4.3.3.3.3.3.,. .| | | | ..} } } } { X.f f f f f f f x x m x m m m m B B N N D.J.J.XXP.;XZXFXFXHXGXGXGXGXGXGXGXHXHXGXGXGXGXGXGXGXGXGXGXMXMXDXMXMXMXMXMXMXMXMXMXMXMXMXMXMXMXMXMXMXMXMXMXMXMXDXKXGXGXGXGXGXGXGXGXGXGXGXGXGXGXGXGXGXGXGXGXGXGXGXGXGXGXGXDXMXDXMXMXMXMXMXMXMXMXMXMXMXMXMX",
"MXMXMXMXMXMXMXMXMXMXMXMXMXMXMXMXMXMXMXMXMXMXMXMXMXMXLXKXGXGXGXGXGXGXGXGXGXGXGXGXGXGXGXGXGXGXGXGXGXGXGXGXGXGXGXMXMXMXMXMXMXMXMXMXMXMXMXMXMXMXMXMXMXMXMXMXMXMXMXMXBXNXKXGXGXHXHXHXGXGXDXHXHXFXVXL.U U U U U U U Y H H H H H N N N B B B m m m m m <.<.<.<.<.<.<.<.} } ..2.2.2...| | |  . . . . .O.3.4.4.9.7.7.8.8.0.p.p.p.p.a.a.a.s.s.s.f.f.f.g.k.k.k.k.k.x.x.c.c.c.c.v.v.c.c.c.v.v.v.v.v.v.m.v.m.N.N.N.m.N.N.N.N.N.N.N.m.m.N.N.m.N.N.N.N.N.N.N.N.v.v.v.v.v.v.v.v.v.v.v.v.v.v.c.c.x.x.x.x.k.k.k.k.k.k.k.g.g.f.f.f.s.s.a.a.a.p.p.0.8.8.8.7.7.7.9.4.4.4.3.3.3.,. . . .| | | } } } } } { s f f f f f f f f x c m m m m m B B B r.D.J.J.P.P.pXFXFXHXHXGXGXGXGXGXGXHXHXGXGXGXGXGXGXGXGXGXGXMXMXDXMXMXMXMXMXMXMXMXMXMXMXMXMXMXMXMXMXMXMXMXMXMXMXDXKXGXGXGXGXGXGXGXGXGXGXGXGXGXGXGXGXGXGXGXGXGXGXGXGXGXGXGXDXMXMXMXMXMXMXMXMXMXMXMXMXMXMXMX",
"MXMXMXMXMXMXMXMXMXMXMXMXMXMXMXMXMXMXMXMXMXMXMXMXMXMXMXKXGXGXGXGXGXGXGXGXGXGXGXGXGXGXGXGXGXGXGXGXGXGXGXGXGXGXGXMXMXMXMXMXMXMXMXMXMXMXMXMXMXMXMXMXMXMXMXMXMXMXMXMXBXNXKXGXGXHXGXGXGXGXGXHXFXFX=XK U Y H.H.H.U Y H H H H N N N N N B B m m m m m e.<.<.<.1.1.<.<.1.} ..2.2.2.| | | |  . . .O.O.O.3.4.9.7.7.8.8.8.p.p.p.p.p.a.s.s.s.f.f.f.f.f.k.k.k.k.x.x.x.c.v.v.v.v.v.v.v.v.v.v.v.v.v.v.m.m.m.N.N.N.N.N.N.N.N.N.N.N.B.N.N.N.N.N.N.N.N.N.N.N.N.N.N.v.v.v.v.v.m.N.N.v.v.v.v.v.v.v.c.c.c.x.x.x.x.x.x.x.x.x.k.k.g.f.f.f.f.s.s.s.a.p.p.i.8.8.8.8.7.7.9.4.4.4.3.3.3.,. . . . .| | | } } } } } s s f f f f f f f f m m m m m m B B N D.D.J.P.P.P.VXFXFXHXGXGXGXGXGXGXHXHXGXGXGXGXGXGXGXGXGXGXMXMXDXMXMXMXMXMXMXMXMXMXMXMXMXMXMXMXMXMXMXMXMXMXMXMXDXKXGXGXGXGXGXGXGXGXGXGXGXGXGXGXGXGXGXGXGXGXGXGXGXGXGXGXGXMXMXDXMXMXMXMXMXMXMXMXMXMXMXMXMX",
"MXMXMXMXMXMXMXMXMXMXMXMXMXMXMXMXMXMXMXMXMXMXMXMXMXMXAXKXGXGXGXGXGXGXGXGXGXGXGXGXGXGXGXGXGXGXGXGXGXGXGXGXGXGXGXMXMXMXMXMXMXMXMXMXMXMXMXMXMXMXMXMXMXMXMXMXMXMXMXMXBXMXKXGXGXHXHXGXGXGXHXHXFXpXK H.U Y H.H.H.U H H H H H N N N N B B m m m m m e.e.<.<.<.<.1.1.1.1...,.,...| | | |  . . .O.O.O.3.4.4.9.8.8.8.8.p.p.p.p.p.p.a.s.f.f.f.f.f.f.f.k.k.k.x.x.x.c.c.v.v.v.v.v.v.v.v.v.v.v.m.m.m.N.N.N.N.N.N.N.N.N.N.N.N.N.B.B.B.N.m.N.B.N.B.B.B.B.B.B.B.B.N.N.N.N.N.N.N.N.N.N.v.v.v.v.v.v.v.v.c.c.c.c.c.x.c.x.x.x.x.k.k.k.f.f.f.s.s.s.a.p.p.i.8.8.8.8.7.9.9.4.4.4.3.3.3.3.,. . . .| | } } } } { } X.f f f f f f f f V m m m m m m B N r.D.J.J.P.P.,XFXFXHXGXGXGXHXGXGXHXHXGXGXGXGXGXGXGXGXGXGXMXMXDXMXMXMXMXMXMXMXMXMXMXMXMXMXMXMXMXMXMXMXMXMXMXMXLXKXGXGXGXGXGXGXGXGXGXGXGXGXGXGXGXGXGXGXGXGXGXGXGXGXGXGXGXAXMXDXMXMXMXMXMXMXMXMXMXMXMXMXMX",
"MXMXMXMXMXMXMXMXMXMXMXMXMXMXMXMXMXMXMXMXMXMXMXMXMXMXDXKXGXGXGXGXGXGXGXGXGXGXGXGXGXGXGXGXGXGXGXGXGXGXGXGXGXGXGXMXMXMXMXMXMXMXMXMXMXMXMXMXMXMXMXMXMXMXMXMXMXMXMXMXMXMXKXGXGXHXGXGXGXFXFXFXVXQ U U U Y H.H.U Y H H H H N N N B N N m m m m m e.e.e.<.<.1.1.1.1.1.2.,.....| | | | |  . .O.3.3.4.4.4.9.9.8.8.8.i.p.p.p.p.p.a.a.f.f.f.f.f.f.j.k.k.k.x.x.x.x.v.v.v.v.v.v.v.v.v.v.v.v.v.N.N.N.N.N.N.N.N.N.N.N.N.N.B.B.B.B.B.B.N.N.B.B.B.B.B.B.B.B.B.B.C.C.C.C.C.B.B.N.N.N.N.N.n.N.N.v.v.v.v.v.c.c.c.x.c.x.x.x.x.x.k.k.k.f.f.f.f.f.s.s.a.p.p.i.8.8.8.8.7.7.7.4.4.4.3.3.3.3.3.,. .| | | | } } } { { X.X.f f f f f f f f f m m m m B N r.r.J.J.P.XXP.bXFXHXGXGXGXGXGXGXHXHXGXGXGXGXGXGXGXGXGXGXMXMXDXMXMXMXMXMXMXMXMXMXMXMXMXMXMXMXMXMXMXMXMXMXMXMXLXKXGXGXGXGXGXGXGXGXGXGXGXGXGXGXGXGXGXGXGXGXGXGXGXGXGXGXGXMXMXDXMXMXMXMXMXMXMXMXMXMXMXMXMX",
"MXMXMXMXMXMXMXMXMXMXMXMXMXMXMXMXMXMXMXMXMXMXMXMXMXMXDXKXGXGXGXGXGXGXGXGXGXGXGXGXGXGXGXGXGXGXGXGXGXGXGXGXGXGXGXMXMXMXMXMXMXMXMXMXMXMXMXMXMXMXMXMXMXMXMXMXMXMXMXMXAXAXHXGXGXHXGXGXGXFXHXFX;XH H.Y H.H.H.H.Y H H H H N N N B N e.e.m m m m m e.e.<.<.<.1.1.1.1.2.2.,.| | | | |  . . .O.3.3.4.4.4.7.8.8.8.8.i.i.p.p.p.p.a.a.f.f.f.f.k.k.k.k.k.c.c.c.c.c.v.v.v.v.v.v.v.m.N.N.v.v.N.N.N.N.N.N.B.B.B.B.B.B.B.B.B.B.B.B.B.C.B.B.N.B.B.B.C.C.C.C.C.C.C.C.C.C.C.C.B.B.B.B.C.N.N.N.N.N.m.m.v.v.v.v.c.c.c.c.x.c.c.x.x.x.k.k.g.f.f.f.f.f.s.a.a.a.p.i.i.8.8.8.7.7.7.4.4.4.4.3.3.3.3.,. .| | | | } } } { } X.f f f f f f f f f m m m m B B N r.D.r.P.P.P..XFXFXGXGXGXGXGXGXGXHXGXGXGXGXGXGXGXGXGXGXMXMXDXMXMXMXMXMXMXMXMXMXMXMXMXMXMXMXMXMXMXMXMXMXMXMXDXKXGXGXGXGXGXGXGXGXGXGXGXGXGXGXGXGXGXGXGXGXGXGXGXGXGXGXGXMXMXDXMXMXMXMXMXMXMXMXMXMXMXMXMX",
"MXMXMXMXMXMXMXMXMXMXMXMXMXMXMXMXMXMXMXMXMXMXMXMXMXMXDXKXGXGXGXGXGXGXGXGXGXGXGXGXGXGXGXGXGXGXGXGXGXGXGXGXGXGXGXMXMXMXMXMXMXMXMXMXMXMXMXMXMXMXMXMXMXMXMXMXMXMXMXAXAXAXHXGXGXHXGXGXGXFXHXvXL P.H H.H.H.U U Y H H H H N N N N m e.e.e.m m e.e.e.e.<.<.<.1.1.1.1.2.,.| | | | |  . . . .3.3.4.4.4.9.7.8.i.i.i.p.p.p.a.a.a.a.f.f.f.f.f.k.k.k.k.x.x.c.c.v.v.v.v.v.v.v.v.v.m.N.N.N.N.N.N.N.N.B.B.B.C.C.C.C.B.B.B.C.C.C.C.C.V.V.C.B.V.V.B.C.C.C.C.C.C.C.C.C.C.C.C.C.C.B.B.C.C.B.N.C.N.N.N.m.m.v.v.v.v.v.c.v.v.v.v.x.x.k.k.k.k.k.f.f.f.f.s.f.s.a.p.p.p.0.8.8.7.7.7.5.4.4.4.3.3.3.,.,. .| | | } } } { } } X.X.f f f f f f f m m m m B B N N r.D.J.XXP..XpXHXGXGXGXGXGXGXGXHXGXGXGXGXGXGXGXGXGXGXMXMXDXMXMXMXMXMXMXMXMXMXMXMXMXMXMXMXMXMXMXMXMXMXMXMXDXKXGXGXGXGXGXGXGXGXGXGXGXGXGXGXGXGXGXGXGXGXGXGXGXGXGXGXGXLXMXDXMXMXMXMXMXMXMXMXMXMXMXMXMX",
"MXMXMXMXMXMXMXMXMXMXMXMXMXMXMXMXMXMXMXMXMXMXMXMXMXMXDXKXGXGXGXGXGXGXGXGXGXGXGXGXGXGXGXGXGXGXGXGXGXGXGXGXGXGXGXMXMXMXMXMXMXMXMXMXMXMXMXMXMXMXMXMXMXMXMXMXMXMXMXAXAXAXHXGXGXGXGXGXGXHXVX.XP.U Y Y H.H.U U H H H H N N N N N m e.e.e.e.e.e.e.e.e.<.<.<.1.1.2.2.,.,.| | } |  . . . .O.3.3.4.4.4.7.8.8.i.p.p.p.p.a.a.a.a.f.f.g.g.g.f.k.k.k.k.x.x.x.c.v.v.v.v.v.v.v.v.v.m.N.N.N.N.N.B.B.B.B.B.C.V.V.V.V.V.V.V.V.V.V.V.V.V.V.V.V.V.V.C.C.C.C.C.C.C.C.C.C.C.C.C.C.C.B.B.C.C.B.B.N.B.N.N.N.N.m.v.v.v.v.v.v.v.v.v.v.x.x.k.x.k.k.k.k.f.f.f.g.f.a.a.p.p.p.p.8.8.7.7.4.4.4.4.4.3.3.3.,. .| | | } } } } } { { X.f f f f f f f m m m m m B N N D.r.J.J.XXXXP.FXHXGXGXGXGXGXGXGXGXGXGXGXGXGXGXGXGXGXMXMXDXMXMXMXMXMXMXMXMXMXMXMXMXMXMXMXMXMXMXMXMXMXMXMXDXKXGXGXGXGXGXGXGXGXGXGXGXGXGXGXGXGXGXGXGXGXGXGXGXGXGXGXGXDXMXDXMXMXMXMXMXMXMXMXMXMXMXMXMX",
"MXMXMXMXMXMXMXMXMXMXMXMXMXMXMXMXMXMXMXMXMXMXMXMXMXMXDXKXGXGXGXGXGXGXGXGXGXGXGXGXGXGXGXGXGXGXGXGXGXGXGXGXGXGXGXMXMXMXMXMXMXMXMXMXMXMXMXMXMXMXMXMXMXMXMXMXMXMXMXMXLXNXHXGXGXGXKXGXHXFXzXU U Y H.Y H.U Y H H H H H N N N N m m m m e.e.e.e.e.<.<.<.2.1.1.,.,.,.,.| | | | |  . . .3.4.3.4.4.7.7.7.8.p.p.p.p.p.p.a.a.s.f.f.g.g.g.g.k.x.x.x.x.x.x.v.v.v.v.v.m.m.N.N.N.N.N.B.B.B.B.B.N.C.C.C.V.V.V.V.V.V.V.V.V.V.V.^.^.V.V.V.V.V.V.V.V.V.V.V.V.V.V.V.V.V.V.C.C.C.C.C.C.C.C.C.C.C.C.B.B.N.N.N.m.m.v.v.v.v.v.v.v.v.c.x.x.x.x.k.g.g.g.g.f.f.f.s.s.a.p.p.p.8.7.7.7.9.9.9.5.5.5.4.3.3.3.,. .,.| } } } } } } X.X.X.X.f f V f m m m m m B B N D.r.D.J.K.XXXX,XFXFXHXHXHXHXGXGXGXGXGXGXGXGXGXGXGXGXMXMXDXMXMXMXMXMXMXMXMXMXMXMXMXMXMXMXMXMXMXMXMXMXMXMXDXKXGXGXGXGXGXGXGXGXGXGXGXGXGXGXGXGXGXGXGXGXGXGXGXGXGXGXGXDXMXDXMXMXMXMXMXMXMXMXMXMXMXMXMX",
"MXMXMXMXMXMXMXMXMXMXMXMXMXMXMXMXMXMXMXMXMXMXMXMXMXMXDXKXGXGXGXGXGXGXGXGXGXGXGXGXGXGXGXGXGXGXGXGXGXGXGXGXGXGXGXMXMXMXMXMXMXMXMXMXMXMXMXMXMXMXMXMXMXMXMXMXMXMXMXMXLXCXHXKXKXGXKXFXZXFX.XU U Y U H.H.Y Y H H H H N N N N N m m m m e.e.e.e.e.<.<.2.2.2.1.,.,.,.,.| | | | |  . .,.3.4.4.4.7.7.7.8.8.p.p.p.p.p.a.a.s.f.f.g.g.g.k.x.x.x.x.x.x.x.v.v.v.v.v.m.m.N.N.N.N.B.B.C.C.C.B.B.B.C.C.V.V.V.V.V.V.V.V.V.V.V.V.^.^.V.V.V.V.V.V.V.^.^.^.^.^.^.^.^.^.V.V.V.V.V.V.V.V.C.C.C.C.C.C.B.B.B.B.N.N.N.m.m.m.v.v.v.v.v.c.c.x.c.x.x.k.k.g.g.f.f.f.s.s.s.a.p.p.d.d.0.8.7.9.4.5.5.5.5.4.3.3.,.| ,.| | } } | | 2.X.X.X.X.X.f f V m m f m m B B B N r.D.D.J.K.XXXXvXFXKXHXHXGXHXGXGXGXGXGXGXGXGXGXGXGXMXMXDXMXMXMXMXMXMXMXMXMXMXMXMXMXMXMXMXMXMXMXMXMXMXMXDXKXGXGXGXGXGXGXGXGXGXGXGXGXGXGXGXGXGXGXGXGXGXGXGXGXGXGXGXDXMXDXMXMXMXMXMXMXMXMXMXMXMXMXMX",
"MXMXMXMXMXMXMXMXMXMXMXMXMXMXMXMXMXMXMXMXMXMXMXMXMXMXDXKXGXGXGXGXGXGXGXGXGXGXGXGXGXGXGXGXGXGXGXGXGXGXGXGXGXGXGXMXMXMXMXMXMXMXMXMXMXMXMXMXMXMXMXMXMXMXMXMXMXMXMXMXMXDXHXKXGXGXFXHXFXzXG U U Y H.H.H.Y Y H H H N N B N N N m m m m m e.e.e.<.<.<.2.2.1.1.,.,.,. .| | | | |  .,.3.3.4.4.4.7.7.8.8.0.p.p.a.s.a.s.f.f.f.f.g.k.k.x.x.x.x.x.v.v.v.v.v.m.m.m.N.N.N.N.B.B.B.B.C.C.C.C.C.C.C.V.V.V.V.V.V.V.V.^.V.V.^.^.^.^.V.^.^.^.^.^.^.^.^.^.^.^.^.^.^.^.V.V.V.V.V.V.V.V.C.C.C.C.C.C.C.C.B.B.B.B.N.N.N.N.v.v.v.v.v.v.c.c.c.c.x.x.x.k.k.g.j.f.f.s.s.s.s.p.8.8.8.8.7.7.7.7.5.5.5.5.4.3.,.,.,.,.,.| | | 2.2.X.X.X.X.X.f f f m m m m m m B B N D.D.r.J.K.XX.X,XFXFXHXGXGXGXGXGXGXGXGXGXGXGXGXGXGXMXMXDXMXMXMXMXMXMXMXMXMXMXMXMXMXMXMXMXMXMXMXMXMXMXMXDXKXGXGXGXGXGXGXGXGXGXGXGXGXGXGXGXGXGXGXGXGXGXGXGXGXGXGXGXDXMXDXMXMXMXMXMXMXMXMXMXMXMXMXMX",
"MXMXMXMXMXMXMXMXMXMXMXMXMXMXMXMXMXMXMXMXMXMXMXMXMXMXDXKXGXGXGXGXGXGXGXGXGXGXGXGXGXGXGXGXGXGXGXGXGXGXGXGXGXGXGXMXMXMXMXMXMXMXMXMXMXMXMXMXMXMXMXMXMXMXMXMXMXMXMXMXNXDXHXGXGXGXFXHXFXL.I U H U H.Y Y Y Y H H H N N N N N m m e.m m e.e.e.e.<.<.<.2.2.1.,.,.,.,.| | | |  . . .3.3.5.4.4.9.7.8.8.0.p.p.d.s.s.s.s.f.f.k.k.k.k.x.x.x.x.x.c.v.v.v.v.v.m.m.m.N.N.N.B.B.B.B.C.C.C.C.C.C.C.V.V.V.V.V.V.^.^.^.^.^.^.^.^.^.^.^.^.^.^.^.^.^.^.^.^.^.^.^.^.^.^.^.V.V.V.^.V.V.V.C.V.V.V.V.V.C.C.B.B.B.B.N.N.N.N.m.m.m.m.v.v.v.v.c.c.c.b.x.x.k.k.j.f.f.f.f.s.s.s.O.O.9.8.0.q.7.7.5.5.5.5.5.4.3.,.,.,.,.| } | | 2.X.X.X.X.X.f f f V m m m m m B B N N r.r.J.K.XXXX.XzXFXHXHXGXGXHXGXGXGXGXGXGXGXGXGXGXMXMXDXMXMXMXMXMXMXMXMXMXMXMXMXMXMXMXMXMXMXMXMXMXMXMXDXKXGXGXGXGXGXGXGXGXGXGXGXGXGXGXGXGXGXGXGXGXGXGXGXGXGXGXGXDXMXDXMXMXMXMXMXMXMXMXMXMXMXMXMX",
"MXMXMXMXMXMXMXMXMXMXMXMXMXMXMXMXMXMXMXMXMXMXMXMXMXMXDXKXGXGXGXGXGXGXGXGXGXGXGXGXGXGXGXGXGXGXGXGXGXGXGXGXGXGXGXMXMXMXMXMXMXMXMXMXMXMXMXMXMXMXMXMXMXMXMXMXMXMXMXMXMXDXKXGXGXFXKXHXzXK P.U H H.Y H.Y Y H H H N N B N N m m e.e.e.e.e.e.e.<.<.<.<.2.2.1.,.,.,. . . . . . . .3.3.5.5.4.4.7.7.8.p.d.p.p.a.s.s.s.f.f.f.j.k.k.k.x.x.x.x.x.c.v.v.v.v.m.m.N.N.N.N.N.B.B.B.B.C.C.C.C.C.V.C.V.^.^.^.^.^.^.^.^.^.^.^.^.^.^.^.^.^.^.^.^.^.^.^.^.^.^.^.^.^.^.^.^.^.^.^.^.^.^.V.V.V.V.V.V.V.V.C.C.C.B.B.B.N.N.N.N.N.N.m.m.v.v.v.c.c.c.c.x.x.k.k.k.j.f.f.f.s.s.s.8.8.0.0.0.8.7.7.5.5.7.5.5.5.3.,.,.,.,.,.| } } | } X.X.X.X.X.f f f f m f m m m B B B N r.r.J.K.XX.X,XFXFXGXGXGXGXGXGXGXGXGXGXGXGXGXGXMXMXDXMXMXMXMXMXMXMXMXMXMXMXMXMXMXMXMXMXMXMXMXMXMXMXDXKXGXGXGXGXGXGXGXGXGXGXGXGXGXGXGXGXGXGXGXGXGXGXGXGXGXGXGXMXMXMXMXMXMXMXMXMXMXMXMXMXMXMXMX",
"MXMXMXMXMXMXMXMXMXMXMXMXMXMXMXMXMXMXMXMXMXMXMXMXMXMXDXKXGXGXGXGXGXGXGXGXGXGXGXGXGXGXGXGXGXGXGXGXGXGXGXGXGXGXGXMXMXMXMXMXMXMXMXMXMXMXMXMXMXMXMXMXMXMXMXMXMXMXMXMXDXMXDXGXGXFXHXFX.XU U U U H.H H.Y H H H H N N B N N e.e.e.e.e.e.e.e.e.<.1.<.<.2.1.1.,.,.,. . .,.,. . .3.3.5.5.5.4.7.8.8.8.p.d.a.a.s.s.s.f.f.f.j.l.k.k.k.x.x.x.x.x.v.v.v.v.v.m.N.N.N.N.N.B.B.B.B.C.C.V.V.V.V.V.V.^.^.^.^.^.^.^.^.^.^.^.^.^.^.^.^.^.^.^.^.^.^.^.^.^.^.^.^.^.^.^.^.^.^.^.^.^.^.^.^.V.V.V.V.V.V.V.V.C.C.C.B.B.B.N.N.N.N.N.N.N.m.v.v.v.v.c.c.c.x.x.k.k.k.j.f.f.f.s.s.f.d.d.p.8.8.8.8.7.7.7.7.7.5.4.3.,.,.,.,.| | } } } X.X.X.X.X.f f f f f m m m m m B B N r.r.r.J.I.XX.XnXFXHXHXGXGXGXGXGXGXGXGXGXGXGXGXMXMXDXMXMXMXMXMXMXMXMXMXMXMXMXMXMXMXMXMXMXMXMXMXMXMXDXKXGXGXGXGXGXGXGXGXGXGXGXGXGXGXGXGXGXGXGXGXGXGXGXGXGXGXGXMXMXDXMXMXMXMXMXMXMXMXMXMXMXMXMX",
"MXMXMXMXMXMXMXMXMXMXMXMXMXMXMXMXMXMXMXMXMXMXMXMXMXMXDXKXGXGXGXGXGXGXGXGXGXGXGXGXGXGXGXGXGXGXGXGXGXGXGXGXGXGXGXMXMXMXMXMXMXMXMXMXMXMXMXMXMXMXMXMXMXMXMXMXMXMXMXMXMXMXDXGXGXHXHXzXI H.L U H.H.H H.H H H H N N B N N m e.e.e.e.e.e.e.e.e.<.1.<.1.2.1.,.,.,. . . .6.,.,.3.3.5.5.5.5.9.7.8.8.8.p.a.a.s.s.f.f.f.f.k.j.x.k.x.x.x.x.c.c.v.v.v.m.m.N.N.N.N.N.B.B.B.B.B.B.V.V.V.^.^.^.^.^.^.^.^.^.^.^.^.^.^.^.^.^.^.^./.^.^.^.^.^.^.^.^.^.^.^.^.^././.^.^.^.^.^.^.^.^.^.^.^.^.^.^.^.^.^.V.V.V.C.C.C.B.B.B.B.B.B.N.N.N.m.m.m.v.v.v.c.c.c.x.k.k.k.j.j.f.f.s.f.d.p.p.8.8.8.8.7.7.7.7.7.5.5.3.3.,.,.,.,.,.| } } } } X.X.X.X.f f f f f m m m m B B B r.r.D.J.J.XXP.,XZXHXHXGXGXGXGXGXGXGXGXGXGXGXGXMXMXDXMXMXMXMXMXMXMXMXMXMXMXMXMXMXMXMXMXMXMXMXMXMXMXDXKXGXGXGXGXGXGXGXGXGXGXGXGXGXGXGXGXGXGXGXGXGXGXGXGXGXGXGXDXMXDXMXMXMXMXMXMXMXMXMXMXMXMXMX",
"MXMXMXMXMXMXMXMXMXMXMXMXMXMXMXMXMXMXMXMXMXMXMXMXMXMXDXKXGXGXGXGXGXGXGXGXGXGXGXGXGXGXGXGXGXGXGXGXGXGXGXGXGXGXGXMXMXMXMXMXMXMXMXMXMXMXMXMXMXMXMXMXMXMXMXMXMXMXMXMXMXLXFXGXFXHXZX-XU Y U U U H.H.H H H H N N N B N r.e.e.e.e.e.e.e.e.e.<.1.1.1.1.1.2.,.,.,. . .,.3.,.,.3.3.5.7.7.4.9.8.0.8.i.a.a.a.s.f.f.f.f.j.j.k.x.x.x.x.x.c.v.v.v.v.m.N.N.N.N.N.B.B.B.B.B.V.V.V.V.V.^.^.^.^.^.^.^.^.^.^.^.^.^.^.^.^.^.^.^./././.^.^.^.^.^.^.^.^.^.^.^.^././.^.^.^.^.^.^.^.^.^.^.^.^.^.^.^.^.^.V.V.V.V.V.V.C.B.B.B.B.B.B.N.N.m.m.N.m.v.v.c.c.c.c.x.x.k.k.k.j.f.f.s.s.s.d.p.0.8.7.7.7.7.7.7.7.5.5.3.3.3.,.,.,.| | | } } } X.X.X.X.f f f f m m m m m B B N r.J.J.J.P.XXP.VXFXFXFXGXGXGXGXGXGXGXGXGXGXGXMXMXDXMXMXMXMXMXMXMXMXMXMXMXMXMXMXMXMXMXMXMXMXMXMXMXDXKXGXGXGXGXGXGXGXGXGXGXGXGXGXGXGXGXGXGXGXGXGXGXGXGXGXGXGXDXMXDXMXMXMXMXMXMXMXMXMXMXMXMXMX",
"MXMXMXMXMXMXMXMXMXMXMXMXMXMXMXMXMXMXMXMXMXMXMXMXDXMXMXKXGXGXGXGXGXGXGXGXGXGXGXGXGXGXGXGXGXGXGXGXGXKXGXGXKXGXGXMXMXMXMXMXMXMXMXMXMXMXMXMXMXMXMXMXMXMXMXMXMXMXMXMXMXDXDXHXHXZXVXU U U U U Y H.Y D.H H H N N N N N m e.e.e.e.e.e.e.<.1.1.1.1.1.1.,.,.,.|  . . .,.,. .3.5.5.5.5.7.7.8.8.i.p.p.a.a.f.f.f.f.f.k.k.l.x.x.x.x.x.x.v.v.v.v.m.m.N.N.N.N.B.B.B.B.V.V.V.V.V.^.^.^.^.^.^.^.^.^.^.^./.^./././././././././././././././././.^.^.^./././././././.^.^.^.^.^.^.^.^.^.^.^.^.^.^.^.^.^.^.V.V.V.V.C.B.B.B.B.B.N.N.N.N.m.m.v.c.g.g.x.c.c.c.x.k.k.j.f.f.f.s.s.s.p.p.8.8.8.8.7.7.7.7.5.5.3.3.,. .,.,.| | 2.2.} } } } X.X.<.<.V V f f m m m B B N r.r.F.J.I.P..X,XFXFXHXGXGXGXGXGXGXGXGXGXGXGXKXMXDXDXMXMXMXMXMXMXMXMXMXMXMXMXMXMXMXMXMXMXMXMXMXMXDXKXGXGXGXGXGXGXGXGXGXGXGXGXGXGXGXGXGXGXGXGXGXGXGXGXGXGXGXMXMXDXMXMXDXMXMXMXMXMXMXMXMXMXMX",
"MXMXMXMXMXMXMXMXAXMXMXMXMXMXMXMXMXMXMXMXAXMXMXMXDXMXMXKXGXGXGXGXGXGXGXGXGXGXGXGXGXGXGXGXGXGXGXGXGXKXGXGXGXGXGXMXAXMXMXMXMXMXMXMXMXMXMXMXMXMXMXAXMXMXMXMXMXMXMXAXMXMXHXHXKXFXeXK U U U H.H.H.Y Y H H H N N N r.r.e.e.e.e.e.e.e.e.<.1.1.1.1.1.1.,.,.,. . . .,.3.3.3.3.5.7.7.7.7.8.8.8.p.p.a.a.a.f.f.f.f.k.k.k.x.x.c.c.x.c.c.v.v.m.m.m.m.N.N.N.N.B.B.B.V.V.V.^.V.V.^.^.^.^.^.^.^.^.^.^.^./././././././././././././././././././././././././././././././././.^.^.^.^.^.^.^.^.^.^.^.^.^.^.^.V.V.V.V.C.B.B.B.B.B.N.N.N.m.N.m.v.c.x.c.v.c.c.x.k.k.k.k.j.f.f.f.s.s.p.p.8.8.8.8.7.7.7.5.5.4.3.3.,.,.,. .| ,.| | } } } X.X.<.<.V V f f m m m m B N N r.D.F.J.J.XX.XmXFXKXHXGXGXGXGXGXGXGXGXGXKXDXMXMXMXMXMXAXMXMXMXMXMXMXMXMXMXMXMXAXMXMXMXMXMXMXMXMXKXGXGXGXGXGXGXGXGXGXGXGXGXGXGXGXGXGXGXGXGXGXGXGXGXGXGXGXDXMXDXMXMXDXMXAXMXMXMXMXMXMXMXMX",
"MXMXMXMXMXMXMXMXMXMXMXMXMXMXMXMXMXMXMXMXMXMXMXMXMXMXDXKXGXGXGXGXGXGXGXGXGXGXGXGXGXGXGXGXGXGXGXGXGXGXGXGXGXGXKXMXMXMXMXMXMXMXMXMXMXMXMXMXMXMXMXMXMXMXMXMXMXMXMXMXMXMXGXFXZXFXP.L U Y H.H.H.D.Y Y D.D.N N N N r.r.e.e.e.e.e.e.e.e.1.1.1.1.1.1.1.,.,.,. .,.,.3.3.3.3.4.5.7.7.7.8.8.8.8.p.a.a.a.f.f.f.g.g.k.k.x.x.x.c.c.c.c.v.v.m.m.m.m.N.N.N.N.B.B.B.B.V.V.^.^.^.^.^.^.^.^.^.^.^.^././././././././././././././././././././././././././././././././././././././././.^.^.^.^.^.^.^.^.^.^.^.^.V.V.V.V.C.C.B.B.B.B.B.N.m.N.N.N.m.v.v.v.v.c.c.x.x.k.k.k.f.f.f.f.s.a.p.p.p.8.8.8.7.7.7.7.5.5.3.3.3.3.,.,.,.| } } | 2.X.X.X.<.<.V V m m m m m m B N N D.D.J.J.I.P.eXFXKXHXGXGXGXGXGXGXGXGXGXKXDXMXMXMXMXMXMXMXMXMXMXMXMXMXMXMXMXMXMXMXMXMXMXMXMXMXMXKXGXGXGXGXGXGXGXGXGXGXGXGXGXGXGXGXGXGXGXGXGXGXGXGXGXGXGXDXMXMXNXMXDXMXMXMXMXMXMXMXMXMXMX",
"MXMXMXMXMXMXMXMXMXMXMXMXMXMXMXMXMXMXMXMXMXMXMXMXMXAXDXKXGXGXGXGXGXGXGXGXGXGXGXGXGXGXGXGXGXGXGXGXGXGXGXGXGXGXKXKXMXMXMXMXMXMXMXMXMXMXMXMXMXMXMXMXMXMXMXMXMXMXMXMXDXMXGXKXFXzXK U Y Y H.H.H.D.Y H H r.N N r.r.r.t.e.e.e.e.e.e.e.e.1.1.1.1.1.,.,.| | ,.,.3.3.3.3.3.4.4.7.7.7.7.8.0.8.i.a.a.f.f.f.g.g.g.k.k.x.x.x.x.c.c.c.c.v.v.m.N.N.N.N.N.N.B.B.B.V.V.V.^.^.^.^.^.^.^.^.^.^.^./.^././././././././././././././././././././././././././././././././././././././././.^.^.^.^.^.^.^.^.^.^.^.^.^.V.V.V.C.C.C.B.B.B.B.B.N.N.N.N.m.m.v.v.v.v.c.c.x.x.k.k.f.f.f.f.f.s.a.a.p.p.p.8.8.7.7.7.7.5.4.3.3.3.,.,.,.,.| } | } } X.X.<.<.V f f m m m m m B N N r.D.J.K.J.XX.XVXFXHXHXGXGXGXGXGXGXGXGXKXKXDXMXMXMXDXMXMXMXMXMXMXMXMXMXMXMXMXMXMXMXMXDXDXMXMXDXKXGXGXGXGXGXGXGXGXGXGXGXGXGXGXGXGXGXGXGXGXGXGXGXGXGXGXKXDXMXMXMXMXMXMXMXMXMXMXMXMXMXMXMX",
"KXKXKXKXKXKXKXKXKXKXKXKXKXKXKXKXKXKXKXKXKXKXKXKXKXKXKXKXKXKXKXKXKXKXKXKXKXKXKXKXKXKXKXKXKXKXKXKXKXKXKXKXKXKXKXKXKXKXKXKXKXKXKXKXKXKXKXKXKXKXKXKXKXKXKXKXKXKXKXKXKXKXFXBXFX#XU U Y H.H.H.H.H H H H N N N N N r.e.e.e.e.e.e.e.e.1.1.1.1.1.1.,.,.|  .,.,.3.3.4.4.4.5.4.7.7.7.7.8.8.i.p.a.f.f.f.f.g.g.k.k.x.x.x.x.x.x.c.c.v.v.v.m.N.N.N.N.B.B.B.V.V.V.V.^.^.^.^.^.^.^.^.^.^./././././././././././././././.).)./././././././././././././././././././././././././././.^.^.^.^.^.^.^.^.^.^.^.^.^.^.^.V.V.V.C.C.C.B.B.B.B.B.N.m.m.m.v.v.v.v.v.c.x.x.k.k.j.j.f.f.f.s.s.s.p.p.p.p.8.8.7.7.7.5.4.3.3.3.3.,.,.,.| } | 2.} X.X.<.<.f f f V m m m N B B N r.r.D.J.J.XXP.eXFXZXKXKXKXKXKXKXKXKXKXKXKXKXKXKXKXKXKXKXKXKXKXKXKXKXKXKXKXKXKXKXKXKXKXKXKXKXKXKXKXKXKXKXKXKXKXKXKXKXKXKXKXKXKXKXKXKXKXKXKXKXKXKXKXKXKXKXKXKXKXKXKXKXKXKXKXKXKXKXKXKXKX",
"GXGXGXGXGXGXGXGXGXGXGXGXGXGXGXGXGXGXGXGXGXGXGXGXGXGXGXKXDXDXDXMXDXLXDXDXDXDXDXLXDXDXDXDXLXLXDXDXMXDXMXMXDXMXDXGXGXGXGXGXGXGXGXGXGXGXGXGXGXGXGXGXGXGXGXGXGXGXGXGXGXGXKXBXvXK U U H.H.H.H.D.H H H N N N N N r.r.e.t.t.e.e.e.e.e.1.1.1.1.1.2.,.| | ,.,.3.3.4.4.4.4.5.5.5.7.7.8.0.p.p.a.a.f.f.f.g.g.k.k.x.x.x.c.x.c.x.c.v.v.v.m.m.N.N.N.B.B.B.V.V.V.V.^.^.^.^.^.^.^.^.^.^.^././././././././././.).)./././.).).).)./.).)././././././././././././././././././././././.^.^.^.^.^.^.^.^.^.^.^.^.^.^.^.^.V.V.V.V.C.C.B.B.V.V.B.N.N.m.m.v.v.v.v.c.c.x.x.x.k.k.j.f.f.f.s.s.a.a.p.p.p.8.8.8.7.7.4.4.3.3.3.,.,.,.| | } 2.} X.X.X.X.X.f f <.V e.m m B N N N r.D.r.J.P.P..XVXBXBXMXMXMXMXMXMXMXMXDXKXGXGXGXGXGXGXGXGXGXGXGXGXGXGXGXGXGXGXGXGXGXGXGXGXGXGXKXMXMXDXDXDXLXDXDXDXDXDXLXDXDXDXDXDXLXDXDXDXDXDXDXDXDXDXGXGXGXGXGXGXGXGXGXGXGXGXGXGXGXGX",
"GXGXGXGXGXGXGXGXGXGXGXGXGXGXGXGXGXGXGXGXGXGXGXGXGXGXGXKXMXMXMXMXMXMXMXMXMXMXMXMXMXMXMXMXMXMXMXMXMXLXMXMXMXMXMXGXGXGXGXGXGXGXGXGXGXGXGXGXGXGXGXGXGXGXGXGXGXGXGXGXGXGXKXBX,XG U Y H.H.D.H.H H H H r.r.N N N r.r.e.t.t.t.e.e.e.e.1.1.1.1.1.,.,.| | ,.,.3.3.4.4.4.4.5.5.7.7.8.0.p.p.a.a.f.f.f.f.g.g.x.x.x.x.c.c.c.c.x.c.v.v.m.N.N.N.N.B.B.B.V.V.V.V.^.^.^.^.^.^.^.^.^.^.^./././././././././.).).).).).).).).).).).).).).).).).).)./././.).).).).).)./././././././././././././.^.^.^.^.^.^.^.^.^.^.^.V.V.V.V.V.C.C.C.V.V.B.B.N.N.m.m.v.v.v.v.v.c.c.c.k.k.k.j.f.f.f.s.s.a.a.p.p.8.8.0.7.7.5.5.5.3.3.3.,.,.,.| | | } } X.<.X.X.X.f <.<.m m m N N N N N r.D.J.J.P.P.kXBXNXMXMXMXMXMXMXMXMXDXGXGXGXGXGXGXGXGXGXGXGXGXGXGXGXGXGXGXGXGXGXGXGXGXGXGXGXDXMXMXMXMXMXMXMXMXMXMXMXMXMXMXMXMXMXMXMXMXMXMXMXMXMXMXMXGXGXHXGXGXKXGXGXGXGXGXGXGXGXGXGX",
"GXGXGXGXGXGXGXGXGXGXGXGXGXGXGXGXGXGXGXGXGXGXGXGXKXGXGXKXMXMXMXDXMXMXMXMXMXMXMXMXMXMXMXMXMXMXMXMXMXDXMXMXDXMXMXGXGXGXGXGXGXGXGXGXGXGXGXGXGXGXGXGXGXGXGXGXGXGXGXGXGXFXZXVXP.Q U Y H.H.H.D.H H H H r.r.N N r.r.t.t.t.e.t.e.e.e.e.1.1.1.1.1.,.| | | ,.,.3.5.4.4.4.4.7.7.7.7.0.p.p.p.s.f.f.f.f.f.g.k.x.x.x.c.c.c.c.c.c.v.v.v.N.N.N.N.N.B.B.B.V.V.V.V.^.^.^.^.^.^.^.^././././././././././././.).).).).).).).).).).).).).).).).).).).).).).).).).).).)././././././././././././././.^.^.^.^.^.^.^.^.^.^.V.V.V.V.V.V.C.C.B.C.B.B.N.m.m.m.m.v.v.v.v.v.c.c.x.x.k.k.j.f.f.f.s.s.a.p.p.0.0.8.7.7.5.5.5.5.3.3.,.,.| | | | | } } X.<.<.X.f <.e.m m m B B N B N B J.D.J.P..X,XVXBXMXMXMXAXAXAXMXMXDXHXGXGXGXGXGXGXGXGXGXGXGXGXGXGXGXGXGXGXGXGXGXGXKXGXGXGXKXLXDXMXMXMXMXMXMXMXMXMXMXMXMXMXMXMXMXMXMXMXMXMXMXMXMXMXGXGXKXGXGXKXGXGXGXGXGXGXGXGXGXGX",
"GXGXGXGXGXGXGXGXGXGXGXGXGXGXGXGXGXGXGXGXGXGXGXGXGXGXGXKXMXMXMXMXMXMXMXMXMXMXMXMXMXMXMXMXMXMXMXMXMXMXMXMXDXMXDXGXGXGXGXGXGXGXGXGXGXGXGXGXGXGXGXGXGXGXGXGXGXGXGXGXGXDXZXpXU U U U H.H.D.H H H H D.r.r.N r.r.r.t.t.t.t.t.t.1.1.e.1.1.1.1.2.| | |  .3.3.3.3.4.5.5.7.7.7.8.8.p.p.p.a.s.f.f.f.f.f.k.k.k.x.b.x.x.b.v.x.v.v.v.m.m.N.N.B.B.B.B.V.V.V.^.^.^.(.(.(./././././././././././././.).).).).).).).).).).).).).).).).).).).).).).).).).).).).).).).).).).).).).).).)./././././././././.^.^.^.^.^.^.^.^.^.V.V.V.V.V.C.C.C.C.B.B.N.N.N.m.v.v.v.c.c.c.x.x.k.k.k.k.f.f.s.s.a.p.p.p.8.8.8.7.7.7.5.5.4.4.3.,. . .| | | | } } X.<.X.X.V f m m m m m B N N r.D.J.J.P.J.XXbXVXNXCXPXKXAXLXLXMXBXHXHXFXGXHXGXGXGXGXGXGXGXGXGXGXGXGXGXGXGXGXGXGXGXGXGXGXKXMXMXMXMXMXMXMXMXMXMXMXMXMXMXMXMXMXMXMXMXMXMXMXMXMXMXMXGXGXGXGXGXGXGXGXGXGXGXGXGXGXGXGX",
"GXGXGXGXGXGXGXGXGXGXGXGXGXGXGXGXGXGXGXGXGXGXGXGXGXGXGXKXMXMXMXMXMXMXMXMXMXMXMXMXMXMXMXMXMXMXMXMXMXMXMXMXDXMXDXGXGXGXGXGXGXGXGXGXGXGXGXGXGXGXGXGXGXGXGXGXGXGXGXGXGXFXFX%XK U H.H H.H.D.H H H H D.r.r.r.r.r.t.t.t.t.t.t.1.1.1.1.1.1.1.,.,.| |  . .3.3.3.3.4.5.7.7.7.8.8.p.p.p.s.s.f.f.f.f.f.f.k.k.x.x.c.x.v.v.v.x.v.v.v.m.m.N.N.B.B.B.B.V.V.V.^.^.(.(.(./././././././././././././.).).).).).).).).).).).).).).).).).).).).).).).).).).).).).).).).).).).).).).).).).)./././././././././.^.^.^.^.^.^.^.^.V.V.V.V.V.C.C.V.C.B.B.B.N.m.m.v.v.v.v.c.c.c.x.k.k.k.g.f.f.f.s.s.a.p.p.p.0.8.7.7.7.9.5.4.4.6.3. . . . .| | } } X.X.X.X.X.V m m m m m m N N N D.D.D.J.K.K.eXZXNXDXMXAXSXAXAXMXBXHXHXHXGXHXHXGXGXGXGXGXGXGXGXGXGXGXGXGXGXGXGXGXGXGXGXGXKXMXMXMXMXMXMXMXMXMXMXMXMXMXMXMXMXMXMXMXMXMXMXMXMXMXMXMXGXGXGXGXGXGXGXGXGXGXGXGXGXGXGXGX",
"GXGXGXGXGXGXGXGXGXGXGXGXGXGXGXGXGXGXGXGXGXGXGXGXGXGXGXKXMXMXMXMXMXMXMXMXMXMXMXMXMXMXMXMXMXMXMXMXMXMXMXMXDXMXDXGXGXGXGXGXGXGXGXGXGXGXGXGXGXGXGXGXGXGXGXGXGXGXGXGXFXHXVXU U U H.H H.H.Y H H H H H r.r.r.r.r.t.e.e.e.t.t.1.1.1.1.1.1.,.,.| | | ,.,.3.3.3.3.4.4.7.7.8.8.0.p.p.p.s.f.f.f.f.f.f.k.k.k.x.x.x.v.v.x.x.v.v.v.m.m.N.N.B.B.B.B.V.V.^.^.^.^.(.^././././././././././././././.).).).).).).).).).).).).).).).).).).).).).).).).).).).).).).).).).).).).).).).).).)././././././././././././.^.^.^.^.^.^.^.V.V.V.V.V.V.V.B.B.B.B.N.m.m.v.m.v.c.c.c.c.x.k.k.k.g.f.f.f.s.s.a.p.p.0.8.8.7.7.9.5.5.4.4.3.,.,. . . .| | } X.X.X.X.X.V m m m m m m N N B r.D.D.J.P.K.XXVXNXDXDXSXDXSXAXMXBXHXHXHXGXHXHXGXGXGXGXGXGXGXGXGXGXGXGXGXGXGXGXGXGXGXGXGXKXMXMXMXMXMXMXMXMXMXMXMXMXMXMXMXMXMXMXMXMXMXMXMXMXMXMXMXGXGXGXGXGXGXGXGXGXGXGXGXGXGXGXGX",
"GXGXGXGXGXGXGXGXGXGXGXGXGXGXGXGXGXGXGXGXGXGXGXGXGXGXGXKXMXMXMXMXMXMXMXMXMXMXMXMXMXMXMXMXMXMXMXMXMXMXMXMXDXMXDXGXGXGXGXGXGXGXGXGXGXGXGXGXGXGXGXGXGXGXGXGXGXGXGXGXHXHXeXK H.Y H H.H.H.Y H H H H H r.r.r.r.e.t.e.e.e.e.e.e.1.1.1.1.1.2.| | | ,.3.3.3.3.3.4.4.4.7.7.8.8.p.p.p.s.s.f.f.f.j.j.k.k.k.x.b.x.x.v.v.x.x.v.v.v.m.N.N.N.B.B.B.V.V.^.^.^.^.^.^./././././././././././././././.).).).).).).).).).).).).).).).).).).).).).).).).).).).).).).).).).).).).).).).).).).).).)././././././././././.^.^.^.^.^.^.^.V.V.V.V.V.V.V.B.B.B.N.N.m.m.m.m.v.c.c.c.c.x.k.k.g.k.f.f.s.s.s.a.p.p.0.8.7.7.7.9.4.4.5.6.6.3.,.,.,.| | ..} <.X.<.<.X.m m m m m m m N N N D.J.J.K.K.P.pXBXNXDXSXLXAXLXMXBXHXHXHXGXHXHXGXGXGXGXGXGXGXGXGXGXGXGXGXGXGXGXGXGXGXGXGXKXMXMXMXMXMXMXMXMXMXMXMXMXMXMXMXMXMXMXMXMXMXMXMXMXMXMXMXGXGXGXGXGXGXGXGXGXGXGXGXGXGXGXGX",
"GXGXGXGXGXGXGXGXGXGXGXGXGXGXGXGXGXGXGXGXGXGXGXGXGXGXGXKXMXMXMXMXMXMXMXMXMXMXMXMXMXMXMXMXMXMXMXMXMXMXMXMXDXMXDXGXGXGXGXGXGXGXGXGXGXGXGXGXGXGXGXGXGXGXGXGXGXGXGXGXFXFXL.U U Y H H.H.Y Y H H H H r.r.r.r.r.e.t.e.t.e.e.1.1.1.1.1.1.1.,.| | | ,.,.3.3.3.4.4.4.5.7.8.8.8.p.p.a.s.f.f.f.f.k.k.k.k.x.x.b.x.x.v.v.x.c.v.v.m.N.N.N.B.B.C.B.V.^.^.^.^.^.^.^./././././././.)././.).).).).).).).).).).).).).).).).).).).).).).).).).).).).).).).).).).).).).).).).).).).).).).).).).).)././././././././././.^.^.^.^.^.^.^.^.^.^.V.V.C.C.B.B.B.N.N.m.m.m.v.v.c.c.c.c.k.k.k.k.f.f.f.s.s.a.p.p.p.0.7.7.7.7.5.5.5.5.3.3.3.,.,. .| ..} 2.<.<.<.<.<.m e.m m m m N N N r.J.J.J.K.P.;XZXNXMXLXAXAXLXMXBXHXHXHXGXHXGXGXGXGXGXGXGXGXGXGXGXGXGXGXGXGXGXGXGXGXGXGXKXMXMXMXMXMXMXMXMXMXMXMXMXMXMXMXMXMXMXMXMXMXMXMXMXMXMXMXGXGXGXGXGXGXGXGXGXGXGXGXGXGXGXGX",
"GXGXGXGXGXGXGXGXGXGXGXGXGXGXGXGXGXGXGXGXGXGXGXGXGXGXGXKXMXMXMXMXMXMXMXMXMXMXMXMXMXMXMXMXMXMXMXMXMXMXMXMXDXMXDXGXGXGXGXGXGXGXGXGXGXGXGXGXGXGXGXGXGXGXGXGXGXGXGXGXHXmXI U L H.Y H.D.Y H H H H D.r.r.r.r.t.e.t.t.t.e.e.1.1.1.1.1.1.,.| | | | ,.3.3.3.3.4.4.4.7.7.0.8.0.p.p.s.s.f.g.f.j.k.k.k.x.x.c.b.v.v.v.v.v.v.v.m.N.N.N.B.B.V.V.V.V.^.^.^.^.^./././././././././.).).).).).).).).).).).).).).).).).).).).).).).).).).).).).).).).).).).).).).).).).).).).).).).).).).).).).).)./././././././././././.^.^.^.^.^.^.^.^.V.V.V.V.C.C.B.B.N.m.m.m.m.v.v.v.c.c.x.k.k.k.j.f.f.f.s.s.p.p.p.0.8.7.7.7.5.5.5.5.3.3.3.3.,. .| ..2.2.<.<.<.<.<.<.e.e.m m m N r.N N D.J.J.K.XX.XnXVXBXKXAXAXAXMXNXHXHXHXGXHXGXGXGXGXGXGXGXGXGXGXGXGXGXGXGXGXGXGXGXGXGXGXKXMXMXMXMXMXMXMXMXMXMXMXMXMXMXMXMXMXMXMXMXMXMXMXMXMXMXMXGXGXGXGXGXGXGXGXGXGXGXGXGXGXGXGX",
"GXGXGXGXGXGXGXGXGXGXGXGXGXGXGXGXGXGXGXGXGXGXGXGXGXGXGXKXMXMXMXMXMXMXMXMXMXMXMXMXMXMXMXMXMXMXMXMXMXMXMXMXDXMXMXGXGXGXGXGXGXGXGXGXGXGXGXGXGXGXGXGXGXGXGXGXGXGXGXHXFXeXK U L H.H.H.Y Y H H H N r.r.r.r.e.t.t.e.t.e.e.e.1.1.1.1.1.1.,.| | ,.,.,.,.3.3.4.5.7.7.7.8.0.0.p.p.s.s.s.g.j.f.f.k.k.k.x.c.b.v.v.v.v.v.m.m.v.m.N.N.N.B.B.V.V.V.^.^.^.^.^.^././././././.)./.).).).).).).).).).).).).).).).).).).).).).).).).).).).).).).).).).).).).).).).).).).).).).).).).).).).).).).).).).).)./././././././././.^.^.^.^.^.^.^.^.^.V.V.C.C.C.B.N.N.N.m.m.v.m.v.c.c.x.x.k.k.k.j.f.f.s.s.s.p.d.0.8.7.7.7.7.5.5.5.4.3.3.3.,. .| | 2.2.X.<.<.<.<.<.e.e.m m m m N r.B D.J.J.K.I.P.eXVXBXLXAXAXAXMXNXHXHXHXGXHXGXGXGXGXGXGXGXGXGXGXGXGXGXGXGXGXGXGXGXGXGXGXKXMXMXMXMXMXMXMXMXMXMXMXMXMXMXMXMXMXMXMXMXMXMXMXMXMXMXMXGXGXGXGXGXGXGXGXGXGXGXGXGXGXGXGX",
"GXGXGXGXGXGXGXGXGXGXGXGXGXGXGXGXGXGXGXGXGXGXGXGXGXGXGXKXMXMXMXMXMXMXMXMXMXMXMXMXMXMXMXMXMXMXMXMXMXMXMXMXDXMXMXGXGXGXGXGXGXGXGXGXGXGXGXGXGXGXGXGXGXGXGXGXGXGXGXHXFXP.U U H.H.H.D.Y H H H H r.r.r.r.r.t.t.e.e.e.e.e.1.1.1.1.1.1.1.| | | ,.,. .3.3.3.4.7.7.9.7.8.p.p.p.s.s.s.f.g.j.f.f.k.k.x.x.v.v.c.v.N.v.v.N.N.v.m.N.B.B.B.B.V.V.V.^.^.^.^.^./././././././.).).).).).).).).).).).).).).).).).).).).).).).).).).).).).).).).).).).).).).).).).).).).).).).).).).).).).).).).).).).).)./././././././././.^.^.^.^.^.^.^.^.^.V.V.C.C.V.B.B.N.N.m.m.m.m.m.v.c.c.x.k.k.k.k.f.f.f.s.s.s.p.p.8.7.7.7.7.5.5.5.4.3.3.3. . .| | ..2.2.<.<.<.X.<.<.e.e.m m m B r.N r.J.J.K.P..X.XmXVXNXDXMXAXMXMXGXHXHXGXGXGXGXGXGXGXGXGXGXGXGXGXGXGXGXGXGXGXGXGXGXGXGXKXMXMXMXMXMXMXMXMXMXMXMXMXMXMXMXMXMXMXMXMXMXMXMXMXMXMXMXGXGXGXGXGXGXGXGXGXGXGXGXGXGXGXGX",
"GXGXGXGXGXGXGXGXGXGXGXGXGXGXGXGXGXGXGXGXGXGXGXGXGXGXGXKXMXMXMXMXMXMXMXMXMXMXMXMXMXMXMXMXMXMXMXMXMXMXMXMXDXMXDXGXGXGXGXGXGXGXGXGXGXGXGXGXGXGXGXGXGXGXGXGXGXGXGXFXvXU G H.U H.H H.H.Y H H N r.r.r.t.r.t.t.t.t.e.e.1.1.1.1.1.1.,.| | |  .,. . . .3.4.5.7.7.7.8.0.p.p.p.a.s.f.g.j.j.f.g.k.k.x.c.b.v.v.m.N.N.m.N.N.N.N.N.N.B.V.V.B.B.^.^.^.^.^./././././././.).).).).).).).).).).).).).).).).).).).).).)._._._.).).).).).).).).).).).).).).)._.).).).`.`.).).).).).).).).).).).).).).).).).).)././././././././.^.^.^.v.N.V.^.^.V.V.^.V.V.V.B.N.N.N.m.m.m.m.v.c.c.x.k.k.k.k.f.f.s.s.d.p.p.0.0.8.7.7.4.5.5.5.4.3.3.,.,.,.| ,.2.} 2.<.<.X.X.<.e.e.e.m m m N r.r.D.J.J.K.P..XbXnXNXLXMXDXMXMXGXGXHXGXGXGXGXGXGXGXGXGXGXGXGXGXGXGXGXGXGXGXGXGXGXGXGXKXMXMXMXMXMXMXMXMXMXMXMXMXMXMXMXMXMXMXMXMXMXMXMXMXMXMXMXGXGXGXGXGXGXGXGXGXGXGXGXGXGXGXGX",
"GXGXGXGXGXGXGXGXGXGXGXGXGXGXGXGXGXGXGXGXGXGXGXGXGXGXGXKXMXMXMXMXMXMXMXMXMXMXMXMXMXMXMXMXMXMXMXMXMXMXMXMXDXMXDXGXGXGXGXGXGXGXGXGXGXGXGXGXGXGXGXGXGXGXGXKXGXGXKXHX4XU U U Y H.H H.D.D.H N N r.r.r.t.t.t.t.t.t.e.e.1.1.1.1.,.1.,.| | |  .,.,.,.3.3.4.7.7.7.8.8.p.p.a.a.a.s.f.f.j.k.k.k.x.x.v.v.v.m.m.m.N.N.N.N.N.N.N.B.B.B.B.B.B.B.^.^.^.^./././././././.).).).).).).).).).).).).).).).).).).).).).).).)._._.).).).).).).).).).).).).).).).).).).).).).).).).).).).).).).).).).).).).).)./.)././././././././.^.^.^.B.V.^.^.^.V.V.V.V.V.V.B.B.N.N.m.m.m.m.v.c.c.x.x.k.k.k.f.f.f.s.s.p.p.p.8.8.7.7.5.5.5.5.5.4.3.3.,.,.,.,.| ..} 2.<.X.X.<.<.e.m m m m N r.r.D.J.J.K.XX.XeXVXNXDXMXMXMXMXGXGXHXGXGXGXGXGXGXGXGXGXGXGXGXGXGXGXGXGXGXGXGXGXGXGXGXKXMXMXMXMXMXMXMXMXMXMXMXMXMXMXMXMXMXMXMXMXMXMXMXMXMXMXMXGXGXGXGXGXGXGXGXGXGXGXGXGXGXGXGX",
"GXGXGXGXGXGXGXGXGXGXGXGXGXGXGXGXGXGXGXGXGXGXGXGXGXGXGXKXMXMXMXMXMXMXMXMXMXMXMXMXMXMXMXMXMXMXMXMXMXMXMXMXDXMXDXGXGXGXGXGXGXGXGXGXGXGXGXGXGXGXGXGXGXGXGXKXGXGXKXHXL.U U Y Y H.H.H D.Y H N r.r.r.r.r.t.t.e.t.e.e.1.1.1.1.1.1.1.,.} |  . .,.3.3.3.4.5.7.7.8.8.0.p.p.a.a.s.f.f.f.g.k.k.k.x.c.v.v.v.m.m.m.N.N.N.N.N.B.B.B.B.B.V.B.B.B.^.^.(.^./././././././.).).).).).).).).).).).).).).).).).)._._._._._._._._._._._._._._._._._._._.).).).)._._._._.).).).).).).).).).).).).).).).).).).).).).).)./././././././.^.^.^.^.^.^.^.^.V.V.V.V.V.C.B.B.N.N.m.m.v.v.v.c.c.c.k.k.k.k.f.f.s.s.s.p.p.0.0.8.7.7.7.5.5.5.4.3.3.3.,.,.,.| ..} 2.X.X.X.<.<.e.e.m m m r.r.r.r.J.J.J.XXXX.XVXnXBXDXMXMXMXGXGXHXGXGXGXGXGXGXGXGXGXGXGXGXGXGXGXGXGXGXGXGXGXGXGXGXKXMXMXMXMXMXMXMXMXMXMXMXMXMXMXMXMXMXMXMXMXMXMXMXMXMXMXMXGXGXGXGXGXGXGXGXGXGXGXGXGXGXGXGX",
"GXGXGXGXGXGXGXGXGXGXGXGXGXGXGXGXGXGXGXGXGXGXGXGXGXGXGXKXMXMXMXMXMXMXMXMXMXMXMXMXMXMXMXMXMXMXMXMXMXMXMXMXDXMXDXGXGXGXGXGXGXGXGXGXGXGXGXGXGXGXGXGXGXGXGXGXGXGXGXnXK Y H.Y H.H.D.D.D.D.H r.r.r.r.t.r.t.e.t.t.t.e.1.1.1.1.,.,.,.| |  . .,.3.3.4.5.5.7.7.8.8.p.p.p.a.a.s.f.f.f.f.k.k.k.x.x.c.v.v.v.v.m.m.N.N.N.N.N.B.N.B.B.V.V.V.V.^.^.^.^././././././././.).).).).).).).).).).).).).).).).)._._._._._._._._._._._._._._._._._._._._.).).).)._._._._.)._._._.).).).).).).).).).).).).).).).).).).).)././././././././.^.^.^.^.^.^.^.V.V.V.V.V.V.B.N.N.m.m.m.v.v.v.c.c.x.k.k.k.k.f.f.s.s.p.p.p.0.8.7.7.7.7.5.5.4.3.3.3.,.,. .| ....2.2.X.X.X.<.<.e.m m e.r.r.r.r.D.J.J.K.XX.XbXVXNXMXDXMXMXGXGXHXGXGXGXGXGXGXGXGXGXGXGXGXGXGXGXGXGXGXGXGXGXGXGXGXKXMXMXMXMXMXMXMXMXMXMXMXMXMXMXMXMXMXMXMXMXMXMXMXMXMXMXMXGXGXGXGXGXGXGXGXGXGXGXGXGXGXGXGX",
"GXGXGXGXGXGXGXGXGXGXGXGXGXGXGXGXGXGXGXGXGXGXGXGXGXGXGXKXMXMXMXMXMXMXMXMXMXMXMXMXMXMXMXMXMXMXMXMXMXMXMXMXDXMXDXGXGXGXGXGXGXGXGXGXGXGXGXGXGXGXGXGXGXGXKXGXKXGXGX1XK Y U H H.H.H H.H H N N N r.t.t.t.t.t.t.e.e.e.1.1.1.1.,.,.,.| |  .,.,.3.5.5.7.7.7.8.8.p.p.p.a.s.s.f.f.g.f.f.k.k.k.x.x.v.v.v.v.v.m.N.N.N.N.N.B.B.B.B.B.V.V.^.^.^.^.^./././././././.).).).).).).).).).).).).).).).)._._._._._._._._._._._._._._._._._._._._._._._._._._._._._._._._._._._._.).).).).).).).).).).).).).).).).).).)././././././././.^.^.V.^.^.^.^.V.V.^.V.V.V.C.B.N.m.m.m.m.v.v.v.c.x.k.k.k.j.j.f.s.s.s.p.p.0.8.8.7.7.7.5.4.4.3.3.3.3.,.,. ...2.2.1.X.<.X.<.<.e.e.m e.N r.r.r.D.J.J.J.XXXX,XZXNXNXDXAXMXGXGXHXGXGXGXGXGXGXGXGXGXGXGXGXGXGXGXGXGXGXGXGXGXGXGXGXKXMXMXMXMXMXMXMXMXMXMXMXMXMXMXMXMXMXMXMXMXMXMXMXMXMXMXMXGXGXGXGXGXGXGXGXGXGXGXGXGXGXGXGX",
"GXGXGXGXGXGXGXGXGXGXGXGXGXGXGXGXGXGXGXGXGXGXGXGXGXGXGXKXMXMXMXMXMXMXMXMXMXMXMXMXMXMXMXMXMXMXMXMXMXMXMXMXDXMXDXGXGXGXGXGXGXGXGXGXGXGXGXGXGXGXGXGXGXGXKXGXKXGXGXL.U Y H H.H.H.D.H.H H N N r.t.t.t.t.t.t.t.e.e.e.1.1.1.1.,.,.,.| | 3.,.3.3.5.7.7.7.7.8.0.p.p.p.a.s.s.f.g.f.f.k.k.x.x.x.v.v.v.v.v.v.v.N.N.N.N.B.B.B.V.V.V.V.^.^.^.^.^.^././././././.).).).).).).).).).).).).).).).)._._._._._._._._._._.]._._._._._._._._._.].]._._._._._._._._._._._._._._._._._.).).).).).).).).).).).).).).).).).)./././././././.^.^.^.^.^.^.V.V.^.^.^.V.V.C.B.B.N.N.m.m.m.v.v.v.c.x.k.k.l.k.j.f.s.s.p.p.p.0.8.7.7.7.5.5.4.4.3.3.3.3.,.,.,.....2.<.<.X.<.<.<.e.m m m r.r.r.r.J.J.K.oXXXP.VXDXNXMXMXMXGXGXHXGXGXGXGXGXGXGXGXGXGXGXGXGXGXGXGXGXGXGXGXGXGXGXGXKXMXMXMXMXMXMXMXMXMXMXMXMXMXMXMXMXMXMXMXMXMXMXMXMXMXMXMXGXGXGXGXGXGXGXGXGXGXGXGXGXGXGXGX",
"GXGXGXGXGXGXGXGXGXGXGXGXGXGXGXGXGXGXGXGXGXGXGXGXGXGXGXKXMXMXMXMXMXMXMXMXMXMXMXMXMXMXMXMXMXMXMXMXMXMXMXMXDXMXDXGXGXGXGXGXGXGXGXGXGXGXGXGXGXGXGXGXGXGXGXGXGXGXxXT U Y H H.H.H.H.D.H H N N r.t.t.t.t.t.t.t.e.e.1.1.1.1.,.,.,.| | ,.3.3.3.3.5.9.7.7.7.8.0.p.p.a.a.s.s.f.g.j.g.k.l.c.x.c.v.v.N.N.N.N.m.N.N.N.N.N.B.V.V.V.V.V.^.^.^.^.^./././././././.).).).).).).).).).).).).).).).)._._._._._._._._._._._._._._._._._._._._._._._._._._._._._._._._._._._._._._._._._._.).).).).).).).).).).).).).).).)./././././././.^.^.^.^.^.^.V.^.^.^.V.V.C.B.B.N.N.N.N.m.m.v.v.c.c.x.k.l.l.k.f.f.s.d.p.p.0.8.8.7.7.7.5.5.4.3.3.3.3.,.,.,.......2.<.X.<.<.<.e.m m m N r.r.r.D.J.J.oXXX.XkXZXNXMXMXMXGXGXHXGXGXGXGXGXGXGXGXGXGXGXGXGXGXGXGXGXGXGXGXGXGXGXGXKXMXMXMXMXMXMXMXMXMXMXMXMXMXMXMXMXMXMXMXMXMXMXMXMXMXMXMXGXGXGXGXGXGXGXGXGXGXGXGXGXGXGXGX",
"GXGXGXGXGXGXGXGXGXGXGXGXGXGXGXGXGXGXGXGXGXGXGXGXGXGXGXKXMXMXMXMXMXMXMXMXMXMXMXMXMXMXMXMXMXMXMXMXMXMXMXMXDXMXDXGXGXGXGXGXGXGXGXGXGXGXGXGXGXGXGXGXGXGXGXDXGXHX7XI U Y H H.H.H.H.H H N N N r.t.t.t.t.t.t.e.e.e.1.1.1.1.,.,.| | | ,.3.3.3.3.4.7.7.7.8.8.p.p.p.a.a.s.s.f.j.k.k.k.x.b.c.c.v.v.m.N.N.m.m.N.N.N.B.B.B.V.B.V.V.V.^.^.^./.^././././././.).).).).).).).).).).).).).).).).)._._._._._._._._._._._._._._._._._._._._._._._._._._._._._._._._._._._._._._._._._._._._.).).).).).).).).).).).).).).)./././././.^.^.^.^.^.^.^.^.^.^.^.V.V.C.V.V.N.N.N.N.N.m.v.v.v.c.x.x.x.l.j.f.f.s.s.p.p.p.8.8.7.7.7.7.7.5.4.3.3.3.,.,.,.,.| 2.2.<.X.X.<.<.e.e.m m r.r.r.r.D.J.J.oXXXXX,XmXZXMXMXMXGXGXGXGXGXGXGXGXGXGXGXGXGXGXGXGXGXGXGXGXGXGXGXGXGXGXGXKXMXMXMXMXMXMXMXMXMXMXMXMXMXMXMXMXMXMXMXMXMXMXMXMXMXMXMXGXGXGXGXGXGXGXGXGXGXGXGXGXGXGXGX",
"GXGXGXGXGXGXGXGXGXGXGXGXGXGXGXGXGXGXGXGXGXGXGXGXGXGXGXKXMXMXMXMXMXMXMXMXMXMXMXMXMXMXMXMXMXMXMXMXMXMXMXMXDXMXDXGXGXGXGXGXGXGXGXGXHXHXGXGXGXGXGXGXHXGXHXFXHXFXL.U U U Y H.H.D.D.D.H r.r.r.r.t.t.t.t.e.t.t.e.e.1.1.1.1.,.,.| | ,.,.3.3.4.4.4.7.7.7.8.0.p.p.p.a.a.s.f.f.k.k.k.k.k.c.c.c.m.N.N.N.N.v.m.N.N.B.B.V.V.V.V.V.^.^.^.^.^././././././.).).).).).).).).).).).).)._.)._._._._._._._._._._._.].].].].]._._._._._._._._._.]._._._._._._._._._._._._._._._._._._._._._._.).).).).).).).).).).).).).).).).)././././.^.^.^.^.^.^.^.^.^.^.V.V.V.V.V.B.B.B.N.N.m.v.v.v.v.c.x.k.k.k.f.f.s.s.a.p.p.p.8.0.7.7.7.7.7.5.3.,.3.3.,.,.,.,.2.1.2.<.X.<.<.e.e.e.m e.r.r.r.D.D.J.P.XXXXXXVXmXKXAXAXHXHXHXGXGXHXGXGXGXGXGXGXGXGXGXGXGXGXGXGXGXGXGXGXGXGXGXKXMXMXMXMXMXMXMXMXMXMXMXMXMXMXMXMXMXMXMXMXMXMXMXMXMXMXMXGXGXGXGXGXGXGXGXGXGXGXGXGXGXGXGX",
"GXGXGXGXGXGXGXGXGXGXGXGXGXGXGXGXGXGXGXGXGXGXGXGXGXGXGXKXMXMXMXMXMXMXMXMXMXMXMXMXMXMXMXMXMXMXMXMXMXMXMXMXDXMXDXGXGXGXGXGXGXGXGXGXHXHXGXGXGXGXGXGXGXGXHXFXFXmXH.U U U Y H.H.D.Y D.N r.r.t.t.t.t.t.t.t.t.t.e.1.1.1.1.1.,.| | | ,.,.3.4.4.4.4.7.7.8.8.p.p.p.a.a.a.f.f.f.g.k.k.k.x.c.c.c.v.m.N.N.m.m.N.N.B.B.B.B.V.V.V.V.^.^.^.^.^././././././.).).).).).).).).).).).).).).)._._._._._._._._._._._.].].].].]._._._._._._._._._.]._._._._._._._._._._._._._._._._._._._._._._.).).).).).).).).).).).).).).).).)./././././.^.^.^.^.^.^.^.^.^.V.V.V.V.V.B.B.B.N.N.N.m.v.v.v.c.x.x.k.k.j.f.f.s.a.a.p.p.0.8.8.7.7.7.7.5.3.,.3.3.,.,.,.,.,.1.1.<.<.<.<.e.e.e.m e.r.r.r.r.D.J.K.I.XXXXbXmXBXAXAXHXHXHXGXHXHXGXGXGXGXGXGXGXGXGXGXGXGXGXGXGXGXGXGXGXGXGXKXMXMXMXMXMXMXMXMXMXMXMXMXMXMXMXMXMXMXMXMXMXMXMXMXMXMXMXGXGXGXGXGXGXGXGXGXGXGXGXGXGXGXGX",
"GXGXGXGXGXGXGXGXGXGXGXGXGXGXGXGXGXGXGXGXGXGXGXGXGXGXGXKXMXMXMXMXMXMXMXMXMXMXMXMXMXMXMXMXMXMXMXMXMXMXMXMXDXMXDXGXGXGXGXGXGXGXGXGXHXHXGXGXGXGXGXGXGXGXFXFXFXqXU U U U U U Y Y D.D.r.r.r.r.t.t.t.t.e.e.t.t.e.1.1.1.1.,.,.| | | ,.3.4.4.4.4.9.7.7.8.0.p.p.p.a.a.s.f.f.g.k.k.k.k.x.c.c.c.v.m.m.m.m.m.B.B.B.B.B.B.B.B.V.V.^.^.^.^.^././././././.).).).).).).).).).).).).).).)._._._._._._._._._._.].].]._.]._._._._._._._._._.].].]._._._._.].].].].]._._._._._._._._._._._.)._._.).).).).).).).).).).).).).).)./././././././.^.^.^.^.^.^.^.^.^.V.V.V.B.B.B.B.N.N.v.m.v.v.c.x.c.k.k.k.f.f.s.s.a.p.p.p.8.8.7.7.7.7.5.3.3.3.3.,.,.,.,.,.2.2.<.<.<.<.<.e.e.m e.r.r.r.r.D.J.K.I.XXXXeXVXBXMXAXHXHXHXGXHXHXGXGXGXGXGXGXGXGXGXGXGXGXGXGXGXGXGXGXGXGXGXKXMXMXMXMXMXMXMXMXMXMXMXMXMXMXMXMXMXMXMXMXMXMXMXMXMXMXMXGXGXGXGXGXGXGXGXGXGXGXGXGXGXGXGX",
"GXGXGXGXGXGXGXGXGXGXGXGXGXGXGXGXGXGXGXGXGXGXGXGXGXGXGXKXMXMXMXMXMXMXMXMXMXMXMXMXMXMXMXMXMXMXMXMXMXMXMXMXDXMXDXGXGXGXGXGXGXGXGXGXHXHXGXGXGXGXGXGXGXHXHXFXFX.XY U Y U U U Y Y D.D.r.r.r.r.t.t.t.t.t.t.t.e.1.1.1.1.1.1.,.| | | ,.3.4.4.4.4.7.7.7.8.p.p.p.a.a.s.f.f.f.g.k.k.k.k.x.c.c.v.v.m.m.m.m.m.N.B.B.B.B.B.V.V.V.V.^.^.^.^.^./././././.).).).).).).).).).).).).).).).)._._._._._._._._._.].].].].]._._._._.].]._._._._.].].].]._._._.].].].]._._._._._._._._._._._._._._._.).).).).).).).).).).).).).).).)././././././.^.^.^.^.^.^.^.^.^.^.V.V.C.C.B.B.N.N.N.v.v.v.c.c.c.c.k.k.f.f.f.s.s.p.p.p.0.8.7.7.7.7.5.5.3.3.,.,.,.,.,.,.2.2.X.<.<.<.X.f e.m e.r.r.r.r.D.J.J.I.XXXX;XVXVXBXAXHXHXHXGXHXHXGXGXGXGXGXGXGXGXGXGXGXGXGXGXGXGXGXGXGXGXGXKXMXMXMXMXMXMXMXMXMXMXMXMXMXMXMXMXMXMXMXMXMXMXMXMXMXMXMXGXGXGXGXGXGXGXGXGXGXGXGXGXGXGXGX",
"GXGXGXGXGXGXGXGXGXGXGXGXGXGXGXGXGXGXGXGXGXGXGXGXGXGXGXKXMXMXMXMXMXMXMXMXMXMXMXMXMXMXMXMXMXMXMXMXMXMXMXMXMXMXDXGXGXGXGXGXGXGXGXGXHXHXGXGXGXGXGXGXGXKXHXFXZXU U U U U U U Y Y H D.r.r.r.r.t.t.t.t.t.t.t.t.1.1.1.2.1.2.,.| |  .,.6.3.4.4.4.7.7.7.7.p.p.a.s.s.s.f.f.f.k.k.k.k.x.c.c.c.v.m.m.m.m.m.N.N.N.B.B.B.V.V.V.V.V.^.^.^.^.^./././././.).).).).).).).).).).).).)._.).).).)._._._._._.].].].].].].]._._.].].].]._._.].].].].].]._._._._.].].].]._._._._._._._._._._._._._._._._.).).).).).).).).).).).).).)././././././.^.^.^.^.^.^.^.^.V.V.V.V.C.C.C.B.B.N.m.m.v.v.c.c.c.c.k.k.f.f.f.s.s.p.p.p.0.0.8.7.7.7.5.5.3.3.3.,.,.,.,.,.2.2.2.<.X.X.X.f e.e.e.m r.r.r.D.D.J.K.XXXX.XmXVXBXAXHXHXHXGXHXHXGXGXGXGXGXGXGXGXGXGXGXGXGXGXGXGXGXGXGXGXGXKXMXMXMXMXMXMXMXMXMXMXMXMXMXMXMXMXMXMXMXMXMXMXMXMXMXMXMXGXGXGXGXGXGXGXGXGXGXGXGXGXGXGXGX",
"GXGXGXGXGXGXGXGXGXGXGXGXGXGXGXGXGXGXGXGXGXGXGXGXGXGXGXKXMXMXMXMXMXMXMXMXMXMXMXMXMXMXMXMXMXMXMXMXMXMXMXMXMXMXMXGXGXGXGXGXGXGXGXGXGXHXGXGXGXGXGXGXGXKXHXFXkXK U Y Y Y U Y D.Y H D.r.r.r.t.t.t.t.t.t.e.t.1.1.1.1.1.1.,.| | | ,.3.6.4.4.4.7.7.7.7.8.p.p.s.s.s.f.f.f.k.k.k.k.x.c.c.c.v.M.N.N.m.m.m.N.N.N.B.B.B.V.V.^.V.V.^.^.^.^.^./././././.).).).).).).).).).).).)._._.).).).)._._._._.].].].].].].].].].].].].].]._._.].].].].].].].].].].].].].].].]._.]._._._.]._._._._._._._._.).).).).).).).).).).).).).).).)./././././.^.^.^.^.^.^.^.^.V.V.V.V.C.C.B.B.N.N.N.m.v.v.c.c.c.x.k.j.f.f.s.a.a.p.p.0.0.8.8.7.7.7.5.4.3.3.3.,.,.,.,.,.2.1.<.<.<.X.<.e.e.e.m N r.r.r.D.J.K.XXXX.XpXVXBXMXHXHXHXGXHXHXGXGXGXGXGXGXGXGXGXGXGXGXGXGXGXGXGXGXGXGXGXKXMXMXMXMXMXMXMXMXMXMXMXMXMXMXMXMXMXMXMXMXMXMXMXMXMXMXMXGXGXGXGXGXGXGXGXGXGXGXGXGXGXGXGX",
"GXGXGXGXGXGXGXGXGXGXGXGXGXGXGXGXGXGXGXGXGXGXGXGXGXGXGXKXMXMXMXMXMXMXMXMXMXMXMXMXMXMXMXMXMXMXMXMXMXMXMXMXDXMXDXGXGXGXGXGXGXGXGXGXGXHXGXGXGXGXGXGXGXHXHXFX=XY U Y U Y H.H.D.H H r.r.r.r.t.t.t.t.t.e.t.t.1.1.1.1.2.,.| | |  . .3.3.4.4.4.7.7.7.8.8.d.p.s.s.f.f.f.f.k.k.x.x.x.c.c.c.v.m.N.N.N.m.N.N.N.N.B.B.B.V.V.^.V.^.^.^.^.^.^./././././.).).).).).).).).).).).)._._._._._._._._.].].].].].].].].].].].].].]._._._._._.].].].].].].].].].].].].].].].].].].].].]._._._._._._._._._._._._._._.).)._.).).).).).).)./././././.^.^.^.^.^.^.^.^.^.^.^.V.V.C.C.B.N.N.N.N.m.v.v.c.c.x.k.k.j.g.s.s.a.p.p.p.0.0.0.7.7.7.7.5.3.3.3.,.,.,.,.2.1.1.2.<.<.<.e.e.e.e.m e.r.r.r.J.J.K.XXXXXX,XVXBXAXHXHXHXGXHXHXGXGXGXGXGXGXGXGXGXGXGXGXGXGXGXGXGXGXGXGXGXKXMXMXMXMXMXMXMXMXMXMXMXMXMXMXMXMXMXMXMXMXMXMXMXMXMXMXMXGXGXGXGXGXGXGXGXGXGXGXGXGXGXGXGX",
"GXGXGXGXGXGXGXGXGXGXGXGXGXGXGXGXGXGXGXGXGXGXGXGXGXGXGXKXMXMXMXMXMXMXMXMXMXMXMXMXMXMXMXMXMXMXMXMXMXMXMXMXDXMXMXGXGXGXGXGXGXGXGXGXGXHXGXGXGXGXGXGXGXHXZXFXP.U U Y Y Y H.H.D.D.D.r.r.r.r.t.t.t.t.t.e.e.t.1.1.1.1.2.2.| | |  . .,.3.4.4.7.7.7.8.8.8.p.p.s.s.f.f.f.g.k.k.x.x.x.c.c.c.v.m.N.C.N.N.N.N.B.B.B.B.B.B.V.V.V.^.^.^.^.^.^././././.).).).).).).).).).).).)._._._._._._._._._.].].].].].].].].].].].].]._._._._._._.].].].].].].].].].].].].].].].]._._.].].]._._._._._._._._._._._._._._.).)._._.).).).).).)././././././.^.^.^.^.^.^.^.^.^.^.^.V.V.C.B.N.N.N.N.m.v.v.c.c.x.k.k.k.j.f.s.s.a.a.p.p.p.0.8.7.7.7.5.3.3.6.3.,.,.,.,.2.2.} <.<.<.e.e.e.e.m e.r.r.r.J.D.J.I.I.;X;XmXBXMXGXGXHXGXHXHXGXGXGXGXGXGXGXGXGXGXGXGXGXGXGXGXGXGXGXGXGXKXMXMXMXMXMXMXMXMXMXMXMXMXMXMXMXMXMXMXMXMXMXMXMXMXMXMXMXGXGXGXGXGXGXGXGXGXGXGXGXGXGXGXGX",
"MXMXMXMXMXMXMXMXMXMXMXMXMXMXMXMXMXMXMXMXMXMXMXMXMXMXDXKXGXGXGXGXGXGXGXGXGXGXGXGXGXGXGXGXGXGXGXGXGXGXGXGXGXGXGXMXMXMXMXMXMXMXMXMXMXNXNXMXLXLXAXMXNXMXBXxXU Y U Y U U Y Y H H H r.r.r.r.t.t.t.t.t.t.1.1.1.1.1.1.2.} | |  .,.,.3.3.4.4.7.7.7.7.8.8.p.p.s.s.f.f.f.f.k.k.x.x.b.c.x.x.v.v.N.N.m.m.N.B.B.B.B.C.C.V.V.V.^.^.^.^.^.^././././././.).).).).).).).).)._._._._._._._._.].].].].].].].].].].].].].].].].].].].].].].].].].].].].].].].].].].].].].].].].].].].].].].].]._._._._._.).).).).).).).).).).).).).)./././././.^.^.^.^.^.^.^.^.^.V.V.V.V.V.V.C.B.N.N.m.m.v.v.v.c.c.x.l.j.f.f.f.s.a.p.p.p.0.8.8.7.7.7.5.5.5.3.3.,.,.,.2.2.2.2.2.<.<.<.e.e.e.e.e.r.r.r.r.D.J.J.XXXXXXmXHXFXDXLXNXDXMXLXMXMXMXMXMXMXMXMXMXMXMXMXMXMXMXMXMXMXMXMXDXKXGXGXGXGXGXGXGXGXGXGXGXGXGXGXGXGXGXGXGXGXGXGXGXGXGXGXGXDXMXDXMXMXMXMXMXMXMXMXMXMXMXMXMX",
"MXMXMXMXMXMXMXMXMXMXMXMXMXMXMXMXMXMXMXMXMXMXMXMXMXMXDXKXGXGXGXGXGXGXGXGXGXGXGXGXGXGXGXGXGXGXGXGXGXGXGXGXGXGXGXMXMXMXMXMXMXMXMXMXMXNXNXMXLXLXAXMXNXNXBXqXU U H H H.Y H.D.Y D.H r.r.r.r.t.t.t.t.t.t.1.1.1.1.1.1.2.} | |  . .,.3.3.4.4.7.7.7.7.8.8.p.s.s.f.f.j.f.f.k.k.x.x.c.c.c.c.v.v.N.N.m.m.N.B.B.B.B.C.C.V.V.V.^.^.^.^.^.^.^././././.).).).).).).).).)._._._._._._._._._.].].].].].].].].].].].].].].].].].].].].].].].].].].].].].].].].].].].].].].].].].].].].].].].].]._._._._.).).).).).).).).).).).).).).)././././././.^.^.^.^.^.^.^.V.V.V.V.V.V.C.B.N.N.m.m.v.v.v.c.c.c.l.k.f.f.f.s.a.a.p.p.0.8.8.8.7.7.5.5.5.3.3.3.,.,.,.2.2.2.2.<.<.<.e.e.e.m e.r.r.r.r.r.J.J.XXXXXXkXFXFXAXLXMXDXNXLXMXMXMXMXMXMXMXMXMXMXMXMXMXMXMXMXMXMXMXMXDXKXGXGXGXGXGXGXGXGXGXGXGXGXGXGXGXGXGXGXGXGXGXGXGXGXGXGXGXDXMXDXMXMXMXMXMXMXMXMXMXMXMXMXMX",
"MXMXMXMXMXMXMXMXMXMXMXMXMXMXMXMXMXMXMXMXMXMXMXMXMXMXDXKXGXGXGXGXGXGXGXGXGXGXGXGXGXGXGXGXGXGXGXGXGXGXGXGXGXGXGXMXMXMXMXMXMXMXMXMXMXCXMXMXLXLXMXMXNXCXVX%XU U H H H.Y Y Y H H D.r.r.r.t.t.t.t.t.t.t.1.1.1.1.1.2.2.| | | ,.,.3.3.3.4.4.7.7.7.7.8.8.p.s.s.f.f.j.g.k.k.k.x.x.x.c.b.v.v.m.N.N.N.N.B.B.B.B.B.C.V.V.V.V.^.^.^.^.^.^.^./././.).).).).).).).).).).)._._._._._._._.].].].].].].].].].].].].].].].].].].].].].].].].].].].].].].].].].].].].].].].].].].].].].].].]._.]._._._._._._.).).).).).).).).).).).).)././././././.^.^.^.^.^.^.^.^.V.V.V.V.V.V.B.B.N.N.N.v.v.v.c.c.c.c.k.f.f.f.s.a.a.p.p.p.8.8.8.7.7.5.5.5.3.3.3.,.,.,.,.2.2.2.<.<.<.e.e.e.e.e.r.r.r.r.r.J.J.I.XXXXeXFXFXMXDXAXDXNXNXMXMXMXMXMXMXMXMXMXMXMXMXMXMXMXMXMXMXMXMXDXKXGXGXGXGXGXGXGXGXGXGXGXGXGXGXGXGXGXGXGXGXGXGXGXGXGXGXGXDXMXDXMXMXMXMXMXMXMXMXMXMXMXMXMX",
"MXMXMXMXMXMXMXMXMXMXMXMXMXMXMXMXMXMXMXMXMXMXMXMXMXMXDXKXGXGXGXGXGXGXGXGXGXGXGXGXGXGXGXGXGXGXGXGXGXGXGXGXGXGXGXMXMXMXMXMXMXMXMXMXCXCXMXMXLXLXMXMXNXCXZX~ U U H Y H.H.D.D.H H r.r.r.r.t.t.t.t.t.e.t.1.1.1.1.1.2.,.| |  . .3.3.3.4.5.7.7.7.8.8.0.p.a.s.f.f.f.j.k.g.k.k.x.x.x.v.v.m.m.N.N.N.N.N.B.V.B.B.B.C.V.V.V.V.^.^.^.^.^./././././.).).).).).).).).).).)._._._._._._._.].].].].].].].].].].].].].].].].].].].].].].].].].].].].].].].].].].].].].].].].].].].].].].].]._._._._._._._._.).).).).).).).).).).).).).)././././././.^.^.^.^.^.^.^.V.V.V.V.V.V.B.B.N.N.N.m.v.v.c.c.c.c.k.j.f.f.f.s.a.p.p.p.p.8.8.8.7.7.5.5.4.3.3.3.,.,.,.2.2.2.2.<.<.e.e.e.e.e.e.r.r.r.r.J.J.K.XXXX;XFXHXNXAXAXLXNXBXMXMXMXMXMXMXMXMXMXMXMXMXMXMXMXMXMXMXMXMXDXKXGXGXGXGXGXGXGXGXGXGXGXGXGXGXGXGXGXGXGXGXGXGXGXGXGXGXGXDXMXDXMXMXMXMXMXMXMXMXMXMXMXMXMX",
"MXMXMXMXMXMXMXMXMXMXMXMXMXMXMXMXMXMXMXMXMXMXMXMXMXMXDXKXGXGXGXGXGXGXGXGXGXGXGXGXGXGXGXGXGXGXGXGXGXGXGXGXGXGXGXMXMXMXMXMXMXMXMXMXCXCXMXMXLXLXBXMXNXMXNXI U U H H.H.H.D.Y H H D.r.r.r.t.t.t.t.t.e.t.1.1.1.1.1.2.| | |  . .3.3.4.4.5.7.7.7.8.8.p.p.a.s.f.f.f.j.k.g.x.x.x.x.x.b.v.m.m.N.N.N.N.N.B.B.B.B.B.B.V.V.V.^.^.^.^.^./././././.).).).).).).).).).).)._._._._._._.].]._.].].].].].].].].].].].].].[.[.].].].].].].].].].].].].].].].].].].].].].].].].].].].].].].].].].]._._._._._._._.)._._.).).).).).).).).).)././././././.^.^.^.^.^.^.^.V.^.^.V.V.C.B.B.B.N.N.m.v.v.c.c.c.c.k.k.f.f.f.s.a.a.p.p.p.0.8.8.7.7.5.5.5.3.3.,.,.,.,.2.2.2.2.<.<.e.e.e.e.e.r.r.r.r.r.J.J.K.XXXX.XZXHXMXMXAXMXMXLXMXMXMXMXMXMXMXMXMXMXMXMXMXMXMXMXMXMXMXMXDXKXGXGXGXGXGXGXGXGXGXGXGXGXGXGXGXGXGXGXGXGXGXGXGXGXGXGXGXMXMXDXMXMXMXMXMXMXMXMXMXMXMXMXMX",
"MXMXMXMXMXMXMXMXMXMXMXMXMXMXMXMXMXMXMXMXMXMXMXMXMXMXDXKXGXGXGXGXGXGXGXGXGXGXGXGXGXGXGXGXGXGXGXGXGXGXGXGXGXGXGXMXMXMXMXMXMXMXMXMXCXCXMXMXLXLXBXBXNXMXxXI U Y H H.H.H.D.H H H D.r.r.r.t.t.t.t.t.e.e.1.1.1.1.2.....| |  .,.3.3.5.5.5.7.7.7.8.8.0.p.a.s.s.f.f.j.k.k.x.x.x.x.c.b.v.v.N.N.N.N.N.N.B.B.B.B.B.B.V.V.V.^.^.^.^.^.^.^./././.).).).).).).).).).).).).)._._._._.].]._.].].].].].].].].].].].].].[.[.].].].].].].].].].].].].].].].].].].].]._._.].].].].].].].].].].].]._._.]._._._._.)._._.).).).).).).).).).)././././././.^.^.^.^.^.^.^.V.V.^.V.V.C.C.B.B.N.N.m.v.v.v.c.c.c.l.k.f.f.f.f.a.a.a.p.p.8.8.8.7.7.5.5.3.3.3.3.3.,.,.,.,.2.2.<.<.e.e.e.e.e.r.r.t.r.r.J.J.K.XXXX.XvXHXNXMXMXMXMXLXMXMXMXMXMXMXMXMXMXMXMXMXMXMXMXMXMXMXMXMXDXKXGXGXGXGXGXGXGXGXGXGXGXGXGXGXGXGXGXGXGXGXGXGXGXGXGXGXGXMXMXDXMXMXMXMXMXMXMXMXMXMXMXMXMX",
"MXMXMXMXMXMXMXMXMXMXMXMXMXMXMXMXMXMXMXMXMXMXMXMXMXMXDXKXGXGXGXGXGXGXGXGXGXGXGXGXGXGXGXGXGXGXGXGXGXGXGXGXGXGXGXMXMXMXMXMXMXMXMXMXCXCXMXMXBXBXBXBXNXBXqXU K Y H D.H.H.Y H H H r.r.r.t.t.t.t.t.t.e.1.1.1.1.1.2.| } | |  .,.3.4.5.5.7.7.7.7.8.8.p.p.s.s.f.f.k.k.k.k.x.x.x.x.b.v.v.m.N.N.N.N.N.N.B.N.B.B.B.B.B.V.V.^.^.^.^.^.^./.^././.).).).).).).).).`.).)._._._._._._._._._._.].].].].].].].].].].].].[.[.].].].].].].].].].].].].].].].].].].].]._.].].].].].].].].].].].].]._._.].]._._._._._._.)._.).).).).).).).)././././././.^.^.^.^.^.^.^.^.V.V.V.V.C.C.B.B.N.N.N.v.v.v.c.c.c.c.k.f.f.j.f.a.a.a.p.p.0.0.8.7.7.7.5.4.3.3.3.,.,.,.,.,.1.2.<.<.e.e.e.e.e.t.r.r.r.r.r.J.J.I.XXXXwXHXBXNXMXMXMXMXMXMXMXMXMXMXMXMXMXMXMXMXMXMXMXMXMXMXMXMXDXKXGXGXGXGXGXGXGXGXGXGXGXGXGXGXGXGXGXGXGXGXGXGXGXGXGXGXGXMXMXDXMXMXMXMXMXMXMXMXMXMXMXMXMX",
"MXMXMXMXMXMXMXMXMXMXMXMXMXMXMXMXMXMXMXMXMXMXMXMXMXMXDXKXGXGXGXGXGXGXGXGXGXGXGXGXGXGXGXGXGXGXGXGXGXGXGXGXGXGXGXMXMXMXMXMXMXMXMXMXMXMXMXMXMXMXMXBXNXNX1XU G U H H.H.H.D.H H D.r.r.r.t.t.t.t.t.t.t.t.1.1.1.1.2.| } | |  .3.3.4.5.5.7.7.8.8.8.0.p.p.s.s.f.j.k.k.k.k.x.x.x.c.c.v.v.m.N.N.N.N.N.B.N.N.B.B.B.B.C.V.V.^.^.^.^.^./././././.).).).).).).).`.`.).)._._._._._._._._._._.].].].].].].].].].[.].].[.].].].].].].].].].].].].].].].].].].].].].].].].].].].].].].].].].].]._._.].]._._._._._._.)._.).).).).).).).).)././././././.^.^.^.^.^.^.^.V.V.V.V.C.C.B.B.N.N.m.v.v.v.c.c.c.c.k.j.f.j.f.a.a.s.p.p.0.0.8.7.7.7.5.4.3.3.3.3.,.,.,.,.1.1.<.<.<.e.e.e.e.e.r.r.t.r.r.J.J.K.XXXX,XFXBXMXMXMXDXMXMXMXMXMXMXMXMXMXMXMXMXMXMXMXMXMXMXMXMXMXDXKXGXGXGXGXGXGXGXGXGXGXGXGXGXGXGXGXGXGXGXGXGXGXGXGXGXGXGXMXMXDXMXMXMXMXMXMXMXMXMXMXMXMXMX",
"MXMXMXMXMXMXMXMXMXMXMXMXMXMXMXMXMXMXMXMXMXMXMXMXMXMXDXKXGXGXGXGXGXGXGXGXGXGXGXGXGXGXGXGXGXGXGXGXGXGXGXGXGXGXGXMXMXMXMXMXMXMXMXMXAXAXAXAXAXCXMXNXBXVX#XU U H Y H.H.H.D.H H D.r.r.r.t.t.t.t.t.t.e.1.1.1.1.1...| |  . . .3.4.5.5.5.7.7.7.7.8.0.p.p.s.f.j.k.k.k.k.k.x.x.x.x.c.v.v.m.N.N.N.N.B.B.C.B.B.B.B.C.C.V.V.V.^.^.^.^././././././.).).).).).).).).).)._._._._._._._._.].].].].].].].].[.[.[.[.].].].].].].].].].].].].].].].].].].].].].].].].].].].].].].].].].].].].].].].].]._._._._._._._._._.).).).).).).).).).)./././././.^.^.^.^.^.^.^.V.V.V.V.V.C.C.B.N.v.m.N.v.x.c.c.c.c.x.j.f.f.f.f.s.d.p.p.0.0.8.7.7.7.5.5.5.3.3.3.,.,.,.,.2.1.<.<.<.e.e.e.e.e.e.r.r.r.D.J.J.I.XXXX;XFXZXNXAXMXDXLXMXMXMXMXMXMXMXMXMXMXMXMXMXMXMXMXMXMXMXMXDXKXGXGXGXGXGXGXGXGXGXGXGXGXGXGXGXGXGXGXGXGXGXGXGXGXGXGXGXDXMXDXMXMXMXMXMXMXMXMXMXMXMXMXMX",
"MXMXMXMXMXMXMXMXMXMXMXMXMXMXMXMXMXMXMXMXMXMXMXMXMXMXDXKXGXGXGXGXGXGXGXGXGXGXGXGXGXGXGXGXGXGXGXGXGXGXGXGXGXGXGXMXMXMXMXMXMXMXMXMXAXAXAXAXAXCXMXNXBXVXP.U Y Y U Y H.H.D.D.H D.r.r.r.t.t.t.t.t.t.1.1.1.1.1.1.| | |  . . .3.4.5.5.5.7.7.7.8.8.0.p.p.s.f.j.k.k.k.k.k.x.x.x.x.c.v.v.N.C.N.N.B.N.C.B.N.B.B.B.C.C.V.V.V.^.^.^.^./././././.).).).).).).).).)._.)._._._._._._._._.].].].].].].].].].[.].].].].].].].].].].].].].].].].].].].].].].].].].].].].].].].].].].].].].].].].].].]._._._._._._._._._.).).).).).).).).).).)././././.^.^.^.^.^.^.^.V.V.V.V.V.C.B.B.v.m.m.N.v.v.c.c.c.x.x.k.g.f.f.f.s.d.p.p.0.0.8.7.7.7.5.5.5.3.3.3.,.,.,.,...1.1.<.<.e.e.e.e.e.e.r.r.r.D.J.J.K.XXXX.XFXBXMXDXMXDXAXMXMXMXMXMXMXMXMXMXMXMXMXMXMXMXMXMXMXMXMXDXKXGXGXGXGXGXGXGXGXGXGXGXGXGXGXGXGXGXGXGXGXGXGXGXGXGXGXGXDXMXDXMXMXMXMXMXMXMXMXMXMXMXMXMX",
"MXMXMXMXMXMXMXMXMXMXMXMXMXMXMXMXMXMXMXMXMXMXMXMXMXMXDXKXGXGXGXGXGXGXGXGXGXGXGXGXGXGXGXGXGXGXGXGXGXGXGXGXGXGXGXMXMXMXMXMXMXMXMXMXAXAXAXAXAXCXMXBXBXVXQ U U Y U Y H.D.H H H D.r.r.r.t.t.t.t.t.e.1.1.1.1.1.2.| | |  . .3.3.4.5.5.5.7.7.7.8.0.0.p.p.s.f.j.k.k.k.k.k.x.x.x.x.c.v.v.N.C.N.N.B.C.C.B.B.B.B.C.C.C.V.V.V.^.^.^.^././././.).).).).).).).).).).).).)._._._._._.].].].].].].].].].].].].].].].].].].].].].].].].].].].].].].].].].].].].].].].].].].].].].].].].].].].].].].].]._._._._._._._._.).).).).).).).).).).)././././.^.^.^.^.^.^.^.V.V.V.V.C.C.B.B.v.B.v.m.c.m.k.c.c.x.x.k.g.f.f.f.s.d.p.p.0.0.8.7.7.7.5.5.5.3.3.3.,.,.,.,...X.<.<.<.<.e.e.e.e.e.e.r.r.r.D.J.K.I.XX.XmXBXMXDXMXDXMXMXMXMXMXMXMXMXMXMXMXMXMXMXMXMXMXMXMXMXMXDXKXGXGXGXGXGXGXGXGXGXGXGXGXGXGXGXGXGXGXGXGXGXGXGXGXGXGXGXDXMXDXMXMXMXMXMXMXMXMXMXMXMXMXMX",
"MXMXMXMXMXMXMXMXMXMXMXMXMXMXMXMXMXMXMXMXMXMXMXMXMXMXDXKXGXGXGXGXGXGXGXGXGXGXGXGXGXGXGXGXGXGXGXGXGXGXGXGXGXGXGXMXMXMXMXMXMXMXMXMXAXAXAXAXAXCXMXBXBXnXK Y U Y U U H.Y H D.H r.r.r.r.t.t.t.t.t.t.1.1.1.1.1.2.| } |  . .3.3.4.5.5.5.7.7.7.8.0.p.p.p.s.f.j.k.k.k.k.k.x.x.x.x.c.v.v.N.C.B.N.B.C.C.B.N.B.B.C.C.C.V.V.V.V.^.^.^./././././.).).).).)._._.).).).).)._._._._._.].].].].].].].].].].].].].].].].].].].].].].].].].].].].].].].].].].].].].].].].].].].].].].].].].].].].].].].]._._._._._._._._.).).).).).).).).).)./././././.^.^.^.^.^.^.^.V.V.V.V.C.B.B.B.N.B.v.v.v.v.k.c.c.x.x.l.k.f.f.f.s.s.p.p.p.0.8.7.q.7.5.5.5.3.3.3.,.,.,.,...X.<.<.<.e.e.e.e.e.e.e.r.r.r.D.J.J.I.XX.XbXVXNXAXMXDXMXMXMXMXMXMXMXMXMXMXMXMXMXMXMXMXMXMXMXMXMXDXKXGXGXGXGXGXGXGXGXGXGXGXGXGXGXGXGXGXGXGXGXGXGXGXGXGXGXGXDXMXDXMXMXMXMXMXMXMXMXMXMXMXMXMX",
"MXMXMXMXMXMXMXMXMXMXMXMXMXMXMXMXMXMXMXMXMXMXMXMXMXMXDXKXGXGXGXGXGXGXGXGXGXGXGXGXGXGXGXGXGXGXGXGXGXGXGXGXGXGXGXMXMXMXMXMXMXMXMXMXAXAXAXAXCXCXMXBXBXzXK U U H H.H.H.H.H H H r.r.r.t.t.t.t.t.t.t.1.1.1.1.1...} | |  . .3.3.4.5.5.5.7.7.7.0.p.0.p.p.s.f.j.k.k.k.x.k.x.x.x.x.c.v.v.N.C.B.N.B.B.C.C.B.C.B.C.C.V.V.V.V.V.^.^.^./././././.).).).).).).).).)._.)._._._._._._.].]._._.].].].].].].].].].].].].].].].].].].].].].].].].].].].].].].].].].].].].].].].].].].].].].].].].].].].]._._._._._._._._.).).).).).).).).).).)././././.^.^.^.^.^.^.^.^.V.V.V.C.C.C.B.V.N.N.v.C.v.c.c.x.x.c.l.j.f.f.f.s.s.p.p.p.0.0.8.q.7.5.5.5.4.3.3.,.,.,.,.,.2.1.<.<.<.e.e.e.e.e.e.r.r.r.D.J.J.I.XX.XpXBXBXMXMXDXAXMXMXMXMXMXMXMXMXMXMXMXMXMXMXMXMXMXMXMXMXDXKXGXGXGXGXGXGXGXGXGXGXGXGXGXGXGXGXGXGXGXGXGXGXGXGXGXGXGXMXMXMXMXMXMXMXMXMXMXMXMXMXMXMXMX",
"MXMXMXMXMXMXMXMXMXMXMXMXMXMXMXMXMXMXMXMXMXMXMXMXMXMXDXKXGXGXGXGXGXGXGXGXGXGXGXGXGXGXGXGXGXGXGXGXGXGXGXGXGXGXGXMXMXMXMXMXMXMXMXMXAXAXAXAXCXCXMXBXBXwXU U U H H.H.H.H.Y H H r.r.r.t.t.t.t.t.t.t.1.1.2.2.2.| } |  .,.,.3.3.5.5.5.5.7.7.7.0.p.0.p.p.a.f.j.j.k.k.x.k.c.x.x.c.c.v.m.N.C.N.N.B.C.C.C.B.C.C.C.C.V.V.V.V.^.^.^.^././././././.).).).).).).).)._._._._._._._._.].]._._.].].].].].].].].].].].].].].].].].].].].].].].].].].].].].].].].].].].].].].].].].].].].].].].].].].].]._._._._._._._._.).).).).).).).).).).).)././././.^.^.^.^.^.^.^.V.V.V.V.C.C.B.B.v.N.C.N.v.M.c.x.x.c.x.j.f.f.f.s.s.p.p.p.0.0.8.8.7.5.5.5.4.3.3.,.,.,.,.,.2.1.<.<.<.e.e.e.e.e.r.r.r.r.D.J.J.I.XXXXeXVXBXMXMXDXAXMXMXMXMXMXMXMXMXMXMXMXMXMXMXMXMXMXMXMXMXDXKXGXGXGXGXGXGXGXGXGXGXGXGXGXGXGXGXGXGXGXGXGXGXGXGXGXGXGXMXMXDXMXMXMXMXMXMXMXMXMXMXMXMXMX",
"MXMXMXMXMXMXMXMXMXMXMXMXMXMXMXMXMXMXMXMXMXMXMXMXMXMXDXKXGXGXGXGXGXGXGXGXGXGXGXGXGXGXGXGXGXGXGXGXGXGXGXGXGXGXGXMXMXMXMXMXMXMXMXMXAXAXMXCXCXCXMXBXVX,XQ U Y H H.Y H.H.H H H r.r.r.t.t.t.t.t.t.t.1.1.2.2.2.| } | ,.,.,.3.3.5.5.5.5.7.9.7.0.0.8.8.p.a.s.g.f.f.k.l.k.c.c.x.c.v.v.m.N.N.N.N.B.C.C.C.C.V.C.V.V.V.V.V.V.^.^.^.^./././././.).).).).)._._.).)._._._._._._._._._._._._.].].].].].].].].].].].].].].].].].].[.[.[.[.[.[.[.[.[.[.[.[.[.[.[.[.].].].].].].].].].].].].].].].]._._._._._._._._._.).).).).).).).).).).).).)././././.^.^.^.^.^.^.^.V.V.V.V.C.C.B.N.B.N.C.i.c.M.c.x.x.c.x.j.k.f.f.s.s.d.p.p.p.0.0.0.7.7.7.5.5.3.3.,.,.,.,.,.2.1.1.<.<.e.e.e.e.e.r.r.r.r.D.J.J.K.XX.X,XVXBXMXAXAXMXMXMXMXMXMXMXMXMXMXMXMXMXMXMXMXMXMXMXMXMXDXKXGXGXGXGXGXGXGXGXGXGXGXGXGXGXGXGXGXGXGXGXGXGXGXGXGXGXGXDXMXDXMXMXMXMXMXMXMXMXMXMXMXMXMX",
"MXMXMXMXMXMXMXMXMXMXMXMXMXMXMXMXMXMXMXMXMXMXMXMXMXMXDXKXGXGXGXGXGXGXGXGXGXGXGXGXGXGXGXGXGXGXGXGXGXGXGXGXGXGXGXMXMXMXMXMXMXMXMXMXAXAXMXMXCXCXNXBXZX%XQ Y Y H H.H H.D.H H H r.r.r.t.t.t.t.t.t.e.1.1.2.2.2.| } | ,.,.,.3.3.4.5.5.5.7.9.9.0.0.8.8.p.a.s.g.f.f.k.k.k.c.c.c.c.v.v.m.N.N.N.N.B.C.C.C.C.V.V.V.V.V.V.V.^.^.^.^.^./././././.).).).)._._._._.)._._._._._._._._._._._._.].].].].].].].].].].].].].].].].].].[.[.[.[.[.[.[.[.[.[.[.[.[.[.[.[.].].].].].].].].].].].].].].].].]._._._._._._._._.).).).).).).).).).).).)./././././.^.^.^.^.^.^.V.V.V.V.V.C.C.B.N.^.v.m.o.k.c.c.x.x.c.x.l.k.f.f.s.s.a.p.p.p.0.8.0.7.7.7.5.5.3.3.3.,.,.,.,.2.1.1.<.<.e.e.e.e.e.r.r.r.r.r.D.J.K.XX.X=XVXBXMXAXMXMXMXMXMXMXMXMXMXMXMXMXMXMXMXMXMXMXMXMXMXMXDXKXGXGXGXGXGXGXGXGXGXGXGXGXGXGXGXGXGXGXGXGXGXGXGXGXGXGXGXDXMXDXMXMXMXMXMXMXMXMXMXMXMXMXMX",
"MXMXMXMXMXMXMXMXMXMXMXMXMXMXMXMXMXMXMXMXMXMXMXMXMXMXLXKXGXGXGXGXGXGXGXGXGXGXGXGXGXGXGXGXGXGXGXGXGXGXGXGXGXGXGXMXMXMXMXMXMXMXMXMXMXMXMXMXCXCXMXBXVXL.H.H Y H.Y H.Y H.D.D.N N r.r.t.t.t.t.t.t.1.1.1.2.,.| } | | ,.,.,.3.3.4.5.5.5.8.7.7.0.d.p.p.p.f.f.f.k.j.k.k.k.c.c.v.c.v.m.N.m.N.N.C.C.C.C.C.C.C.B.C.V.V.^.^.^.^.^.^.^.^./././.).).).).).).).).).)._._._._.]._._._._._.].].].].].].].].].].].].].].].].].].].[.].].].].].].].].].].].].].].].].].].].].].].].].].].].].].].].].].].].].]._._._._.).).).).).).).).).).).)./././././.^.^.^.^.^.^.^.^.V.V.C.B.B.B.N.N.N.C.C.N.v.x.c.x.x.x.l.k.f.f.f.s.s.s.p.p.0.0.8.7.7.5.5.5.4.3.3.3.,.,.,.2.1.1.<.<.e.e.e.e.e.e.r.r.r.r.D.J.K.XX.X.XVXBXMXLXMXBXMXMXMXMXMXMXMXMXMXMXMXMXMXMXMXMXMXMXMXMXDXKXGXGXGXGXGXGXGXGXGXGXGXGXGXGXGXGXGXGXGXGXGXGXGXGXGXGXGXDXMXDXMXMXMXMXMXMXMXMXMXMXMXMXMX",
"MXMXMXMXMXMXMXMXMXMXMXMXMXMXMXMXMXMXMXMXMXMXMXMXMXMXDXKXGXGXGXGXGXGXGXGXGXGXGXGXGXGXGXGXGXGXGXGXGXGXGXGXGXGXGXMXMXMXMXMXMXMXMXMXMXMXMXMXCXCXMXBXVXP.U Y H H.H.H.H.D.D.D.N N r.r.t.t.t.t.t.e.e.1.1.,.,.| | | | ,.,.3.3.4.5.5.5.4.7.9.9.0.d.d.p.p.s.s.f.f.f.k.x.c.c.c.v.c.v.m.N.m.N.N.B.C.C.C.C.C.C.V.V.V.V.V.^.^.^.^.^.^.^././././.).).).).).).).).)._._._._.].]._._._._.].].].].].].].].].].].].].].].].].].].].].].].].].].].].].].].].].].].].].].].].].].].].].].].].].].].].].].]._._._._._._.).).).).).).).).).).).)./././././.^.^.^.^.^.^.V.V.V.V.V.C.B.B.B.N.N.N.N.N.m.c.c.x.x.x.l.k.g.f.f.f.s.s.p.p.p.0.8.7.7.5.5.5.4.3.3.3.,.,.,.2.1.<.<.<.e.e.e.e.e.e.r.r.r.r.D.J.K.I..X.XVXBXMXMXMXBXMXMXMXMXMXMXMXMXMXMXMXMXMXMXMXMXMXMXMXMXDXKXGXGXGXGXGXGXGXGXGXGXGXGXGXGXGXGXGXGXGXGXGXGXGXGXGXGXGXDXMXDXMXMXMXMXMXMXMXMXMXMXMXMXMX",
"MXMXMXMXMXMXMXMXMXMXMXMXMXMXMXMXMXMXMXMXMXMXMXMXMXMXLXKXGXGXGXGXGXGXGXGXGXGXGXGXGXGXGXGXGXGXGXGXGXGXGXGXGXGXGXMXMXMXMXMXMXMXMXMXMXMXMXMXCXCXMXBXVXQ U Y H Y H.Y Y Y D.H N N r.r.t.t.t.t.t.e.e.1.2.2.2.| | |  .,.3.3.3.5.5.5.5.4.7.7.7.0.d.d.d.p.s.f.f.j.f.k.k.c.x.c.c.c.v.m.N.m.N.N.B.C.C.C.C.C.V.V.V.V.V.V.V.V.^.^.^.^.^././././.).).).)._.).).)._._._._._._.]._._.].].].].].].].].].].].].].].].].].].].].].].].].].].].].].].].].].].].].].].].].].].].].].].].].].].].].].].].].]._._._._._._._.).).`.`.).).).).).).)./././././.^.^.^.^.^.^.V.V.V.V.V.C.B.B.B.N.N.m.m.m.m.v.c.c.x.x.l.k.f.f.f.f.s.s.p.p.p.0.8.7.7.5.5.5.4.3.3.3.,.,...2.1.1.<.<.e.e.e.e.e.e.t.r.r.r.D.J.K.I..XL.VXBXBXMXNXBXMXMXMXMXMXMXMXMXMXMXMXMXMXMXMXMXMXMXMXMXDXKXGXGXGXGXGXGXGXGXGXGXGXGXGXGXGXGXGXGXGXGXGXGXGXGXGXGXGXMXMXMXMXMXMXMXMXMXMXMXMXMXMXMXMX",
"MXMXMXMXMXMXMXMXMXMXMXMXMXMXMXMXMXMXMXMXMXMXMXMXMXMXDXKXGXGXGXGXGXGXGXGXGXGXGXGXGXGXGXGXGXGXGXGXGXGXGXGXGXGXGXMXMXMXMXMXMXMXMXMXBXMXMXMXCXCXMXBXVXU Y H.H H H.Y Y Y H H N N r.r.t.t.t.t.t.e.1.1.} ..| | | | ,.3.3.3.4.5.5.7.7.5.0.0.8.0.p.d.s.s.s.f.k.k.k.k.k.k.x.c.c.c.c.m.N.m.m.N.B.C.C.C.C.C.C.V.V.V.V.V.V.V.^.^.^.^.^././././.).).).).).).)._._._._._._._._._._.].].].].].].].].].].].].].].].].].].].].].].].].].].].].].].].].].].].].].].].].].].].].].].].].].].].].].].].].]._._._._._._._.).).`.`.).).).).).)././././././.^.^.^.^.^.^.V.V.V.V.C.C.B.B.B.B.N.m.m.m.m.m.c.c.x.x.l.k.f.f.f.f.s.s.p.p.p.0.8.7.7.5.5.5.4.3.3.3.,.,.,.2.1.1.<.<.<.e.e.e.e.e.r.r.r.r.D.J.K.P.P.P.nXBXBXMXNXLXMXMXMXMXMXMXMXMXMXMXMXMXMXMXMXMXMXMXMXMXDXKXGXGXGXGXGXGXGXGXGXGXGXGXGXGXGXGXGXGXGXGXGXGXGXGXGXGXGXMXMXMXMXMXMXMXMXMXMXMXMXMXMXMXMX",
"MXMXMXMXMXMXMXMXMXMXMXMXMXMXMXMXMXMXMXMXMXMXMXMXMXMXDXKXGXGXGXGXGXGXGXGXGXGXGXGXGXGXGXGXGXGXGXGXGXGXGXGXGXGXGXMXMXMXMXMXMXMXMXMXBXMXMXMXMXNXNXVXvXK L U H Y H.Y D.D.H H N r.r.r.t.t.t.t.t.e.1.1.2.2...| | | ,.3.3.3.3.5.7.7.7.7.0.q.q.0.p.p.s.s.a.f.k.k.k.k.c.x.x.c.c.c.v.m.N.m.N.N.B.C.C.V.V.V.V.V.V.V.V.^.^.^.^.^.^.^.^././././.).).).).).).).).)._._._._._._._._._.].].].].].].].].].].].].].].].].].].].].].].].].].].].].].].].].].].].].].].].].].].].].].].].].].].].].].].].].].].].].]._._.).).).).).).).).).)././././././.^.^.^.^.^.^.V.V.V.V.C.C.B.B.B.N.N.N.m.m.m.v.c.c.x.x.l.l.k.f.f.f.s.s.p.p.p.p.8.7.7.7.5.5.4.4.3.3.,.,.,.,.1.<.<.<.<.e.e.e.e.e.t.r.r.r.D.J.J.P.P.P.vXBXBXMXNXLXMXMXMXMXMXMXMXMXMXMXMXMXMXMXMXMXMXMXMXMXDXKXGXGXGXGXGXGXGXGXGXGXGXGXGXGXGXGXGXGXGXGXGXGXGXGXGXGXGXDXMXDXMXMXMXMXMXMXMXMXMXMXMXMXMX",
"MXMXMXMXMXMXMXMXMXMXMXMXMXMXMXMXMXMXMXMXMXMXMXMXMXMXDXKXGXGXGXGXGXGXGXGXGXGXGXGXGXGXGXGXGXGXGXGXGXGXGXGXGXGXGXMXMXMXMXMXMXMXMXMXBXMXMXMXMXNXBXVXzXK L U H H.H.Y H.D.D.H N r.r.r.t.t.t.t.t.e.<.<.2.2.| | | | ,.6.3.3.4.5.7.q.q.q.0.0.p.0.p.d.s.z.j.l.l.k.j.k.c.c.c.c.v.c.v.m.N.m.N.N.C.C.V.V.V.V.V.V.V.^.^.^.^.^.^.^.^.^.^././././.).).).).).).).).).)._._._._._._._._.].].].].].].].].].].].].].].].].].].].].].].].].].].].].].].].].].].].].].].].].].].].].].].].].].].].].].].].].].].]._.]._._._.).).).).).).).).).)./././././.^.^.^.^.^.^.^.V.V.V.C.C.B.B.N.N.N.N.N.m.m.c.c.c.c.x.l.l.k.f.f.f.s.s.a.p.p.p.0.7.7.7.5.5.4.4.3.3.,.,.,.2.1.1.<.<.<.e.e.e.e.e.t.r.r.r.r.J.J.P.P.P.vXNXBXMXNXLXMXMXMXMXMXMXMXMXMXMXMXMXMXMXMXMXMXMXMXMXDXKXGXGXGXGXGXGXGXGXGXGXGXGXGXGXGXGXGXGXGXGXGXGXGXGXGXGXGXDXMXDXMXMXMXMXMXMXMXMXMXMXMXMXMX",
"MXMXMXMXMXMXMXMXMXMXMXMXMXMXMXMXMXMXMXMXMXMXMXMXMXMXDXKXGXGXGXGXGXGXGXGXGXGXGXGXGXGXGXGXGXGXGXGXGXGXGXGXGXGXGXMXMXMXMXMXMXMXMXMXBXMXMXMXMXNXBXVXkXK U Y Y H.H.H.H.D.D.D.N r.r.r.t.t.t.t.t.e.<.<.2.2.| | | | ,.6.3.3.5.5.7.7.7.q.0.0.0.0.d.d.s.p.s.l.c.l.k.c.c.c.c.v.v.v.v.m.N.m.N.B.C.C.V.C.C.C.V.V.^.^.^.^.^.^.^.^.^.^.^./././././.).).).).).).).).)._._._._._._._._._.].].].].].].].].].].].].].].].].].].].].].].].].].].].].].].].].].].].].].].].].].].].].].].].].].].].].].].].].].].].]._._._.).).).).).).).).).).)././././.^.^.^.^.^.^.^.^.V.V.V.C.B.B.N.N.N.N.m.m.m.m.c.c.c.x.c.k.k.f.f.f.s.s.a.p.p.p.0.8.7.7.5.5.4.4.3.3.,.,.,.2.1.1.<.<.<.e.e.e.e.e.t.r.r.r.r.J.J.P..XP.vXBXLXMXNXDXMXMXMXMXMXMXMXMXMXMXMXMXMXMXMXMXMXMXMXMXDXKXGXGXGXGXGXGXGXGXGXGXGXGXGXGXGXGXGXGXGXGXGXGXGXGXGXGXGXDXMXDXMXMXMXMXMXMXMXMXMXMXMXMXMX",
"MXMXMXMXMXMXMXMXMXMXMXMXMXMXMXMXMXMXMXMXMXMXMXMXMXMXDXKXGXGXGXGXGXGXGXGXGXGXGXGXGXGXGXGXGXGXGXGXGXGXGXGXGXGXGXMXMXMXMXMXMXMXMXMXMXMXMXMXMXNXBXBXpXU Y H H.H.Y H.D.H.D.D.r.r.r.r.t.t.t.t.e.1.1.2.2.2.,.| | | ,.6.3.3.5.5.7.7.7.7.0.0.0.p.d.z.p.8.9.a.k.l.c.M.M.c.v.v.v.v.v.m.N.m.N.B.C.C.V.C.C.C.V.V.V.V.V.V.V.V.^.^.^.^.^./././././.).).).).).).).).)._.)._._._._._._._._.].].].].].].].].].].].].].].].].].].].].].].].].].].].].].].].].].].].].].].].].].].].].].].].].].].].].].].].].].].]._._._.).).).).).).).).).).)././././.^.^.^.^.^.^.V.V.V.V.V.C.B.B.N.B.N.N.m.m.m.m.c.c.x.c.c.k.k.f.f.f.s.s.a.p.p.p.0.8.7.7.7.5.4.4.3.3.6.,.,.,.2.1.1.<.<.e.e.e.e.e.t.r.r.r.r.J.J.P..XP.vXBXLXMXMXDXMXMXMXMXMXMXMXMXMXMXMXMXMXMXMXMXMXMXMXMXDXKXGXGXGXGXGXGXGXGXGXGXGXGXGXGXGXGXGXGXGXGXGXGXGXGXGXGXGXDXMXDXMXMXMXMXMXMXMXMXMXMXMXMXMX",
"MXMXMXMXMXMXMXMXAXMXMXMXMXMXAXAXMXMXMXMXAXMXMXMXDXMXAXKXGXGXHXHXGXGXGXGXGXGXGXGXGXGXGXGXGXGXGXGXGXKXGXGXKXGXGXMXMXMXMXMXMXMXMXMXBXBXAXAXAXMXBXVXeXU H H.H H H.Y H.D.D.r.r.r.t.t.t.t.t.e.1.1.1.2.2.} } | | | ,.6.3.3.5.5.7.7.7.8.0.0.0.p.s.a.s.f.a.f.k.k.k.c.c.c.v.m.v.v.v.N.C.N.B.B.C.C.C.C.C.C.V.V.V.V.V.V.V.V.^.^./.^.^.^././././.).).).).).).).`.)._._._._._.].].].].].].]._.].].].].].].].]._._.].].].].].].].].].].].].].].].].].].].].].].].].].].].].].].].].].].].].].].].].].].].].).)._._._.).).).).).).).).).).)././././././.^.^.^.^.^.V.V.V.V.B.B.N.B.B.N.N.N.m.m.v.v.c.c.x.k.k.k.g.f.f.s.f.s.p.p.p.0.7.7.7.7.7.5.4.3.3.3.,.,...2.1.1.<.<.e.e.e.e.e.r.r.r.r.D.J.J.J.P.P.bXVXNXLXAXAXAXMXMXMXMXMXMXMXMXMXMXMXMXMXMXMXMXDXDXMXDXKXGXGXGXGXGXGXGXGXGXGXGXGXGXGXGXGXGXGXGXGXGXGXGXGXGXGXGXMXMXDXMXMXDXMXMXMXMXMXMXMXMXMXMX",
"MXMXMXMXMXMXMXMXMXMXMXMXMXMXMXMXMXMXMXMXMXMXMXMXMXMXMXKXGXGXGXGXGXGXGXGXGXGXGXGXGXGXGXGXGXGXGXGXGXKXGXGXGXGXGXMXMXMXMXMXMXMXMXMXMXNXAXAXSXMXNXVXeXU H H.H H H.Y H.D.D.D.r.r.r.t.t.t.t.e.e.1.1.2.2.} } } | ,.,.6.3.3.5.5.7.7.7.7.0.8.p.p.a.s.s.f.s.j.k.k.x.c.v.M.v.m.v.v.v.N.C.B.B.B.B.B.C.V.C.C.V.V.V.V.^.^.^.^.^.^./.^.^.^././././.).).).).).).`.`.)._._._.).`._.].].].].].].].].].].].].].].].].].].].].].].].].].].].].].].].].].].].].].].].].].].].].].].].].].].].].].].].].].].].].]._.`._._._.).).).).).).).).).).)././././././.^.^.^.^.^.V.V.V.V.B.B.B.N.B.N.N.N.m.m.m.v.v.c.x.x.x.k.g.f.f.s.f.s.p.p.p.0.7.7.7.7.7.5.4.3.3.3.,.,.,.,.1.1.<.<.e.e.e.e.e.r.r.r.r.D.J.J.J.P.P.bXVXNXAXSXCXMXMXMXMXMXMXMXMXMXMXMXMXMXMXMXMXMXMXMXMXMXKXGXGXGXGXGXGXGXGXGXGXGXGXGXGXGXGXGXGXGXGXGXGXGXGXGXGXGXMXMXMXMXMXLXMXMXMXMXMXMXMXMXMXMX",
"MXMXMXMXMXMXMXMXMXMXMXMXMXMXMXMXMXMXMXMXMXMXMXMXMXMXDXKXGXGXGXGXGXGXGXGXGXGXGXGXGXGXGXGXGXGXGXGXGXKXGXGXGXGXGXDXMXMXMXMXMXMXMXMXBXMXAXAXAXAXBXVX,XU H Y Y H H.Y H.D.D.D.r.r.t.t.t.t.t.t.e.1.1.2.2.} } } | | ,.6.3.3.5.5.7.7.7.7.0.8.p.p.d.s.s.f.f.j.k.k.c.b.M.M.v.m.v.v.v.N.C.B.B.B.B.C.C.V.V.V.V.V.V.V.^.^.^.^.^.^.^.^.^.^././././.).).).).).).).)._._.).`.).)._._.].].].].].].].].].].].].].].].].].].].].].].].].].].].].].].].].].].].].].].].].].].].].].].].].].].].].].].].]._._._._._._._._.).).).).).).).).).).).)././././././.^.^.^.^.^.V.V.V.V.B.B.B.N.B.N.N.N.m.m.m.v.v.c.c.x.x.k.g.f.f.s.f.s.p.p.p.0.7.7.7.7.7.5.4.3.3.3.,.,.,.1.1.1.<.<.e.e.e.e.e.r.r.r.r.D.J.J.J.P.P.zXZXNXLXAXAXAXAXMXMXMXMXMXMXAXAXMXMXMXMXMXMXMXMXMXMXDXKXGXGXGXGXGXGXGXGXGXGXGXGXGXGXGXGXGXGXGXGXGXGXGXGXGXGXGXMXMXDXMXMXDXMXMXMXMXMXMXMXMXMXMX",
"KXKXKXKXKXKXKXKXKXKXKXKXKXKXKXKXKXKXKXKXKXKXKXKXKXKXKXKXKXKXKXKXKXKXKXKXKXKXKXKXKXKXKXKXKXKXKXKXKXKXKXKXKXKXKXKXKXKXKXKXKXKXKXKXKXKXKXHXHXKXKXZX,XU H Y H.Y H.Y H.D.D.D.r.r.r.t.t.t.t.t.1.<.2.2.2.} } } | ,.,.3.3.3.5.5.7.7.7.7.8.0.p.p.a.s.s.f.f.j.k.k.k.b.v.c.m.v.v.v.v.N.N.B.B.B.B.C.C.V.V.V.V.V.^.^.^.^.^.^.^.^.^.^.^.^././././.).).).).).)._._._._.).`.`.`._._._._.].].].].].].].].].].].].].].].].].].].].].].].].].].].].].].].].].].].].].].].].].].].].].].].].].].].].].]._._._._._.]._._.).).).).).).).).).).)./././././././.^.^.^.^.^.V.V.V.V.V.B.B.B.B.N.N.N.m.m.m.v.v.c.c.x.x.k.g.f.f.s.s.s.p.p.p.0.7.7.7.7.7.5.4.3.3.3.,.,.,.1.1.1.<.<.e.e.e.e.e.t.r.r.r.D.J.J.J.P.P.bXFXKXKXDXKXKXKXKXKXKXKXKXKXKXKXKXKXKXKXKXKXKXKXKXKXKXKXKXKXKXKXKXKXKXKXKXKXKXKXKXKXKXKXKXKXKXKXKXKXKXKXKXKXKXKXKXKXKXKXKXKXKXKXKXKXKXKXKXKXKX",
"GXGXGXGXGXGXGXGXGXGXGXGXGXGXGXGXGXGXGXGXGXGXGXGXGXGXGXKXDXMXMXMXMXMXMXMXMXMXMXMXMXMXMXMXMXMXMXMXDXDXMXMXMXDXDXKXGXGXGXGXGXGXGXGXGXGXGXGXGXGXHXFX;XY H H H.Y H.Y H.D.D.r.r.r.r.t.t.t.t.t.1.<.2.2.,.| } | | ,.,.3.3.3.5.5.7.7.7.7.8.0.p.p.a.s.s.s.f.j.j.j.k.c.c.c.m.v.v.v.m.N.N.N.B.B.B.C.C.C.V.V.V.^.^.^.^.^.^.^.^.^././.^.^././././.).).).).).).).)._._._._.)._._._._._._.].].].].].].].].].].].].].].].].].].].].].].].].].].].].].].].].].].].].].].].].].].].].].].].].].].].].].].]._._._._._._.).).).).).).).).).).).)././././././.^.^.^.^.V.V.V.V.V.V.B.B.B.B.N.N.m.m.m.m.v.v.b.c.x.c.x.k.f.f.s.f.s.p.p.p.0.8.7.7.7.7.5.4.3.3.3.,.,.,.1.1.1.<.<.e.e.e.e.t.t.t.r.r.F.J.J.J.P.P.mXFXHXGXHXHXGXGXGXGXGXGXGXGXGXGXGXGXGXGXGXGXGXGXGXGXGXKXDXMXMXMXMXMXMXMXMXMXMXMXMXMXMXMXMXMXMXMXMXMXMXMXMXMXKXKXGXGXGXGXGXGXGXGXGXGXGXGXGXGXGX",
"GXGXGXGXGXGXGXGXGXGXGXGXGXGXGXGXGXGXGXGXGXGXGXGXGXGXGXKXMXMXMXMXMXMXMXMXMXMXMXMXMXMXMXMXMXMXMXMXMXDXMXMXMXMXDXGXGXGXGXGXGXGXGXGXGXGXGXGXGXGXHXFX%XY Y H H.H.H.H.H.D.D.r.r.r.r.t.t.t.t.t.1.<.2.2.,.} } | | | ,.3.3.3.5.5.5.5.7.7.8.p.p.p.a.s.f.s.f.j.k.k.k.c.v.b.N.v.v.v.m.N.N.C.B.B.B.B.C.V.V.V.V.V.V.V.^.^.^.^.^.^./.^.^.^././././.).).).).).).).)._._._._._._._._._._._._.].].].].].].].].].].].].].].].].].].].].].].].].].].].].].].].].].].].].].].].].].].].].].].].].].]._.].].].]._._._._._.).).).).).).).).).).)./././././././.^.^.^.^.V.V.V.V.V.V.B.B.B.B.N.N.m.m.m.m.v.v.b.c.c.c.x.k.f.f.s.f.s.p.p.p.0.8.7.7.7.7.5.4.3.3.3.,.,.,.1.1.1.<.<.e.e.e.e.e.t.t.r.r.D.J.J.J.P.P.mXFXHXGXHXHXGXGXGXGXGXGXGXGXGXGXGXGXGXGXGXGXGXGXGXGXGXKXMXMXMXMXMXMXMXMXMXMXMXMXMXMXMXMXMXMXMXMXMXMXMXMXMXMXMXKXGXGXGXGXGXGXGXGXGXGXGXGXGXGXGX",
"GXGXGXGXGXGXGXGXGXGXGXGXGXGXGXGXGXGXGXGXGXGXGXGXGXGXGXKXMXMXMXLXDXDXDXDXDXLXDXLXDXAXDXDXDXDXDXDXMXDXMXMXDXMXMXGXGXGXGXGXGXGXGXGXGXGXGXGXGXGXHXFX.XU Y H H.H.H.H.H.D.D.r.r.r.r.t.t.t.t.t.<.<.2.2.,.} } | | |  .,.3.3.5.5.5.5.7.7.8.p.p.p.a.s.f.s.f.k.l.l.c.c.v.M.N.v.c.v.m.N.N.C.B.B.B.B.C.V.V.V.V.V.V.V.^.^.^.^.^.^.^.^.^.^././././.).).).).).).).).).)._._._._._.]._._._._._.].].].].].].].].].].].].].].].].].].].].].].].].].].].].].].].].].].].].].].].].].].].].].].].].].].].].].]._._._._._.).).).).).).).).).).)./././././././.^.^.^.^.V.V.V.V.V.V.V.B.B.B.N.N.m.m.m.m.v.v.b.c.c.c.x.k.f.f.s.f.s.p.p.p.0.0.7.7.7.7.5.4.3.3.3.,.,.,.1.1.1.<.<.e.e.e.e.e.t.r.r.r.D.J.J.J.P.P.mXFXFXGXHXHXGXGXGXGXGXGXGXGXGXGXGXGXGXGXGXGXGXHXGXGXGXKXMXMXDXDXDXDXDXDXDXDXDXAXDXDXDXDXDXDXDXDXDXDXDXDXDXDXMXGXGXHXGXGXKXGXGXGXGXGXGXGXGXGXGX",
"GXGXGXGXGXGXGXGXGXGXGXGXGXGXGXGXGXGXGXGXGXGXGXGXGXGXGXKXMXMXMXDXMXMXMXMXMXMXMXMXMXMXMXMXMXMXMXMXMXDXMXMXDXMXMXGXGXGXGXGXGXGXGXGXGXGXGXGXGXGXHXFX.XU Y H H.H.H.H.H.D.D.r.r.r.r.t.t.t.t.t.<.<.2.2.,.} } ,.| |  .,.3.3.5.5.5.5.7.7.8.p.p.p.d.s.f.s.f.k.l.l.c.c.c.m.N.v.c.v.m.N.N.N.B.B.B.B.C.V.V.V.^.^.^.V.^.V.^.^.^.^.^.^.^.^././././.).).).).).)._.).).).).).)._.].]._._._._._._.].].].].].].].].].].].].].].].].].].].].].].].].].].].].].].].].].].].].].].].].].].].].].].].].].].].]._._._._._._.).).).).).).).).).).)./././././././.^.^.^.^.V.V.V.V.V.V.V.B.B.B.N.N.m.m.m.m.v.v.b.c.c.c.x.k.f.f.s.f.s.p.p.p.0.8.7.7.7.7.5.4.3.3.3.,.,.,.1.1.1.<.<.e.e.e.e.e.t.r.r.r.D.J.J.J.P..XmXFXFXGXHXHXGXGXGXGXGXGXGXGXGXGXGXGXGXGXGXGXGXGXGXGXGXKXLXLXMXMXMXMXMXMXMXMXMXMXMXMXMXMXMXMXMXMXMXMXMXMXMXMXMXGXGXKXGXGXKXGXGXGXGXGXGXGXGXGXGX",
"GXGXGXGXGXGXGXGXGXGXGXGXGXGXGXGXGXGXGXGXGXGXGXGXGXGXGXKXMXMXMXMXMXMXMXMXMXMXMXMXMXMXMXMXMXMXMXMXMXMXMXMXDXMXDXGXGXGXGXGXGXGXGXGXGXGXGXGXGXGXHXFXL.U Y Y Y H.H.H.H.D.D.r.r.r.r.t.r.t.t.e.<.<.2.2.| } } } | ,.,.3.3.3.5.5.7.7.7.7.p.p.p.p.a.s.s.s.j.k.k.k.c.c.M.M.N.v.v.m.N.N.N.C.B.B.B.C.C.V.V.V.V.V.V.V.^.^.^.^.^.^.(.(././././.).).).).).).)._._.).).).)._._._._.].].].].].].].].].].].].].].].].].].].].].].].].].].].].].].].[.[.[.[.[.[.].].[.].].].[.[.[.].].].].].].].].]._._._.]._._._.)._._.).).).).).).).).).).).)././././.^.^.^.^.^.^.V.V.V.V.V.V.B.B.B.B.B.N.N.m.m.m.v.v.c.c.x.x.k.k.f.f.s.f.s.p.p.p.0.0.7.7.5.7.5.5.5.3.3.3.,.,.1.1.1.1.e.e.e.e.e.t.t.r.r.r.D.J.J.P.P.P.VXFXHXGXHXHXGXGXGXGXGXGXGXGXGXGXGXGXGXGXGXGXGXGXGXGXGXKXMXMXMXMXMXMXMXMXMXMXMXMXMXMXMXMXMXMXMXMXMXMXMXMXMXMXMXGXGXGXGXGXGXGXGXGXGXGXGXGXGXGXGX",
"GXGXGXGXGXGXGXGXGXGXGXGXGXGXGXGXGXGXGXGXGXGXGXGXGXGXGXKXMXMXMXMXMXMXMXMXMXMXMXMXMXMXMXMXMXMXMXMXMXMXMXMXDXMXDXGXGXGXGXGXGXGXGXGXGXGXGXGXGXGXHXFXP.U Y Y H.H.H.H.H.D.D.r.r.r.r.t.r.t.t.e.<.<.2.2.| } } } | ,.,.3.3.3.5.5.7.7.7.7.p.p.p.p.a.s.s.s.j.j.k.k.x.c.c.m.m.v.v.m.N.N.N.B.B.B.B.B.C.C.V.C.V.V.V.V.^.^.^.^.^.^.(.(././././.).).).).).).)._._.).).)._._._._._.]._._.].].].].].].].].].].].].].].].].].].].].].].].].].].].].[.[.[.[.[.[.].].].].].].].[.[.].].].].].].].].]._.].].].]._._._.).).).).).).).).).).).).).)./././././.^.^.^.^.V.V.V.V.V.V.V.B.B.B.B.B.N.N.m.m.m.v.v.b.c.c.x.x.k.f.f.s.f.s.p.p.p.0.0.7.7.7.7.7.4.5.3.3.3.,.,.1.1.1.1.e.e.e.e.e.t.t.r.r.r.D.J.J.P.P.P.VXFXGXGXHXHXGXGXGXGXGXGXGXGXGXGXGXGXGXGXGXGXGXGXGXGXGXKXMXMXMXMXMXMXMXMXMXMXMXMXMXMXMXMXMXMXMXMXMXMXMXMXMXMXMXGXGXGXGXGXGXGXGXGXGXGXGXGXGXGXGX",
"GXGXGXGXGXGXGXGXGXGXGXGXGXGXGXGXGXGXGXGXGXGXGXGXGXGXGXKXMXMXMXMXMXMXMXMXMXMXMXMXMXMXMXMXMXMXMXMXMXMXMXMXDXMXDXGXGXGXGXGXGXGXGXGXGXGXGXGXGXGXHXFXP.U Y D.H.H.H.H.H.H.D.r.r.r.r.t.r.t.t.e.<.<.2.2.| } } } | ,.,.3.6.3.5.5.5.7.7.7.p.p.p.a.d.s.s.s.f.j.k.k.k.c.c.M.v.v.v.N.N.N.N.B.N.B.B.C.C.C.C.C.V.V.V.V.^.^.^.^.^.^.^.^././././.).).).).).).).).).).).)._._._._._._._._.].].].].].].].].].].].].].].].].].].].].].].].].].].].].].].].].].].].].].].].].[.[.].].].].].].].].].].].].].]._._._.).).).).).).).).).).).).).).)././././././.^.^.^.V.V.V.V.V.V.V.B.B.B.B.N.N.N.m.m.m.v.v.b.c.c.x.x.k.f.f.s.f.s.p.p.p.0.0.7.7.7.7.5.4.5.3.3.3.6.,.1.1.1.1.e.e.e.e.e.e.t.r.r.r.D.J.J.P.P.P.VXFXGXGXHXHXGXGXGXGXGXGXGXGXGXGXGXGXGXGXGXGXGXGXGXGXGXKXMXMXMXMXMXMXMXMXMXMXMXMXMXMXMXMXMXMXMXMXMXMXMXMXMXMXMXGXGXGXGXGXGXGXGXGXGXGXGXGXGXGXGX",
"GXGXGXGXGXGXGXGXGXGXGXGXGXGXGXGXGXGXGXGXGXGXGXGXGXGXGXKXMXMXMXMXMXMXMXMXMXMXMXMXMXMXMXMXMXMXMXMXMXMXMXMXDXMXDXGXGXGXGXGXGXGXGXGXGXGXGXGXGXGXHXFXP.Y Y H.H.H.H.H.H.D.D.r.r.r.r.t.r.t.t.e.<.<.2.2.| } } } | ,.,.3.6.3.5.5.5.7.7.7.p.p.p.p.d.s.s.f.f.j.k.k.c.c.v.m.v.v.v.N.N.N.N.N.N.N.B.B.C.C.C.C.V.V.V.V.V.^.^.^.^.^.^.^././././.).).).).).).).)._.)._.)._._._._._._._._._.].].].].].].].].].].].].].].].].].].].].].].].].].].].].].].].].].].].[.].].].[.[.].].].].].].].].].].].].].]._._.).).).).).).).).).).).).).).).)././././././.^.^.^.V.V.V.V.V.V.B.B.B.B.B.N.N.N.N.m.m.v.v.v.c.c.x.x.k.f.f.s.f.s.p.p.p.0.0.7.7.7.7.5.4.5.3.3.3.6.,.1.1.1.1.e.e.e.e.e.t.t.r.r.r.D.J.J.P.P.P.VXFXGXGXHXHXGXGXGXGXGXGXGXGXGXGXGXGXGXGXGXGXGXGXGXGXGXKXMXMXMXMXMXMXMXMXMXMXMXMXMXMXMXMXMXMXMXMXMXMXMXMXMXMXMXGXGXGXGXGXGXGXGXGXGXGXGXGXGXGXGX",
"GXGXGXGXGXGXGXGXGXGXGXGXGXGXGXGXGXGXGXGXGXGXGXGXGXGXGXKXMXMXMXMXMXMXMXMXMXMXMXMXMXMXMXMXMXMXMXMXMXMXMXMXDXMXDXGXGXGXGXGXGXGXGXGXGXGXGXGXGXGXHXFXP.U Y H.H.H.H.H.H.H.D.r.r.r.r.r.t.t.t.t.1.<.2.2.,.| } } | ,.,.3.6.3.5.5.4.7.7.7.p.p.p.p.d.s.s.f.f.j.k.k.x.c.v.M.v.m.N.N.N.N.N.m.N.N.B.B.C.C.C.C.C.V.V.V.V.^.^.^.^.^.^.^././././.).).).).).).).)._._.).).)._._._._._._.].].].].].].].].].].].].].].].].].].].].].].].].].].].].].].].].].].].].].].].].].].[.].].].].].].].].].].].].].]._._._._._._.).).).).).).).).).).).).)./././././.^.^.^.V.^.^.V.V.V.B.B.B.B.B.N.N.N.N.m.m.v.v.v.c.c.c.x.k.f.f.s.f.s.p.p.p.0.0.7.7.5.7.5.5.5.3.3.3.,.,.1.1.1.1.e.e.e.e.e.t.t.r.r.r.D.J.J.P.I.P.mXFXHXGXHXHXGXGXGXGXGXGXGXGXGXGXGXGXGXGXGXGXGXGXGXGXGXKXMXMXMXMXMXMXMXMXMXMXMXMXMXMXMXMXMXMXMXMXMXMXMXMXMXMXMXGXGXGXGXGXGXGXGXGXGXGXGXGXGXGXGX",
"GXGXGXGXGXGXGXGXGXGXGXGXGXGXGXGXGXGXGXGXGXGXGXGXGXGXGXKXMXMXMXMXMXMXMXMXMXMXMXMXMXMXMXMXMXMXMXMXMXMXMXMXDXMXDXGXGXGXGXGXGXGXGXGXGXGXGXGXGXGXHXFXP.U Y H.H.H.H.H.H.H.D.r.r.r.r.r.t.t.t.t.1.<.2.2.,.| } } | ,.,.3.6.3.4.5.4.5.7.8.p.d.d.d.s.s.s.f.f.j.k.k.k.c.c.m.v.m.N.N.N.N.N.v.N.N.N.B.C.C.C.C.C.C.V.V.V.V.^.^.^.^.^.^././././.).).).).).).).)._._._._.)._._._._._._._.].].].].].].].].].].].].].].].].].].].].].].].].].].].].].].].].].].].].].].].].].].].].].].].].].].].].].].].].]._._._._._.).).).).).).).).).).).).).)././././.^.^.^.^.^.V.V.V.V.V.B.B.C.B.N.N.N.N.m.m.v.v.b.c.c.c.x.k.f.f.s.f.s.p.p.p.0.0.7.5.5.7.5.5.5.3.3.3.6.,.1.1.1.1.e.e.e.e.e.t.t.t.r.r.D.J.J.P.I.P.mXFXHXGXHXHXGXGXGXGXGXGXGXGXGXGXGXGXGXGXGXGXGXGXGXGXGXKXMXMXMXMXMXMXMXMXMXMXMXMXMXMXMXMXMXMXMXMXMXMXMXMXMXMXMXGXGXGXGXGXGXGXGXGXGXGXGXGXGXGXGX",
"GXGXGXGXGXGXGXGXGXGXGXGXGXGXGXGXGXGXGXGXGXGXGXGXGXGXGXKXMXMXMXMXMXMXMXMXMXMXMXMXMXMXMXMXMXMXMXMXMXMXMXMXDXMXDXGXGXGXGXGXGXGXGXGXGXGXGXGXGXGXHXFXL.U Y Y H.H.H.H.H.H.D.r.r.r.r.r.t.t.t.t.<.<.2.2.,.} } } } | ,.,.6.3.4.5.4.5.7.8.p.d.d.d.s.s.s.s.f.j.k.k.k.x.c.c.c.m.N.N.m.N.N.m.N.N.N.B.B.C.C.C.C.C.V.V.V.V.^.^.^.^.^.^././././.).).).).).).).)._._._.).)._.)._._._._._.].].].].].].].].].].].].].].].].].].].].].].].].].].].].].].].].].].].].].].].].].].].].].].].].].].].].].].].]._._._._._._.).).).).).).).).).).).).).)././././.^.^.^.^.V.V.V.V.V.V.B.B.C.B.N.N.N.N.m.m.v.v.b.c.c.x.x.k.f.f.s.f.s.p.p.p.p.0.7.4.5.7.7.5.5.3.3.3.6.,.1.1.1.1.e.e.e.e.e.t.t.r.r.r.D.J.J.P.XX.XVXFXHXGXHXHXGXGXGXGXGXGXGXGXGXGXGXGXGXGXGXGXGXGXGXGXGXKXMXMXMXMXMXMXMXMXMXMXMXMXMXMXMXMXMXMXMXMXMXMXMXMXMXMXMXGXGXGXGXGXGXGXGXGXGXGXGXGXGXGXGX",
"GXGXGXGXGXGXGXGXGXGXGXGXGXGXGXGXGXGXGXGXGXGXGXGXGXGXGXKXMXMXMXMXMXMXMXMXMXMXMXMXMXMXMXMXMXMXMXMXMXMXMXMXDXMXDXGXGXGXGXGXGXGXGXGXGXGXGXGXGXGXGXHXL.U Y Y D.H.H.H.H.H.D.D.r.r.r.r.t.t.t.t.<.2.2.2.2.} } } } | ,.,.6.3.5.5.4.5.7.8.p.d.d.d.s.s.s.s.j.j.k.k.k.c.c.c.c.m.N.N.m.N.N.N.N.N.N.B.B.C.C.C.C.C.V.V.V.V.^.^.^.^.^.^././././.).).).).).).).)._._._._.).).)._._._._._._.].].].].].].].].].].].].].].].].].].].].].].].].].].].].].].].].].].].].].].].].].].].].].].].].].].].]._._._.).).).).).).).).).).).).).).).).).).).)./././././.^.^.^.V.V.V.V.V.V.B.B.C.B.N.N.N.N.m.v.v.c.c.c.c.x.k.k.f.f.f.f.s.p.p.p.p.0.7.4.4.7.7.5.5.3.3.3.6.,.1.1.1.1.e.e.e.e.e.t.t.t.r.r.J.J.J.P..X.XVXFXHXGXHXHXGXGXGXGXGXGXGXGXGXGXGXGXGXGXGXGXGXGXGXGXGXKXMXMXMXMXMXMXMXMXMXMXMXMXMXMXMXMXMXMXMXMXMXMXMXMXMXMXMXGXGXGXGXGXGXGXGXGXGXGXGXGXGXGXGX",
"GXGXGXGXGXGXGXGXGXGXGXGXGXGXGXGXGXGXGXGXGXGXGXGXGXGXGXKXMXMXMXMXMXMXMXMXMXMXMXMXMXMXMXMXMXMXMXMXMXMXMXMXDXMXDXGXGXGXGXGXGXGXGXGXGXGXGXGXGXGXGXHX#XU Y H H.H.H.H.H.H.D.D.r.r.r.r.t.t.t.e.<.<.2.2.| 2.} } ,.,.| ,.3.3.5.5.5.5.5.7.0.p.d.d.d.s.s.s.f.f.j.j.k.k.c.M.v.v.m.N.N.N.N.N.N.N.B.B.C.C.C.C.V.C.V.V.V.^.^.^.^.^././././././.).).).).).).).).).).).)._._._.)._._._._._._._.]._._.].].].]._._._._._.].].].].].].].].].].].].].].].].].].].].].].].].].].].].].].].].].].].].]._._._.)._._.)._.).).).).).).).).).).)./././././././././.^.^.^.^.^.^.V.V.V.V.V.V.V.B.m.m.m.m.m.m.v.c.c.c.c.k.k.k.f.f.f.f.s.a.p.p.8.8.9.3.O.4.4.5.5.3.3.3.6.,.1.1.1.1.e.e.e.e.t.t.t.r.r.r.F.J.J.P.P.P.VXHXFXGXGXHXGXGXGXGXGXGXGXGXGXGXGXGXGXGXGXGXGXGXGXGXGXKXMXMXMXMXMXMXMXMXMXMXMXMXMXMXMXMXMXMXMXMXMXMXMXMXMXMXMXGXGXGXGXGXGXGXGXGXGXGXGXGXGXGXGX",
"GXGXGXGXGXGXGXGXGXGXGXGXGXGXGXGXGXGXGXGXGXGXGXGXGXGXGXKXMXMXMXMXMXMXMXMXMXMXMXMXMXMXMXMXMXMXMXMXMXMXMXMXDXMXDXGXGXGXGXGXGXGXGXGXGXGXGXGXGXGXGXHX%XU Y Y H.H.H.H.H.H.D.D.r.r.r.r.r.t.t.t.1.<.2.2.| 2.} } | ,.| ,.3.3.5.5.5.5.7.7.8.0.d.d.d.s.s.s.f.f.j.j.k.k.c.v.v.v.m.N.N.N.N.N.N.N.B.B.C.C.C.C.C.C.V.V.V.^.^.^.^.^././././././.).).).).).).).).).).).)._._._.)._._._._._._._._._._.].].].]._._._._._._.].].].].].].].].].]._._.].].].].].].].].].].].].].].].].].].].].].].].]._._.).).).).).).).).).).).).).).).).)./././././././././.^.^.^.^.^.^.V.V.V.V.V.V.V.B.m.m.m.m.m.m.v.c.c.c.c.k.k.k.f.f.f.f.s.a.p.p.p.0.8.7.7.9.q.7.5.5.3.3.6.,.1.1.1.1.e.e.e.e.t.t.t.t.r.r.J.J.J.P.P.P.ZXHXFXGXGXGXGXGXGXGXGXGXGXGXGXGXGXGXGXGXGXGXGXGXGXGXGXKXMXMXMXMXMXMXMXMXMXMXMXMXMXMXMXMXMXMXMXMXMXMXMXMXMXMXMXGXGXGXGXGXGXGXGXGXGXGXGXGXGXGXGX",
"GXGXGXGXGXGXGXGXGXGXGXGXGXGXGXGXGXGXGXGXGXGXGXGXGXGXGXKXMXMXMXMXMXMXMXMXMXMXMXMXMXMXMXMXMXMXMXMXMXMXMXMXDXMXDXGXGXGXGXGXGXGXGXGXGXGXGXGXGXGXGXHX-XU Y Y H.H.H.H.H.D.D.D.r.r.r.r.r.t.t.t.1.<.2.2.| 2.} } | | | ,.3.3.5.5.5.5.7.q.7.8.p.d.d.s.s.s.s.f.j.k.k.l.c.v.v.v.m.N.N.N.N.N.N.N.N.B.C.C.C.C.C.C.V.V.V.^.^.^.^.^././././././.).).).).).).).).).).).).).).).).)._._._._._._._._._._.].]._.]._._._._._._._._._.]._._._.].]._._._._.].].].].].].].].].].].].].].].].].].].].].]._._._.).).).).).).).).).).).).).).).).)./././././././.^.^.(.^.^.^.^.V.V.V.V.V.V.V.B.m.m.m.m.m.m.m.v.c.c.c.k.k.k.f.f.f.f.s.a.p.p.8.0.8.7.9.7.7.5.5.4.3.3.3.,.1.1.1.1.e.e.e.e.t.t.t.t.r.F.J.J.J.P.I..XZXHXFXGXGXGXGXGXGXGXGXGXGXGXGXGXGXGXGXGXGXGXGXGXGXGXGXKXMXMXMXMXMXMXMXMXMXMXMXMXMXMXMXMXMXMXMXMXMXMXMXMXMXMXMXGXGXGXGXGXGXGXGXGXGXGXGXGXGXGXGX",
"GXGXGXGXGXGXGXGXGXGXGXGXGXGXGXGXGXGXGXGXGXGXGXGXGXGXGXKXMXMXMXMXMXMXMXMXMXMXMXMXMXMXMXMXMXMXMXMXMXMXMXMXDXMXDXGXGXGXGXGXGXGXGXGXGXGXGXGXGXGXGXHX1XU U Y H.H.H.H.H.D.D.D.r.r.r.r.r.t.t.e.1.<.2.2.| 2.} } | | | ,.3.3.5.5.5.5.7.q.7.8.p.p.a.s.s.s.s.s.j.k.k.l.c.b.v.v.N.N.N.N.N.N.N.N.B.B.C.C.C.C.C.C.V.V.^.^.^.^.^.^././././././.).).).).).).).).).).).).).).).).).).).).)._._._._._._._.].].]._._._._._._._._._._._._._._._._._._.].].].].].].].].].].].].].].].].].].].].]._._._._.).).).).).).).).).).).).).).).).).)./././././././.^.^.(.^.^.^.^.V.V.V.V.B.B.B.B.m.m.m.m.m.m.m.v.c.c.c.k.k.k.f.f.f.f.f.s.p.p.8.8.7.7.7.7.9.4.5.5.3.3.6.,.1.1.1.1.1.e.e.e.t.t.t.r.r.F.J.J.J.P.I..XZXHXFXGXGXGXGXGXGXGXGXGXGXGXGXGXGXGXGXGXGXGXGXGXGXGXGXKXMXMXMXMXMXMXMXMXMXMXMXMXMXMXMXMXMXMXMXMXMXMXMXMXMXMXMXGXGXGXGXGXGXGXGXGXGXGXGXGXGXGXGX",
"GXGXGXGXGXGXGXGXGXGXGXGXGXGXGXGXGXGXGXGXGXGXGXGXGXGXGXKXMXMXMXMXMXMXMXMXMXMXMXMXMXMXMXMXMXMXMXMXMXMXMXMXMXMXDXGXGXGXGXGXGXGXGXGXGXGXGXGXGXGXGXHX4XU U Y H.H.H.H.H.D.D.D.r.r.r.r.t.t.t.e.<.<.2.2.} ,.} } | | | ,.,.3.4.5.4.5.7.7.7.8.p.p.d.s.s.s.s.s.f.k.k.l.c.b.c.v.m.N.N.m.m.N.N.B.B.B.B.B.C.C.C.V.V.V.^.^.^.^.^.^././././././.).).).).).).).).).).).).).).).).).).).).).)._._._._._._._._.].].]._._._._._._._.]._._._._.]._._._.].].].].].].].].].].].].].].].].].].].].].]._._._._.).).).).).).).).).).).).).).).).)././././././.^.^.^.(.^.^.^.^.V.V.V.B.B.B.B.B.N.m.N.N.m.m.v.c.c.c.c.x.k.k.f.f.f.f.f.s.p.p.p.0.8.7.7.7.7.5.5.5.3.3.6.,.1.1.1.1.1.e.e.e.t.t.t.t.r.F.J.J.P.P.I.P.ZXHXGXGXGXGXGXGXGXGXGXGXGXGXGXGXGXGXGXGXGXGXGXGXGXGXGXKXMXMXMXMXMXMXMXMXMXMXMXMXMXMXMXMXMXMXMXMXMXMXMXMXMXMXMXGXGXGXGXGXGXGXGXGXGXGXGXGXGXGXGX",
"GXGXGXGXGXGXGXGXGXGXGXGXGXGXGXGXGXGXGXGXGXGXGXGXGXGXGXKXMXMXMXMXMXMXMXMXMXMXMXMXMXMXMXMXMXMXMXMXMXMXMXMXMXMXMXGXGXGXGXGXGXGXGXGXGXGXGXGXGXGXGXHXwXU U Y H.H.H.H.H.D.D.D.r.r.r.r.t.t.t.e.<.<.2.2.} ,.} } | | | ,.,.3.4.5.4.4.5.7.7.8.p.p.d.p.s.s.s.s.f.j.k.l.c.c.c.v.m.N.N.m.m.N.B.B.B.B.B.C.C.C.V.V.V.^.^.^.^.^././././././././.).).).).).).).).).).).).).).).).).).).).).)._._._._._._._._.].]._._._._._._.]._.]._._._.].]._._.].].].].].].].].].].].].].].].].].].].].].]._._._._._.).).).).).).).).).).).).).).).).)./././././././.^.^.(.^.^.^.^.V.V.V.B.B.B.B.N.N.N.N.m.m.m.v.c.c.c.c.x.k.k.f.f.f.f.f.s.a.p.p.0.7.7.7.q.7.5.5.5.3.3.6.,.1.1.1.1.1.e.e.e.t.t.t.r.r.F.J.J.P.P.P.P.ZXHXFXGXGXGXGXGXGXGXGXGXGXGXGXGXGXGXGXGXGXGXGXGXGXGXGXKXMXMXMXMXMXMXMXMXMXMXMXMXMXMXMXMXMXMXMXMXMXMXMXMXMXMXMXGXGXGXGXGXGXGXGXGXGXGXGXGXGXGXGX",
"GXGXGXGXGXGXGXGXGXGXGXGXGXGXGXGXGXGXGXGXGXGXGXGXGXGXGXKXMXMXMXMXMXMXMXMXMXMXMXMXMXMXMXMXMXMXMXMXMXMXMXMXDXMXDXGXGXGXGXGXGXGXGXGXGXGXGXGXGXGXGXHXuXU U Y H.H.H.H.H.D.D.D.r.r.r.r.t.t.t.e.<.<.2.2.} ,.} } ,.,.,.3.3.3.5.5.4.4.5.7.8.8.p.p.p.p.d.s.s.s.f.k.k.k.c.c.c.v.m.N.m.m.N.N.N.N.B.B.C.C.C.C.V.V.^.^.^.^././././././././././././././.).).).).).).).).).).).).)._.)._._._._._._._._._._._._._._._.]._.].].].].]._._._.].].]._.].].].].].].].].].].].].].].].].].].].].].].]._.]._._._.).).).).`.).).).).).).).).).).).)././././././.^.^.(.^.^.^.^.V.V.V.B.B.B.B.N.m.m.N.m.m.v.c.c.c.c.c.c.k.k.f.f.f.f.f.s.a.d.p.0.7.7.7.7.7.4.5.5.6.3.6.,.1.1.1.1.1.e.e.e.t.t.t.r.r.r.J.J.P.P.P.P.ZXHXFXGXGXGXGXGXGXGXGXGXGXGXGXGXGXGXGXGXGXGXGXGXGXGXGXKXMXMXMXMXMXMXMXMXMXMXMXMXMXMXMXMXMXMXMXMXMXMXMXMXMXMXMXGXGXGXGXGXGXGXGXGXGXGXGXGXGXGXGX",
"GXGXGXGXGXGXGXGXGXGXGXGXGXGXGXGXGXGXGXGXGXGXGXGXGXGXGXKXMXMXMXMXMXMXMXMXMXMXMXMXMXMXMXMXMXMXMXMXMXMXMXMXDXMXMXGXGXGXGXGXGXGXGXGXGXGXGXGXGXGXGXHXpXU U Y H.H.H.H.H.D.D.D.r.r.r.r.t.t.t.t.<.<.2.2.} ,.| } ,.,.,.6.3.3.5.5.4.5.5.7.8.0.p.p.p.p.s.s.s.f.f.j.k.k.c.c.x.v.m.m.m.m.N.B.N.B.B.B.C.C.C.C.V.V.^.^.^./././././././.)./././././././.).).).).).).).).).).).).)._._._._._._._._._._._._._._._._._._._._._._._.].]._.].].].].].].].].].].].].].].].].].].].].].].].].].].]._._.].]._._.)._.)._.`.).).).).).).).).).).).)././././././.^.^.(.^.^.^.^.V.V.V.B.B.B.B.N.m.m.N.m.m.v.c.c.c.c.c.c.k.k.f.f.f.j.f.s.a.d.d.0.8.7.7.q.7.4.5.5.6.3.6.,.1.1.1.1.1.e.e.e.t.t.t.t.r.F.J.J.P.P.P.P.ZXHXFXGXGXGXGXGXGXGXGXGXGXGXGXGXGXGXGXGXGXGXGXGXGXGXGXKXMXMXMXMXMXMXMXMXMXMXMXMXMXMXMXMXMXMXMXMXMXMXMXMXMXMXMXGXGXGXGXGXGXGXGXGXGXGXGXGXGXGXGX",
"GXGXGXGXGXGXGXGXGXGXGXGXGXGXGXGXGXGXGXGXGXGXGXGXHXGXGXKXMXMXMXDXMXMXMXMXMXMXMXMXMXMXMXMXMXMXMXMXDXMXMXMXMXMXMXGXGXGXGXGXGXGXGXGXGXGXGXGXGXGXGXHXkXU Y H.D.H.H.H.H.H.D.D.r.r.r.t.r.t.t.e.<.<.2.2.2.} } } | ,.,.6.3.3.5.5.5.5.7.q.8.8.8.p.p.p.s.s.s.s.f.k.k.l.c.c.k.c.m.m.m.m.m.N.m.N.B.B.B.B.V.V.^.^.^.^.^.^././././././././.).)./././././.).).).).).).).).).).).)._._._._._._._._._._._.].]._._.].].].].].].].].].].].].].].].].].].].].].].].].].].].].].].].].].].].].].].].]._._._._._._.).)._.).).).).).).).).).).).).)././.^./././.^.(.^.^.^.^.V.V.V.B.B.V.B.N.N.N.N.m.m.v.c.c.c.c.c.c.k.k.k.j.f.f.f.s.s.d.p.8.7.7.q.7.7.5.5.5.3.6.6.6.1.1.1.1.e.e.t.t.t.t.t.t.r.F.J.J.K.P.I.P.FXFXHXGXHXHXGXGXGXGXGXGXGXGXGXGXGXGXGXGXGXGXGXGXGXGXGXKXMXMXMXMXMXMXMXMXMXMXMXMXMXMXMXMXMXMXMXMXMXMXMXMXMXMXMXGXGXGXGXGXGXGXGXGXGXGXGXGXGXGXGX",
"GXGXGXGXGXGXGXGXGXGXGXGXGXGXGXGXGXGXGXGXGXGXGXGXHXGXGXKXMXMXMXLXMXMXMXMXMXMXMXMXMXMXMXMXMXMXMXMXMXMXMXDXDXMXDXGXGXGXGXGXGXGXGXGXGXGXGXGXHXGXGXFXzXU Y Y D.H.H.H.H.H.D.D.r.r.r.t.r.t.t.e.1.<.2.2.2.} } } | | ,.3.3.3.5.5.4.5.7.7.8.0.p.p.p.p.s.s.s.f.j.k.k.l.c.c.k.c.m.m.m.m.m.N.N.B.B.B.B.B.V.V.^.^.^.^.^.^././././././././.).)././.).).).).).).)._.).).).).).).)._.)._._._._._._._._._.].].]._.].].].].].].].].].].].].].].].].].].].].].].].].].].].].].].].].].].].].].].].]._._._.]._._._.)._._.).).).).).).).).).)././././././././././.^.^.^.^.V.V.V.V.V.B.B.N.N.m.m.m.m.m.c.c.c.c.c.c.c.l.k.j.f.f.j.s.s.d.p.0.8.7.7.7.7.5.5.5.6.6.6.6.1.1.1.1.e.e.t.t.t.t.t.t.r.F.J.J.K.P.P.P.ZXFXFXGXGXGXGXGXGXGXGXGXGXGXGXGXGXGXGXGXGXGXGXGXGXGXGXKXDXDXMXMXMXMXMXMXMXMXMXMXMXMXMXMXMXMXMXMXMXMXMXMXMXMXMXGXGXKXGXGXGXGXGXGXGXGXGXGXGXGXGX",
"GXGXGXGXGXGXGXGXGXGXGXGXGXGXGXGXGXGXGXGXGXGXGXGXGXGXGXKXMXMXMXMXMXMXMXMXMXMXMXMXMXMXMXMXMXMXMXMXMXMXMXDXDXMXMXGXGXGXGXGXGXGXGXGXGXGXGXGXGXGXGXHXvXU H Y D.H.H.H.H.H.D.D.r.r.r.t.r.t.t.e.1.<.2.2.| } } } | | ,.,.,.3.5.5.4.4.5.7.8.8.p.p.p.p.a.s.f.f.f.j.k.k.c.c.x.c.m.m.m.m.N.N.N.B.B.B.B.B.B.B.^.^.^.^.^.^./././././././.)././.).).).).).).).).).).)._.).).).).).).)._._._._._._._._.].].].].].].].].].].].].].].].].].].].].].].].].].].].].].].].].].].[.].].[.[.].].].].].].].].].].]._._._._._.).).).).).).).).).)././././././.^.^././.^.^.^.^.V.V.V.V.B.B.B.N.N.m.m.m.m.m.c.c.c.c.c.c.c.l.k.j.j.j.j.f.s.d.d.d.0.7.7.q.7.4.5.5.3.6.6.6.1.1.1.1.e.e.e.t.t.t.t.r.r.J.J.J.K.I.XXP.ZXHXFXGXGXGXGXGXGXGXGXGXGXGXGXGXGXGXGXGXGXGXGXGXGXGXGXKXDXMXMXMXMXMXMXMXMXMXMXMXMXMXMXMXMXMXMXMXMXMXMXMXMXMXMXGXGXGXGXGXGXGXGXGXGXGXGXGXGXGXGX",
"GXGXGXGXGXGXGXGXGXGXGXGXGXGXGXGXGXGXGXGXGXGXGXGXGXGXGXKXMXMXMXMXMXMXMXMXMXMXMXMXMXMXMXMXMXMXMXMXMXDXDXMXMXMXMXGXGXGXGXGXGXGXGXGXGXGXGXGXGXGXGXHXvXU H Y D.H.H.H.H.H.D.D.r.r.r.r.r.t.t.e.1.2.2.2.} } } ,.| | | ,.,.3.5.5.5.5.5.7.7.8.8.p.p.p.p.p.s.s.f.f.k.k.l.c.x.c.m.m.m.m.N.N.N.B.B.B.B.B.B.V.^.^.^.^.^./././././././././././.).).).).).).).).(.(.(.).).).)._._._._._._._._._._._.].].].].].].].].].].].].].].].].].].].].].].].].].].].].].].].].].].].].].].].].].].].].].].].].].].]._._._._._.).).).).).).).).).).)./././././.^.^.(.^.^.^.^.^.V.V.B.B.B.B.B.B.m.m.m.m.m.m.c.c.c.c.c.c.c.c.k.k.j.j.j.j.s.s.d.d.0.7.7.q.7.5.5.5.4.6.6.6.1.1.1.1.e.e.e.t.t.t.t.r.r.J.J.K.K.I.XXP.FXHXFXGXHXHXGXGXGXGXGXGXGXGXGXGXGXGXGXGXGXGXGXGXGXGXGXKXMXMXMXMXMXMXMXMXMXMXMXMXMXMXMXMXMXMXMXMXMXMXMXMXMXMXMXGXGXGXGXGXGXGXGXGXGXGXGXGXGXGXGX",
"GXGXGXGXGXGXGXGXGXGXGXGXGXGXGXGXGXGXGXGXGXGXGXGXHXGXKXKXMXMXDXLXMXMXMXMXMXMXMXMXMXMXMXMXMXMXMXMXMXDXDXMXMXMXDXGXGXGXGXGXGXGXGXGXGXGXGXGXHXGXGXFXnXU H Y H.H.H.H.H.H.D.D.r.r.r.r.t.t.t.e.1.2.2.2.} } } ,.| | | ,.3.3.5.5.5.5.5.7.7.8.8.p.p.p.p.p.s.s.f.f.k.k.l.c.c.c.v.m.M.m.m.B.N.B.B.B.V.V.^.^.^.^.^.^././././././././.).).).).).).).).).).).).(.(.(.).).).`.].).).)._._._._._._._._.].].].].].].].].].].].].].].].].].].].].].].].].].].].].].].].].].].].].].].].].].].].].].].].].]._._._._.).).).).).).).).).).)./././././.(./././.(.(.B.^.^.V.V.V.B.B.B.B.B.B.m.m.m.m.m.m.c.c.c.c.c.c.c.c.k.k.k.j.j.j.s.s.d.d.0.7.7.q.q.5.5.5.3.6.6.6.1.1.1.1.1.e.t.t.t.t.t.r.F.J.J.J.I.P.XXP.FXHXFXGXHXHXGXGXGXGXGXGXGXGXGXGXGXGXGXGXGXGXGXKXGXGXGXKXDXMXMXMXMXMXMXMXMXMXMXMXMXMXMXMXMXMXMXMXMXMXMXMXMXMXMXKXGXGXGXHXKXGXGXGXGXGXGXGXGXGXGX",
"GXGXGXGXGXGXGXGXGXGXGXGXGXGXGXGXGXGXGXGXGXGXGXGXGXGXGXKXDXMXMXMXMXMXMXMXMXMXMXMXMXMXMXMXMXMXMXMXMXMXMXNXMXMXDXGXGXGXGXGXGXGXGXGXGXGXGXGXGXGXGXHXmXU H Y H.H.H.H.H.H.D.D.r.r.r.r.t.t.t.t.1.2.2.2.2.} } ,.| | ,.,.3.3.5.5.5.7.7.7.8.8.0.p.p.p.p.a.s.j.j.k.k.c.c.M.c.c.c.M.m.m.B.B.N.B.B.B.V.V.^.^.^.^.^.^././././././././.).).).).).).).).).).).).).).)._._.).`.).).).)._._._._.]._._._.].].].].].].].].].].].].].].].].].].].].].].].].].].].].].].].].].].].].].].].].].].].].].].].].]._._._._._.).).).).).).).).).).)././././.^./././.^.(.^.^.^.^.V.V.B.B.B.B.B.N.m.m.m.m.m.m.m.v.c.c.c.c.c.c.k.k.k.k.j.j.s.d.s.p.0.8.7.7.7.7.5.5.6.6.6.1.1.1.1.1.1.e.t.t.t.t.t.r.F.J.J.K.I.I.XXP.FXHXGXGXGXGXGXGXGXGXGXGXGXGXGXGXGXGXGXGXGXGXGXGXGXGXGXKXMXMXMXMXMXMXMXMXMXMXMXMXMXMXMXMXMXMXMXMXMXMXMXMXMXMXDXGXGXGXGXGXGXGXGXGXGXGXGXGXGXGXGX",
"GXGXGXGXKXKXHXGXGXGXGXGXKXKXHXGXGXGXGXGXGXGXHXHXGXGXGXKXKXDXMXMXDXDXDXDXDXDXDXDXDXDXDXDXDXDXDXDXMXKXDXMXDXDXDXKXGXGXGXGXKXKXHXHXFXHXGXHXHXHXFXFXmXU H H.H.H.H.H.H.H.D.D.D.r.r.r.t.t.t.t.1.<.2.2.,.} } 2.| | ,.,.6.3.3.5.5.7.7.7.8.8.8.p.p.p.s.s.s.f.j.k.k.c.b.M.c.c.c.m.m.m.N.B.N.B.B.V.V.V.^.^.^.^.^.^././././././.).).).).).).).).).).).).).)._._._._._._._.)._._._._._._.].]._._._._.].].].].].].].].].].].].].].].].].].].].].].].].].].[.[.[.[.].].[.[.[.].].].].].].].].].].].].].].]._._._._.).).).).).).).).).)./././././.^.^.(.^./.^.^.^.^.^.V.V.B.B.B.B.N.N.m.m.m.m.m.m.M.M.c.c.c.c.c.c.l.k.k.j.j.s.d.s.0.0.0.q.5.5.7.5.5.6.6.6.1.1.1.1.1.1.e.t.t.t.t.r.r.D.J.J.K.I.I.XXP.FXHXFXGXHXGXGXGXGXGXKXKXHXGXGXGXGXGXKXKXHXGXGXGXKXKXKXDXDXDXDXDXDXDXDXDXDXDXDXDXDXDXDXDXDXDXDXDXDXDXDXDXDXDXKXGXKXKXGXGXKXGXGXGXGXGXKXKXHXGXGX",
"DXDXDXDXMXMXDXDXDXDXDXDXMXMXDXDXDXDXDXDXLXLXLXLXMXLXKXKXKXGXGXGXGXGXGXGXGXGXGXGXGXGXGXGXGXGXGXGXGXGXGXGXGXGXKXKXDXDXDXDXMXMXDXLXLXMXBXLXAXAXMXBXmXU Y H.H.H.H.H.H.H.D.D.D.r.r.r.r.t.t.t.e.<.2.} 2.} | | | | ,.6.6.3.3.5.5.7.7.7.8.8.8.8.p.p.s.s.s.f.f.k.k.c.b.v.c.c.c.v.m.N.N.B.B.B.V.V.V.V.^.^.^.(.^.^./././././.).).).).).).).).).).).).).).).)._._._._._.]._._._._._._._.].]._._._.].].].].].].].].].].].].].].].].].].].].].[.[.[.[.[.[.[.[.[.[.[.[.[.[.[.[.[.].].].].].].].].].].].].].].]._._._.).).).).).).).).)./././././.^.B.B.^././.^.^.^.^.V.V.V.C.B.N.N.N.N.N.m.m.v.m.m.M.v.c.c.c.c.c.c.l.k.j.j.s.d.s.p.0.0.0.4.4.7.5.5.6.6.6.6.1.1.1.1.1.e.t.t.t.t.r.r.D.J.J.K.I.I..XP.VXZXBXAXSXLXDXDXDXDXMXMXDXDXDXDXDXDXMXMXDXDXDXMXMXDXKXKXKXGXGXGXGXGXGXGXGXGXGXGXGXGXGXGXGXGXGXGXGXGXGXGXGXGXKXKXMXMXLXMXMXMXDXDXDXDXMXMXDXDXDX",
"MXMXMXMXMXMXMXMXMXMXMXMXMXMXMXMXMXMXMXMXMXMXMXMXMXMXDXKXGXGXGXGXGXGXGXGXGXGXGXGXGXGXGXGXGXGXGXGXGXGXGXGXGXGXGXMXMXMXMXMXMXMXMXMXCXNXBXLXLXLXBXBXVXG P.H.H.H.H.H.H.H.Y H H r.r.r.r.t.t.t.e.<.<.2.| ..| | |  .,.6.6.4.5.7.9.9.7.7.0.0.0.0.0.d.s.a.j.f.j.k.x.c.b.v.v.v.v.m.N.C.B.B.B.V.V.^.^.^.(.^././././././././.).).).).).).).).).).).).).).).)._._._._._._._._._._._._._.].].].].].].].].].].].].].].].[.[.[.[.[.[.[.[.[.[.[.[.[.[.[.[.[.[.[.].[.[.[.[.].].].].].].].].].].]._.].].].].].]._._.]._._._.`.`.`.).).).).).).).).)././././.^.^.^./.^.^.^.V.V.V.V.C.C.B.B.N.N.N.N.m.N.m.m.v.v.v.c.x.c.c.k.k.k.f.s.a.s.p.8.8.0.q.q.q.5.5.3.3.3.,.,.1.1.1.e.e.e.t.t.t.r.r.D.J.J.K.I.XX.X.XVXBXMXLXAXAXAXMXMXMXMXMXMXMXMXMXMXMXMXMXMXMXMXMXMXMXDXKXGXGXGXGXGXGXGXGXGXGXGXGXGXGXGXGXGXGXGXGXGXGXGXGXGXGXGXDXMXDXMXMXMXMXMXMXMXMXMXMXMXMXMX",
"MXMXMXMXMXMXMXMXMXMXMXMXMXMXMXMXMXMXMXMXMXMXMXMXMXMXDXKXGXGXGXGXGXGXGXGXGXGXGXGXGXGXGXGXGXGXGXGXGXGXGXGXGXGXGXMXMXMXMXMXMXMXMXMXCXCXBXLXBXLXBXNXVXK H.H.H.H.H.H.H.H.D.D.D.D.r.r.r.t.t.t.e.<.<.2.| | | | |  .,.3.3.4.5.9.7.7.7.7.0.8.0.0.0.d.s.a.f.f.f.k.k.k.c.v.v.v.v.m.N.C.V.C.B.V.V.^.^.^.(.(./././././././.).).).).).).).`.`.).).)._._._.).).)._._._._._._._._._._._._.].].].].].].].].].].].].].].].].].].].].].].].[.[.[.].[.[.[.[.[.[.[.].].].].].].].].].].].].].].]._._.].].].].].]._._.].]._._._._._.`.).).).).).).)././././././.^.^.^.^.^.^.^.V.V.V.C.V.B.B.N.N.N.m.m.N.m.v.v.c.c.x.x.c.x.k.k.f.f.a.p.a.8.8.8.7.7.9.4.5.5.3.6.6.6.1.1.1.1.1.e.e.e.t.t.r.r.D.J.J.K.K.P..X.XVXBXMXAXAXAXAXMXMXMXMXMXMXMXMXMXMXMXMXMXMXMXMXAXMXMXDXKXGXGXGXGXGXGXGXGXGXGXGXGXGXGXGXGXGXGXGXGXGXGXGXGXGXGXGXDXMXDXMXMXMXMXMXMXMXMXMXMXMXMXMX",
"MXMXMXMXMXMXMXMXMXMXMXMXMXMXMXMXMXMXMXMXMXMXMXMXMXMXDXKXGXGXGXGXGXGXGXGXGXGXGXGXGXGXGXGXGXGXGXGXGXGXGXGXGXGXGXMXMXMXMXMXMXMXMXCXCXCXMXLXLXLXMXNXVXQ Y J.H.J.P.H.J.J.D.D.D.r.r.t.t.t.t.t.1.<.<.1.,.2.| | ,.,.,.,.3.3.5.5.5.5.7.7.0.8.0.0.0.d.f.a.g.f.k.l.x.x.b.v.M.v.v.m.N.B.B.V.B.V.^.^././././././././.).).).).).).).).).).).)._._._._._._._._.`._._._._._._._._._._._._.].].]._.].].].].].].].].].].].].].].].].[.[.[.[.[.[.[.[.[.[.[.[.[.[.[.[.[.[.].].].].].].].].].].].].].].].].]._.]._._.]._._._._._._.).).).).).).).).)./././././././.(./.(.(.(.^.^.B.B.B.B.m.M.M.M.m.c.M.M.b.c.k.k.k.k.k.k.k.j.j.j.j.s.d.0.8.0.q.q.q.q.5.5.3.3.,.,.1.1.1.1.t.t.e.t.t.t.r.r.D.J.K.I.I.XXXX.XVXBXNXAXAXLXAXMXMXMXMXMXMXMXMXMXMXMXMXMXMXMXMXMXMXMXDXKXGXGXGXGXGXGXGXGXGXGXGXGXGXGXGXGXGXGXGXGXGXGXGXGXGXGXGXDXMXDXMXMXMXMXMXMXMXMXMXMXMXMXMX",
"MXMXMXMXMXMXMXMXMXMXMXMXMXMXMXMXMXMXMXMXMXMXMXMXMXMXDXKXGXGXGXGXGXGXGXGXGXGXGXGXGXGXGXGXGXGXGXGXGXGXGXGXGXGXGXMXMXMXMXMXMXMXMXCXCXCXMXLXLXAXMXMXZXP.H J.H.J.P.H.J.F.F.D.D.r.r.t.t.t.t.t.1.<.X.1.2.2.2.2.,.,.,.,.3.5.5.7.7.7.7.q.0.8.p.p.i.a.f.a.j.k.l.c.c.c.b.v.v.c.v.m.N.N.B.B.V.^.^././././././././.).).).).).).).).).).).).)._._._._._._._._._._._._._._._._._._._.].].].].].].].].].].].].].].].].].].[.].[.[.[.[.[.[.[.[.[.[.[.[.[.[.[.[.[.[.[.[.[.[.[.[.[.].].].].].].].].].].].].].].].]._._._._._._.).).).).).).)././././././.)./././././.(.(.(.^.(.(.B.B.B.N.m.m.m.M.M.M.M.c.l.k.k.k.k.k.k.j.j.j.j.z.z.0.7.7.7.7.5.5.5.6.6.6.6.1.1.1.1.1.1.e.e.e.e.t.r.r.D.D.J.K.I.XXXXXX.XVXBXNXAXLXLXAXMXMXMXMXMXMXMXMXMXMXMXMXMXMXMXMXMXMXMXDXKXGXGXGXGXGXGXGXGXGXGXGXGXGXGXGXGXGXGXGXGXGXGXGXGXGXGXGXDXMXDXMXMXMXMXMXMXMXMXMXMXMXMXMX",
"MXMXMXMXMXMXMXMXMXMXMXMXMXMXMXMXMXMXMXMXMXMXMXMXMXMXDXKXGXGXGXGXGXGXGXGXGXGXGXGXGXGXGXGXGXGXGXGXGXGXGXGXGXGXGXMXMXMXMXMXMXMXMXCXCXCXCXAXAXAXCXCXZX.XL J.F.H.H.H.H.H.D.D.D.D.r.r.r.t.t.t.e.<.<.<.2.2.2.} ,.,.,.,.3.5.5.5.5.7.7.q.0.8.p.p.p.s.f.s.j.k.k.c.c.c.c.v.M.c.c.m.N.N.B.V.^.^./././.).).)./././.).).).).).).).).).).).).)._._._._._._._._._._._._._._._._._._._.].].].].].[.[.[.].].].].].[.[.[.[.[.[.[.[.[.[.[.[.[.[.[.[.[.[.[.[.[.[.[.[.[.[.[.[.[.[.[.[.[.[.].].].].].].].].].].].].].]._._._._._._._.).).).).).)././././././././././.(.(.(.(.^.(.(.(.V.V.C.C.N.C.N.N.v.m.n.b.x.x.l.k.l.k.j.j.s.s.s.d.d.d.q.q.q.w.6.6.6.,.,.,.,.1.1.1.1.<.e.e.t.t.t.r.r.D.D.F.F.J.J.P.P.XX.XVXMXNXAXAXLXAXMXMXMXMXMXMXMXMXMXMXMXMXMXMXMXMXMXMXMXDXKXGXGXGXGXGXGXGXGXGXGXGXGXGXGXGXGXGXGXGXGXGXGXGXGXGXGXGXMXMXMXMXMXMXMXMXMXMXMXMXMXMXMXMX",
"MXMXMXMXMXMXMXMXMXMXMXMXMXMXMXMXMXMXMXMXMXMXMXMXMXMXDXKXGXGXGXGXGXGXGXGXGXGXGXGXGXGXGXGXGXGXGXGXGXGXGXGXGXGXGXMXMXMXMXMXMXMXMXCXCXCXCXAXAXAXCXCXVX.XH J.J.J.P.J.J.D.D.D.D.r.r.r.r.t.t.t.e.<.<.<.2.} } } | ,.,.,.3.5.5.5.5.5.7.q.p.i.p.p.p.s.g.f.f.f.k.c.c.c.c.c.M.c.c.m.C.N.B.^.^.^././.).).).).).).).).)._.)._.).).).).).).).)._._.`.`._.`._._._._._.`._._.`._._._.].].].].].].[.[.].].].].].].[.[.[.[.[.[.[.[.[.[.[.[.[.[.[.[.[.[.[.[.[.[.[.[.[.[.[.[.[.[.[.[.[.[.[.[.].].].].].].].].].].].]._._._._._.`._.).).).`.)./././././././././.(.(.(.(.(.^.^.^.^.B.V.C.C.N.n.N.n.n.v.v.v.x.x.k.k.k.k.k.j.j.j.z.z.z.z.0.7.5.5.6.6.6.6.w.1.1.1.1.1.e.e.t.t.t.t.e.N e.N N N N D.F.J.P.P..X.XVXMXNXLXAXAXAXMXMXMXMXMXMXMXMXMXMXMXMXMXMXMXMXMXMXMXDXKXGXGXGXGXGXGXGXGXGXGXGXGXGXGXGXGXGXGXGXGXGXGXGXGXGXGXGXMXMXDXMXMXMXMXMXMXMXMXMXMXMXMXMX",
"MXMXMXMXMXMXMXMXMXMXMXMXMXMXMXMXMXMXMXMXMXMXMXMXMXMXDXKXGXGXGXGXGXGXGXGXGXGXGXGXGXGXGXGXGXGXGXGXGXGXGXGXGXGXGXMXMXMXMXMXMXMXMXCXCXCXMXAXAXAXCXCXVXP.J.U.K.U.I.J.J.J.F.D.F.r.r.t.t.t.t.t.e.<.<.1......... . .6.3.6.5.5.5.7.7.7.8.p.i.p.a.i.f.g.f.f.f.k.x.c.c.c.c.M.c.c.M.N.m.N.B.B.(.(./.).).).).).).).).).).).).).).).).).).).)._._._._._._._._._._._._.)._._._._._._._.].].].].].].].].].].].].[.[.[.[.[.[.[.[.[.[.[.[.[.[.[.[.[.[.[.[.[.[.[.[.[.[.[.[.[.[.[.[.[.[.[.[.[.].].].].].].].].].].].]._.).).).).).).).).).`././././././././././.^.^.^.^.^.^.^.V.^.V.C.C.B.B.B.N.m.m.c.c.c.l.l.l.l.k.k.k.k.l.l.z.z.d.d.q.q.q.w.w.w.w.1.t.t.e.<.<.X.f f f x d d x x x c c N H D.J.P.I..X.XVXMXNXDXAXAXAXMXMXMXMXMXMXMXMXMXMXMXMXMXMXMXMXMXMXMXDXKXGXGXGXGXGXGXGXGXGXGXGXGXGXGXGXGXGXGXGXGXGXGXGXGXGXGXGXDXMXDXMXMXMXMXMXMXMXMXMXMXMXMXMX",
"MXMXMXMXMXMXMXMXMXMXMXMXMXMXMXMXMXMXMXMXMXMXMXMXMXMXDXKXGXGXGXGXGXGXGXGXGXGXGXGXGXGXGXGXGXGXGXGXGXGXGXGXGXGXGXMXMXMXMXMXMXMXMXMXMXCXAXAXAXAXCXCXVXI.I.K.Q.K.I.U.K.K.K.G.G.G.G.y.y.y.y.y.1.X.X.X.+.+.+.+.+.+.+.6.w.w.w.w.9.8.q.h.i.i.i.i.i.f.g.g.g.g.k.b.b.c.b.v.b.k.k.b.m.v.m.B.B.B.(./.).)._._.).).).).).).).).).).).).).).).)._._._._._._._.).)._._._.).).)._._._._._._.].].]._.].].].].].].[.].].].].[.[.[.[.[.[.[.[.[.[.[.[.[.[.[.[.].[.[.[.[.[.[.[.[.[.[.[.[.[.[.[.].].].].].].].].].]._._._.).`.`.).).).).`.).).).(.(.(.(././././././.'.'.(.(.(.'.'.Z.Z.'.'.'.'.'.'.'.Z.Z.Z.Z.Z.Z.Z.Z.Z.A.A.A.A.A.h.w.w.w.,.| } } { a a p p 7 7 7 7 7 7 7 7 i i j j x c c M N L D.F.J.P.P.P..XmXMXLXMXAXMXAXMXMXMXMXMXMXMXMXMXMXMXMXMXMXMXMXMXMXMXDXKXGXGXGXGXGXGXGXGXGXGXGXGXGXGXGXGXGXGXGXGXGXGXGXGXGXGXGXDXMXDXMXMXMXMXMXMXMXMXMXMXMXMXMX",
"MXMXMXMXMXMXMXMXMXMXMXMXMXMXMXMXMXMXMXMXMXMXMXMXMXMXDXKXGXGXGXGXGXGXGXGXGXGXGXGXGXGXGXGXGXGXGXGXGXGXGXGXGXGXGXMXMXMXMXMXMXMXMXMXMXMXLXLXAXAXMXBXVXXXI.W.G.Q.K.K.W.R.R.R.G.G.G.y.y.y.y.=.=.-.-.-.+.+.+.+.+.+.+.+.+.+.+.+.+.+.+.+.h.h.h.h.h.h.A.A.A.A.Z.Z.Z.Z.Z.Z.Z.Z.Z.Z.Z.Z.Z.'.'.'.'.'.`.`.{.`._._._._._.)._._._._._.).).)._._.].]._._._.`.).).`.`.).).).).).)._._.`.`.`.`._._._._.].].].]._._.].].].].].].].].[.[.[.].].[.[.[.].[.[.[.[.[.[.[.[.[.[.[.[.[.[.[.[.[.[.[.[.[.[.[.[.].].].[.[.].].[.[.[.[.[.[.[.[.{.{.{.{.{.{.`.{.}.}.}.}.}.}.}.}.}.}.}.}.}.Z.Z.Z.A.A.A.u.u.u.w.w.,.2.} { s a a a 7 7 7 7 7 6 6 4 6 6 6 6 6 6 4 6 6 7 7 7 7 i i i i j k k k k z c c M L H F.J.U.P.P..XVXBXMXMXDXAXAXMXMXMXMXMXMXMXMXMXMXMXMXMXMXMXMXMXMXMXDXKXGXGXGXGXGXGXGXGXGXGXGXGXGXGXGXGXGXGXGXGXGXGXGXGXGXGXGXDXMXDXMXMXMXMXMXMXMXMXMXMXMXMXMX",
"MXMXMXMXMXMXMXMXMXMXMXMXMXMXMXMXMXMXMXMXMXMXMXMXMXMXLXKXGXGXGXGXGXGXGXGXGXGXGXGXGXGXGXGXGXGXGXGXGXGXGXGXGXGXGXMXMXMXMXMXMXMXMXMXMXBXLXLXAXAXMXVXVXXXK.W.R.W.W.W.R.E.E.T.T.Y.Y.;.;.;.;.;.=.*.*.*.*.*.#.#.#.#.#.[ [ [ [ [ [ [ [ [ [ [ [ [ [ +.+.+.+.+.+.+.+.+.+.9.i.i.i.a.h.g.g.b.b.Z.Z.Z.Z.'.}.}.}.'.'.'.'.'.'.'.'.'.'.}.}.|.|.|.{.{.{.{.{.{.|.|.|.|.|.|.|.|.|.|.|.|.|.|.|.|.|.|.|.|.|.|.|.|.|.|.|.|.|.|.|.|.|.|.|.|.|.|.|.|.|.|.|.|.|.|.|.|.|.|.|.|.|.|.|.|.|.|.|.|.|.|.|.|.|.|.|.|.|.|.|.|.}.'.}.}.'.'.'.'.'.'.z.z.z.z.z.d.d.d.7.9.4.O. ...o.o.a a t t t t t q 5 5 5 5 4 5 4 4 4 4 4 4 4 4 4 4 6 6 6 6 8 8 8 8 = = = : : : h 8 8 8 8 i u u u j j j j k z z z z z L L H F.J.P.P.P..XVXBXNXMXDXAXAXMXMXMXMXMXMXMXMXMXMXMXMXMXMXMXMXMXMXMXDXKXGXGXGXGXGXGXGXGXGXGXGXGXGXGXGXGXGXGXGXGXGXGXGXGXGXGXGXDXMXDXMXMXMXMXMXMXMXMXMXMXMXMXMX",
"MXMXMXMXMXMXMXMXMXMXMXMXMXMXMXMXMXMXMXMXMXMXMXMXMXMXDXKXGXGXGXGXGXGXGXGXGXGXGXGXGXGXGXGXGXGXGXGXGXGXGXGXGXGXGXMXMXMXMXMXMXMXMXMXBXBXBXLXAXMXMXVXmXXXK.R.T.W.W.R.E.E.E.T.Y.Y.Y.;.;.;.;.;.:.:.*.*.*.*.*.$.$.$.$.$.$.$.$.[ [ [ [ [ [ [ [ [ [ [ [ [ ] [ [ [ [ [ [ [ ] ] [ [ [ [ +.+.+.+.+.+.+.+.w.h.+.w.w.w.w.w.w.w.+.w.w.w.w.w.9.+.9.9.+.+.+.+.+.+.w.w.w.w.w.h.h.h.h.w.h.h.h.h.h.h.h.h.h.h.h.h.h.h.h.h.h.h.h.h.h.h.h.h.h.q.w.q.q.q.q.q.w.q.w.6.4.4.O.4.O.O.O.O. . .......o.o.o.o.o.o.o.o.a w w w q q q q q q q q q q q 5 5 5 5 5 5 5 5 5 5 5 5 5 5 5 5 5 5 5 5 5 5 5 5 5 5 7 7 7 6 0 0 0 0 8 8 8 8 8 6 6 6 8 8 8 8 8 8 8 8 8 8 8 u 8 8 8 u u h h h h h j z k z z z M L L H F.J.P.P.P..XVXBXMXMXLXMXAXMXMXMXMXMXMXMXMXMXMXMXMXMXMXMXMXMXMXMXDXKXGXGXGXGXGXGXGXGXGXGXGXGXGXGXGXGXGXGXGXGXGXGXGXGXGXGXGXMXMXMXMXMXMXMXMXMXMXMXMXMXMXMXMX",
"MXMXMXMXMXMXMXMXMXMXMXMXMXMXMXMXMXMXMXMXMXMXMXMXMXMXDXKXGXGXGXGXGXGXGXGXGXGXGXGXGXGXGXGXGXGXGXGXGXGXGXGXGXGXGXMXMXMXMXMXMXMXMXMXBXBXBXLXAXMXMXVXmX0XR.T.T.E.R.R.E.E.T.T.Y.Y.Y.;.;.;.;.;.:.:.*.*.*.*.*.$.$.$.$.$.$.%.%.%.$.$.$.%.%.$.$.$.$.$.$.$.$.$.$.$.$.$.$.$.*.*.*.*.*.*.:.;.;.;.;.;.;.;.Y.Y.T.E.E.E.E.E.!.!.W.W.E.E.E.T.Y.Y.=.=.-.-.+.#.#.#.] ] ] ] ] ] ` ` ` ` ` ` ` ` ` ` ` ` ` ` ` ` ` ` ` ` ` ` ` ` ` ` ` ` ` w w w w w ` ` w w w w w w w w w w w w w w w w w q q q q q w w w w w w w q q q q q e t t t e e e e t t t e e e e e 9 9 t 9 0 0 0 0 0 0 0 0 0 0 0 0 0 0 0 8 0 4 0 4 8 8 8 4 8 8 8 8 8 8 8 8 8 8 8 8 8 8 8 8 8 8 h h h h h h h h j z k z z z M M L H F.J.U.P.P..XVXBXNXMXLXMXAXMXMXMXMXMXMXMXMXMXMXMXMXMXMXMXMXMXMXMXDXKXGXGXGXGXGXGXGXGXGXGXGXGXGXGXGXGXGXGXGXGXGXGXGXGXGXGXGXMXMXMXMXMXMXMXMXMXMXMXMXMXMXMXMX",
"MXMXMXMXMXMXMXMXMXMXMXMXMXMXMXMXMXMXMXMXMXMXMXMXMXMXDXKXGXGXGXGXGXGXGXGXGXGXGXGXGXGXGXGXGXGXGXGXGXGXGXGXGXGXGXMXMXMXMXMXMXMXMXMXBXBXLXAXLXLXMXVXmX0XG.T.Y.E.E.R.T.T.T.T.T.Y.Y.Y.;.;.;.=.=.=.*.*.*.$.$.$.$.$.$.$.%.%.%.%.%.%.%.%.%.%.%.%.%.$.%.%.%.%.$.$.$.$.$.$.$.$.$.*.*.*.*.*.:.:.;.;.;.Y.Y.T.Y.E.E.E.E.E.E.E.E.W.E.E.E.E.T.Y.Y.Y.=.=.-.-.-.-.-.-.-.#.#.#.#.[ [ [ [ [ [ ] ] ] ] ] ] ] ] ] ] ] ] ] ] ` ` ` ` ` ` ` ` ` ` ` ` ` ` ` ' ' ` ` ` ` w w w w w w r r r r r r r r r r r r r r r r r r e e e e e e e e e e e e e e e 0 0 0 0 0 5 5 5 4 9 9 9 9 9 9 8 9 0 0 0 0 9 9 0 0 0 0 0 9 8 8 8 8 8 8 8 8 8 8 8 8 8 8 8 8 8 8 8 8 8 8 u h h h h h h h z k k z z z M M L H F.J.P.P.P..XVXBXNXMXLXMXAXMXMXMXMXMXMXMXMXMXMXMXMXMXMXMXMXMXMXMXDXKXGXGXGXGXGXGXGXGXGXGXGXGXGXGXGXGXGXGXGXGXGXGXGXGXGXGXGXDXMXDXMXMXMXMXMXMXMXMXMXMXMXMXMX",
"MXMXMXMXMXMXMXMXMXMXMXMXMXMXMXMXMXMXMXMXMXMXMXMXMXMXDXKXGXGXGXGXGXGXGXGXGXGXGXGXGXGXGXGXGXGXGXGXGXGXGXGXGXGXGXMXMXMXMXMXMXMXMXMXBXBXAXAXAXCXCXVXmX0XG.Y.Y.E.T.T.T.T.T.T.Y.Y.Y.Y.;.;.;.=.=.*.*.*.*.*.$.$.$.$.$.$.$.$.$.%.%.%.%.$.%.$.$.$.%.$.$.$.%.%.%.%.$.$.$.$.$.$.$.*.*.*.:.:.:.:.:.;.;.;.Y.T.E.E.E.E.E.E.E.E.E.E.E.E.E.T.Y.Y.Y.;.=.=.-.-.-.-.#.#.#.#.[ [ ] [ [ [ [ ] ] ] ] ] ] ` ] ] ] ` ] ] ] ] ` ` ` ` ` ` ' ` ` ` ` ` ` ` ` ` ` ` w w w w ` ' ' ' ' r r r r r r r r r r r r r e e r r e e e e e e e e e e e e e e e e 0 0 5 5 0 0 9 9 9 9 0 0 6 6 0 0 0 6 0 0 0 0 0 0 0 0 0 0 0 8 8 8 8 8 8 = = 8 8 8 8 8 8 8 8 8 8 8 8 8 8 8 u u u u h h j j j k k k k c M M L H F.J.P.P.P..XVXBXNXMXLXMXAXMXMXMXMXMXMXMXMXMXMXMXMXMXMXMXMXMXMXMXDXKXGXGXGXGXGXGXGXGXGXGXGXGXGXGXGXGXGXGXGXGXGXGXGXGXGXGXGXDXMXDXMXMXMXMXMXMXMXMXMXMXMXMXMX",
"MXMXMXMXMXMXMXMXMXMXMXMXMXMXMXMXMXMXMXMXMXMXMXMXMXMXDXKXGXGXGXGXGXGXGXGXGXGXGXGXGXGXGXGXGXGXGXGXGXGXGXGXGXGXGXMXMXMXMXMXMXMXMXMXMXMXAXAXAXCXCXVXmX0XG.Y.Y.Y.T.T.T.T.Y.Y.Y.Y.Y.Y.~.;.;.;.:.:.*.*.:.:.*.$.$.$.$.$.$.$.$.%.%.%.%.%.$.[ [ [ [ [ $.$.$.$.$.$.$.$.$.*.$.*.*.*.*.*.*.*.;.;.;.;.;.Y.Y.Y.E.E.E.E.E.E.E.E.W.W.E.E.E.T.Y.Y.Y.;.=.=.-.-.*.*.#.#.#.#.#.[ [ #.] ] ] ] ] ] ] ] ` ` ` ` ` ` ` ` ` ` ` ` ` ` ` ` ` ` ` ` ` ` ` ` ` ` ` ` ` ` ` ` w w w w w w w w w w w w w w w w w e e e e e e e q q e e e e e e q q q e e 5 e e e 0 5 5 5 5 5 5 9 0 0 0 0 9 0 0 0 0 0 6 6 4 $ $ 8 8 8 & & & & - 8 8 = 8 8 = = = = = 8 8 8 8 8 8 8 8 u u u u h j j j k k k k x c M M L H F.J.P.P.P..XVXBXNXMXLXMXAXMXMXMXMXMXMXMXMXMXMXMXMXMXMXMXMXMXMXMXDXKXGXGXGXGXGXGXGXGXGXGXGXGXGXGXGXGXGXGXGXGXGXGXGXGXGXGXGXDXMXDXMXMXMXMXMXMXMXMXMXMXMXMXMX",
"MXMXMXMXMXMXMXMXMXMXMXMXMXMXMXMXMXMXMXMXMXMXMXMXMXMXDXKXGXGXGXGXGXGXGXGXGXGXGXGXGXGXGXGXGXGXGXGXGXGXGXGXGXGXGXMXMXMXMXMXMXMXMXMXMXMXAXAXAXAXCXVXmX0XG.Y.Y.Y.Y.Y.Y.Y.Y.Y.Y.Y.Y.Y.~.;.;.;.:.:.:.:.*.*.*.$.$.$.$.$.$.$.$.$.$.$.$.$.[ [ [ [ [ [ $.$.[ $.$.$.$.$.$.$.$.$.*.*.*.*.*.:.;.;.;.~.~.Y.E.E.E.E.E.E.W.E.W.W.E.E.E.E.E.T.Y.Y.Y.;.=.=.-.-.-.*.#.#.#.#.[ [ [ [ [ [ ] ] ] ] ] ] ] ` ` ` ` ` ` ` ' ` ' ` ' ` ' ` ' ` ' ` ` ` ` ` ` ` ` ` ` ` ` ` ` ` ` r r r r w w w w w w w r e q q q q e e e e e q q q q e e e e e e 5 5 5 5 e 5 0 0 0 0 0 0 9 0 0 0 4 0 0 0 0 6 6 6 8 8 8 8 & & & & & $ & = 8 = = = = = 8 8 8 8 8 8 8 8 8 8 8 8 8 u u u u j j j j j k k k x c M M L H F.J.P.P.P.#XVXBXNXMXAXMXAXMXMXMXMXMXMXMXMXMXMXMXMXMXMXMXMXMXMXMXDXKXGXGXGXGXGXGXGXGXGXGXGXGXGXGXGXGXGXGXGXGXGXGXGXGXGXGXGXDXMXDXMXMXMXMXMXMXMXMXMXMXMXMXMX",
"MXMXMXMXMXMXMXMXMXMXMXMXMXMXMXMXMXMXMXMXMXMXMXMXMXMXDXKXGXGXGXGXGXGXGXGXGXGXGXGXGXGXGXGXGXGXGXGXGXGXGXGXGXGXGXMXMXMXMXMXMXMXMXMXMXMXAXAXAXAXMXVXmX0XG.Y.Y.Y.Y.T.T.Y.T.Y.Y.Y.Y.Y.;.;.;.;.;.:.*.*.*.*.*.$.$.$.$.$.$.$.$.$.$.$.$.$.[ [ [ [ [ [ [ $.[ $.$.$.$.$.$.$.$.$.*.*.*.*.*.:.;.;.;.;.;.Y.Y.T.E.T.E.W.W.W.W.W.E.E.E.E.E.E.E.Y.Y.y.=.=.-.-.*.-.#.#.#.#.[ ] [ [ ] ] ] ] ] ] ] ] ] ] ' ' ' ' ' ' ' ' ' ] ' ' ' ' ' ' ' ' ' ' ' ' ' ' ' r r ' ' ' ' w w w w w w w r r r r r r r e q q e e e e e q e e e e e e e e t e 0 e e 0 0 9 0 0 0 9 9 0 0 0 0 0 0 0 0 0 0 0 8 8 8 8 6 8 8 8 4 4 4 4 4 8 8 8 8 8 8 8 8 8 8 8 8 8 8 8 8 8 8 8 8 8 u u u u j j j j j k k x c c M L L H D.J.P.P.P.%XVXNXBXBXLXAXAXMXMXMXMXMXMXMXMXMXMXMXMXMXMXMXMXMXMXMXDXKXGXGXGXGXGXGXGXGXGXGXGXGXGXGXGXGXGXGXGXGXGXGXGXGXGXGXGXDXMXDXMXMXMXMXMXMXMXMXMXMXMXMXMX",
"MXMXMXMXMXMXMXMXMXMXMXMXMXMXMXMXMXMXMXMXMXMXMXMXMXMXDXKXGXGXGXGXGXGXGXGXGXGXGXGXGXGXGXGXGXGXGXGXGXGXGXGXGXGXGXMXMXMXMXMXMXMXMXMXMXMXMXAXAXAXBXVXmX0XG.Y.Y.Y.Y.Y.Y.T.Y.Y.Y.Y.Y.Y.;.;.;.;.;.*.*.*.*.*.*.*.$.$.$.$.$.$.$.$.$.$.$.$.[ [ %.%.%.$.%.$.$.$.$.$.$.$.$.$.$.$.*.*.*.*.*.=.;.;.;.;.;.Y.Y.T.T.T.E.W.R.W.W.W.W.W.E.E.E.E.E.Y.Y.;.=.=.-.-.-.-.#.#.#.#.#.#.] ] ] ] ] ] ] ] ] ] ] ] ' ' ' ' ' ' ] ] ] ] ' ' ' ' ' ' ' ' ' ' ' ' ' ' ' ' ' w r w w w r w ' ' ' ' w w r w r w r e e e e e e e e e e e e e e e e t e e 0 0 0 0 0 0 9 0 0 0 0 0 0 0 0 0 0 0 0 0 0 0 6 8 4 4 4 4 4 4 4 4 4 4 8 4 8 8 8 8 8 8 8 8 8 8 8 8 8 8 8 8 8 8 8 8 8 u u h j j j j j k k k c c M L L H D.J.P.P.P.%XVXNXBXLXLXAXAXMXMXMXMXMXMXMXMXMXMXMXMXMXMXMXMXMXMXMXDXKXGXGXGXGXGXGXGXGXGXGXGXGXGXGXGXGXGXGXGXGXGXGXGXGXGXGXGXDXMXDXMXMXMXMXMXMXMXMXMXMXMXMXMX",
"MXMXMXMXMXMXMXMXMXMXMXMXMXMXMXMXMXMXMXMXMXMXMXMXMXMXDXKXGXGXGXGXGXGXGXGXGXGXGXGXGXGXGXGXGXGXGXGXGXGXGXGXGXGXGXMXMXMXMXMXMXMXMXMXMXMXMXAXAXAXBXVXmX0XG.Y.Y.Y.Y.Y.Y.T.T.T.Y.Y.Y.Y.;.;.;.;.;.*.*.*.:.*.*.$.$.$.$.$.$.$.$.$.%.%.%.$.%.[ [ [ %.$.$.$.$.$.$.$.$.$.$.$.$.$.*.*.*.*.*.*.;.;.;.;.;.Y.Y.T.E.E.R.R.W.W.W.W.W.W.W.W.R.E.T.T.Y.~.;.=.=.-.-.-.#.#.#.#.#.] ] ] ] [ ] ] ] ] ] ] ] ] ] ] ] ' ' ' ' ' ' ' ' ' ] ] ` ` ` ` ` ' ' ' ` ` ` ` w w r r ' w w w w w w w r r r r r e r e q q q q q q q q e e e e e e e e e e e e e e 0 e 0 0 5 0 0 5 0 9 0 0 0 0 0 0 0 0 0 0 0 0 6 6 6 6 4 4 8 8 8 8 = & 8 & 8 8 8 8 8 8 8 8 = = 8 8 8 8 8 8 u u u h h j j j j k k k k z M L L H F.J.P.P.P.%XVXCXBXBXLXMXAXMXMXMXMXMXMXMXMXMXMXMXMXMXMXMXMXMXMXMXDXKXGXGXGXGXGXGXGXGXGXGXGXGXGXGXGXGXGXGXGXGXGXGXGXGXGXGXGXDXMXDXMXMXMXMXMXMXMXMXMXMXMXMXMX",
"MXMXMXMXMXMXMXMXMXMXMXMXMXMXMXMXMXMXMXMXMXMXMXMXMXMXDXKXGXGXGXGXGXGXGXGXGXGXGXGXGXGXGXGXGXGXGXGXGXGXGXGXGXGXGXMXMXMXMXMXMXMXMXMXMXMXMXAXAXAXBXVXmX0XG.Y.Y.Y.Y.Y.Y.T.T.T.Y.Y.Y.Y.;.;.;.;.;.*.*.*.:.*.*.$.$.$.$.$.$.$.$.$.%.%.%.%.%.%.[ [ $.$.$.$.$.$.$.$.$.$.$.$.$.$.*.*.*.*.*.*.;.;.;.;.;.Y.Y.T.T.E.E.W.E.E.W.W.W.W.W.W.R.R.T.T.Y.~.;.=.=.*.-.#.#.#.#.#.#.@.@.] [ ] ] ] ] ] ] ] ] ] ] ] ] ' ' ' ] ` ' ` ` ` ` ` ' ` ' ` ` ` w w w w ` ` ` ' ' ' w w w r r r r r w w w w q q q q r w w r e e e e e e e e e e e e e e e e e e 5 5 9 0 0 0 0 5 5 0 0 0 0 0 0 0 0 0 4 0 0 4 4 0 0 6 4 8 8 8 = = = = & & & 8 8 8 8 8 = = = = = = 8 8 8 8 u u h h h j j j j j k k k z M L L H F.J.P.P.P.%XVXCXBXMXAXMXAXMXMXMXMXMXMXMXMXMXMXMXMXMXMXMXMXMXMXMXDXKXGXGXGXGXGXGXGXGXGXGXGXGXGXGXGXGXGXGXGXGXGXGXGXGXGXGXGXDXMXDXMXMXMXMXMXMXMXMXMXMXMXMXMX",
"MXMXMXMXMXMXMXMXMXMXMXMXMXMXMXMXMXMXMXMXMXMXMXMXMXMXDXKXGXGXGXGXGXGXGXGXGXGXGXGXGXGXGXGXGXGXGXGXGXGXGXGXGXGXGXMXMXMXMXMXMXMXMXMXMXMXMXAXAXAXBXVXmX0XR.Y.T.T.Y.Y.Y.Y.Y.T.Y.Y.Y.;.;.;.;.;.:.*.*.*.:.*.$.$.$.$.$.$.$.$.$.$.%.$.$.$.%.%.$.$.%.%.%.$.$.$.$.$.$.$.$.$.$.$.*.*.*.*.*.:.;.;.;.;.;.Y.Y.Y.E.E.E.E.!.E.E.!.W.W.E.W.E.E.R.Y.Y.~.;.=.=.*.-.*.#.#.#.#.#.#.#.#.#.[ ] ] ] ] ] ] ' ' ' ' ' ' ' ' ' ` ' ` ' ` ` ` ` ` ` ` ` ` ` ` ' ' ` ' ` ` ` ` ' ' ` r r r w w r r r r r r r r r r r r e e e e q q e e e t t t e e 5 5 5 5 5 5 e 0 0 9 0 0 5 5 5 0 0 0 0 0 5 5 0 0 0 0 4 4 4 0 6 4 8 8 4 8 & & & & 8 8 8 = = = = = = = = = = 8 8 8 8 u u h h h j j j j k k k z c L L H H.J.P.P.P.%XVXCXBXMXAXMXAXMXMXMXMXMXMXMXMXMXMXMXMXMXMXMXMXMXMXMXLXKXGXGXGXGXGXGXGXGXGXGXGXGXGXGXGXGXGXGXGXGXGXGXGXGXGXGXGXMXMXDXMXMXMXMXMXMXMXMXMXMXMXMXMX",
"MXMXMXMXMXMXMXMXMXMXMXMXMXMXMXMXMXMXMXMXMXMXMXMXMXMXDXKXGXGXGXGXGXGXGXGXGXGXGXGXGXGXGXGXGXGXGXGXGXGXGXGXGXGXGXMXMXMXMXMXMXMXMXMXMXMXMXAXAXAXBXVXmX0XR.Y.Y.T.Y.Y.Y.Y.Y.Y.Y.Y.Y.;.;.;.;.;.:.*.*.*.*.*.$.$.$.$.$.$.$.$.$.$.%.%.$.%.$.%.$.$.%.%.$.$.$.$.$.$.$.$.$.$.$.$.*.*.*.*.*.:.;.;.;.;.~.Y.Y.Y.E.E.E.!.!.!.!.!.!.!.E.E.E.E.E.Y.Y.;.=.=.=.-.-.-.#.#.#.#.#.#.#.#.#.] ] ] ] ] ] ] ] ] ' ] ] ] ] ' ` ` ` ` ` ` ` ' ' ` w w w r r r w w w w w w w w w q q q q q q q q q q q q 5 5 5 q q q q 5 5 5 5 e 9 9 5 5 5 5 5 5 9 9 9 9 9 t 9 5 5 0 0 0 0 0 9 9 9 9 9 0 0 0 0 0 0 0 0 0 4 4 0 6 4 4 8 4 8 & & & & 8 8 8 = = = = = = = = = = 8 8 8 8 u u h h h j j j j k k k z c M L D.H.J.P.P.P.%XVXCXBXMXMXMXAXMXMXMXMXMXMXMXMXMXMXMXMXMXMXMXMXMXMXMXLXKXGXGXGXGXGXGXGXGXGXGXGXGXGXGXGXGXGXGXGXGXGXGXGXGXGXGXGXMXMXDXMXMXMXMXMXMXMXMXMXMXMXMXMX",
"MXMXMXMXMXMXMXMXMXMXMXMXMXMXMXMXMXMXMXMXMXMXMXMXMXMXDXKXGXGXGXGXGXGXGXGXGXGXGXGXGXGXGXGXGXGXGXGXGXGXGXGXGXGXGXMXMXMXMXMXMXMXMXMXMXMXMXAXAXAXBXVXmX0XR.Y.T.T.Y.Y.Y.T.Y.Y.Y.Y.Y.Y.;.;.;.;.:.*.*.*.*.*.$.$.$.$.$.$.$.$.$.$.$.$.$.$.$.$.%.%.%.%.$.$.$.$.$.$.$.$.$.$.$.$.*.*.*.*.*.:.;.;.;.Y.Y.Y.Y.Y.E.E.E.!.E.E.E.E.E.E.E.E.E.E.E.T.G.G.y.-.-.-.-.-.#.#.#.#.#.#.#.#.] ] ] ] ] ] ] ] ] ] ] ] ] ] ] ] ] ] ] ' ` w ' ' w w w w w q q q 5 0 9 9 v v v v c c c c N D.D.F.D.D.F.F.D.D.H H N N N N M c c c v v v 9 9 9 9 0 4 4 4 4 4 4 4 $ 0 4 4 0 0 4 0 9 0 0 0 0 0 0 0 0 0 0 0 0 0 0 0 8 4 6 6 4 6 4 8 8 = 8 8 8 8 = = = = = = = = = 8 8 8 8 8 u u u h h j j j k k k k x c M L H F.J.P.P.P.%XVXNXBXMXMXMXAXMXMXMXMXMXMXMXMXMXMXMXMXMXMXMXMXMXMXMXLXKXGXGXGXGXGXGXGXGXGXGXGXGXGXGXGXGXGXGXGXGXGXGXGXGXGXGXGXMXMXDXMXMXMXMXMXMXMXMXMXMXMXMXMX",
"MXMXMXMXMXMXMXMXMXMXMXMXMXMXMXMXMXMXMXMXMXMXMXMXMXMXDXKXGXGXGXGXGXGXGXGXGXGXGXGXGXGXGXGXGXGXGXGXGXGXGXGXGXGXGXMXMXMXMXMXMXMXMXMXMXMXMXAXAXAXBXBXVX0XR.E.T.T.T.Y.Y.T.Y.Y.Y.Y.Y.Y.;.;.;.;.;.:.*.*.*.*.*.$.$.$.$.$.$.$.$.$.$.$.$.$.$.$.%.%.%.%.$.$.$.$.$.$.$.$.$.$.$.$.*.*.*.*.*.=.;.;.;.Y.Y.Y.Y.T.E.E.E.W.W.W.W.W.W.W.W.E.E.E.T.T.G.G.y.=.-.-.-.-.#.#.#.#.#.#.#.@.@.@.] ] ] ] ] ] ' ' ' ' ' ' ` w q q e t t v &.S.&.F.U.I.Q.XX0X0X0X0X,X,XeXeXeXeXeXeXeXeXeX,X,X,X,XeXeXeX,X,X,X,X,X,X,X,X,X,X;X;X;X;X;X;XXXXXI.I.P.U.J.H.D.L M c j u 8 8 $ $ $ $ $ $ 6 6 8 8 8 0 8 8 0 0 8 8 8 8 6 6 6 6 6 6 8 8 8 8 8 8 = = 8 = 8 8 8 8 8 8 8 8 8 8 8 u u u h h j j j k k k k x c M L H F.J.P.P.P.%XVXNXBXMXMXMXAXMXMXMXMXMXMXMXMXMXMXMXMXMXMXMXMXMXMXMXDXKXGXGXGXGXGXGXGXGXGXGXGXGXGXGXGXGXGXGXGXGXGXGXGXGXGXGXGXMXMXDXMXMXMXMXMXMXMXMXMXMXMXMXMX",
"MXMXMXMXMXMXMXMXMXMXMXMXMXMXMXMXMXMXMXMXMXMXMXMXLXMXDXKXGXGXGXGXGXGXGXGXGXGXGXGXGXGXGXGXGXGXGXGXGXGXGXGXGXGXKXMXMXMXMXMXMXMXMXMXMXMXMXAXAXAXBXVXmX0XR.E.E.T.Y.E.Y.Y.Y.Y.Y.Y.Y.;.;.;.;.;.;.:.:.*.*.*.*.*.$.$.$.$.$.$.$.$.$.$.$.%.%.%.%.%.%.%.$.$.[ $.$.$.$.$.$.$.$.$.*.*.*.*.*.=.;.;.;.Y.Y.Y.Y.T.T.T.R.W.W.W.W.W.W.W.W.E.E.E.T.Y.Y.y.=.=.=.=.-.#.#.#.#.#.@.#.@.#.#.#.] ] ' r w w q t t c t.D.F.I.I.0XeXeXeXeXeXeXeXeXeXeXeXeXeXeXeXeXeXeXeXwXwXqXeXqXiXqX5X5X5X5X1X1X1X1X1X1X<X:X:X:X>X>X:X:X:X>X,X;X,X,X,X;X;X;X;X;X;X;X;X;X;X;X.XP.P.P.P.H.H L z k h 8 & $ $ $ $ $ & 8 8 8 8 4 4 4 4 4 8 8 8 8 8 8 8 8 8 8 8 8 8 8 = = = 8 8 8 8 8 8 8 h j h h j j j j z k c c M M L H F.J.P.P.P.-XVXNXLXMXAXMXAXMXMXMXMXMXMXMXMXMXMXMXMXMXMXMXMXMXMXMXMXKXGXGXGXGXGXGXGXGXGXGXGXGXGXGXGXGXGXGXGXGXGXGXGXGXGXGXGXKXMXMXMXDXMXMXMXMXMXMXMXMXMXMXMX",
"MXMXMXMXMXMXMXMXMXMXMXMXMXMXMXMXMXMXMXMXMXMXMXMXMXMXDXKXGXGXGXGXGXGXGXGXGXGXGXGXGXGXGXGXGXGXGXGXGXGXGXGXGXGXKXKXMXMXMXMXMXMXMXMXMXMXMXAXAXAXBXVXVX0XR.E.T.Y.Y.Y.Y.Y.Y.Y.Y.Y.Y.;.;.;.;.;.;.:.:.*.*.*.*.*.$.$.$.$.$.$.$.$.$.$.$.%.%.%.$.$.$.$.$.$.$.$.$.$.$.$.$.$.$.*.*.*.*.*.*.=.;.;.Y.Y.Y.Y.Y.T.T.T.R.R.R.R.W.W.W.W.R.R.E.T.T.E.Y.;.=.-.-.-.-.-.-.-.-.@.@.' ` r ' ' ] @.&.G.I.0X0XtXeXeXaXpXpXpXpXwXwXwXqXiXiXpXiXiXqXqX5X:X=X%X%X#X XL.Q I K K Z Z Z b 1 < < < < < < < < < < < 1 1 < < 1 b b b A A A K K K Q ~ ~ P.L.L.L. X#X#X#X.X.X.X.X.X.XL.P.L.P.P.H.L M z h : - # # $ & 8 8 8 8 8 8 4 4 $ 8 8 8 8 8 8 8 - 8 8 8 8 8 8 8 8 8 u 8 8 u h u h j j k z k k k x M M L H F.J.P.P.P.;XVXNXLXMXDXMXAXMXMXMXMXMXMXMXMXMXMXMXMXMXMXMXDXDXDXDXDXKXGXGXGXGXGXGXGXGXGXGXGXGXGXGXGXGXGXGXGXGXGXGXGXGXGXGXKXDXMXMXMXDXDXMXMXMXMXMXMXMXMXMXMX",
"KXKXKXKXKXKXKXKXKXKXKXKXKXKXKXKXKXKXKXKXKXKXKXKXKXKXKXKXKXKXKXKXKXKXKXKXKXKXKXKXKXKXKXKXKXKXKXKXKXKXKXKXKXKXKXKXKXKXKXKXKXKXKXKXKXKXKXKXKXKXKXFXZXtXR.Y.E.T.Y.Y.Y.Y.Y.Y.Y.Y.Y.Y.;.;.;.;.;.:.*.*.*.*.*.*.$.$.$.$.$.$.$.$.$.$.$.%.$.$.$.$.$.$.$.$.$.$.$.$.$.$.$.$.$.*.*.*.*.*.*.=.;.;.Y.Y.Y.Y.Y.T.E.E.E.E.E.W.W.W.E.E.E.!.E.E.T.Y.~.~.Y.~.=.-.@.@.' t @.&.&.G.K.Q.0XeXrXaXaXaXpXpXpXiXiXpXiXiXiX6XqX2X-X=X#XL.~ I K A b b l < < l l l < l l C A K Z G K K K J T R Q Q Q ~ ~ ~ Q R R R T T I J K A Z F Z C b 1 1 1 , < < < < < 1 l b Z A K I Q L.L.L.L.L.L.L.L.L.L.P.H.Q U G z h = & - $ $ - 8 8 9 u 8 8 = 8 8 8 8 8 8 8 8 8 8 8 8 8 8 u u h h h h h h j k z k k c M L L H F.J.P.P.P.;XZXDXFXKXKXKXKXKXKXKXKXKXKXKXKXKXKXKXKXKXKXKXKXKXKXKXKXKXKXKXKXKXKXKXKXKXKXKXKXKXKXKXKXKXKXKXKXKXKXKXKXKXKXKXKXKXKXKXKXKXKXKXKXKXKXKXKXKXKXKXKX",
"GXGXGXGXGXGXGXGXGXGXGXGXGXGXGXGXGXGXGXGXGXGXGXGXGXGXGXKXDXMXMXMXMXMXMXMXMXMXMXMXMXMXMXMXMXMXMXMXMXMXMXMXMXMXDXKXGXGXGXGXGXGXGXGXGXGXGXGXGXGXGXHXZXtXR.Y.T.Y.Y.E.Y.Y.Y.Y.Y.Y.Y.Y.;.;.;.;.;.:.*.*.*.*.*.$.$.$.$.$.$.$.$.$.%.$.%.%.$.$.$.$.$.$.$.$.$.$.$.$.$.$.$.*.$.*.*.*.*.*.*.=.;.;.;.Y.Y.Y.Y.Y.E.E.E.E.E.E.E.E.E.E.E.E.E.E.E.R.S.=.&.&.&.&.G.U.Q.0XtXrXaXaXaXaXpXpXpXpXiXqX4XqX7X>X%X X! R R I G A A A K I I I  X X@X&X>X:X<X3X4XqXqXwXdXwXwXqXqXqXwXwXqXqXqXeXqX4X4X3X4X2X1X1X1X1X1X1X1X<X,X:X&X&X>X>X&X&X$X$X#X@XL./ R T P P C b b 1 < < < < b b A K I Q I I Q Q Q Q Q Q Q U K G z h 8 - - $ - - = 8 h h 8 8 8 8 8 8 8 8 8 8 8 8 8 h h h h h h j j k k k z c M L L H H.J.P.P.P.,XFXFXHXGXGXGXGXGXGXGXGXGXGXGXGXGXGXGXGXGXGXGXGXGXGXGXGXKXDXMXMXMXMXMXMXMXMXMXMXMXMXMXMXMXMXMXMXMXMXMXMXMXMXMXKXGXGXGXGXGXGXGXGXGXGXGXGXGXGXGXGX",
"GXGXGXGXGXGXGXGXGXGXGXGXGXGXGXGXGXGXGXGXGXGXGXGXGXGXGXKXMXMXMXDXMXMXMXMXMXMXMXMXMXMXMXMXMXMXMXMXMXMXMXMXMXMXKXGXGXGXGXGXGXGXGXGXGXGXGXGXGXGXGXHXFXtXR.Y.T.T.Y.Y.Y.Y.Y.Y.Y.Y.Y.Y.;.;.;.;.;.:.*.*.*.*.$.$.$.$.$.$.$.$.$.$.%.%.%.$.$.$.$.$.$.$.$.$.$.$.$.$.$.$.$.*.$.*.*.*.*.*.*.=.=.;.;.Y.Y.Y.T.E.E.E.E.E.!.!.!.!.!.W.W.R.G.G.G.G.U.I.0X0XrXrXaXbXbXkXpXiXiXiXqXqX7X5X1X:X=X#XL.~ ! Q ~ L.L. X$X#X<X2X4XqXqXyXuXdXqX6X6XqXyX6X3X7X<X<X:X:X:X:X>X=X=X&X&X&X&X&X%X%X&X&X&X%X%X$X$X$X%X$X*X@X@X*X$X%X$X#X@X@X@X@X#X#X@X@X@X@X#X#X#X#X$X#X@X X/ ! W R K A b l < 1 l b C Z A K I I J K I I U U L G z z , = = = = = = = 8 8 8 8 8 8 8 8 u 8 u h 8 8 u u h k k k k z x z M M L H H.J.P.P.P.;XFXFXHXGXGXGXGXGXGXGXGXGXGXGXGXGXGXGXGXGXGXGXGXGXGXGXGXKXMXMXMXMXMXMXMXMXMXMXMXMXMXMXMXMXMXMXMXMXMXMXMXMXMXMXMXKXGXGXGXGXGXGXGXGXGXGXGXGXGXGXGX",
"GXGXGXGXGXGXGXGXGXGXGXGXGXGXGXGXGXGXGXGXGXGXGXGXGXGXGXKXMXMXMXDXMXMXMXMXMXMXMXMXMXMXMXMXMXMXMXMXMXMXMXMXMXMXDXGXGXGXGXGXGXGXGXGXGXGXGXGXGXGXGXHXFXtXR.Y.T.T.Y.Y.Y.Y.Y.Y.Y.Y.Y.Y.;.;.;.;.;.:.*.*.*.*.$.$.$.$.$.$.$.$.$.$.%.%.%.%.$.$.%.%.$.$.$.$.$.$.$.$.$.$.$.$.$.$.*.*.*.*.*.=.=.;.;.Y.Y.T.E.E.E.E.E.E.E.R.R.R.K.U.U.U.Q.0XrXbXbXbXbXbXkXpXpXuX6X6XqXqX6X5X8X>X8X:X%X%X=X:X1X5XwXqXwXdXwXdXkXkXqXqXqXqX7X2X1X1X2X1X<X<X<X1X5X4X6X6X4X4X7XqXyXiXyXyXyXyXyXiXiXyX7X4X4X3X3X3X4X6X<X<X2X2X1X:X:X:X-X-X-X&X&X%X%X$X*X@X@X@X XL.^ / L.^ ^ L.L.L.L.^ L.L.L.L./ R J D Z b 1 < 1 b Z A D K K K J K K K K A z h , = = = = = = 8 8 8 8 8 u 8 u h 8 h z z h h h k k x k k M M L H F.J.P.P.P.;XFXFXHXHXGXGXGXGXGXGXGXGXGXGXGXGXGXGXGXGXGXGXHXHXGXGXGXKXDXMXMXMXMXMXMXMXMXMXMXMXMXMXMXMXMXMXMXMXMXMXMXMXMXMXMXKXGXGXGXGXGXGXGXGXGXGXGXGXGXGXGX",
"GXGXGXGXGXGXGXGXGXGXGXGXGXGXGXGXGXGXGXGXGXGXGXGXGXGXGXKXMXMXMXMXMXMXMXMXMXMXMXMXMXMXMXMXMXMXMXMXMXMXMXMXMXMXDXGXGXGXGXGXGXGXGXGXGXGXGXGXGXGXGXHXFXtXR.Y.T.T.Y.Y.Y.Y.Y.Y.Y.Y.Y.Y.;.;.;.;.;.:.*.*.:.*.$.$.$.$.$.$.$.$.$.$.$.%.%.%.%.%.$.$.$.$.$.$.$.$.$.$.$.$.$.$.$.$.*.*.*.*.*.=.;.;.;.Y.Y.T.T.T.E.R.R.R.K.K.K.I.0XtXaXbXmXbXkXpXuXuXuXuXfXhXzXzXnXxXfXyXqXwXwXyX6X7XyXfXjXfXyXwXqXqX4X2X2X2X2X2XqX3X1X8X7XyXfXlXdXjXlXhXuXqX5X:X>X>X:X>X&X X! I K Z b b l 1 , , , , < < , , < < l b Z A A A Z n A I ~ L. X X X X X@X@X@X X@X#X&X#X#X#X@X XL./ / / ^ / ! ! / / / / / ! R P A C l C C C C Z A S J K K K K G Z z , : = = = = 8 8 8 8 8 h h 8 z Y L z z k k k x c c M M L H F.J.P.P.P.,XFXFXHXGXGXGXGXGXGXGXGXGXGXGXGXGXGXGXGXGXGXGXGXHXGXGXGXKXDXMXMXMXMXMXMXMXMXMXMXMXMXMXMXMXMXMXMXMXMXMXMXMXMXMXDXGXGXGXGXGXGXGXGXGXGXGXGXGXGXGXGX",
"GXGXGXGXGXGXGXGXGXGXGXGXGXGXGXGXGXGXGXGXGXGXGXGXGXGXGXDXMXDXMXMXMXMXMXMXMXMXMXMXMXMXMXMXMXMXMXMXDXMXMXDXDXMXDXKXGXGXGXGXGXGXGXGXGXGXGXGXGXGXGXHXFXtXR.Y.T.T.Y.Y.Y.Y.Y.Y.Y.Y.Y.Y.;.;.;.;.;.:.*.*.:.*.$.$.$.$.$.$.$.$.$.$.$.%.%.%.$.$.$.$.$.$.#.#.] @.#.#.$.$.$.$.$.$.*.*.*.*.*.=.;.;.Y.Y.T.T.T.G.G.G.K.Q.0XrXbXmXmXmXzXkXiXuXjXzXnXNXNXNXBXNXnXvXfXdXuXuXwXwXwXwXdXyX6X7X3X2X3X4XqXwXwXwXxXvXzXzXdXiXyXyX7X&X! A S K A b < , ; o * + * ; ; , < l I K K I ~ L.L. X X X X X X X X XI I K K A A A G K Q L.L.~ Q Q ~ ~ Q I Z 1 < l Z C D P W ! / L.@XL.L.L.^ / W W R T T T T E R R R S S A A F F F F Z A A A K K K K Z z , = = = = = h 8 h u = n U U P.U M z z k x c M L L H F.J.P.P.P.,XFXHXGXKXGXGXGXGXGXGXGXGXGXGXGXGXGXGXGXGXGXGXGXGXGXGXGXDXMXMXMXMXMXMXMXMXMXMXMXMXMXMXMXMXMXMXMXMXMXMXMXMXMXMXDXHXGXGXKXGXGXGXGXGXGXGXGXGXGXGXGX",
"GXGXGXGXGXGXGXGXGXGXGXGXGXGXGXGXGXGXGXGXGXGXGXGXGXGXGXKXMXMXMXMXMXMXMXMXMXMXMXMXMXMXMXMXMXMXMXMXMXMXMXMXDXMXDXGXGXGXGXGXGXGXGXGXGXGXGXGXGXGXGXHXFXtXR.Y.T.T.T.Y.Y.Y.Y.Y.Y.Y.Y.Y.;.;.;.;.;.:.*.*.$.$.>.*.$.$.#.*.$.$.$.$.$.%.$.%.[ $.>.$.%.#.r &.U.0X&.#.:.$.$.$.$.*.:.*.*.*.*.=.=.;.G.G.G.G.R.Q.tXrXbXmXmXvXzXkXpXkXvXnXZXFXFXFXZXNXvXzXhXuXuXuXqXdXdXuXqXuX3XwX6XyXdXzXfXvXjXxXuXdX7X1X/ K Q b ; * * * ; < b K K Q K ~ =X=XqXqXqX2XiXyXiXuXuXqX6XuXqX4X4X4XqX2X1X1X2X<X<X4X<X-X>X4X1X1X1X:X3X<X:X:X&X#X$X%X*X%X#XL.@XL.L./ I C C A l b 1 < < C C S J W R ^ ! ! ! W Q W R J J P P P P P P S A A A D A Z A D D A K K K A l , = = = h h : z K I K K U Q U G z z z G L L L D.P.I.P.P.1XFXFXGXGXGXGXGXGXGXGXGXGXGXGXGXGXGXGXGXGXGXGXGXGXGXGXGXKXMXMXMXMXMXMXMXMXMXMXMXMXMXMXMXMXMXMXMXMXMXMXMXMXMXMXMXGXGXGXGXGXGXGXGXGXGXGXGXGXGXGXGX",
"GXGXGXGXGXGXGXGXGXGXGXGXGXGXGXGXGXGXGXGXGXGXGXGXGXGXGXKXMXMXMXMXMXMXMXMXMXMXMXMXMXMXMXMXMXMXMXMXMXMXMXMXDXMXDXGXGXGXGXGXGXGXGXGXGXGXGXGXGXGXGXHXFXtXR.Y.T.T.T.Y.Y.Y.Y.Y.Y.Y.Y.Y.;.;.;.;.;.=.*.*.:.*.$.$.*.*.#.#.$.$.$.$.%.$.$.$.-.] ] ' -.G.0XbXbXbXrX&.] :.$.$.$.$.$.$.*.=.=.=.-.&.G.U.0XrXaXbXmXnXxXjXfXlXvXNXFXFXHXHXKXNXxXlXhXdXuXuXuXuXuXuXuX4X4XjXfXjXnXvXzXiXuX%X X~ K A , , 1 l Z I S Q  X5XiX3XpX5XkXkXpXuXxXiXqXiX1XqX1X4X:X4X&X:X4X>X:X<X%X5X<X&X>X$X>X<X%X&X&X$X&X7X1X&X$X@X$X1X@X@X&XL.&X$X=X@X@X X&X#X@X@X#X$X@X&X#X&X@X@X#X~ J W R Z W A S A l J Z D J P T W W T J J K D D K J P A D K K S A A D A Z A K K D C l , = = h G K I ~ ! I I Q P.Q K n z z L D.J.J.P.P.P.1XFXFXGXGXGXGXGXGXGXGXGXGXGXGXGXGXGXGXGXGXGXGXGXGXGXGXGXKXMXMXMXMXMXMXMXMXMXMXMXMXMXMXMXMXMXMXMXMXMXMXMXMXMXMXMXGXGXGXGXGXGXGXGXGXGXGXGXGXGXGXGX",
"GXGXGXGXGXGXGXGXGXGXGXGXGXGXGXGXGXGXGXGXGXGXGXGXGXGXGXKXMXMXMXMXMXMXMXMXMXMXMXMXMXMXMXMXMXMXMXMXMXMXMXMXDXMXMXGXGXGXGXGXGXGXGXGXGXGXGXGXGXGXGXHXFXeXR.R.T.T.T.T.Y.Y.Y.Y.Y.Y.Y.Y.;.;.;.;.;.:.*.*.*.*.*.*.*.$.$.$.$.:.*.[ #.*.$.` ` &.Q.0XrXbXbXbXbXpXmXrX@.#.:.>.$.:.;.;.-.@.&.&.K.0XaXmXmXzXzXjXdXlXnXBXHXHXHXHXNXnXxXjXjXhXjXlXhXdXuXfXhXhXjXzXvXBXzX7XqX%XQ I K C , C J I L. X4XfX<XuXvXxXvXkXhXqXqX3X:XhXqX4X3X,X>X2X1X:X:X-X<X1X>X1XfX^ ! 4X=X=X<X&X<X&X1X1X>X&X>X1X>X&X>XD Z 2XL.=X&XJ #X1X@X=X$X! D $X&X$X^ @X@X#XL.~ @X^ @X! / R L.L.@XL.L.L.@X! W W ~ S T A l < < 1 C D S P R T J J S Z P S A D S A A K K D D A A K K K Z z h Z K I I ~ ~ ~ ~ Q I K Q P.L G G H H.P.P.P.P.2XFXFXGXGXHXGXGXGXGXGXGXGXGXGXGXGXGXGXGXGXGXGXGXGXGXGXGXKXMXMXMXMXMXMXMXMXMXMXMXMXMXMXMXMXMXMXMXMXMXMXMXMXMXMXMXGXGXGXGXGXGXGXGXGXGXGXGXGXGXGXGX",
"GXGXGXGXGXGXGXGXGXGXGXGXGXGXGXGXGXGXGXGXGXGXGXGXGXGXGXKXMXMXMXMXMXMXMXMXMXMXMXMXMXMXMXMXMXMXMXMXMXMXMXMXMXMXMXGXGXGXGXGXGXGXGXGXGXGXGXGXGXGXGXHXFXeXR.E.T.T.T.T.Y.Y.Y.Y.Y.Y.Y.;.;.;.;.;.;.:.*.*.*.*.*.*.$.[ [ $.$.[ #.-.@.w @.G.0XrXbXbXpXmXkXeX;XeXeXbXtX@.#.:.=.#.' ' &.Q.tXbXmXmXkXiXiXcXcXPXFXFXKXDXBXnXlXdXlXlXjXjXjXhXfXdXhXhXzXxXzXuX4X2XL.K I Z C I L.#X&XqXiXzXlXzXvXkX7XhXkX7X1X<X:X4X2XqX1X4X3XqX~ -X1XqXqX:X2XqXpXqXyXyXuX=XqXI A jX7X>X6X<X1X6X=X#X3X$X>X#X&X=XqXC < dX. -X Xb <X@X:X#X>XI > 3X#X@X&X#X$X^ &X&X/ @X XL.@X@X/ ^ / ^ T L.J ^ @X/ R ~ R T T T P A l , < < l C C D T T A A D S D A D K D K I J D K K G U K A A I Q Q R ! ! ~ ~ L.L.~ Q L.P.L L H P.P.P.P.2XFXFXGXGXKXGXGXGXGXGXGXGXGXGXGXGXGXGXGXGXGXGXGXGXGXGXGXKXMXMXMXMXMXMXMXMXMXMXMXMXMXMXMXMXMXMXMXMXMXMXMXMXMXMXMXGXGXGXGXGXGXGXGXGXGXGXGXGXGXGXGX",
"GXGXGXGXGXGXGXGXGXGXGXGXGXGXGXGXGXGXGXGXGXGXGXGXGXGXGXKXMXMXMXMXMXMXMXMXMXMXMXMXMXMXMXMXMXMXMXMXMXMXMXMXDXMXDXGXGXGXGXGXGXGXGXGXGXGXGXGXGXGXGXFXFXeXR.E.T.T.T.Y.Y.Y.Y.Y.Y.Y.Y.Y.;.;.;.;.;.=.*.*.:.*.$.$.*.:.:.>.>.$.] @.F.0XpXaXbXbXzXnXqX=X#X;X;X,X5XiXmX;X&.@.v r.I.rXbXbXbXpXeXpXjXnXCXDXKXKXNXnXxXjXhXjXxXxXlXlXlXxXxXxXlXjXzXhXqX1X=X@XL.L.=X*X4XvXzXjXxXzXhXqXjXqXqXqX1X2X4X<X=X7XwXwX7XqX3X3X4XzXqX4X#X:XzX2X3X2XhX~ $X:X! K I 4XqX! ; l I uXI < R &XC < L.* O ; =X=X1XP Z W . ~ Z 2Xb l P >X=XA P W D T R I Q <X/ I #X XL. X X/ @X@XW ^ @X/  XW C W ! R W / W J P ! ! P P A C C b l l b S S D C Z D D A D A D K J I J A G U K G I ~ / ! / Q I Q L. XL.P.Q P.P.H.H.H.P.P.P.2XHXHXGXGXKXGXGXGXGXGXGXGXGXGXGXGXGXGXGXGXGXGXGXGXGXGXGXKXMXMXMXMXMXMXMXMXMXMXMXMXMXMXMXMXMXMXMXMXMXMXMXMXMXMXMXGXGXGXGXGXGXGXGXGXGXGXGXGXGXGXGX",
"GXGXGXGXGXGXGXGXGXGXGXGXGXGXGXGXGXGXGXGXGXGXGXGXGXGXGXKXMXMXMXMXMXMXMXMXMXMXMXMXMXMXMXMXMXMXMXMXMXMXMXMXDXMXDXGXGXGXGXGXGXGXGXGXGXGXGXGXGXGXGXFXFXeXR.E.T.T.T.Y.Y.Y.Y.Y.Y.Y.Y.Y.;.;.;.;.;.:.*.*.>.:.*.*.-.#.$.#.] -.Q.tXbXbXzXvXvXqX&X! ^  X;XP.;X.X:XiXiXvX;XF.eXkXmXmXkXwXpXzXnXVXFXKXNXxXcXgXlXjXlXzXzXlXlXxXxXzXxXxXnXBXKXFXzXuX7X4X4XwXkXvXzXBX4XqXuXuXfXhXkXkX1XwX2XwXwXuXkXhXb <XkXwX2XuXuX-XqXA -X-XI hX Xb Z qXS R * <X. b b 1XqXb ~ >X< W b A Z > ! C %X1 @X@X3X&X>X X. P T . <Xb Z b S =X>XC O A <X, * > Z ^ > > D < b T / ! 1 #X X/ R ^ ^ > O A #XJ Q T P P T T T T T T P I T S Z Z W $X<X#XT A Z Z J A Z A A D J T K K K I Q Q Q / ^ ^ ! I K I L.#XL.L.L..XP.H.P.P.P.2XFXHXGXGXKXGXGXGXGXGXGXGXGXGXGXGXGXGXGXGXGXGXGXGXGXGXGXKXMXMXMXMXMXMXMXMXMXMXMXMXMXMXMXMXMXMXMXMXMXMXMXMXMXMXMXGXGXGXGXGXGXGXGXGXGXGXGXGXGXGXGX",
"GXGXGXGXGXGXGXGXGXGXGXGXGXGXGXGXGXGXGXGXGXGXGXGXGXGXGXKXMXMXMXMXMXMXMXMXMXMXMXMXMXMXMXMXMXMXMXMXMXMXMXMXDXMXDXGXGXGXGXGXGXGXGXGXGXGXGXGXGXGXGXFXFXtXR.E.R.R.E.Y.T.Y.Y.Y.Y.Y.Y.Y.;.;.;.;.;.:.*.*.>.:.*.-.#.@.-.S.rXaXbXbXbXbXiX=XL.P L.wXkX;X;X;X;X,X=X%XkXkXvXvXvXzXuXuXhXxXvXNXBXvXkXdXkXxXzXlXzXlXzXxXxXxXxXxXBXKXFXHXHXHXKXDXjXkXzXxXxXjXfXuX4XhXwXhXwXhX-X-XQ >XzXlXuXuXqX4XuXL.l uX< L.%X#X%X XI ~ : 1XX hXI X =X@X; @XP zX1 zXqX:XzX< >X>X1 < > @X&X. Z @X#X; 1X-XT &X3X@X. -XI . <X* l ! &X&X&X* O #X2X> #XZ @X* /  X, J l * C < / / S X > ^ > O ! J I  X! W W W R P J K A R J Z J J S T D J ! $X3XqX=X^ D Z D I K Z A K I I I Q ~ Q I ! ! / / ! Q Q Q Q #X XL..XP.P.P.P.P.2XFXHXGXGXGXGXGXGXGXGXGXGXGXGXGXGXGXGXGXGXGXGXGXGXGXGXGXKXMXMXMXMXMXMXMXMXMXMXMXMXMXMXMXMXMXMXMXMXMXMXMXMXMXMXMXGXGXGXGXGXGXGXGXGXGXGXGXGXGXGXGX",
"GXGXGXGXGXGXGXGXGXGXGXGXGXGXGXGXGXGXGXGXGXGXGXGXGXGXGXKXMXMXMXMXMXMXMXMXMXMXMXMXMXMXMXMXMXMXMXMXMXMXMXMXDXMXDXGXGXGXGXGXGXGXGXGXGXGXGXGXGXGXGXHXFXtXR.E.R.R.E.T.T.Y.Y.Y.Y.Y.Y.Y.;.;.;.;.;.:.*.*.:.$.@.@.F.Q.rXmXbXbXvXpX=X~ Q L.>XzXmXbX;XP.XX.X.X;X;X,XeXpXuXlXdXdXfXlXxXvXxXzXdXhXlXxXzXzXxXvXzXlXxXNXDXFXHXHXHXFXBXNXxXlXfXuXhXdXuXdXdXuXuXuXuXfXiXqXhX7X> 2X3Xo qXI hX#X/ jXb #Xo zXZ ^ l ; L.%X; @X XqX1 uX=XD ; %XX P =X@X. :X1X:X6Xo K ,  X#X* Z  XS < T @X* =X X, &X>X$XJ 6X^ R wXl < Z @X&XR C L.* ^ + &X. R X #X< b A X < . ! #XL.. &X, Z , b L.^ > > , J W Z A / W b , P P Z J P Z D S D Z C Z E @X<XL.D Z D K A D K A G K P ! / ! ! W / L./ R Q Q ~ W  X#X.XP.P.P.P.P.2XHXHXGXGXGXGXGXGXGXGXGXGXGXGXGXGXGXGXGXGXGXGXGXGXGXGXGXKXMXMXMXMXMXMXMXMXMXMXMXMXMXMXMXMXMXMXMXMXMXMXMXMXMXMXMXGXGXGXGXGXGXGXGXGXGXGXGXGXGXGXGX",
"GXGXGXGXGXGXGXGXGXGXGXGXGXGXGXGXGXGXGXGXGXGXGXGXGXGXGXKXMXMXMXMXMXMXMXMXMXMXMXMXMXMXMXMXMXMXMXMXMXMXMXMXDXMXMXGXGXGXGXGXGXGXGXGXGXGXGXGXGXGXGXHXFXtXR.E.R.R.E.T.T.Y.Y.Y.Y.Y.Y.Y.;.;.;.;.:.=.*.:.$.-.I.eXmXbXvXvXkX5X XI Q ;XkXvXzXxXpX;XP.P.;X%X.X;X;X0XeXeXwXwXkXdXkXzXkXhXhXzXhXvXzXzXjXdXxXNXBXKXFXHXHXKXFXNXxXlXjXfXvXdXdXxXhXhXdXuXhXuXzXdXjXiXdXuXhXzXA >XR A nX* :XL. X%XP BXl vX#X. ~ . L.4X. T &X&XX ! ; J D 6X~ C / 4XD =X2X3X1X&X X$X3XuX@X=XyX1X>X<X7X>X&X2X1X>X&X1X=X>X&X=X&X=X#X#X&X$X#X#X>XP C L.$XZ W ! > l %Xl T Z l #X@XI < ^ ; J > @XI #X; D > T > l > W ! 1 > S W I P D D P S S P P A b A C J A C A J J D A K D S J K P ! / / ! !  X^ T T ^ / ^ L.%XP.H.P.P.P.eXFXFXGXGXGXGXGXGXGXGXGXGXGXGXGXGXGXGXGXGXGXGXGXGXGXGXGXKXMXMXMXMXMXMXMXMXMXMXMXMXMXMXMXMXMXMXMXMXMXMXMXMXMXMXMXGXGXGXGXGXGXGXGXGXGXGXGXGXGXGXGX",
"GXGXGXGXGXGXGXGXGXGXGXGXGXGXGXGXGXGXGXGXGXGXGXGXGXGXGXKXMXMXMXMXMXMXMXMXMXMXMXMXMXMXMXMXMXMXMXMXMXMXMXMXDXMXMXGXGXGXGXGXGXGXGXGXGXGXGXGXGXGXGXHXFXtXR.E.E.R.E.T.T.Y.Y.Y.Y.Y.Y.Y.;.;.;.;.;.:.*.=.-.tXmXvXzXxXdX XE R #XwXmXmXvXhXxXkX;XH.P.;X.X.X=X=X,X,X0XeXeXwXkXkXkXkXzXzXzXhXxXxXhXfXvXZXHXFXHXKXBXNXzXjX6XjXlXxXzXxXdXxXdXhXzXzXhXnXdXzX4XuX1X%XL.uXuXqX1 L.$X1 wXZ vXQ  X X, -X. -X4X* xXD 5XzX^ C @XlX#X4XjX@XdX6X4XqXqX5XyXiX:X:X2X4X:X4X2X$X6X=X<X<X<X=X<X$X2X#X%X&X>X#X<X@X&X&X&X&X%X$X$X@X$X&X#X=X=X#X@X#X>X#X@X&X@X@X@X! @X^ W @X, < A C b / @XS * W > Z l / + R / > * < Z > C / Z P D A P F A S E S D J S D P ^ L.W A A S J S S P S ! ! / L.^ W Q / ! L. X;XH.H.P.P.P.eXFXFXGXGXGXGXGXGXGXGXGXGXGXGXGXGXGXGXGXGXGXGXGXGXGXGXGXKXMXMXMXMXMXMXMXMXMXMXMXMXMXMXMXMXMXMXMXMXMXMXMXMXMXMXMXGXGXGXGXGXGXGXGXGXGXGXGXGXGXGXGX",
"GXGXGXGXGXGXGXGXGXGXGXGXGXGXGXGXGXGXGXGXGXGXGXGXGXGXGXKXMXMXMXMXMXMXMXMXMXMXMXMXMXMXMXMXMXMXMXMXMXMXMXMXDXMXMXGXGXGXGXGXGXGXGXGXGXGXGXGXGXGXGXHXFXtXR.E.E.R.E.T.T.T.T.Y.Y.Y.Y.Y.;.;.;.;.;.=.*.=.@.rXbXiX8X! K #XwXxXxXcXxXhXwXzXkX%XP.P..X.X.X%X.X.X;X,XeXiXpXcXfXhXhXiXuXlXvXvXfX6XfXnXFXFXBXzXhXlXfXdXxXNXnXjXzXhXlXxXxXBXxXlXvX>X4XqXZ zXS uXQ * :XvXuXzXD zXFX< <XC Z , + qXD T  X2XdXqXiXqXqX>XfXfXfX1X1X6X<XdX<X<XiX<X3X<X:X:X:X2X:X4X1X:X<X6X=X>X=X:X2X:X$X2X$X<X-X>X-X=X@X>X&X#X&X&X&X&X&X&X$X X#X@X@X@X$X@X^ $XL. X/ L.@X@X^ L.L. X$X^  X< / / ! b D A > l > Z < W S > @X> l * * > , < A P S A ( A > P D Z Z A A Z T @X$X^ P A A P R P S /  X/ Q ~ ~ Q ^  X.X;XP.H.P.P.P.wXHXFXGXGXGXGXGXGXGXGXGXGXGXGXGXGXGXGXGXGXGXGXGXGXGXGXGXKXMXMXMXMXMXMXMXMXMXMXMXMXMXMXMXMXMXMXMXMXMXMXMXMXMXMXMXGXGXGXGXGXGXGXGXGXGXGXGXGXGXGXGX",
"GXGXGXGXGXGXGXGXGXGXGXGXGXGXGXGXGXGXGXGXGXGXGXGXGXGXGXKXMXMXMXMXMXMXMXMXMXMXMXMXMXMXMXMXMXMXMXMXMXMXMXMXDXMXMXGXGXGXGXGXGXGXGXGXGXGXGXGXGXGXGXHXFXtXR.E.E.R.E.T.T.T.T.Y.Y.Y.Y.Y.;.;.;.;.;.=.*.=.&.0XmX9XI <XmXvXxXPXxXgXyXfXzXxX,XH.U .X.XP..X%X;X,X5XiXhXcXiXiXiXhXzXnXnXlX:X X$X:XlXxXiXiXiXxXxXxXxXxXzX$XvXvXvXxXBXlXdX:X<XnX X4Xl qX~ xXL.iXvX^ 1 qXdX1X. W A / zX4X XkX4XkXhXvXhXhX2XqX5X4X6X7X4X2X>XyXjX4XqX2X6X>X1X1X5X5X4X1X4X<X%X=X<X1X:X=X=X<X7X2X/ <X3X$X2X<X%X$X&X=X2X=X$X<X$X%X=X@X#X@X#X&X#X@X#X#XL.$X X^ $XL.@X@XL.^ L.L.L.W W  XW P @XR ^ W L.W S R C < R ! 1 > 1 , 1 T b l A > ; O , ! C 1 < J A D D D J J A C J ^ %X@XP Z S I R K J ^ @XL.W R  X XL..XP.H.P.P.P.wXHXFXGXGXHXHXGXGXGXGXGXGXGXGXGXGXGXGXGXGXGXGXGXGXGXGXGXKXMXMXMXMXMXMXMXMXMXMXMXMXMXMXMXMXMXMXMXMXMXMXMXMXMXMXMXGXGXGXGXGXGXGXGXGXGXGXGXGXGXGXGX",
"GXGXGXGXGXGXGXGXGXGXGXGXGXGXGXGXGXGXGXGXGXGXGXGXGXGXGXKXMXMXMXMXMXMXMXMXMXMXMXMXMXMXMXMXMXMXMXMXMXMXMXMXDXMXDXGXGXGXGXGXGXGXGXGXGXGXGXGXGXGXGXGXFXeXW.E.E.R.E.T.Y.T.T.T.Y.Y.Y.Y.;.;.;.;.;.;.*.=.#.R.VX$XF >XzXnXgX7XgXcXyXlXxX8XL P..XP..X.XP.;XeXpXzXcXcXiXcXcXzXvXhX>XQ K  XqXlXcXcXgXcXPXxXcXlXdXxXxXqX=XxXdXdXyX X#X X&XL.vXA HX-XL.D uXl K < *XQ uXwX4X%X5XiXlXqXdXuX4XjX4X2X3XqX3X4XuX1X7X7X7X2X6X3X<XR 1X1X<X6X@X> xX1X5X1X>X4XyXjXqX1X4X<XqXqX<X#XdXA * 3X3X^ =X=X-X2X&XJ <X<X@X$X$X=X$X&X2X&X>X=X=X#X&X%X#X=XL.#X@X$X> K #XL./ @X X/ L./  X/ ! / ! W W ^ ! / I ~ R Z l , T O P < l 1 D C 1 2 C ; + F S S J S A Z D J J J b A @X=X@XT A J J T W L. XL.L.L. XP..XH.J.P.P.P.eXHXFXGXGXGXGXGXGXGXGXGXGXGXGXGXGXGXGXGXGXGXGXGXGXGXGXGXKXMXMXMXMXMXMXMXMXMXMXMXMXMXMXMXMXMXMXMXMXMXMXMXMXMXMXMXGXGXGXGXGXGXGXGXGXGXGXGXGXGXGXGX",
"GXGXGXGXGXGXGXGXGXGXGXGXGXGXGXGXGXGXGXGXGXGXGXGXGXGXGXKXMXMXMXMXMXMXMXMXMXMXMXMXMXMXMXMXMXMXMXMXMXMXMXMXDXMXDXGXGXGXGXGXGXGXGXGXGXGXGXGXGXGXGXHXFXtXR.E.E.R.E.T.T.T.T.T.Y.Y.Y.Y.;.;.;.;.;.;.:.:.:.~.VX5X*X*XA =XnXNXcX6XvXnX>XK H.P.P.U P.=XwXbXkXkXhXcXcXcXcXiX4XL.D ~ 2XlXxXzXlXxXcXxXxXyXdXlXnXxXnX7X$XNX6X=X/ lX@XvX$XzX/ dXK jXQ <X#XZ #X@XvX&XzXhXhXdXlXfXhX2XdX3XfXdX1X6XwXqX2X7X4XqX1XlXL.1 nXyXyX3XC jXyX3XfX<X1 @X#X6X2X<X4XP * &X1X, ; ! #X; , @XZ O >X, < l 3X$X@X< C S @X< > D =X>X/ X C < b > &XC ! &XS &X/ ! <XC C =X X^ @XT W ^ ! W W / W W W ! T J T ! S R T P R W b T C > X < > C 1 2 ! , A S > , Z T T A A J Z R E Z S $X>X^ J Q W J I / @X@X^  X.X.XH.H.P.P.P.eXHXFXGXGXGXGXGXGXGXGXGXGXGXGXGXGXGXGXGXGXGXGXGXGXGXGXGXKXMXMXMXMXMXMXMXMXMXMXMXMXMXMXMXMXMXMXMXMXMXMXMXMXMXMXMXGXGXGXGXGXGXGXGXGXGXGXGXGXGXGXGX",
"GXGXGXGXGXGXGXGXGXGXGXGXGXGXGXGXGXGXGXGXGXGXGXGXGXGXGXKXMXMXMXMXMXMXMXMXMXMXMXMXMXMXMXMXMXMXMXMXMXMXMXMXDXMXDXGXGXGXGXGXGXGXGXGXGXGXGXGXGXGXGXFXFXeXR.E.E.R.E.T.T.T.T.T.Y.Y.Y.Y.;.;.;.;.;.:.*.=.*.-.mXiX XVX;XL U 4XzXzXbX,XU P.P.U .X5XuXxXnXdXhXhXzXzXzXwX2X;X-X<XuXnXNXxXhXhXlXlX:XqXnXlXvXvXhXfXvX7XL.nX%XBX&XNX@XjX XjX X=X3X X=XxXzXfXnXvXuXuXdXuXqXuX4XuX6XwXwXwX<XqX4XuX3XiXwXwXhXiX3XqX2XC W W yXA &XjXJ + C >X+ S + 3X1XhXI Z ! #X< #X&X; $XX I 4XC L.lXl > @X6X>X<X; l @X* @X&X; 1X@X=X* W * R O >X1 D Z < ^ o O / , , > @X^  XZ + L.^ @X XW  XR ; P ! / J T J R P Q J D W S S J J C A 2 2 > 1 ; ! S < 1 2 2 C T J C P F A P D Z W &X&XQ A T / W ~ L.^  X.X;XH.H.P.P.P.eXFXFXGXGXGXGXGXGXGXGXGXGXGXGXGXGXGXGXGXGXGXGXGXGXGXGXGXKXMXMXMXMXMXMXMXMXMXMXMXMXMXMXMXMXMXMXMXMXMXMXMXMXMXMXMXGXGXGXGXGXGXGXGXGXGXGXGXGXGXGXGX",
"GXGXGXGXGXGXGXGXGXGXGXGXGXGXGXGXGXGXGXGXGXGXGXGXGXGXGXKXMXMXMXMXMXMXMXMXMXMXMXMXMXMXMXMXMXMXMXMXMXMXMXMXDXMXDXGXGXGXGXGXGXGXGXGXGXGXGXGXGXGXGXFXFXeXW.E.E.T.E.T.T.T.T.T.Y.Y.Y.Y.;.;.;.;.;.:.*.*.;.@.rXvX XnXeX0X1XK L.kXeXP.U U P.,XpXzXzXfXdXlXvXvXzXeX;X;XeXpXvXxXzXhXuXuXhXzXiXBX<X=XhXvXvX<X XyXNXyX:XvXL.nX! 3X&XdX1XfXlXjXnXzXzXxXwXhXqXiXwXhXqXuXqXqXwXqXiXdXqXvXhXhXxXwXwXwX1XJ 4X X7XL.W ; A X jXA D >X< 3X3X#XZ fX, dX:XqX1 &XnX2X. 6X X+  X/ . =XO @XL./ > C 1X&XW / X T > $XJ 1 -X1XW < @Xl ~ b 4X> &XC ^ + @X@X! > R * L.L.#X< O @Xl + D L.W Q ; / W ~ ! W Q S I K P T Z I S T A P P A S 1 > 1 R C C C 1 2 > > C P J C C P T S D D @X-X=XQ D Q L.~ L. X.XXXJ.J.P.P.P.wXFXFXGXGXGXGXGXGXGXGXGXGXGXGXGXGXGXGXGXGXGXGXGXGXGXGXGXKXMXMXMXMXMXMXMXMXMXMXMXMXMXMXMXMXMXMXMXMXMXMXMXMXMXMXMXGXGXGXGXGXGXGXGXGXGXGXGXGXGXGXGX",
"GXGXGXGXGXGXGXGXGXGXGXGXGXGXGXGXGXGXGXGXGXGXGXGXGXGXGXKXDXDXMXMXMXMXMXMXMXMXMXMXMXMXMXMXMXMXMXMXMXMXMXDXMXMXDXGXGXGXGXGXGXGXGXGXGXGXGXGXGXGXGXFXFXtXR.R.R.E.E.T.T.T.Y.Y.Y.Y.Y.Y.;.;.;.;.;.:.*.*.:.@.0XmX XuXzX#XFXQ P.Q U K U &XpXxXkXiXpXkXbXbXwX.XL.qXwXvXjXxXfXhXzXvXwXwXlXvX%X=XvX~ ~ #XqX$X5XlXxXdX$XNX@X*X>X6XxXfXnXlXzXzXdXfXdXdXdXjXqXuXqXwXfXfXfXjXyXjX6XqX<X/ qX1 J * 1XyXqX* <XX J @X1Xl NX< xXI #XR , nX>XC ! &X. &X2XqXZ * < L.S < l @Xb b D 1X< R #X< C @X-X1XS C Z <XW ; < &X$X1XC R C T P O #X  C . S o ! ^ C C ! < &X/ #X> #X1 , L.+ ^ @XZ + > J b C S / R R E E T S J T S A P S T T D S S T < > < > S 1 2 l F 1 > R J J T S W A ! >X>X~ K ^ ~  XL..X.XH.J.P.P.P.wXHXGXHXGXGXGXGXGXGXGXGXGXGXGXGXGXGXGXGXGXGXGXGXGXGXGXGXKXMXMXMXMXMXNXNXNXMXMXMXMXMXMXMXMXMXMXMXMXMXMXMXMXMXMXMXKXGXGXGXGXGXGXGXGXGXGXGXGXGXGXGX",
"GXGXGXGXGXGXGXGXGXGXGXGXGXGXGXGXGXGXGXGXGXGXGXGXGXGXGXKXMXMXMXMXDXDXDXDXMXMXMXMXDXDXDXMXMXMXDXDXMXMXMXDXMXMXMXGXGXGXGXGXGXGXGXGXHXGXGXHXHXGXHXFXFXtXR.R.R.R.E.E.T.T.Y.Y.Y.Y.Y.Y.;.;.;.;.;.:.*.*.:.-.I.ZXL.P %X#XVX=X2XkXU %XuXnXlXuXiXkXbXmX,XH.U ;XzXzXfXdXxX6XzXfX-XuXnXBXhXxX#XA nX^ uX=XhXC lXiXvXuX&XBXNXzXvXnXxXxXuXxX6XjXlXxXdX7XzXyXjXxXxXlXjXqX&XqX&XjXW L. X< <XD A 7X4X3XvXZ ; R . 3X^ C uX. =XC o <X+ ; ! R @X7Xb :XuX:X:X@X$XqXyX#X2X7X7X<X1X3X5X<X<X2X<X<X<X&X7X=X1X>X=X>X>X1X&X$X$X$X X=X#X/ &X^ / A / T O A Z T A O ! $XR . ^ > ! A ;  X@X* P C 1 l . < 1 > Z A S S T P S S P A A Z Z T J S Z 2 C D > A < A 1 > b 2 Z A P T P S ~ Z A  X:X~ ! L.L.L.L.P.H.J.P.P.P.pXGXGXGXGXGXGXGXGXGXGXGXGXGXGXGXGXGXGXGXGXGXGXGXGXGXGXGXKXMXMXLXLXMXLXLXLXDXDXDXDXDXMXMXMXDXDXDXDXMXDXDXDXMXMXDXGXGXGXGXGXGXGXGXGXGXGXGXGXGXGXGX",
"GXGXGXGXGXGXGXGXGXGXGXGXGXGXGXGXGXGXGXGXGXGXGXGXGXGXGXKXMXMXMXMXMXMXMXMXMXMXMXMXMXMXMXMXMXMXMXMXMXMXDXDXMXMXDXGXGXGXGXGXGXGXGXGXGXGXGXGXGXGXGXFXFXeXR.R.E.R.E.E.T.T.Y.Y.Y.Y.Y.Y.Y.;.;.;.;.;.*.*.~.] U.mX:X@X~ A VX2X%XmXU pXnXiXhXkXvXVX.XZ .XeXmXbXpXkXzXlXfXfXuXzX=XxXiXQ qXZX1X%XDX! nXA qX*X#X7XNXfX4XhXxXfXzXfXvXhXzXxXlXBX X XNXNXdXjXhX1XvXR C 1X; uXX #X2XA D  XyXR &XnX7X2XjX! > qXl xX^ / xXQ <X1X&XdX7X2XuX3X4XqXdX1X&X3X6X2XqX1X=X5X<X:X>X:X<X&X5X&X=X2X&X<X>X=X#X=X&X$X$X&X&X#X$X&X$X=X>X X&X=X@X&X#X>X$X&X@X&X X$XL./ L.#X/ l ^ Z , , S ^ R >  X> J 1 S D < < < ; < A D < S P T P T J J A C D D D S J D R C > < b C C l C D S ! P S Q R J %X~ L.L.^ ~ L.P.H.J.P.P.P.hXFXGXGXGXHXHXGXGXGXGXGXGXGXGXGXGXGXGXGXGXGXGXGXGXGXGXGXKXDXMXMXMXMXMXMXMXMXMXMXMXMXMXMXMXMXMXMXMXMXMXMXMXMXMXDXKXGXGXKXGXGXGXGXGXGXGXGXGXGXGXGX",
"GXGXGXGXGXGXGXGXGXGXGXGXGXGXGXGXGXGXGXGXGXGXGXGXHXGXHXKXMXMXMXDXDXDXDXDXDXMXMXMXDXDXDXDXMXMXMXMXMXMXDXDXMXMXKXGXGXGXGXGXGXGXGXGXHXGXGXGXGXGXHXFXFXeXR.R.E.R.T.E.T.T.Y.Y.Y.Y.Y.Y.Y.;.;.;.;.:.*.*.*.-.F.mX;X1XFX XA L.=XFXP.iXxXyXkXnX#Xl U eXmXkXwXiXkXzX7XxXlXxXzXxX&XjXZ @XxXzX4XI lX/ nX&X2XBXzXNXzXuXzXvXzXvXvXlXuXzXjXvXdXzX3X! 3X1X1XA < J W -XD lXA A C X jXS * =XlX, J wX6XyXdX3X4XhX7X6XuXyXwXiXqX7XiX1XiX<XqX5X6X<X:X7X6X4X-X3X1X>X1X<X=X2X1X<X>X=X=X>X2X#X>X=X=X=X%X=X&X&X&X=X&X>X$X&X$X X#X&X X@X#X X#XL.@X@X#XL.$X^ ^ $XL.W @X$X X$XR R #XL.J < 1 , P   @XC + A E , > + < A / 1 , l S A T S J S A D J D A Z P D D 2 > C C l < < J T Q I P J =XI Q ^ ^ L..XP.H.J.P.P.P.kXFXGXGXGXGXFXGXGXGXGXGXGXGXGXGXGXGXGXGXGXGXGXGXGXGXGXGXKXDXMXLXLXLXLXDXDXDXDXDXDXDXDXMXMXMXMXMXMXMXMXDXDXDXDXMXKXGXGXGXGXGXGXGXGXGXGXGXGXGXGXGX",
"GXGXGXGXGXGXGXGXGXGXGXGXGXGXGXGXGXGXGXGXGXGXGXGXGXGXGXKXMXMXMXMXMXMXMXMXMXMXMXMXMXMXMXMXMXMXMXMXMXMXMXMXMXMXDXKXGXGXGXGXGXGXGXGXGXGXGXGXGXGXGXFXFXeXR.E.E.T.T.T.T.T.T.Y.Y.Y.Y.;.;.;.;.;.;.:.*.*.:.=.c bXzXQ qXZXkXK G kX;X,XzXlXwXb Q wXmXzXkXzXmXiXzXiX#XzXqX=XiXnX! 6XqX< #XNXxXZ 7XfXhXvXnXlXhXhXvXvXxXhXfXlXfXxXvXnXzXdXlXxXdXZ &Xb vXJ 7XBX1 C 2XNXR b lX> xX2XJ Z 2XqX2XfX3X7X4X6XwX1XdX4X5X1X1X<X3XqX1XqX<X<X<X1X-X4X1X2X>X<X<X<X1X1X<X1X1X&X<X>X<X5X<X<X=X<X>X1X#X2X2X&X&X&X-X/ < -X&X@X$X=X@X&X@X$X@X#X#X@X@X@X@X/ L. XL.!  X@X/ ^ R W @XL.R ! / / D @X^ b ^ A + , / O 1 X Z W D , C > C ; < J T Z , A C D D P Z D S S b 1 1 < l Z b 1 Q b Z Q >XI Q ^ L.L..XP.D.J.P.P.P.zXFXGXGXGXGXGXGXGXGXGXGXGXGXGXGXGXGXGXGXGXGXGXGXGXGXGXGXKXMXNXMXMXMXMXMXMXMXMXMXMXMXMXMXMXMXMXMXMXMXMXMXMXMXMXDXKXGXGXGXGXGXGXGXGXGXGXGXGXGXGXGX",
"GXGXGXGXGXGXGXGXGXGXGXGXGXGXGXGXGXGXGXGXGXGXGXGXGXKXKXKXKXDXMXDXMXMXMXMXMXMXMXMXMXMXMXMXMXMXMXMXDXDXDXDXDXDXKXKXGXGXGXGXGXGXGXGXGXGXGXGXGXGXGXFXZXeXR.E.R.R.T.T.T.T.Y.Y.Y.Y.Y.;.;.;.;.;.;.:.*.*.:.#.&.rXkXL.1X>XzXVX,XK Q #XhXnXI ,XVXvXuXqXxX4X~ xXzXzX:XzXK L.lXBX*X*X4XL.%XzXlXnXfXxXvXwXlXhXnXlXxX>XuXBXnXzXxXfXhX X XL.dXvXwXT BXJ <XL.2XBXT C R 4X2X&XhX7XlXqXxXhXdXfX3X2XyX6X6X6X7X3XwXqXqX2XfX6X6X1X:X3X<XwXqX6XhX5X< -XhX6XwX6X>XiX:X4X>X7X-X2X=X-X#X=X>X&X&X$X3X$XW 1X<X#X=XD C 3XL.<X&X&X&X@X>X$X@X:X#X@X#X$X$X#X#X^ #X^ ^ #X/ ^ #X^ P @X( ( ! L.! E R W T ^ J A ^ b A b ( P 1 , D l 1 < > A < < > T T A A T S Z A T ( A b 1 C J 1 < b b I W  XI  X~ L.L..XP.H.J.P.P.P.vXKXKXGXHXGXHXGXGXGXGXGXGXGXGXGXGXGXGXGXGXGXGXKXGXGXKXKXKXDXMXMXMXMXMXMXMXMXMXMXMXMXMXMXMXMXMXMXMXMXMXMXMXMXMXDXKXKXGXGXGXKXKXGXGXGXGXGXGXGXGXGX",
"MXMXMXMXMXMXMXMXMXMXMXMXMXMXMXMXMXMXMXMXMXMXMXMXDXMXDXKXGXGXGXGXGXGXGXGXGXGXGXGXGXGXGXGXGXGXGXGXGXGXKXKXGXGXKXKXMXMXMXMXMXMXMXMXMXMXAXAXAXLXBXBXVX0XR.E.E.R.T.E.T.T.Y.Y.Y.Y.Y.;.;.;.;.;.;.;.*.*.*.;.@.tXmXL.xXqXI qXmXpX.XQ NXzX=XeXzXpXpXnX4X~ !  X=XzXI 3X@X1 &XDX&XC =X%XxXzXdXiXvXxXiXlXvXlXlXqXBX<X&XfXqXnX:X=X1X>X=XnXzXzXqXS ZXS jXT ^ xXdX1X3XdXvXdXqXdX6XqX6X6XyXqXwXqX2XqX3X7XqX6X#XD uX4X>X1XhXb S hX6X1X=X=X=X=X*XqXP ~ R R jX Xb l C wX$X:XZ ; A < 6XX , X @XC C > 6Xb S X R ^ O 1X< ^ $Xb > $X&X< J <X/ A @X X/ #X@X#X/ L.L.! P ^ ! / / ^ ! T ! R W W P R T T P R R S J R S ; + 1 < C l C 1 < b J D Z J Z S S J Z A P T A 1 l , D C b S / @XQ ~ ~ ^ L.#XH.D.J.P.P.P.vXBXNXKXAXDXDXMXMXMXMXMXMXMXMXMXMXMXMXMXMXMXMXMXDXDXMXKXKXGXGXGXGXGXGXGXGXGXGXGXGXGXGXGXGXGXGXGXGXGXGXGXGXGXGXKXDXDXDXDXDXDXMXMXMXMXMXMXMXMXMXMX",
"MXMXMXMXMXMXMXMXMXMXMXMXMXMXMXMXMXMXMXMXMXMXMXMXMXMXMXKXGXGXGXGXGXGXGXGXGXGXGXGXGXGXGXGXGXGXGXGXGXGXGXGXGXGXKXLXMXMXMXMXMXMXMXMXMXMXAXAXAXLXBXBXVX0XR.E.E.R.T.E.T.T.Y.Y.Y.Y.Y.;.;.;.;.;.;.;.*.*.*.=.@.Q.VX XiXvX X1X%XbXmXP.iXxX2XL.vXkXkXqX. uXnXZ D >X2X=XkXQ L.nXjXhXvXvXfXlXhXxXhXhXlXlXxXnXvXI qXnXW $X XjX&X&XvX1X>XNXfXzXjXQ T 1XxXjXlXdXfXyXdXdXqXqXqXqXdXqXqX7X7X2X3XqX7XjX7X7X7XNXL.l iX6XwX4X7Xo < dXiXK C > $X^ + jXl > K > lXX =XR b 4X<XwX! 1 jX. 1X<  X1X> D dXO J > dXl $X X> <X* &X, R l @X< S > E ; 1 A $X#XW > < P @X XS * @X@X^  X/ ! L.W ! ! R ! T R P T P P P J J S S A b C < 2 > S 1 S S < > 2 J D J A J D S S E T P 1 b b D T ^  XI Q L.L.L.#XH.H H.P.P.P.vXBXNXDXNXBXMXMXMXMXMXMXMXMXMXMXMXMXMXMXMXMXMXMXMXMXMXMXKXGXGXGXGXGXGXGXGXGXGXGXGXGXGXGXGXGXGXGXGXGXGXGXGXGXGXGXKXMXMXMXMXMXMXMXMXMXMXMXMXMXMXMX",
"MXMXMXMXMXMXMXMXMXMXMXMXMXMXMXMXMXMXMXMXMXMXMXMXMXMXLXKXGXGXGXGXGXGXGXGXGXGXGXGXGXGXGXGXGXGXGXGXGXGXGXGXGXGXGXMXMXMXMXMXMXMXMXMXMXMXAXAXAXAXBXBXVX0XR.T.T.R.E.E.T.T.T.T.Y.Y.Y.;.;.;.;.;.;.=.*.*.*.=.@.K.VX:X=XBX XvX2XU eXQ uXjXwXP.vXwXvX:X#X&XxXR xX/ iX> K L.zXlXfXhXjXhXuXjXfXlXjXjXhXvXyX&XBXW 1XlX#XnX*XvXJ <XzX3XP xXuXlXxXjXxXvXdXyXhXdXdXdXwXdX6XqXdX7X6XqXdXqXdXxXjX3XjX#X1XdXfXQ < A dX3X4XwX@X>X> yX@X; BX, 6X%Xl DXZ  X XI 4X. ZXb W dX#XfXZ ^ >X, &XO <XyXo @X/ , A l &X. <X1 R / ; <XO 3X7XP X J E 1XO < #XL.@X; @X; T L.@X,    Xb ; < ^ ! W / D 1 ^ J W R J R P P J D P S P J J S D A > ; * D D < Z 1 1 * C S J S S S T S S ! S > A J @XL.! L.~ / L.#XU D.J.P.P.P.nXNXNXAXMXLXMXMXMXMXMXMXMXMXMXMXMXMXMXMXMXMXMXMXMXMXMXDXKXGXGXGXGXGXGXGXGXGXGXGXGXGXGXGXGXGXGXGXGXGXGXGXGXGXGXGXDXMXDXMXMXMXMXMXMXMXMXMXMXMXMXMX",
"MXMXMXMXMXMXMXMXMXMXMXMXMXMXMXMXMXMXMXMXMXMXMXMXMXMXLXKXGXGXGXGXGXGXGXGXGXGXGXGXGXGXGXGXGXGXGXGXGXGXGXGXGXGXGXMXMXMXMXMXMXMXMXMXMXMXAXAXAXAXBXBXVX0XR.T.T.R.E.E.T.T.T.T.Y.Y.Y.;.;.;.;.;.;.:.*.*.*.*.#.G.mX5X$XBX.XiXuX XkXP.:XnXbXP.eXkXzXxX4X XCX^ xX< #X-XVXvXjXhXuXlXyXdXzXhXzXhXxXdXNX7X&XL.4X<XhXnXW NXQ 4X#X%X1XvXxXlXxXhXfXjXzX3XlXdXwXjXyX<XzX6XwXjXhXdXdXjX<XfX&XZ <XnXJ T * 3XP / <Xl nX<X5XlX, I X qXI C zX> uXK O uXO %XW . #XO b o %X<X:X6Xl > b  X1X* ^ 3X/ > < #X:XO < *  XW + > ; ^ > < C ( > F ! 1 T O  X&XS , =X; @X@X X,  XA < / + R * > D 1 X ^ P R W E R J P S T J P A S S J S J D S Z S C < < < C C C 1 b R A J S T R A T S Q I @X! Q ^ ^ ^ L.#XU D.J.P.P.P.nXBXNXAXMXBXBXMXMXMXMXMXMXMXMXMXMXMXMXMXMXMXMXMXMXMXMXDXKXGXGXGXGXGXGXGXGXGXGXGXGXGXGXGXGXGXGXGXGXGXGXGXGXGXGXGXLXMXLXMXMXMXMXMXMXMXMXMXMXMXMXMX",
"MXMXMXMXMXMXMXMXMXMXMXMXMXMXMXMXMXMXMXMXMXMXMXMXMXMXDXKXGXGXGXGXGXGXGXGXGXGXGXGXGXGXGXGXGXGXGXGXGXGXGXGXGXGXGXMXMXMXMXMXMXMXMXMXMXMXAXAXAXLXBXBXVX0XR.T.T.R.E.E.E.T.T.T.Y.Y.Y.;.;.;.;.;.;.:.*.*.*.*.$.-.bXpX XnX:X-XvX XvX,X XnXbXP.2XvXwXzXfXP NXT 6XjXnXNXzXqXjXhXhXuXzXhXnXhXjXxX&XlXNX^ xXvX! 4X XxX@XnX>XdXZXxXvXzXvXfXlXhXqXxXyXjXqXyXfXxX1XC uXxXxX&X XdX$XwXR / C #X; &X> KXA A , yX$Xl dX1XuXL.< 1Xl l 7XO , * 6X*Xl 6X/ 6X&X XwX$X%Xo %X<X<X<X+ 1X<X5X<X2XqX&X=X1X6X<X-X<X<X3X&X#X>X1X$X3X@X/ @X&X! A @XP l Z $X#X X* l . R  X! . @X+ ^ C C #X+ < #X* Z J < ; S T P T R T T D P A S J A D J P J A J D 1 , < < C 1 > 1 S P D 1 C P A R T R P %XQ Q ~ / ^ L..XU D.J.P.P.P.nXNXMXAXMXBXMXMXMXMXMXMXMXMXMXMXMXMXMXMXMXMXMXMXMXMXMXDXKXGXGXGXGXGXGXGXGXGXGXGXGXGXGXGXGXGXGXGXGXGXGXGXGXGXGXGXLXMXLXMXMXMXMXMXMXMXMXMXMXMXMXMX",
"MXMXMXMXMXMXMXMXMXMXMXMXMXMXMXMXMXMXMXMXMXMXMXMXMXMXDXKXGXGXGXGXGXGXGXGXGXGXGXGXGXGXGXGXGXGXGXGXGXGXGXGXGXGXGXMXMXMXMXMXMXMXMXMXMXMXAXAXAXLXBXBXVX0XR.T.T.R.E.E.E.T.T.T.Y.Y.Y.Y.;.;.;.;.;.=.*.*.*.*.*.@.rXbX~ zXqX.XVX~ kXkXL.lXnX.X#XvXuXkXhXA 7XxXlXxXiXzXqXxXdXfXxXfXNXiX1X<XW 5X/ vXvX*X@XqX-XjX XxXfXxXvXvXuXhXxXhXhXxXjXjXlXhXdXxXxXxXdXqXDXD W C 3X#X> <XX @X<Xb 2XBXX / > xX, &XR , C O :XyXuXA <XvX X@X7XqX*Xb jX2XqX5X4X<X7XuX<XqX4XL.3X3X&X:X X4X:X>X>X>X$X>X<X$X&X&X#X>X$X&X=X%X$X#X$X$X$X&X>X#X&X=X$X%X=X>X^ @X X@X! R  X@X^ > E C > ; , C C ; R * @X; < < R P J R > 1 l S T W S J T J Z A A D J A A A A , < l 2 C S R , 1 b T R S P K K =XQ ~ ! ~ ^ L..XY H.J.P.P.P.nXBXMXAXMXBXMXMXMXMXMXMXMXMXMXMXMXMXMXMXMXMXMXMXMXMXMXDXKXGXGXGXGXGXGXGXGXGXGXGXGXGXGXGXGXGXGXGXGXGXGXGXGXGXGXGXLXMXMXMXMXMXMXMXMXMXMXMXMXMXMXMX",
"MXMXMXMXMXMXMXMXMXMXMXMXMXMXMXMXMXMXMXMXMXMXMXMXMXMXDXKXGXGXGXGXGXGXGXGXGXGXGXGXGXGXGXGXGXGXGXGXGXGXGXGXGXGXGXMXMXMXMXMXMXMXMXMXMXMXAXAXAXAXBXBXVX0XR.R.T.R.E.E.E.T.T.T.Y.Y.Y.Y.;.;.;.;.;.=.*.*.*.*.:.@.tXmX^ yXpX XFX X2XbX/ fXnX,X~ nXkXkXzX=XzXyXdXjXfXqXzXuXlXzXhXzXP I P NX XNXL.xXxXhX/ >XxXvXvXvXzXxXxXjXvXBXzXnXvXdXxXnXxXjXqX<XdXqXD A BX, $XJ 7XNX, K C X KXl A @XZ vXD b P nX7X^ 7X6XyX>X6XwX1X6X6XfX5XyX:X%X1X6X=X2X2X1X<X4X:X<X:X7X:X6X2X3X1X>X>X=X>X>X-X&X2X>X&X=X1X>X&X&X$X&X&X&X&X@X&X@X@X#X^ $X$X@XL.L.#X^ @X X@X$XL.^  X@X@X$X/ F ^ J < J Z o ^ . < P T T R l b 1 l P S b < A A T J J S D S A D T P 1 1 A < b A S , W C A J T W I I %XI ! ~ L.^  XL.L H.J.P.P.P.nXBXMXAXMXBXMXMXMXMXMXMXMXMXMXMXMXMXMXMXMXMXMXMXMXMXMXDXKXGXGXGXGXGXGXGXGXGXGXGXGXGXGXGXGXGXGXGXGXGXGXGXGXGXGXGXDXMXDXMXMXMXMXMXMXMXMXMXMXMXMXMX",
"MXMXMXMXMXMXMXMXMXMXMXMXMXMXMXMXMXMXMXMXMXMXMXMXMXMXDXKXGXGXGXGXGXGXGXGXGXGXGXGXGXGXGXGXGXGXGXGXGXGXGXGXGXGXGXMXMXMXMXMXMXMXMXMXMXBXAXAXAXAXBXBXVX0XR.R.T.R.E.E.T.T.T.T.Y.Y.Y.Y.;.;.;.;.;.=.*.*.*.*.:.#.XXVX@X:XnXL.nX:X-XmX X4XzXkXI mXwXhXjXvXhXjXvXdXfXjXfXfXzX&XC jXZ 7X/ xXD @XA vXxXnXvXxXlXjXxXzXfXhXvXlXwX:X>X! uXvX7X$XyXyX&X! >X/ dXfXxXZ nXT / NX< L.1XI vX6XP ! 6XfXdXxXlX7X7XyXdX7X7XqX5XiX5X7X1X>X5X3X4XqX3X>XjX6X7XqX4X=X6X>X1X:X2XL.T =X=X=X=X<X&X=X1X&XD =X=X>X@XP &X$X&X#X<X#X#X$X$X#X$X$X@X X@X@X#X^ $XL. X#X@X!  X@X/ L.W R @X@XT L.( ^  XZ / b > J > D ^ O S < Z R D O > D ; 1 C A T D J S A A A Z A J b C A C C T < C C J I R W *XI ~ ~ L.^  XP.L H.P.P.P.P.mXBXMXAXMXLXMXMXMXMXMXMXMXMXMXMXMXMXMXMXMXMXMXMXMXMXMXDXKXGXGXGXGXGXGXGXGXGXGXGXGXGXGXGXGXGXGXGXGXGXGXGXGXGXGXGXDXMXDXMXMXMXMXMXMXMXMXMXMXMXMXMX",
"MXMXMXMXMXMXMXMXMXMXMXMXMXMXMXMXMXMXMXMXMXMXMXMXMXMXDXKXGXGXGXGXGXGXGXGXGXGXGXGXGXGXGXGXGXGXGXGXGXGXGXGXGXGXGXMXMXMXMXMXMXMXMXMXMXMXAXAXAXLXLXBXVX0XR.R.T.R.E.E.T.T.T.T.Y.Y.Y.Y.;.;.;.;.;.=.*.*.*.*.:.#.I.mX>X$XZX XqXiX.XVX$X&XnXzXK qXzXzXjXkXxXuXyXlXlXlXzXzX<X4X/ zX&XlXQ P 3XW @XxX4XhXzXxXxXzXwXxXxXhXnXvX#X$XFX@XfXvX#X X-X@X@X%XfX< xX3X6XZ hXJ C vX3XqXqXfXdX3XvXxXyX7X7X7X1X3XqX6X3X7X7X5X2X4X2X2XqX3X5X4X>X<X5XqXS @XK < 1X; #X4X=XxXS I Z S uX3X3X5X<X3X2X>XO #X&X2X@XC 6X<X3X-X$X&X&X:X&X>X#X^ &X=X@X#X@X#X X X^  X#X@X X X@X^  X X! / ^ ^ ^ P T ^ R / T R , A ! < ;   C R D ; 1 D , * + , P A D A S A D D T J P P P A 1 < 1 F F 1 l K ^ @XQ ~ ~ / ^  XP.G H.P.P.P.P.mXBXMXAXMXBXMXMXMXMXMXMXMXMXMXMXMXMXMXMXMXMXMXMXMXMXMXDXKXGXGXGXGXGXGXGXGXGXGXGXGXGXGXGXGXGXGXGXGXGXGXGXGXGXGXGXDXMXDXMXMXMXMXMXMXMXMXMXMXMXMXMX",
"MXMXMXMXMXMXMXMXMXMXMXMXMXMXMXMXMXMXMXMXMXMXMXMXMXMXDXKXGXGXGXGXGXGXGXGXGXGXGXGXGXGXGXGXGXGXGXGXGXGXGXGXGXGXGXMXMXMXMXMXMXMXMXMXMXBXAXAXAXAXBXBXVX0XR.E.T.T.E.E.T.T.T.T.Y.Y.Y.Y.;.;.;.;.;.=.*.*.*.*.>.#.U.mX2X XZX*X7XxXQ mX>X$XxXzXL.1XnXdXvXwX7XBXxXiXnX X6XLXR zX>XD #X=XqX6XBXvX5XzXxXxXvXdXzXlXnXxXvXvXfXnXhX X1XP 4X1XL.<XlXL., qX6X^ l J jX@XfXjXzXfXqXfXdX6X6XqX7X2XwX7XqX7XyXdX3X7X4X7X3X5X<XqX5X4X<X4XqX4X6X5X6XfX~ =X>X* fX, &X6X1X X. L. X%X^ I R l <X=XS < > 3X=X$XC &X! D 1 W -X&X&XJ ^ / #X<X@XL.&X#X X#X#X&X$X^ C &XC <  X X^ ! ^ ! W / E / / ( R P ! Z P / T P P A J T , , 1 < b 1 b l Z + 1 P A A T A S C J A A R A C J > A Z < K L.L.Q ~ ~ ~ ^  XP.G H.P.P.P.P.mXBXMXAXMXBXMXMXMXMXMXMXMXMXMXMXMXMXMXMXMXMXMXMXMXMXMXDXKXGXGXGXGXGXGXGXGXGXGXGXGXGXGXGXGXGXGXGXGXGXGXGXGXGXGXGXDXMXDXMXMXMXMXMXMXMXMXMXMXMXMXMX",
"MXMXMXMXMXMXMXMXMXMXMXMXMXMXMXMXMXMXMXMXMXMXMXMXMXMXDXKXGXGXGXGXGXGXGXGXGXGXGXGXGXGXGXGXGXGXGXGXGXGXGXGXGXGXGXMXMXMXMXMXMXMXMXMXBXBXAXAXAXAXBXBXVX0XR.Y.T.T.E.E.E.T.T.Y.Y.Y.Y.Y.;.;.;.;.;.=.*.*.*.*.:.*.&.bXpX! PX6X#XZX! lXpXP.zXvX-X#XvXuXvX=XK dXvXD &X X6XNX&Xb Q K hXxXhXvXfXqXxXxXuXyXxXlXjXzXvXzX=XkXvXzXhXL.nXuXI wXA &X:XfXD Q qXvXfXlXxXhXuXiX6XuX6XuXqXyXdX7X6XyX4XyXqX2X7XyX3X3XdXyX3XuXfX1XyX2X6X5XL.2X5X6X XA , hX#Xb uX* 5X:XqXT ; %X1 l 5X. R o >X, ! ^ < 6X$X5X.  X/ . K ; -X$X<X+ > + Z -X> < Z %X@X=XJ l ^ ^ .  XR < $X/ @X@XL.^ ^ W ^ ! ! P ! T W E W T S T T S R P S b S 1 1 1 > b > P , 1 + 2 S > C < P S P S T R A < b b Q J  X^ Q Q ~ ~ L.#XU L H.J.P.P.P.VXBXMXAXMXBXBXMXMXMXMXMXMXMXMXMXMXMXMXMXMXMXMXMXMXMXMXDXKXGXGXGXGXGXGXGXGXGXGXGXGXGXGXGXGXGXGXGXGXGXGXGXGXGXGXGXMXMXMXMXMXMXMXMXMXMXMXMXMXMXMXMX",
"MXMXMXMXMXMXMXMXMXMXMXMXMXMXMXMXMXMXMXMXMXMXMXMXMXMXDXKXGXGXGXGXGXGXGXGXGXGXGXGXGXGXGXGXGXGXGXGXGXGXGXGXGXGXGXMXMXMXMXMXMXMXMXMXBXBXMXAXAXAXBXVXmX0XR.Y.T.T.E.E.E.T.T.Y.Y.Y.Y.;.;.;.;.;.;.=.*.*.*.*.:.-.&.rXbXL.cXdX.XVX X6XzXP.kXzX2XQ nXkXzXzXQ 1 S :X#X3X>XxXNX@XdXBXhXiXvXuXxXzXdXzXlX&XxXlXnXqX7X<X#X3XvXvXkX%XNX1X%XBX=X#XwXvXvXvXxXiXhXqX3X7XhXiXwXjXdX6XqX6X4XqXfX7X6X6XyXvX7XyXqXjX$X-XxXJ ^ xXl qX2XqXX %Xb K / qX* 2XR T uX, dX2X7X Xb BXA @X>X< iXC 1X; fXZ K 5X&X<X, 1XZ / Q A 1X#X<X1 #XP  X> D &X; @X=Xl , J > J . $X; + l ^ / b R ! / ! / ! C ; ^ ! T R D P R P E P Z T J P T R A P 1 F > , 1 > S < b O S > P D D A A R R P A b R J @X/ Q Q ~ ~ L.#XU L H.J.P.P.P.VXBXMXAXMXBXBXMXMXMXMXMXMXMXMXMXMXMXMXMXMXMXMXMXMXMXMXDXKXGXGXGXGXGXGXGXGXGXGXGXGXGXGXGXGXGXGXGXGXGXGXGXGXGXGXGXMXMXDXMXMXMXMXMXMXMXMXMXMXMXMXMX",
"MXMXMXMXMXMXMXMXMXMXMXMXMXMXMXMXMXMXMXMXMXMXMXMXMXMXDXKXGXGXGXGXGXGXGXGXGXGXGXGXGXGXGXGXGXGXGXGXGXGXGXGXGXGXGXMXMXMXMXMXMXMXMXMXBXBXMXAXAXAXBXVXmX0XR.Y.T.T.T.T.E.T.T.Y.Y.Y.Y.;.;.;.;.;.;.:.*.*.*.*.*.-.@.tXmX X4XxX XvX9X&XmXP.eXzXhXZ vXkXiXVX^ VXJ  X! C #XnXdXxXuXlXhXhXhXhXdXhXlXnXdX5XxXD wXuX2X XuXxXxXvXuX! =X:XiXvXhXvXzXfXdX6XuXqXhXjXxXvX6XuXxX@X=XuX<XnXlXdX2XdXyX7X&XR zXC qX! A l L.Q l <X, iX4XjXA * C . #XfX+ fXl T $XO -X:XqXZ S zXX K D l >X.  X* b + < 1X=X%X. Q > @XC > &X-X/ O &X. ^ O &XT + &X&X* $X@X< C J >X+ ! > D ; 1 < < O < P #XT + ! W T ^ ^ P P P S J T A ! C D A D R F J Z , A < 1 1 1 C b * C S P ( S J S T T T R K @XW ~ Q L.~ L.@XU L H.J.P.P.P.VXDXNXLXMXBXBXMXMXMXMXMXMXMXMXMXMXMXMXMXMXMXMXMXMXMXMXDXKXGXGXGXGXGXGXGXGXGXGXGXGXGXGXGXGXGXGXGXGXGXGXGXGXGXGXGXDXMXDXMXMXMXMXMXMXMXMXMXMXMXMXMX",
"MXMXMXMXMXMXMXMXMXMXMXMXMXMXMXMXMXMXMXMXMXMXMXMXMXMXDXKXGXGXGXGXGXGXGXGXGXGXGXGXGXGXGXGXGXGXGXGXGXGXGXGXGXGXGXMXMXMXMXMXMXMXMXMXBXBXMXAXAXAXBXVXmX0XR.Y.T.T.T.T.E.T.Y.Y.T.Y.Y.;.;.;.;.;.;.:.*.*.*.*.*.=.] Q.mX%X&XNXL.zXyX/ VX;X,XbXvXG kXzXqXnX@XiX@X:X2XP &XxXiXlXxXxXvXuXfXlXvXxX4X@XjXD xX3XJ uXhX~ :XdXkXvXvXuXzXnXnXxXkXhXlXdXdXxXlXxX4XjX@X$X$Xl vX~ 4X-X+ :XP 7X4XD dXfX2X; lX1 &X* NXL.b !  X>X1 uX1XuXL.X qX. 6X>X. ! R o 5X,  X7XfXl *X6XS  X@X@XiXQ 1X%X/ @XL.&X1X&X/ $XL.>XL.K &X=X@XS 3X; L.! O < $X&X&X< b > W * P P >  X,  X+ C ! l C A R  X< * , R J < T R T T P W P S D J J J J A J P J S P C , Z ; J < b l b > A S J J J P T T J #XR ~ Q L./ L. XU G H.J.P.P.P.VXDXMXAXAXBXBXMXMXMXMXMXMXMXMXMXMXMXMXMXMXMXMXMXMXMXMXDXKXGXGXGXGXGXGXGXGXGXGXGXGXGXGXGXGXGXGXGXGXGXGXGXGXGXGXGXDXMXDXMXMXMXMXMXMXMXMXMXMXMXMXMX",
"MXMXMXMXMXMXMXMXMXMXMXMXMXMXMXMXMXMXMXMXMXMXMXMXMXMXDXKXGXGXGXGXGXGXGXGXGXGXGXGXGXGXGXGXGXGXGXGXGXGXGXGXGXGXGXMXMXMXMXMXMXMXMXMXBXBXMXAXAXAXBXVXmX0XR.Y.T.T.T.E.E.T.T.Y.T.Y.Y.;.;.;.;.;.;.:.*.*.:.*.$.=.] K.mX:X XBX#XqXxXR mX,X.XvXvXL.1XvXhXzXqXb #XBXxXlXdXjXzXiXfXR <XvXnXqX-XwXA %XBX#XvXZXT qXNX2X-XhXvXkXjXnXxXkXuXfXvXjXuXhXzX4XW zXxXxX-X<XnXb 6X/ iX>X. :XA ! &X, hXfX<XC ZX, <X. 4XP @XT ; Z . $X1XfX1XW jX%X<XfX2X7X4XqX4X4X1X2X! T 5X5X3X-X1X=X>X:X-X&X5X4X<X&X&X:X<X:X%X:X=X:X%X#X$X&X&X>X&X=X$X$X#X^ &X@XZ W =XZ T S P J . A O b ! O  X XL.! * $X; < > < C 1 > S S A S R D E P A T A J D Z T D A S P < b b 1 Z < > C A A R P P A I I #XT ~ Q L./ L..XU G H.J.P.P.P.VXDXMXAXMXBXBXMXMXMXMXMXMXMXMXMXMXMXMXMXMXMXMXMXMXMXMXLXKXGXGXGXGXGXGXGXGXGXGXGXGXGXGXGXGXGXGXGXGXGXGXGXGXGXGXGXDXMXDXMXMXMXMXMXMXMXMXMXMXMXMXMX",
"MXMXMXMXMXMXMXMXMXMXMXMXMXMXMXMXMXMXMXMXMXMXMXMXMXMXDXKXGXGXGXGXGXGXGXGXGXGXGXGXGXGXGXGXGXGXGXGXGXGXGXGXGXGXGXMXMXMXMXMXMXMXMXMXBXBXMXAXAXAXBXBXmX0XR.Y.T.T.T.T.E.T.T.Y.T.Y.Y.Y.;.;.;.;.;.:.*.*.:.*.$.-.#.G.bXqXL.VX-X:XCX! zXpXL.zXvX-X XnXzXhXzXwXjXhXfXfXlXlXhXlXDXL.:X&XI yXR FX@Xb dX@XJ xXqXjXvXnXvXNXzXjXxXhXvXvXnXkXlXuXdXxXvX6XD <X3XxXR :XdX1 vXb  XlXb FXP 1X2XZ nX7X1X+ 1 + BX@X< P uXiX! uX6XqX3X=X2XwX:XqXqX5X2X4X5X>XqXiXlXfXhXxXiXqXuX7XhXfX7XwXdX6X5X4X<XuX>X<X>X5X>X>X>X<X1X1X<X:X1X X$X&X&X@X#X$X@X@X=X&X@X@X@X! @X$X X@XJ A W < / / ! A , R ; < ; D ; 1 , < X X A T J Z P J b J S S Z D D D S P S D D , C b F A l l F D R R I R #XI ~ ! ~ ~ L.L.L L H.J.P.P.P.VXDXMXAXMXMXMXMXMXMXMXMXMXMXMXMXMXMXMXMXMXMXMXMXMXMXMXDXKXGXGXGXGXGXGXGXGXGXGXGXGXGXGXGXGXGXGXGXGXGXGXGXGXGXGXGXDXMXDXMXMXMXMXMXMXMXMXMXMXMXMXMX",
"MXMXMXMXMXMXMXMXMXMXMXMXMXMXMXMXMXMXMXMXMXMXMXMXMXMXDXKXGXGXGXGXGXGXGXGXGXGXGXGXGXGXGXGXGXGXGXGXGXGXGXGXGXGXGXMXMXMXMXMXMXMXMXMXBXBXMXAXAXAXBXBXmX0XR.Y.Y.T.T.E.E.T.T.Y.T.Y.Y.Y.;.;.;.;.;.:.*.*.*.:.*.-.#.&.aXbX~ vX7X#XZX XqXvXL.kXvX4XI vXhXpXiXjXNXiXlXfXyXdXvX6XzX<X%XzXL.nX/ xX&X! 4XvX&XZXzXvXjXhXzXhXqXNXzXhXxX4X:XvXxXzXvX3X1XBXK P C 5X@XA nXb FXC <X1X* qXK b * T vX3XdX@X/ 1 fX6XxXiX6X<XhXiX5XqXuXfXhXfXjX6XqX5XqX<X6XqX XQ T C A 1 b C C l < < , , ; > < > < , < > > ; > ; < l S Z A Z / -X^  X&X X@X@X#X$X&X! @X#X@X%X@X/ ! ^ #XL. X X! ^ ^ J C + S b O R , > D S 1 A P T > 1 , Z + J S P J D J D A D A R P A C C , < > C < Z D T I ! #XT Q ~ ~ ~ L.L.L G H.J.P.P.P.ZXDXMXAXMXMXMXMXMXMXMXMXMXMXMXMXMXMXMXMXMXMXMXMXMXMXMXLXKXGXGXGXGXGXGXGXGXGXGXGXGXGXGXGXGXGXGXGXGXGXGXGXGXGXGXGXMXMXMXMXMXMXMXMXMXMXMXMXMXMXMXMX",
"MXMXMXMXMXMXMXMXMXMXMXMXMXMXMXMXMXMXMXMXMXMXMXMXMXMXDXKXGXGXGXGXGXGXGXGXGXGXGXGXGXGXGXGXGXGXGXGXGXGXGXGXGXGXGXMXMXMXMXMXMXMXMXMXBXBXMXAXAXAXBXBXmX0XR.Y.Y.T.T.E.T.T.T.Y.Y.Y.Y.Y.;.;.;.;.;.:.*.*.*.:.*.*.*.@.rXmX~ kXdX XVX#X:XmXP.qXvXwXK vXiXzXlXjX6XfXfXxXxXfXuXT R iX#XBXA qX+ =X&X:XvXhXZXdXzXjXxXzXxXnXxXzXjXzXnXiX^ zXqXzX&XI K BXK xX@XP 4XI BX+ $XZ * hX, &X6X XK R vX7X4XzX5X@XdXqX4XlXhXlXdX6X6X6X&X/ R T K A 1 ; X ; * o ; ; l K S T ! S Q R R W L./  X^ @XL.L. XL.*X#XL.*X@XA S Z Z A R L./ L./ L./ / ^ R A Z / J S W ^ W #X@X#X X X X! ^ ! R  XR  X! L.1 S b O S ; Z R R l < A l 1 * S P Z S S S D S S D A A S P P C C 2 T < C < C I / @XT Q ~ ~ ~ L.L.L L H.J.P.P.L.ZXDXMXAXMXMXBXMXMXMXMXMXMXMXMXMXMXMXMXMXMXMXMXMXMXMXMXLXKXGXGXGXGXGXGXGXGXGXGXGXGXGXGXGXGXGXGXGXGXGXGXGXGXGXGXGXMXMXMXMXMXMXMXMXMXMXMXMXMXMXMXMX",
"MXMXMXMXMXMXMXMXMXMXMXMXMXMXMXMXMXMXMXMXMXMXMXMXMXMXDXKXGXGXGXGXGXGXGXGXGXGXGXGXGXGXGXGXGXGXGXGXGXGXGXGXGXGXGXMXMXMXMXMXMXMXMXMXBXBXMXAXAXAXBXVXVX0XT.Y.Y.Y.Y.Y.T.T.T.Y.Y.Y.Y.Y.;.;.;.;.;.=.*.*.:.*.*.-.:.] 0XVX.X,XNX/ VX2XL.VX#X:XzXmXG wXvXuXhXkXlXlXlX>X>XyX@XyXZXuXb qX! K qXjXDXnXuXhXzXlXvXzXzXhXnX-X2XNXnXuXzXnXL.wX1X2X@XZXK HXZ lXW  X1XX qXQ @XqX>XzXhXhXiXhX=X4XyXfXhXxXzXiXiXyX&XI R Z < ; * ; > > Z S J W %X=XqX1X2X1XqXuXqXiXyXqXwXwX7X5XwXwX1X5X2X2X1X:X5X:X:X>X=X>X>X=X<X1X<X1X<X>X#X&X#X&X@X$X@X@X XL.^ R D C < > 2 b C b Z T W ! / / ! ! ! ! R R ! ! W P D Z Z S J , Z > D 2 Z R D ; < 1 S P A P A D S J Z S P P C C < A > S P L. XI Q L.Q ~ L.L.Z H H.J.P.P.L.FXNXMXLXLXMXMXMXMXMXMXMXMXMXMXMXMXMXMXMXMXMXMXMXMXMXMXDXKXGXGXGXGXGXGXGXGXGXGXGXGXGXGXGXGXGXGXGXGXGXGXGXGXGXGXGXDXMXDXMXMXMXMXMXMXMXMXMXMXMXMXMX",
"MXMXMXMXMXMXMXMXMXMXMXMXMXMXMXMXMXMXMXMXMXMXMXMXMXMXDXKXGXGXGXGXGXGXGXGXGXGXGXGXGXGXGXGXGXGXGXGXGXGXGXGXGXGXGXMXMXMXMXMXMXMXMXMXBXBXMXAXAXAXBXVXVX0XT.Y.Y.Y.T.Y.T.T.T.Y.Y.Y.Y.Y.;.;.;.;.;.=.*.*.:.*.*.-.:.] Q.mX;X%XNX XzXpXL.mX:X%XzXnXQ ,XvXpXzXwXvX%XxXJ b KX XL.fXqXP 7XNXnXnXhXhX6XvXhXlXdXqXvXxXvXvXuXzX6X-X^ L.FXL.K nXqX^ xX; :XL.S ! jXhX>XhXhXdXhXuXiXiXiXhXnXuXhX6X:X~ P b < , , l C A R @X<X4X7X6XwXhXfXhXyXqX4X1X1X4X6X2X1X5X1X5X5X5X<X7XuX1X:XqX4X1X:X4X5X<X<X5X2X2X2X:X<X&X>X*X=X&X&X&X&X%X&X#X#X@X@X#X#X$X#X#X@X$X@XL./ T A Z A C A D S P P R W ! ! ! ! W E P J P ! E b 1 + 1 > J T > S < C + , S C P D Z P S P S S T A l Z , T P  X^ R Q L.Q ~ L.P.G H H.J.P.P.L.FXNXMXAXLXMXMXMXMXMXMXMXMXMXMXMXMXMXMXMXMXMXMXMXMXMXMXDXKXGXGXGXGXGXGXGXGXGXGXGXGXGXGXGXGXGXGXGXGXGXGXGXGXGXGXGXDXMXDXMXMXMXMXMXMXMXMXMXMXMXMXMX",
"MXMXMXMXMXMXMXMXMXMXMXMXMXMXMXMXMXMXMXMXMXMXMXMXMXMXDXKXGXGXGXGXGXGXGXGXGXGXGXGXGXGXGXGXGXGXGXGXGXGXGXGXGXGXGXMXMXMXMXMXMXMXMXMXBXBXMXAXAXAXBXVXVX0XT.Y.Y.Y.T.Y.T.T.T.Y.Y.Y.Y.Y.;.;.;.;.;.=.*.*.:.:.*.*.*.#.G.mXeXL.VX%X1XnXL.kXwX XzXvX%XL.nXhXhXzX4XL.@XHX1 &XdXl T xXnXfXlXiXjXfXhXxXxXhXzXxXQ vXzX4X:XL.7X7X~ kX#XHXI L.I 7XZ $X^ <XzX6XjXfXqXhXiXlXjXxXhXfXuX:X XR b l < ; A P  X1XqX6XiXzXlXfXyXqX7X4X4X6X4XqX5XwXqX4XdXdX1X6X:X:X1X&X%X$X X*X^ ! / ~ ! S ^ P T I K J D T J A D T Q L.W L.L.L.@X@X#X#X&X&X&X&X&X$X@X@X@X@X^  X X X@X@X@X@X^ / ! E J D A F b C Z S T W ! / S P A P R P S 1 S S > C 2 A < < 1 , F A P S S Z A S W J S S b R J @XQ W Q ~ ~ ~ L.P.G H F.J.P.P.P.FXNXMXAXAXMXMXMXMXMXMXMXMXMXMXMXMXMXMXMXMXMXMXMXMXMXMXDXKXGXGXGXGXGXGXGXGXGXGXGXGXGXGXGXGXGXGXGXGXGXGXGXGXGXGXGXDXMXDXMXMXMXMXMXMXMXMXMXMXMXMXMX",
"MXMXMXMXMXMXMXMXMXMXMXMXMXMXMXMXMXMXMXMXMXMXMXMXMXMXDXKXGXGXGXGXGXGXGXGXGXGXGXGXGXGXGXGXGXGXGXGXGXGXGXGXGXGXGXMXMXMXMXMXMXMXMXMXBXBXMXAXAXAXBXVXVX0XT.Y.Y.Y.T.Y.T.T.T.Y.Y.Y.Y.Y.;.;.;.;.;.=.*.*.:.:.*.*.$.*.&.bXkXQ nX2X XZXL.5XvXL.hXvXqXI vXkXzXzXL.#XfXgX#XA hXxXxXzXiXhXzXzXhXzXhXlX6XlXvXuX~ nXI  X-XqX-XBX&XvXI wX XzX7X@XjXqXBXzXqXzXlXfXzXNXdXqX1X^ ! C 1 l K ! #X>XuXhXvXzXuXqX7X7X7X6XyXqXwXuXfXyX7X5X<X>X%X@X XR I A A A C 1 < , , < < < > , l > ; l ; < l > < b ; 1 < < C l < , , 1 l 1 1 l b l b C A D J T W / @X#X@X#X@X@X X XL./ L.^ / / ! ! W R P A l < , < b C R W P R P S P J P P Z > > 1 A < 1 Z , b P 1 D T T S D S T R S T J #XI ~ Q ~ ~ ~ L.P.G H H.J.P.P..XFXNXMXAXAXMXMXMXMXMXMXMXMXMXMXMXMXMXMXMXMXMXMXMXMXMXMXDXKXGXGXGXGXGXGXGXGXGXGXGXGXGXGXGXGXGXGXGXGXGXGXGXGXGXGXGXDXMXDXMXMXMXMXMXMXMXMXMXMXMXMXMX",
"MXMXMXMXMXMXMXMXMXMXMXMXMXMXMXMXMXMXMXMXMXMXMXMXMXMXDXKXGXGXGXGXGXGXGXGXGXGXGXGXGXGXGXGXGXGXGXGXGXGXGXGXGXGXGXMXMXMXMXMXMXMXMXMXBXBXMXAXAXAXBXBXVX0XR.Y.Y.Y.T.T.T.Y.Y.Y.Y.Y.Y.;.;.;.;.;.;.*.*.*.:.:.*.*.$.*.@.rXmXI kXpX~ ZX$X%XVXL.qXvXzXK zXkXdXnXC Z 1X&XxXnXdXxXfXjXzXxXqXfXqXvXxXxXvXvX6X&XL.xX5X<XHXqX^ fXL.NX%X4XnXkXnXjXxXlXwXlXlXvXyX6X%XP ! b Z W L.=XfXhXnXzXzXyXiXqX4XqXyXyXiXhXuX7X>X&X#XL.R K S K Z < C ; < b l b < , C b 1 b b C C 1 C l , b b < Z 1 < < l b < l l 1 l l 1 b C b l C b C C C C l l l 1 1 1 1 1 1 C C F S E ! ^  XL.L.^ ^ ^ / ! W / / / ! T A b < , 1 C S P S T T A J S T D C b , < C < S Z ; 1 S S P b J J P T P I $XK / Q Q L.~ L.Q G Y F.J.P.P..XFXNXCXAXLXMXMXMXMXMXMXMXMXMXMXMXMXMXMXMXMXMXMXMXMXMXMXDXKXGXGXGXGXGXGXGXGXGXGXGXGXGXGXGXGXGXGXGXGXGXGXGXGXGXGXGXMXMXMXMXMXMXMXMXMXMXMXMXMXMXMXMX",
"MXMXMXMXMXMXMXMXMXMXMXMXMXMXMXMXMXMXMXMXMXMXMXMXMXMXDXKXGXGXGXGXGXGXGXGXGXGXGXGXGXGXGXGXGXGXGXGXGXGXGXGXGXGXGXMXMXMXMXMXMXMXMXMXBXBXMXAXAXAXBXBXVX0XT.Y.Y.Y.T.T.T.Y.Y.Y.Y.Y.Y.Y.;.;.;.;.;.*.*.*.*.:.*.*.$.;.@.tXmX/ qXvX~ nX1X XVX#X:XvXvX~ qXzXwXNXqXP 7XxXgXfXjXuXdXuXqXqXzXjXvXzX@XqXxXxX@XxX4XwX3X=XnXuX#XqXuXxXvXnXzXxXqXjX5XvXjXiX=X*XQ P ~  X=XjXzXlXnXfXuXqXqX2XqX4XyXyX4X4X2X>X#X/ I K A A A A A A C C Z S J S S b Z b C l Z C l l < , 1 1 b l b S D Z l b R S C C D , C C , C < b A C b C C 1 l C C l C C b b b b b b b l 1 1 1 1 1 b Z A S T R ! ! ! ! R E T T R W W P Z b < C C D D S D C P T P D Z l + b ! C l < , > F C W P S T J R *XJ ! ~ Q ~ ~ L.U G Y F.P.P.P..XFXNXCXAXAXMXLXMXMXMXMXMXMXMXMXMXMXMXMXMXMXMXMXMXMXMXMXDXKXGXGXGXGXGXGXGXGXGXGXGXGXGXGXGXGXGXGXGXGXGXGXGXGXGXGXGXMXMXDXMXMXMXMXMXMXMXMXMXMXMXMXMX",
"MXMXMXMXMXMXMXMXMXMXMXMXMXMXMXMXMXMXMXMXMXMXMXMXMXMXDXKXGXGXGXGXGXGXGXGXGXGXGXGXGXGXGXGXGXGXGXGXGXGXGXGXGXGXGXMXMXMXMXMXMXMXMXMXBXBXMXAXAXAXBXBXVX0XT.Y.Y.Y.T.T.T.T.Y.Y.Y.Y.Y.Y.;.;.;.;.;.=.*.*.*.:.*.*.$.;.] 0XZX*X-XVXL.iXkXP.mX:X#XvXzX=X:XvXdXlXfXxXxXjXfXjXuXuXxXvX=X! lXlXdX=XT =XnXNXL.5X=X XwX#XnXzXnXnXnXfXzXzXdXjXNXvXKX6X4X<X&X3XqXlXvXxXjXjXqXqXwX6X6XqXqX7XyX:X&X X^ ~ Q I K D P I Q J A A K S A Z Z C < l , < b K P Q C D  X@X=X=X=X:X&X4X&X1 C *X5XC * J 7X$X<X2X=X2X=X=XS * Z Z P C P J / C D T Z Z Z Z C C C C l b b l l b C C 1 1 b C C C Z A T T E R R R T P P T W J A C Z A @X XT b F C P T T > A P < F A 1 , 1 C J P P P S W @XI Q ~ Q ~ L.L.K G Y F.P.P.P..XFXNXMXAXAXMXLXMXMXMXMXMXMXMXMXMXMXMXMXMXMXMXMXMXMXMXMXDXKXGXGXGXGXGXGXGXGXGXGXGXGXGXGXGXGXGXGXGXGXGXGXGXGXGXGXGXDXMXDXMXMXMXMXMXMXMXMXMXMXMXMXMX",
"MXMXMXMXMXMXMXMXMXMXMXMXMXMXMXMXMXMXMXMXMXMXMXMXMXMXDXKXGXGXGXGXGXGXGXGXGXGXGXGXGXGXGXGXGXGXGXGXGXGXGXGXGXGXGXMXMXMXMXMXMXMXMXMXBXBXAXAXAXAXBXVXVX0XT.Y.Y.Y.T.T.T.T.Y.Y.Y.Y.Y.Y.;.;.;.;.;.:.*.*.*.*.*.*.*.=.] Q.VX>X#XVX#X5XnXQ vX4X XxXzX5X%XvXuXhXlXhXyXlXgXyXfXzXdXvX&XQ vXvX=X&XnX XvXxXqXQ 5XqXVXjXzXzXlXjXjXxXvXNXHXFXFXHXvXqXhXzXfXzXlXuX6XdXyXqXdX6XuX7X3X2X>X%X#X X X X X X^ I I R I P K K S A C b C A P > ! L.P &X> ~ b ^ l / dX4XqX<X<XqX:X6XQ X < < * C ; > 2X&X=X%X=X%X=X>X-X<  XT C O P #XyXA W &X#X#X@X! D b 1 1 S T P Z b C C 1 b C C C b b b C b b C A S P P T T P P P P R S S / 2X3X2X@XP C A A C P Z > > C < ! l b , Z R P J /  XR T L.Q ~ L.L.K G H.F.P.P.P..XFXNXCXAXLXMXLXMXMXMXMXMXMXMXMXMXMXMXMXMXMXMXMXMXMXMXMXDXKXGXGXGXGXGXGXGXGXGXGXGXGXGXGXGXGXGXGXGXGXGXGXGXGXGXGXGXDXMXDXMXMXMXMXMXMXMXMXMXMXMXMXMX",
"MXMXMXMXMXMXMXMXMXMXMXMXMXMXMXMXMXMXMXMXMXMXMXMXMXMXDXKXGXGXGXGXGXGXGXGXGXGXGXGXGXGXGXGXGXGXGXGXGXGXGXGXGXGXKXKXMXMXMXMXMXMXMXMXBXBXMXAXAXAXBXVXVX0XG.Y.Y.T.T.Y.T.T.T.Y.Y.Y.Y.;.;.;.;.;.;.=.*.*.*.*.#.-.-.$.*.S.mXyX! NX:X#XVXL.qXvXL.kXzXiX#XxXkXuXlXzXfXdXdXNXnXqXnX7X%XQ xXxX7XA yXl 6XlXNXxXNXxXjXjXjXlXvXNXFXFXHXHXKXMXnXjXlXlXfXyXuXyXiXuXuXiXpXhXqXqXqX1X2X=X=X=X=X X^ =X~ S / #X&X3XI < ; * b l K I I Q K , uXnX XK l  XjX@XT 4X<X<X1X>X-X<X%XdX1X. #XA O 1Xo I fX5X>X%X=X%X#X=X>X! b 2X:X$Xb > $X#Xb *XT A l ; l A K < b R &X X Xb b L.R S b 1 C A Z C C C Z b C A b A A S P S P P S S A Z J @X7XqX&XW D J D Z Z J D C J < l P l < J S @X^ Q ~ ~ Q L.L.P.G M H H.P.P.P.#XZXKXMXMXAXMXMXMXMXMXMXMXMXMXMXMXMXMXMXMXMXMXMXLXMXMXMXDXKXGXGXGXGXGXGXGXGXGXGXGXGXGXGXGXGXGXGXGXGXGXGXGXGXGXGXKXKXMXMXDXDXMXDXMXMXMXMXMXMXMXMXMX",
"KXKXKXKXHXHXKXKXKXKXKXKXKXKXHXHXHXHXKXKXKXKXKXKXKXKXKXKXKXKXKXKXKXKXKXKXKXKXKXKXKXKXKXKXKXKXKXKXKXKXKXDXKXKXKXKXKXKXKXKXKXKXHXHXFXFXHXHXKXHXFXKXZXtXG.Y.Y.T.T.T.T.T.T.Y.Y.Y.Y.;.;.;.;.;.;.=.*.*.:.*.-.-.-.$.:.=.bXzX^ vXqX#XVX#X:XnXP.iXkXkX XpXkXiXdXfXfXNXNX&X#Xb qX^ BX#X:XnXvX@X@X4XxXvXfXlXdXjXxXnXBXFXHXHXFXDXNXxXlXjXjXhXyXfXfXfXlXzXzXvXzXkXkXkXwXqXqX2X-X4X-X:X-X:XzX$Xo  XiXnXyXZ P b ~ ~ Z Z ; X , , b I iXb n =XiXiX! , 7X6X1X&X1X<X7XdXwX&X< + > < < Z ; , P L.$X7X=X*X:X$X&X6XA X K R qX&X< A < b b D T &X%X*XL.1 Z b b  X@XR < E @X/ S b C A Z b A C C C C C C Z F A D A S J S J P J D C b J @X2X! K Z D J J J J A < 1 D 1 < J P @X/ R W ~ ~ L.L.P.G M H H.P.P.P..XVXFXKXKXHXKXKXKXHXHXHXKXKXKXKXKXHXHXHXKXKXKXKXKXKXKXKXKXKXKXKXKXKXKXKXKXKXKXKXKXKXKXKXKXKXKXKXKXKXKXKXKXKXKXKXKXKXKXKXKXKXKXKXKXKXKXKXKXKXHXHXHX",
"GXGXGXGXGXGXGXGXGXGXGXGXGXGXGXGXGXGXGXGXGXGXGXGXGXGXGXKXDXMXMXAXMXMXMXMXMXMXMXMXMXMXMXMXMXMXMXMXMXDXMXMXLXLXDXHXGXGXGXGXGXGXGXGXGXGXGXGXGXGXHXFXFXtXG.Y.Y.Y.T.E.T.T.T.Y.Y.Y.Y.Y.;.;.;.;.;.=.*.*.:.>.*.-.*.$.:.#.rXvX^ wXkXL.vX,X.XVX X1XzXbX.X5XvXuXnXfXlX/ 6X^ K >X5X X*XQ b nXdXnXlXBXfXfXzXxXNXDXFXFXFXKXBXnXxXxXlXjXjXfXdXhXxXvXvXnXnXnXvXnXvXzXhXuXqXqXqX1X1X-X1XqXuXuX2Xo  XhXhX4XC I P < 6XvXiXuXiX>X! Q Z , K  XVX$XD A + :XqX<X=XqX=XiX:X< . + O -X&X, o Q <Xb ; o ; D >X=X=X&X@X>X5Xl S R 1 T <X@X, J 4X&X>XR b ~ / < A l b A @X XP Z / L.! A l A A l P F C S F C A Z C A Z Z A D S J D D S J J S Z C J A Z J J Z Z S P R D 1 , D / D #X~ R W ~ ~ / L.P.G L H H.P.P.P..XVXGXGXGXHXHXHXGXGXGXGXGXGXGXGXGXGXGXGXGXGXGXGXGXGXGXGXGXKXDXMXMXMXMXMXMXMXMXMXMXMXMXMXMXMXMXMXMXMXMXMXMXMXMXMXDXKXGXGXGXGXHXGXGXGXGXGXGXGXGXGXGX",
"GXGXGXGXGXGXGXGXGXGXGXGXGXGXGXGXGXGXGXGXGXGXGXGXGXGXGXKXMXMXMXDXMXMXMXMXMXMXMXMXMXMXMXMXMXMXMXMXMXDXMXMXMXMXDXGXGXGXGXGXGXGXGXGXHXGXGXGXHXHXHXFXFXeXG.Y.Y.Y.E.E.T.T.T.Y.Y.Y.Y.Y.;.;.;.;.:.=.*.:.:.>.*.*.$.*.:.@.tXVX@X<XmXP.kXpXL.VX=X%XbXvX%X=XzXhXiXlX&X@X@XxXL.3Xl 4Xl 4XxXxXlXyXjXjXzXzXNXDXFXHXFXBXnXxXzXfXzXlXfXfXxXnXNXFXDXKXMXNXBXNXvXxXxXkXuXiXqXqX4X1X1X%XzXqXhXhXX  XjXfX2X; S S S < qX-XU L.<XiXnX<XA &XvX<Xn Q 2XK #XiX&X7X5X=X7X#XX + A  XA . . . . + . o ~ C D X 1 =X&X*X>XL.&X&X< K ^ I C ^ 7XA < ! R Z L.I  X1 Z K Z b A $X XP Z !  XP C C A b R C C P A C P A Z D Z Z D A D S P J S D A D D D J D A S W / T A S D S E S b C P #XW R W ~ ~ / L.P.G L D.H.P.P.P..XVXGXGXGXHXHXHXGXGXGXGXGXGXGXGXGXGXGXGXGXGXGXGXGXGXGXGXGXKXMXMXMXMXMXMXMXMXMXMXMXMXMXMXMXMXMXMXMXMXMXMXMXMXMXMXMXKXGXGXGXGXGXGXGXGXGXGXGXGXGXGXGX",
"GXGXGXGXGXGXGXGXGXGXGXGXGXGXGXGXGXGXGXGXGXGXGXGXGXGXGXKXMXMXMXDXMXMXMXMXMXMXMXMXMXMXMXMXMXMXMXMXMXDXDXMXLXMXDXGXGXGXGXGXGXGXGXGXGXGXGXGXGXGXHXFXFXeXG.Y.Y.T.T.E.T.T.T.T.Y.Y.Y.Y.;.;.;.;.:.:.*.:.:.>.*.*.$.*.:.] I.VX=X%XVXL.eXvXP.zXqXL.bXvX,X.XvXuXzXlX@XNXT dXK nXL.zXZXxXfXiXzXxXxXlXvXHXHXHXNXvXxXlXhXfXlXxXlXxXNXZXHXHXDXBXMXZXNXvXnXnXxXfXzXjXuXiXiXwX4X3X>XuXqXuXqX;  XxXuX<X, ! ! S A l 7X.X:X=XL.%Xb K hX5Xn I 2XL.o l qX<XwX:X:X2X<X+ l < b X 1 C I R W A W C , ; , C X K 5X#X%X>X&X:XR . ; W  Xb A >X#X> Z l J L. X< S b l b Z P ^  XD P / ^ J C b Z P b b P C C P F A S Z A S A D S A K I T J S S K A J J D J ! L.L.P J S S T J D P #XQ R W W / ~ L.H.G L H H.P.P.P..XVXGXGXGXGXHXHXGXGXGXGXGXGXGXGXGXGXGXGXGXGXGXGXGXGXGXGXGXKXDXMXMXMXMXMXMXMXMXMXMXMXMXMXMXMXMXMXMXMXMXMXMXMXMXMXMXGXGXGXGXGXGXGXGXGXGXGXGXGXGXGXGX",
"GXGXGXGXGXGXGXGXGXGXGXGXGXGXGXGXGXGXGXGXGXGXGXGXGXGXGXKXMXMXMXLXMXMXMXMXMXMXMXMXMXMXMXMXMXMXMXMXMXMXMXMXDXMXMXGXGXGXGXGXGXGXGXGXGXGXGXGXGXGXHXFXZXtXG.E.Y.T.T.E.T.T.T.T.Y.Y.Y.Y.;.;.;.;.;.:.*.:.:.>.*.*.*.*.*.@.J.mX2X XnX=X-XmX X4XxX! kXzXqXL.kXpXqXVXJ &Xb @XiXhXzXzXuXqXnXnXyX3X>XfXMXnXzXfXxXjXjXlXzXxXnXDXHXKXKXDXBXDXKXBXnXBXnXlXvXNXxXuXzXzXfXiXuXqX4X4XiX3XhXiX; R nX6XyX, ! b D A P 1 nX X%XA P n >XxXL.K <X Xl o * iXqX>X<X1X:XxXL.. < b /  XR J b C b Z b S Q ~ R Z o , >X4X#X#X#X%X4XK o X , / / < / 5Xl * Q L.L.l S ; ; 1 I 1 R  X/ J S ^ ^ F 1 A S C Z J C Z J C A S F D J A S D P J K J T T J A A S S A Z A T ^ $X^ P A P T P / @XT Q W ~ / ~ L.U G L Y H.P.P.P.#XVXFXGXGXGXHXHXGXGXGXGXGXGXGXGXGXGXGXGXGXGXGXGXGXGXGXGXGXKXDXMXMXMXMXMXMXMXMXMXMXMXMXMXMXMXMXMXMXMXMXMXMXMXMXMXDXGXGXGXGXGXGXGXGXGXGXGXGXGXGXGXGX",
"GXGXGXGXGXGXGXGXGXGXGXGXGXGXGXGXGXGXGXGXGXGXGXGXGXGXGXKXDXMXMXMXMXMXMXMXMXMXMXMXMXMXMXMXMXMXMXMXMXMXMXMXDXMXMXGXGXGXGXGXGXGXGXGXGXGXGXGXGXGXHXFXFXtXG.E.Y.T.T.T.T.T.T.T.Y.Y.Y.Y.;.;.;.;.;.=.*.*.:.*.*.#.*.*.*.#.t.bXpX XvXqX*XVX%X&XmXL.eXzXkXL.kXkXpXvX1XR 6XnXlXpXhXjXnXnX$XL.@XyXjXdXlXyXvXzXlXxXnXNXBXZXFXHXKXDXHXHXNXCXDXxXxXDXCXlXxXNXvXuXlXzXuXqXiXqX4XqXuX4XxXb 1 vXfX3Xl Q A ; o 1 P C qX4X&XI l hXqXn #X&Xl ; o ; <XqX>X5X<X6X6XK 1  XL. X< * , , , 1 l < > < > ; , K  XQ l P :X2X%X*X$X&Xb * * X b #XA b 3X^ ; $X@Xb C 1 ; A A A D R  XR A P L.T C A A C S D C D S C A J Z S J Z S S D S K J J P R W W S Z D P P D Z D @X&XW D J K T  XJ W W ~ / Q .XU Z L Y H.P.P.P.#XZXHXGXGXGXHXGXGXGXGXGXGXGXGXGXGXGXGXGXGXGXGXGXGXGXGXGXGXKXDXMXMXMXMXMXMXMXMXMXMXMXMXMXMXMXMXMXMXMXMXMXMXMXMXMXDXGXGXGXGXGXGXGXGXGXGXGXGXGXGXGXGX",
"GXGXGXGXGXGXGXGXGXGXGXGXGXGXGXGXGXGXGXGXGXGXGXGXGXGXGXKXDXMXMXLXMXMXMXMXMXMXMXMXMXMXMXMXMXMXMXMXDXMXMXMXLXMXDXGXGXGXGXGXGXGXGXGXGXGXGXGXGXGXGXFXFXeXG.Y.Y.Y.T.E.T.T.T.Y.Y.Y.Y.Y.;.;.;.=.;.=.*.*.*.*.*.#.*.*.$.-.&.aXpX^ fXgX/ nX:X#XZX X1XvXzX X,XvXiXhXxXnXxXuXhXzXVXiX XC  X2XzXxXuXxXzXzXdXxXNXZXHXFXFXFXFXZXNXNXFXDXxXNXHXNXjXDXDXzXzXNXnXuXzXzXhXqXuXqXqXiX4XnXP * nXyXiXR Z ^ S X * ; P A hXkXb ^ mXL.K 7XL.o ; , ;  XiX:X2X1XfX Xl ^ %XZ ; o Z K W b W T J C P W 1 Z A , O C  XP < *X<X$X$X=X$X* ; , + o / / < $XL., &X1 Z S Z P P S J P / @XP Z ! ^ A C C b J Z b S S b D P Z S J Z S S J J J J J J S S J I T J D A D S P C R $X$XT Z  XL.J W ~ ~ / Q @XU Z L Y H.P.P.P.#XZXHXGXGXHXKXGXGXGXGXGXGXGXGXGXGXGXGXGXGXGXGXGXGXGXGXGXGXKXDXMXMXMXMXMXMXMXMXMXMXMXMXMXMXMXMXMXMXMXMXMXMXMXMXMXMXGXGXGXGXGXGXGXGXGXGXGXGXGXGXGXGX",
"GXGXGXGXGXGXGXGXGXGXGXGXGXGXGXGXGXGXGXGXGXGXGXGXGXGXGXKXMXMXMXMXMXMXMXMXMXMXMXMXMXMXMXMXMXMXMXMXMXMXMXMXDXMXDXGXGXGXGXGXGXGXGXGXGXGXGXGXGXGXGXFXFXeXG.R.T.R.E.E.E.T.Y.Y.Y.Y.Y.Y.;.;.;.=.;.=.*.*.*.*.-.*.*.$.$.*.@.rXbX.X2XnX! cXhX~ nX2X.XbXzX=X%XvXpXkXqXuXfXxXnX:XQ A / uXnXzXlXlXfXfXxXnXNXHXKXFXMXZXHXxXNXFXZXlXFXHXnXxXMXFXjXnXKXNXdXnXvXlXhXzXiXkXqXqXqXqXzX>Xo uXuXfXA I ^ Q I I P I A A nXl %XmXA  X:X: . < < * K qX:X4X7XuXA Z >XD O 1 I P K A C A D Z 1 , b b C C P P K , X R  X> L.:X%X$X&XQ o , > > < C #X, *X X, < ; , ; ; , < < l S ^ ^ S J / ( C b A S F C S A b P A Z S D A S S J D P D K T A J S D J P P T J J P D D S @X>XL./ / Q W ~ ~ Q / L.G G L H H.P.P.P.#XVXGXFXGXGXKXGXGXGXGXGXGXGXGXGXGXGXGXGXGXGXGXGXGXGXGXGXGXKXMXMXMXMXMXMXMXMXMXMXMXMXMXMXMXMXMXMXMXMXMXMXMXMXMXMXMXGXGXGXGXGXGXGXGXGXGXGXGXGXGXGXGX",
"GXGXGXGXGXGXGXGXGXGXGXGXGXGXGXGXGXGXGXGXGXGXGXGXGXGXGXKXMXMXMXMXMXMXMXMXMXMXMXMXMXMXMXMXMXMXMXMXMXMXMXMXDXMXDXGXGXGXGXGXGXGXGXGXGXGXGXGXGXGXGXFXFXeXG.R.T.R.E.E.E.T.T.Y.Y.Y.Y.Y.;.;.;.;.;.=.*.*.$.*.-.*.$.$.$.*.] Q.VX.X XZX*XqXvXL.xXiX XzXzX5X.XbXpXkXvXvXdXiX XK  XvXZXlXiXxXiXhXxXnXDXFXZXNXZXKXxXNXHXnXxXKXKXzXDXHXNXxXBXFXxXxXDXNXfXvXvXzXqXvXzXqXqX1XkXuXiXo ^ hXhX XA K A S l l < < < Z D &XvX< %X%XK :XI * , ; 1X5X1X5X4X1 ! >X; ; D D Z C b C A b 1 Z l A Z A S b , 1 l J S o < :X, A 1X X*X<XC O * ; l < b @X<  X@X; R P I P I C S , J ( ^ W S ( / J b Z J F C J A C P A A S A A J S J D P D J T A P K D J S P P J J D P P A D T @XqXT Q W Q ~ ~ / L.L.U G L H.P.P..X#XBXGXFXGXGXHXHXGXGXGXGXGXGXGXGXGXGXGXGXGXGXGXGXGXGXGXGXGXKXMXMXMXMXMXMXMXMXMXMXMXMXMXMXMXMXMXMXMXMXMXMXMXMXMXMXMXGXGXGXGXGXGXGXGXGXGXGXGXGXGXGXGX",
"GXGXGXGXGXGXGXGXGXGXGXGXGXGXGXGXGXGXGXGXGXGXGXGXGXGXGXKXMXMXMXMXMXMXMXMXMXMXMXMXMXMXMXMXMXMXMXMXMXMXMXMXDXMXMXGXGXGXGXGXGXGXGXGXGXGXGXGXGXGXGXFXFXrXG.E.T.R.E.E.E.T.Y.Y.Y.Y.Y.;.;.;.;.;.;.=.*.*.:.*.#.$.$.>.*.*.-.G.VX,X#XFX X%XVXL.uXzXL.pXvXpXP.kXkXpXkX:X%X:XiXzXnXlXyXjXjXiXnXnXZXBXNXKXNXdXDXHXlXnXHXZXzXFXFXvXNXHXZXxXCXFXvXlXMXNXjXzXnXxXqXzXzXqXiXiX4XvXA l xXxX2Xl 1 Z b b I ! I L.#Xl 2XhXb 1X>XX n =X%XqX< #XkX2X4X5X1 *X@XX C R l A b C A Z C Z Z l A J A A b J S Z S b b A < +  XK Z <X$X=X$X< X ,  X*XJ < #X< ^  XZ 1X*XL.! %X$XZ P S / L.S J / / C C S C Z P Z Z J Z A S A A P D J S P D J T D P J S P D P S T P T R P P I S T ^ J Q Q R Q L.L.L.L.L.P.Y Y P.XXP.#XVXGXGXHXGXKXHXGXGXGXGXGXGXGXGXGXGXGXGXGXGXGXGXGXGXGXGXGXKXMXMXMXMXMXMXMXMXMXMXMXMXMXMXMXMXMXMXMXMXMXMXMXMXMXMXMXGXGXGXGXGXGXGXGXGXGXGXGXGXGXGXGX",
"GXGXGXGXGXGXGXGXGXGXGXGXGXGXGXGXGXGXGXGXGXGXGXGXGXGXGXKXMXMXMXMXMXMXMXMXMXMXMXMXMXMXMXMXMXMXMXMXMXMXMXMXMXMXMXGXGXGXGXGXGXGXGXGXGXGXGXGXGXGXGXFXFXeXG.E.T.R.E.E.E.T.Y.Y.Y.Y.Y.;.;.;.;.=.:.*.*.*.*.*.*.*.:.$.*.-.' G.mXeXQ VX,X=XVX X<XmXL.qXzXzXP.kXzX,X:X>XqXkXzXiXhXkXhXhXxXZXnXnXCXvXfXBXHXgXNXHXxXxXHXFXxXDXHXNXxXFXHXxXNXFXNXjXNXNXxXfXnXvXhXuXlXuXqXuXwX-X, lXuX1XC P R nXlXzXhXxXVXxXI 3XiXl qXI . iXA l 7X1 ~ qX:X4X<X< 3XP * Q S Z T S A Z Z C 1 1 < ; , , < b < A D b l Z S b A b o  XI 1 :X X%X@X> $XJ l > > l  X1 *XA b A S b Z ! > P D R L.R D E ^ S b Z C A J b D S C D S Z D P D J S P S J T S T S S I A I A T J P W P R T D J J T Q W W ~ L.L.L.L.L.P..XP.H.P.;X%XNXGXGXFXGXHXHXGXGXGXGXGXGXGXGXGXGXGXGXGXGXGXGXGXGXGXGXGXKXMXMXMXMXMXMXMXMXMXMXMXMXMXMXMXMXMXMXMXMXMXMXMXMXMXMXMXGXGXGXGXGXGXGXGXGXGXGXGXGXGXGXGX",
"GXGXGXGXGXGXGXGXGXGXGXGXGXGXGXGXGXGXGXGXGXGXGXGXGXGXGXKXMXMXMXMXMXMXMXMXMXMXMXMXMXMXMXMXMXMXMXMXMXMXMXMXDXMXDXGXGXGXGXGXGXGXGXGXGXGXGXGXGXGXGXFXFXrXG.R.Y.R.E.E.E.T.T.Y.Y.Y.Y.;.;.;.;.=.*.*.*.*.:.*.*.-.-.#.@.@.S.I.rXvXQ bXpXP.mX-X%XVX#X,XzXbX.XP.L.%XuXpXzXpXpXpXzXkXzXvXlXzXzXhXNXnXdXNXHXxXxXHXBXhXFXFXxXnXHXMXzXZXHXvXvXKXBXlXnXCXvXdXvXvXzXhXzXiX3XqXxX<  XxXcX/ D P b uX&X/  XL.=XA =XhXD 4XI L.b X <XL.Z K iX2XqX:Xl 1XD + P P D l b K b C * X 1 A P  XL./ J b 1 * , K A A K C l K P X L.R A <X#X#XK D b C A #XX l @X1 %Xb Z Z J ! K b E J S ! ^ J A ! ! C b C S S b J D C S S Z S S D K J J K J P K T D J I D T A R S J W R W T J W P R Q W ~ / L.L.L.#XL.L..X.XP..X;X=XNXGXGXKXGXGXHXGXGXGXGXGXGXGXGXGXGXGXGXGXGXGXGXGXGXGXGXGXKXMXMXMXMXMXMXMXMXMXMXMXMXMXMXMXMXMXMXMXMXMXMXMXMXMXMXMXGXGXGXGXGXGXGXGXGXGXGXGXGXGXGXGX",
"GXGXGXGXGXGXGXGXGXGXGXGXGXGXGXGXGXGXGXGXGXGXGXGXGXGXGXKXMXMXMXMXMXMXMXMXMXMXMXMXMXMXMXMXMXMXMXMXMXMXMXMXDXMXDXGXGXGXGXGXGXGXGXGXGXGXGXGXGXGXGXFXFXrXG.E.T.R.E.E.E.T.T.Y.Y.Y.Y.;.Y.;.;.=.*.*.*.*.*.*.-.@.] @.U.0XbXaXvXZX~ wXVXU zXqX XnX,X%XkXzX,X.X5XvXnXiXkXkXzXiXiXhXlXjXjXVXxXhXCXDXjXnXHXxXlXFXHXjXMXFXNXxXFXKXxXNXHXNXxXDXDXxXxXCXnXfXxXvXzXzXuXqXqXvX XA xXuX:XA / I b qX=X4X~ :XK L.vXZ 4XI . A qXI X L.l 5X5X<XqX, hXA ; ^ A A Z A S A 1 + A %X*X^ I < 1 b J ~ &XL.Z o 1 A b D C K Z b o *Xb P 5X#X&Xl 1 T R *  X1 ; ^ b >X; > I ^ R 1 E T D P  XR A T ^ D b Z P A C P A Z J A A P D S S J J J J J J I D J J S T A R D T T P R W / W A T R W ^ L./ ~ / ! @X%X.X.X;X-X#X<XNXHXGXKXGXGXHXGXGXGXGXGXGXGXGXGXGXGXGXGXGXGXGXGXGXGXGXGXKXMXMXMXMXMXMXMXMXMXMXMXMXMXMXMXMXMXMXMXMXMXMXMXMXMXMXMXGXGXGXGXGXGXGXGXGXGXGXGXGXGXGXGX",
"GXGXGXGXGXGXGXGXGXGXGXGXGXGXGXGXGXGXGXGXGXGXGXGXGXGXGXKXMXMXMXMXMXMXMXMXMXMXMXMXMXMXMXMXMXMXMXMXMXMXMXMXDXMXDXGXGXGXGXGXGXGXGXGXGXGXGXGXGXGXGXFXFXrXG.E.T.R.E.E.E.T.T.Y.Y.Y.Y.Y.;.;.;.;.;.=.*.*.=.#.] &.Q.tXaXmXbXmXxX9XD $XmX.XqXvX~ kXiX.XpXpXvXzXzXiXiXzXkX,X4XqXuXhXzXlXuXxXnXuXnXZXlXxXHXDXzXDXHXxXnXHXDXzXKXHXvXnXFXKXjXBXKXnXjXNXNXjXjXvXzXzXqXiXzX4Xl qXuXfXA R A Q < &XhX X#X. ~ VXK 5XL.L.>Xl ; -XiXA L.qX5XuXl 5XK ; ~ C Z I P Z A X < &X#X> . O ; 1 l < , o . 1  X&Xl X P Z S b l R S * =X,  X&X X@X, &X;  XC > b K R A #X1 K *XZ Z P P A S / ! S A ! R C Z S F Z P C A J Z D P A J S P J J P J J P D I D K P D R D P S P J S R / ^ R W / ~ ~ / / W ! ^ .X=X;X%X;X,X4XBXFXGXKXGXGXHXGXGXGXGXGXGXGXGXGXGXGXGXGXGXGXGXGXGXGXGXGXKXMXMXMXMXMXMXMXMXMXMXMXMXMXMXMXMXMXMXMXMXMXMXMXMXMXMXMXGXGXGXGXGXGXGXGXGXGXGXGXGXGXGXGX",
"GXGXGXGXGXGXGXGXGXGXGXGXGXGXGXGXGXGXGXGXGXGXGXGXGXGXGXKXMXMXMXMXMXMXMXMXMXMXMXMXMXMXMXMXMXMXMXMXMXMXMXMXDXMXDXGXGXGXGXGXGXGXGXGXGXGXGXGXGXGXGXFXFXrXG.E.Y.R.E.E.E.T.T.Y.Y.Y.Y.Y.;.;.;.;.;.=.-.-.@.G.0XaXbXbXbXvXeX/ ) ( 9XK U P.2XZX~ iXzXP.kXpXiXpXzXzXqX:X,XpXpXhXkXuXzXzXfXvXBXuXvXKXxXzXZXDXxXNXKXnXlXHXDXxXDXHXnXxXKXHXfXNXZXNXdXNXBXzXfXvXzXkXiXiXvXZ I kXhX$XI W ^ P D / zX&X%XI zX X%X X. <X&X.X Xb K Q zX>XuXI L.$X* Q b K I P I , o &X>X, . Z %X1X6XqXuXiX1X1XL.l o > =XI X A D b K b S C > %X< $X$X%XP A &X; * L.^ , ! b *XS S &X< S D D D D T ! R Z T ! F C D C A S C A P C D T Z P S P J J J S J P D T A J J S R D ! D T R P Q R ! ~ L.L.Q R L.L./  X^ ^  X%X,X2X4XqXBXFXGXKXGXGXHXGXGXGXGXGXGXGXGXGXGXGXGXGXGXGXGXGXGXGXGXGXKXMXMXMXMXMXMXMXMXMXMXMXMXMXMXMXMXMXMXMXMXMXMXMXMXMXMXMXGXGXGXGXGXGXGXGXGXGXGXGXGXGXGXGX",
"GXGXGXGXGXGXGXGXGXGXGXGXGXGXGXGXGXGXGXGXGXGXGXGXGXGXGXKXMXMXMXMXMXMXMXMXMXMXMXMXMXMXMXMXMXMXMXMXMXMXMXMXDXMXMXGXGXGXGXGXGXGXGXGXGXGXGXGXGXGXGXFXFXrXG.T.T.R.E.E.R.W.Y.E.Y.Y.Y.Y.Y.=.;.~.=.&.&.U.rXbXbXbXbXkX;XQ ~ #X2XCX6X XwXI U iXqX;XmX.XeXzXpXkXiX:X1X5X<XpXzXuXuXhXzXzXhXjXnXxXhXZXNXdXBXFXxXvXFXDXjXFXFXvXvXHXKXfXZXFXvXxXZXDXdXnXZXxXdXvXzXuXiXfX4X, uXuX2XD I < ; I Z P kXkXl qX1X~ %XZ .X. #X#X>X%Xb 4X2XiX XK 2X* K A A D P K b , 3XQ . Z 4XqX3X1X=X&X#X=X=X:X:XyX*Xb X /  X; b K D A Z / < R Q Z 5X^ &X1 + b 6Xl Z L.o  X1 =Xl  XC A A D S P A ! / S b ^ J C C A Z P C S D A S S P S S T S J P K P S J T A T D T K K R P Q D Q J W I ^ W R W ^ L./ ~ ^ L. X X#X=X4XhXkXBXHXHXGXGXGXGXGXGXGXGXGXGXGXGXGXGXGXGXGXGXGXGXGXGXGXGXGXKXMXMXMXMXMXMXMXMXMXMXMXMXMXMXMXMXMXMXMXMXMXMXMXMXMXMXMXGXGXGXGXGXGXGXGXGXGXGXGXGXGXGXGX",
"GXGXGXGXGXGXGXGXGXGXGXGXGXGXGXGXGXGXGXGXGXGXGXGXGXGXGXKXMXMXMXMXMXMXMXMXMXMXMXMXMXMXMXMXMXMXMXMXMXMXMXMXDXMXMXGXGXGXGXGXGXGXGXGXGXGXGXGXGXGXGXFXFXrXG.T.T.R.E.E.R.W.T.T.Y.Y.;.Y.Y.Y.=.&.&.I.rXmXmXnXvXqXL.A ! 1XzXnXzXzXpXL.zXmX=XK K ,XVX#X,XvXiX%X=X%XqXvX5X5XkXuXuXhXzXzXkXkXnXvXhXBXBXfXnXHXvXxXFXZXlXDXFXnXxXHXFXlXNXFXnXlXDXZXjXxXNXvXlXvXfXiX6XxXR ^ jXzXL.Q b , , < U , pX%X$XxXA 5XP :X#X>X. 1X X. :XzX2X4Xb qXZ Z A D K b K l * qXZ X :XyX:X4X%X<X2X@XI 1X:X*X>X>X>X7XL.. I %Xo b D C K A @X> L.C ^ %X@X*X< R > #XL.* , Z I S ^ < < Q R S S P R E / P b T W F C Z J S C J D A S S S S K P S J J K T S J T A T D T S J Q D T I ~ D Q / W T R / / Q W L.^ L. X@X#X=X3XuXkXBXHXHXGXGXGXGXGXGXGXGXGXGXGXGXGXGXGXGXGXGXGXGXGXGXGXGXGXKXMXMXMXMXMXMXMXMXMXMXMXMXMXMXMXMXMXMXMXMXMXMXMXMXMXMXMXGXGXGXGXGXGXGXGXGXGXGXGXGXGXGXGX",
"GXGXGXGXGXGXGXGXGXGXGXGXGXGXGXGXGXGXGXGXGXGXGXGXGXGXGXKXMXMXMXMXMXMXMXMXMXMXMXMXMXMXMXMXMXMXMXMXMXMXMXMXDXMXMXGXGXGXGXGXGXGXGXGXGXGXGXGXGXGXGXFXFXrXG.T.T.R.E.E.T.E.E.E.E.E.G.G.y.&.G.OXaXmXmXbXzX>XQ Q %XiXzXvXhXhXzXqXzX~  XqXmXpXP.U qXiX.X,XL..XmX5X%XvXiX,XkXhXuXuXlXzXzXhXnXnXfXnXKXlXxXHXNXjXDXFXxXnXFXBXxXKXFXvXvXHXBXlXBXKXvXjXnXvXvXvXlXuXuX4X< 5XjXqXK  XU < < b ! Z >XP kXQ =XI A 4XZ kX%XZ A  XiX:XkXQ L.%X; K D K D D < , iX< , yX7X%X:X1X X:X=X<X X1X>X%X*X=X:X&X>X>X. ~ $X; K Z S S L.J l @X1 -XL.%XW . #XD . /  Xb ^ < #XZ , 1 1 A T ! E D !  XC Z ^ A C C R A C P A A J S D J J J J I J J T D J P D I D T S J I J Q J Q T ~ ~ J W ~ Q Q ^ ^ W ^ L. X@X#X=X2XuXzXVXHXHXGXGXGXGXGXGXGXGXGXGXGXGXGXGXGXGXGXGXGXGXGXGXGXGXGXKXMXMXMXMXMXMXMXMXMXMXMXMXMXMXMXMXMXMXMXMXMXMXMXMXMXMXMXGXGXGXGXGXGXGXGXGXGXGXGXGXGXGXGX",
"GXGXGXGXGXGXGXGXGXGXGXGXGXGXGXGXGXGXGXGXGXGXGXGXGXGXGXKXMXMXMXMXMXMXMXMXMXMXMXMXMXMXMXMXMXMXMXMXMXMXMXMXDXMXMXGXGXGXGXGXGXGXGXGXGXGXGXGXGXGXGXFXFXrXG.T.T.R.E.E.E.T.Y.E.E.Y.-.G.F.0XaXbXbXbXqX%X! L.<XzXvXkXuXkXpXvXiXkXVXL.-X1X%XzXVXeXU .XL.1XiX%XvXiX%XzXpX2XpXkXuXuXkXzXzXuXvXBXhXxXFXvXjXFXFXjXBXFXNXxXFXFXxXBXHXNXjXFXZXzXnXZXNXdXvXvXnXxXyXqXnX^ ! hXuX^ I I I Q Q A 1 P l iX<X X X XI ; zX#XD L.D qX2XqX2Xb iX< Z Z K K A b , iXC < fX2X>X<X1X>X X>XqXL.b >X2X/ %X%X#X>X>X>X=Xo ^ ^ ; S K J I $X1 ^ A Q &X^ $XJ < o L.b , ! < ! A  XC  XZ C > 1 F S R ( S 1 / P C C W C Z P A A P D D J J D J T S J T D P J S P S T S P I I T D Q Q ~ J I W ~ Q ~ L.L.T ^ L. X@X#X%X2XiXzXBXHXHXGXGXGXGXGXGXGXGXGXGXGXGXGXGXGXGXGXGXGXGXGXGXGXGXGXKXMXMXMXMXMXMXMXMXMXMXMXMXMXMXMXMXMXMXMXMXMXMXMXMXMXMXMXGXGXGXGXGXGXGXGXGXGXGXGXGXGXGXGX",
"GXGXGXGXGXGXGXGXGXGXGXGXGXGXGXGXGXGXGXGXGXGXGXGXGXGXGXKXMXMXMXMXMXMXMXMXMXMXMXMXMXMXMXMXMXMXMXMXMXMXMXMXDXMXDXGXGXGXGXGXGXGXGXGXGXGXGXGXGXGXGXFXFXrXG.T.T.R.E.E.E.Y.E.E.Y.G.K.XXaXaXmXnXqX XL.*XyXnXVXjXiXzXvXfXzXiXzXiXkX>X%XFX#XU ,XbXzXeX.X%XpX;XpXkX:XqXzX5XiXkXuXuXhXzXvXfXxXBXzXhXFXNXfXZXHXlXnXFXBXzXKXHXxXnXFXKXhXDXFXxXxXBXDXfXxXnXnXjX6XfXyXb 5XvXyXP ! ! l < < Z =X$X XiXI 1Xb <XiXb . >XL., iXqX4XqXD #XL.b P A D K A X 5XR , lX=X>X2X:X&XfX^ I R K S P L.< 2X6X:X$X%X%X1X$Xo #XK ; J I / @X^ <  Xl #X*X@X#X+ L.A O @X< . I b  XD R &X$X( D b > S ^ ! 1 J ! C C P C A P A A P D D J J D P T S P T D P S J J S T S T T K J T W I I T ~ T R L.L.~ W / ^ ^  X@X#X%X1XiXzXBXHXHXGXGXGXGXGXGXGXGXGXGXGXGXGXGXGXGXGXGXGXGXGXGXGXGXGXKXMXMXMXMXMXMXMXMXMXMXMXMXMXMXMXMXMXMXMXMXMXMXMXMXMXMXMXGXGXGXGXGXGXGXGXGXGXGXGXGXGXGXGX",
"GXGXGXGXGXGXGXGXGXGXGXGXGXGXGXGXGXGXGXGXGXGXGXGXGXGXGXKXMXMXMXMXMXMXMXMXMXMXMXMXMXMXMXMXMXMXMXMXMXMXMXMXDXMXDXGXGXGXGXGXGXGXGXGXGXGXGXGXGXGXGXFXFXrXG.Y.T.R.E.E.R.Y.E.E.G.R.rXmXbXzX5X X X9XyXxXxXuXqXhXhXuXfXzXuXkXhXkXvX3X~ ZX,X:XpXP.qXnXpX=X.X%XiXzX1X5XzX5XqXkXuXhXhXkXvXkXlXNXvXfXMXDXfXNXHXxXxXFXZXzXNXHXNXxXFXFXjXNXFXNXjXNXDXlXzXnXvXdXiXnX XZ uXzX$XA n < A $XkXkXVX^ uX X=X~ I l , uXL.X 1 :XuX1X4X5XA qXl Q K K Z I o  X>X. iX1X5X1X:X#X6X*X#XK ~ R ~ D / I !  X X#X=X:X@X:X X> >X, b ~ ! @X Xb ! K Q #XL.&XQ l @X#X+ l $XC I K R 1 A Z P ^ @X1 S S ^ C C / Z C D C S S A D J D S S J D P P S P P D T D P J K I D T K I Q Q T J T W Q Q ~ L.~ T Q L.L.^ L.@X#X%X1XiXzXBXHXHXGXGXGXGXGXGXGXGXGXGXGXGXGXGXGXGXGXGXGXGXGXGXGXGXGXKXMXMXMXMXMXMXMXMXMXMXMXMXMXMXMXMXMXMXMXMXMXMXMXMXMXMXMXGXGXGXGXGXGXGXGXGXGXGXGXGXGXGXGX",
"GXGXGXGXGXGXGXGXGXGXGXGXGXGXGXGXGXGXGXGXGXGXGXGXGXGXGXKXMXMXMXMXMXMXMXMXMXMXMXMXMXMXMXMXMXMXMXMXMXMXMXMXDXMXDXGXGXGXGXGXGXGXGXGXGXGXGXGXGXGXGXFXFXrXG.Y.T.R.E.R.R.G.R.R.=.K.bXaXqX*X X>XlXnXxXlXhXkXlXlXzXzXkXdXzXuXjXuXzXzXI :XkX XmX,XQ %XqXnXkX>X.X,XqXqXzXqXqXkXuXkXkXuXvXzXhXnXNXfXNXFXlXxXFXNXlXKXFXxXvXHXDXlXKXFXxXvXFXDXjXNXDXvXzXNXlXyXyXzXP %XxXuXI < %XyXnXiX1XqX$XL.pX^ $XI 4XX A * 3XL.K uX:X4XkXZ =XL.D I K D D b l 7Xo >XuX=X>X>X2X:X1 ~ P P Q ! I ^ R / P K R :X%X%X%X&X<X, P L.< I ^ L. X! Z L.Z =XL.L.:Xb Z X I Q b D A C *Xl S A C S S 1 R T / J 1 ! S C Z C J D A J S A P S J S I K K T S J T D I K J I D R D Q W J J W W T T / L.W T W ~ ~ L./ L.#X#X%X1XuXkXBXHXHXGXGXGXGXGXGXGXGXGXGXGXGXGXGXGXGXGXGXGXGXGXGXGXGXGXKXMXMXMXMXMXMXMXMXMXMXMXMXMXMXMXMXMXMXMXMXMXMXMXMXMXMXMXGXGXGXGXGXGXGXGXGXGXGXGXGXGXGXGX",
"GXGXGXGXGXGXGXGXGXGXGXGXGXGXGXGXGXGXGXGXGXGXGXGXGXGXGXKXMXMXMXMXMXMXMXMXMXMXMXMXMXMXMXMXMXMXMXMXMXMXMXMXDXMXDXGXGXGXGXGXGXGXGXGXGXGXGXGXGXGXGXFXFXrXG.Y.T.R.E.R.R.G.G.G.G.Q.bX;X X8XcXxXlXhXhXhXjXhXhXhXkXhXhXkXuXzXiXzXhXkX2XQ ~ P.mXwXL.vX%X,XkXvXiX>X%X<XkXpXqXkXuXzXkXiXvXzXfXvXBXhXxXHXxXxXFXDXlXKXFXnXxXFXFXjXZXFXnXxXKXFXjXnXBXnXlXNXhXyXjXqXZ 1XlX1X! A 7XxX#XL. X=XZ iX#X=X! l =XqXiX#XX Z kX4XqX2X2XK qX< Q ! Z K Q o %XI I uX>X<X2X1X:X4X^ P R / R P / S I P I Z 1X=X=X$X&X&X=X1X; =X1 A  XL. X$X< L.Z ^ @X X X&Xo K ^ ~ ! > < E R P X F A  Xb F P A ! R < R E C Z C P A A P D A P S J K P D J T D J T A T K J I D Q W T K I T Q R T ~ W W Q Q W ~ / L./ L.*X%X%X1XuXhXNXHXHXGXGXGXGXGXGXGXGXGXGXGXGXGXGXGXGXGXGXGXGXGXGXGXGXGXKXMXMXMXMXMXMXMXMXMXMXMXMXMXMXMXMXMXMXMXMXMXMXMXMXMXMXMXGXGXGXGXGXGXGXGXGXGXGXGXGXGXGXGX",
"GXGXGXGXGXGXGXGXGXGXGXGXGXGXGXGXGXGXGXGXGXGXGXGXGXGXGXKXMXMXMXMXMXMXMXMXMXMXMXMXMXMXMXMXMXMXMXMXMXMXMXMXMXMXDXKXGXGXGXGXGXGXGXGXGXGXGXGXGXGXGXFXFXrXG.R.T.R.E.R.R.G.G.G.G.tXaX,XxXcXcXcXjXzXkXkXxX7XxXjXlXdXlXdXhXjXjXhXfXjXxXvX=XI %XxX.XkXzXL.:X2XzXvXuX2X,XiX4XpXzXkXuXhXzXvXfXzXBXxXlXKXNXfXNXHXvXxXHXKXdXFXHXxXvXFXKXjXBXFXxXjXKXvXnXnXdXiXzX X! jXhXR L.I A jX$X3XL.K  XiXL.&X1 1XK A ; qXZ 3XiX:XqXzXD -X XD Q K K K l b 4X< 1X5X<X:X:X<X2X>X7XK P ^ L. X XL.L.Q I  X>X%X>X#X=X$X&X:XI C $X> @X X X@X~ S W S -X X^ %X*X> . , , I Z D D L.b P P ( < ! S S T / l D ! Z C F T C D J A D S S K D P J K J D T D J T A P S J W J J K / J T J ~ ^ W T T Q W ~ ^ L.^ L.#X#X-X:XuXzXBXHXHXGXGXGXGXGXGXGXGXGXGXGXGXGXGXGXGXGXGXGXGXGXGXGXGXGXKXMXMXMXMXMXMXMXMXMXMXMXMXMXMXMXMXMXMXMXMXMXMXMXMXMXMXDXKXGXGXGXGXGXGXGXGXGXGXGXGXGXGXGX",
"GXGXGXGXGXGXGXGXGXGXGXGXGXGXGXGXGXGXGXGXGXGXGXGXHXGXGXKXMXMXLXLXMXMXMXMXMXMXMXMXMXMXMXMXMXMXMXMXDXDXDXDXMXMXDXKXGXGXGXGXGXGXGXGXGXGXGXGXGXGXGXFXFXrXG.Y.T.R.E.E.R.R.G.G.G.rXrXqXcXcXcXjXlXzXzXkXdXlXjXxXqXhXfXlXfXfXhXzXlXuXyXfXnXqX.XL.L.kXnX#XpXqX#XqXkXkXqX4XqXqXuXzXkXhXzXnXjXlXBXxXfXKXKXjXBXHXnXxXHXFXjXKXHXvXxXFXKXlXNXFXnXfXBXNXvXvXuXwXxXK  XvXiXQ ^ ! K 4XqX X=Xl 1X1X X#XQ b >XK < ! =XqX4X1X4X2XK 4XK I Q K A I ; :Xb  X7X<X<X>X:X=X:X=X4X#X%X:X:X1X:X:X:X&X#X=X:X=X%X1X$X=X#X&X<X; @XZ Q @XL.L.%XC  XZ @X X X@X@XI * ; !  XS S Z ^ b S $XC C ( P A J ^ C C / A C A P C D J A S J J J K I J J P D T J K K A ! W P S K T J Q K / Q ~ K J T Q Q T R W ! L.L.~ ~ =X2XuXzXBXHXFXGXGXHXGXGXGXGXGXGXGXGXGXGXGXGXGXGXGXGXGXGXGXGXGXGXKXMXMXMXMXMXMXMXMXMXMXMXMXMXMXMXMXMXMXMXMXMXMXMXMXMXMXDXKXGXGXGXGXGXGXGXGXGXGXGXGXGXGXGX",
"GXGXGXGXGXGXGXGXGXGXGXGXGXGXGXGXGXGXGXGXGXGXGXGXGXGXGXKXMXMXMXMXMXMXMXMXMXMXMXMXMXMXMXMXMXMXMXMXMXMXDXMXMXMXDXKXGXGXGXGXGXGXGXGXGXGXGXGXGXGXGXFXFXrXG.Y.T.R.E.E.E.E.T.G.G.bXeXpXcXcXcXjXkXlXkXjXxXhXfXfXhXlXxXiXzXhXfXhXfXfXfXjXuXvXvXqX X~ qX:X1XnX,X:XqXiXbXkXiXwXuXkXzXhXzXvXjXhXZXNXyXnXFXlXnXFXNXjXFXFXxXNXHXNXlXDXFXxXxXFXDXdXvXZXvXzXiXuXlXC 4XvX*XK  X%XK A xXqX X~ vXL.:X* ~ 1Xl qXI Z uX7X3XqXiX@X~ :Xb ~ K K I l A 7XK zXiXyXfXiXuXuXuXyXfXiXiXyX3X5X6X6X6X7X4X3X2X:X>X2X:X>X&X>X1X^ K  XZ $XL.^ =XA L.Z / @X#X X X#X, ! I ; o < R R ! F ^ 2 ! P S F D ^ A l / A C S S C S S A S J J S J P S P P D T D J P J R J J S J R J R J ~ R R Q T T Q ~ / / ~ ^ L. X XL.%X:XuXzXZXHXHXGXGXGXGXGXGXGXGXGXGXGXGXGXGXGXGXGXGXGXGXGXGXGXGXGXKXMXMXMXMXMXMXMXMXMXMXMXMXMXMXMXMXMXMXMXMXMXMXMXMXMXMXDXKXGXGXGXGXGXGXGXGXGXGXGXGXGXGXGX",
"GXGXGXGXGXGXGXGXGXGXGXGXGXGXGXGXGXGXGXGXGXGXGXGXGXGXGXKXMXMXMXMXMXMXMXMXMXMXMXMXMXMXMXMXMXMXMXMXMXMXMXMXMXMXDXKXGXGXGXGXGXGXGXGXGXGXGXGXGXGXGXFXFXrXG.Y.T.T.E.E.E.E.E.G.I.bXeXzXlXcXlXjXkXjXgXgXyXxXjXyXvXwXuXxXdXjXlXhXhXzXlXdXfXzXqXpXVX2X$XL.5XzX5X2XvX>XqXpXpXkXkXhXkXzXvXvXzXyXNXDXdXvXFXxXxXKXZXjXDXFXNXxXHXDXjXBXFXnXjXKXFXlXjXDXNXlXqXzX5XZ lXjX X/ ^ I L.K >XxX$X XpX~ %XL.n b :X:XZ uXqX3X4X7XiX~ =XL.I I I K Q ; %X~ b L.I P A S Z D A A C D Z Z b b 1 1 < 1 l 1 < 1 1 ; l , , < ; < ; =Xb  X@X X@X^ J I I *X@X X X#XQ < I ; ; * Q l R P S C R C S S Z / P < ! S C S D F S S D J S J D P J S T P K R A T R P S A J I T I J ~ Q T K J I R Q Q T T W L.L.L. X#X X%X-XpXzXZXHXHXGXGXGXGXGXGXGXGXGXGXGXGXGXGXGXGXGXGXGXGXGXGXGXGXGXKXDXMXMXMXMXMXMXMXMXMXMXMXMXMXMXMXMXMXMXMXMXMXMXMXMXMXDXKXGXGXGXGXGXGXGXGXGXGXGXGXGXGXGX",
"GXGXGXGXGXGXGXGXGXGXGXGXGXGXGXGXGXGXGXGXGXGXGXGXGXGXKXKXKXDXDXDXDXDXDXDXDXDXDXDXDXDXDXDXDXDXDXDXMXDXDXDXDXDXKXKXGXGXGXGXGXGXGXGXHXGXGXGXGXGXGXFXZXrXG.Y.T.T.E.E.E.E.E.G.0XbXeXzXlXlXzXzXzXjXcXcXxXxXlXnXyXxXzX6XjXjXfXdXdXfXfXdXzXqXhXkXhXkXpX<X XqXiX:XzXqXqXwXiXpXkXhXhXzXvXvXNXwXzXZXxXnXHXNXfXZXHXlXNXHXBXjXFXFXxXnXFXBXhXBXKXvXuXNXBXhXqXvXL.~ vX6X^ I S b L.A U zX XyX~ :X! qX#X&X~ ; >XhX3X4X3X3X4XK 4XD ~ L.D ~ I , hX1 , R / R I ^ L.L.! L.Q L.! L. XL.*X#X X*X#X*X#X%X>X*X%X>X%X%X4XK >  XK R %X XL.%XC L.A $X X X@X X>XA ; > * + A S W D > S ( F F P C ! ! < R P C S A A S S D J S J J T P J T I P T I T D J J J T S I J J ~ Q I K T J I T W W ~ W Q ~ L.L.~ Q =X2XuXxXKXKXKXHXKXGXHXGXGXGXGXGXGXGXGXGXGXGXGXGXGXGXGXKXKXKXKXKXKXKXDXDXDXDXDXDXDXDXDXDXDXDXDXDXDXDXDXDXDXDXDXDXDXDXDXKXKXKXGXKXKXGXGXGXGXGXGXGXGXGXGXGX",
"DXDXDXDXDXDXDXDXDXDXDXDXDXDXDXDXDXDXDXDXDXDXDXDXDXDXDXKXKXKXHXGXKXKXKXKXKXKXKXKXKXKXKXKXKXKXKXKXGXGXGXHXKXKXKXKXDXDXDXDXDXDXDXDXDXDXDXDXDXDXDXZXVXrXG.R.T.T.E.E.E.E.R.G.rXeXqXlXcXjXzXzXzXjXcXcXyXP / 6XxXdXjXxXlXfXdXlXlXfXfXzXuXzXzXyXiXjXpXxXuX:X X-XzXzX2XhXpXiXiXkXkXfXkXvXBXzXnXZXxXjXDXFXfXBXHXxXxXFXDXhXBXHXnXxXFXFXlXnXDXNXdXnXNXuXiXxXS >XnX1XR C b K l L.l 1XL.zXL.<X; b <X<Xb @XvX1X4X4X4XqX:XI 1XZ Q Q Q ~ , L.#XI ! hXiX6XuX4XqX4X7XuX6XqX1X7X4X5X1X1X1X2X<X:X:X:X=X:X&X>X=X$XqXA I K L.A $XL.@X%XZ  XC @X@X X@X XW 1X; + ; ; < S ^ Z > b S R A S C P ^ l S R C A A A J D D J S J J I J J J S P S P P Z J J P T A T Q R T K T T I Q Q Q Q W / ^ / ^  X X XL.-X1XiXvXFXDXLXDXMXKXAXDXDXDXDXDXDXDXDXDXDXDXDXDXDXDXDXMXDXDXDXDXKXKXKXKXKXKXKXKXKXKXKXKXKXKXKXKXKXKXKXKXKXKXKXKXKXKXKXKXDXDXDXDXMXMXDXDXDXDXDXDXDXDXDXDX",
"MXMXMXMXMXMXMXMXMXMXMXMXMXMXMXMXMXMXMXMXMXMXMXMXMXMXDXKXGXGXGXGXGXGXGXGXGXGXGXGXGXGXGXGXGXGXGXGXGXGXGXGXGXGXKXDXMXMXMXMXMXMXMXMXMXMXMXSXAXMXNXNXVXeXG.R.T.T.E.E.E.E.G.G.aXeXiXxXcXlXzXkXkXkXcXcX9XzXxXW xXxXqXzXyXjXxXxXxXzXjXdXhXiXuXzXkXpXkXiXxXzXwX5X:XwX1XuXkXiXiXkXkXhXhXzXxXnXNXZXnXfXNXHXxXNXFXNXxXFXZXxXnXHXDXhXDXHXxXxXZXNXxXNXnXqXlXiXA 4XzX>XL.! Z K A L.U b &XyX~ %X, o .XL.l zX1X5X4X3X4XhX@X X@XK I Q I Q , >XQ &XD 5X&X:X4X=X:X:X>X:X:X:X=X:X=X>X=X&X:X>X%X%X&X$X&X&X%X@X&X#X=XP  XS  XA  XL.*X$XJ ~ A / %X X@X@X#X^  X; ; + < P A ! P Z 2 A R S A A ^ C C ! A A A D J A D J S P J S S P D D T A D P A T D D T S Q Q T K K J I J K R Q J C Z I L.^ L.@X%X@X=X>XiXvXFXBXNXMXNXDXMXMXMXMXMXMXMXMXMXMXMXMXMXMXMXMXMXMXMXMXMXDXKXGXGXGXGXGXGXGXGXGXGXGXGXGXGXGXGXGXGXGXGXGXGXGXGXGXGXGXDXMXMXMXMXMXMXMXMXMXMXMXMXMXMXMX",
"MXMXMXMXMXMXMXMXMXMXMXMXMXMXMXMXMXMXMXMXMXMXMXMXMXMXDXGXGXGXGXGXGXGXGXGXGXGXGXGXGXGXGXGXGXGXGXGXGXGXGXGXGXGXKXMXMXMXMXMXMXMXMXMXMXMXLXAXAXAXBXBXVXeXG.E.R.T.E.E.E.R.G.U.bX2XcXxXlXzXzXkXkXhXgXcX6XnXBX X1XvXdXuXxXnXlX>X&XiXzXhXuXxXiXyXzXqXzXkXuXiXzXkXqX2X4XiXkXhXuXuXlXvXxXkXyXzXjXNXFXBXMXDXKXBXKXFXNXHXFXBXvXFXFXdXBXHXvXlXFXNXNXDXxX6XvX1XK uXzX*XI L.I  XL.< K L.5X<X&XU ; b * l kXqX1XyXqX2X5XuXP >XL.~  XA ~ D b 4XK 3XA 1X4X2X>X<X1X=X:X=X>X>X>X>X=X>X>X=X<X<X%X=X1X>X<X$X&X&X&X%X4Xb ^ ~ ^ K ^  XL.&XR T I P &X X@X XL.*X XI o ; ; S S R A &XS > C E A C ^ Z l / D Z A S P A D J S J J D S T D S ! D J R D W D K ! I T D D J R J J T W J C C A K D C K /  XL.~ =X2XuXnXHXBXBXBXNXKXMXMXMXMXMXMXMXMXMXMXMXMXMXMXMXAXAXMXDXMXMXMXKXGXGXGXGXGXGXGXGXGXGXGXGXGXGXGXGXGXGXGXGXGXGXGXGXGXGXGXDXMXMXMXMXMXMXMXMXMXMXMXMXMXMXMX",
"MXMXMXMXMXMXMXMXMXMXMXMXMXMXMXMXMXMXMXMXMXMXMXMXMXMXDXKXGXGXGXGXGXGXGXGXGXGXGXGXGXGXGXGXGXGXGXGXGXGXGXGXGXGXGXMXMXMXMXMXMXMXMXMXMXMXAXAXAXAXBXBXVXrXG.Y.T.R.E.E.E.E.G.XXbX1XvXlXlXxXdXNXzXzXhXzX&X>X$X>XI nXvXnXuX X! #X<XZ =XvXhXfXuXlXzXhXhXhXfXfXfXhXlXhXiX7XqXuXfXdXhXxXxXlXnXlXiXlXNXzXfXNXvXhXjXNXnXjXvXnXDXFXHXnXlXHXNXhXBXZXnXNXzXqXvX&XQ hXzXI !  X%XK :  XnX XhX X4Xb , b > 1XiX<XuX5X5X3XyXxXA 4XA L.Q !  Xb Q =XQ qXb iX:X6X1X3X3X6X6X6X6X7X6X7X3X3X:X2X%X>X3X3X&XL.@X>X1X&X@X&X<XA  XL.S ^ I $X X$XL.Z ^ C #X*X X X^  X@X$Xb + + S A @X1 R  X X< 2 A A W J 1 / J Z D D D D S S J P K P T T T T T T R J D D P I P P P D I Q A W K T P S J Q ^ ^ / / R K A K %X&X,XuXnXFXBXNXNXDXAXLXMXMXMXMXMXMXMXMXMXMXMXMXMXMXMXMXMXMXMXMXDXKXGXGXGXGXGXGXGXGXGXGXGXGXGXGXGXGXGXGXGXGXGXGXGXGXGXGXGXLXMXDXMXMXMXMXMXMXMXMXMXMXMXMXMX",
"MXMXMXMXMXMXMXMXMXMXMXMXMXMXMXMXMXMXMXMXMXMXMXMXMXMXDXKXGXGXGXGXGXGXGXGXGXGXGXGXGXGXGXGXGXGXGXGXGXGXGXGXGXGXGXMXMXMXMXMXMXMXMXMXMXMXAXAXAXAXBXBXVXrXG.Y.R.R.E.E.E.E.G.0XbXqXxXjXlXhXzX3X$X3XVXzXfX! 4X>X#X&X X XL.:XnXqX$XzX! iXfXhXzXfXyXfXdXfXhXhXhXhXhXhXfXfXiXdXfXfXlXxXlXdXnXBXnXnXZXvXhXNXFXlXfXKXFXlXhXxXBXNXBXDXnXFXFXjXNXDXNXNXjXqXvX@XL.NX5X^ L.R ; P pXVXqX~ uX^ -X< 1 ; =XfXyX7X7X7XyXyX6XR P 2XD L.Q Q Q l  X X XqXZ 2X1X:X:X=XT @X/ D > C ! / 1 / >X> . o / Z .   . + / 1X>X&X1XC ^ $XA L.A %XL.@XL.Z ! b Q ! @X X@X#X! ^ #X, O C P W b P C S ^ S < b ! T 1 R S A A D S S S S J J J P T I P I P J P J J P I P J J D P l < ; C W P P I R W W R R W  XL.L.#X%X=X:XqXnXFXBXNXNXDXAXLXAXMXMXMXMXMXMXMXMXMXMXMXMXMXMXMXMXMXMXMXDXKXGXGXGXGXGXGXGXGXGXGXGXGXGXGXGXGXGXGXGXGXGXGXGXGXGXGXGXLXMXDXMXMXMXMXMXMXMXMXMXMXMXMXMX",
"MXMXMXMXMXMXMXMXMXMXMXMXMXMXMXMXMXMXMXMXMXMXMXMXMXMXDXKXGXGXGXGXGXGXGXGXGXGXGXGXGXGXGXGXGXGXGXGXGXGXGXGXGXGXGXMXMXMXMXMXMXMXMXMXMXMXAXAXAXAXBXBXVXrXG.Y.R.R.E.E.E.R.F.rXpXuXzXlXlXvXiXdXuX>X XkXZXFXmXK kXjX2XqXzXnXkXL.&XZX~ hXlXuXhXjXlXzXfXxXfXfXfXfXfXfXhXlXfXhXfXfXlXxXzXfXhXNXvXxXDXBXvXZXHXBXvXZXFXnXlXlXFXvXuXxXBXBXFXnXnXBXBXNXdXiXxX/ &XzX4XL.Q , >XnXqX%XL.%XkX X%X; > ! lX5XqX5X2X3X7XyX,   R :XA Q / ! I b :XI -X4XZ 2X1X<XyXL.. O X . O O . . o < I > * . O . + ; +   + b $X&X&XS W 1XZ  Xb %X X X$Xl ^ b R D  X@X X@X^ ^ $XR . l S ^ S > S A ^ ! , 1 ( R 1 E S A Z D J P J S S J J P P J J P J D J J P T P K S K J T > A b < W T R R R W Q W / L.^ L. X-X X%X:X4XnXFXBXBXNXDXAXLXAXMXMXMXMXMXMXMXMXMXMXMXMXMXMXMXMXMXMXMXDXKXGXGXGXGXGXGXGXGXGXGXGXGXGXGXGXGXGXGXGXGXGXGXGXGXGXGXGXDXMXLXMXMXMXMXMXMXMXMXMXMXMXMXMX",
"MXMXMXMXMXMXMXMXMXMXMXMXMXMXMXMXMXMXMXMXMXMXMXMXMXMXDXKXGXGXGXGXGXGXGXGXGXGXGXGXGXGXGXGXGXGXGXGXGXGXGXGXGXGXGXMXMXMXMXMXMXMXMXMXMXMXAXAXAXAXBXBXVXrXG.Y.R.R.E.E.E.R.G.bXeXzXlXzXzXvXBXNXzXvX5XL. X#XZ qXkXiXvXzXzXiXVX$X%X<X~ zXfXdXfXhXhXdXyXiXfXfXhXhXfXfXfXfXlXjXfXdXhXxXxXxXzXNXlXfXDXFXBXHXDXHXKXDXHXFXKXBXFXFXfXdXFXxXxXKXNXNXBXNXuXuXxXT >XzX1Xb Z lXnX=X X>X$X:X2X.XL.* b hX6X:XyX6X7XqXcXb Z <  X%XP Q ^ ! ! b 4XK 4X1XZ 7X>X1X6X=X< O ; ; ;   ; + b >  XxX! . > l , l C X O C E =X3XA R 6XZ @XC #X#X@X&X< @Xl ^ K / @X X^ #X X^ $X< > S ! C < D b ^ , C C T R 1 R P C Z D P T J S S P S J J D S P J A T P J J S D S J K J , ! J l Z D A C l C C J P R A P Q L.Q L.&X3XnXFXBXBXNXDXAXAXAXMXMXMXMXMXMXMXMXMXMXMXMXMXMXMXMXMXMXMXDXKXGXGXGXGXGXGXGXGXGXGXGXGXGXGXGXGXGXGXGXGXGXGXGXGXGXGXGXDXMXLXMXMXMXMXMXMXMXMXMXMXMXMXMX",
"MXMXMXMXMXMXMXMXMXMXMXMXMXMXMXMXMXMXMXMXMXMXMXMXMXMXDXKXGXGXGXGXGXGXGXGXGXGXGXGXGXGXGXGXGXGXGXGXGXGXGXGXGXGXGXMXMXMXMXMXMXMXMXMXMXMXAXAXAXAXBXBXVXrXG.T.R.T.E.E.E.G.I.bX5XzXlXxX-XK &X4XjXyXZXzX4X>XzXpXnXnXqXhXhXiXiXxX&X%XnXzXqXzXjXhXfXhXvXhXhXhXhXhXjXjXhXhXhXhXhXfXfXlXxXvXnXBXzXjXBXNXlXvXnXBXnXvXDXKXKXKXNXHXFXNXFXjXqXNXKXNXBXNXfXdXjXP 4XvX1X*XR fXuX^ :X! : 5X=X=XQ * 1XiX4XiX5X6X<X5XyX  R ; >X*XK #XR I ~ b 4XK iX1XA 4X2X2X&XjX@X> , 2 A F   , F R 3X&X$X> + C P &X3X< o l C &X3Xb R 7XA  XD ^ $X@X#XZ J < Q Q / @X@X@X X^ @XL.@X> T T R S D  XS l J Z P R 1 T P Z A S P P J S J P K P P J J R T J R P S D D D S J J T 1 A 1 K C C J D C A Z J J T D I Q U  X X=XqXnXHXBXNXNXLXSXAXAXMXMXMXMXMXMXMXMXMXMXMXMXMXMXMXMXMXMXMXDXKXGXGXGXGXGXGXGXGXGXGXGXGXGXGXGXGXGXGXGXGXGXGXGXGXGXGXGXLXMXDXMXMXMXMXMXMXMXMXMXMXMXMXMX",
"MXMXMXMXMXMXMXMXMXMXMXMXMXMXMXMXMXMXMXMXMXMXMXMXMXMXDXKXGXGXGXGXGXGXGXGXGXGXGXGXGXGXGXGXGXGXGXGXGXGXGXGXGXGXGXMXMXMXMXMXMXMXMXMXMXMXAXAXAXAXBXBXVXrXG.T.T.T.E.E.E.G.XXbXeXzXlXxXdX#XZ R lXlXuXiXvXxXkXzXI iXzXhXnX~ %XzXvXvXpXqXlXfXqXfXjXuXhXhXlXhXfXuXfXhXjXjXdXfXjXhXhXhXjXlXxXnXvXnXNXxXiXdXnXBXxXuXlXNXNXjXvXxXBXDXNXlXjXfXZXNXBXnXfXfXfXP 4XzX$XQ ! Z xX:X#X<XI iX%X4X1 ~ xX5X6XyX1X3X6XyX7Xo ! + &X/ ^ ! Q ~ ~ A :XU iX:XC 3X4X1X2X1X2 ; C l <X^ . b P #X1X<X&X. O b L.>X<X< o b A %X:XI R 2XS / I R $X@X#XI * Z P R R @X X@X X^  X^ @XR > D ^ <  X! * R A C P ! 1 S T A A S P P J S J P P I T T T Q Q T T J D D J K S S T R 1 1 ; J C A D D Z P Z Z C J P ~ L.Q $X#X-XqXnXHXBXNXNXLXMXAXAXMXMXMXMXMXMXMXMXMXMXMXMXMXMXMXMXMXMXMXDXKXGXGXGXGXGXGXGXGXGXGXGXGXGXGXGXGXGXGXGXGXGXGXGXGXGXGXGXLXMXDXMXMXMXMXMXMXMXMXMXMXMXMXMX",
"MXMXMXMXMXMXMXMXMXMXMXMXMXMXMXMXMXMXMXMXMXMXMXMXMXMXDXKXGXGXGXGXGXGXGXGXGXGXGXGXGXGXGXGXGXGXGXGXGXGXGXGXGXGXGXMXMXMXMXMXMXMXMXMXMXMXAXAXAXAXBXBXVXrXG.T.T.R.E.E.R.G.tXaXwXlXzXjXvXzX@XzXuXlXuXvXiXiXzXzXb 4XnXL.FX XqXzXnXiXhXnXNXjXvXzXzXxXyXjXhXhXhXfXfXfXhXhXdXfXhXjXhXhXfXhXhXzXvXNXZXBXnXvXBXHXZXzXxXKXKXfXzXyXdXNXxXjXvXwXnXBXKXvXdXhXdXI fXxX$XW #XZ P VXiX%X! zX X XQ kX4X6X4X2XuXyXdXxX%X, 1X+ jXQ D Q ~ *XP Q &X! iX:XZ 6X:X>XdXP . D , @XlXS   1 C #X:X1XL.X 1 , W qX2X; + l S &X5Xb R 2XI Q Q R $X@X%XT ; R A Q Z I D S @X@X!  XW %X< A E D @X< T S Z b J / 1 S T Z A S P P J S S J P P P T T P I T P K D S J K S D J J > C b 1 C A D A Z R A Z C P A I Q U L..X&X2XnXHXBXNXNXLXMXMXAXMXMXMXMXMXMXMXMXMXMXMXMXMXMXMXMXMXMXMXDXKXGXGXGXGXGXGXGXGXGXGXGXGXGXGXGXGXGXGXGXGXGXGXGXGXGXGXGXMXNXDXMXMXMXMXMXMXMXMXMXMXMXMXMX",
"MXMXMXMXMXMXMXMXMXMXMXMXMXMXMXMXMXMXMXMXMXMXMXMXMXMXDXKXGXGXGXGXGXGXGXGXGXGXGXGXGXGXGXGXGXGXGXGXGXGXGXGXGXGXGXMXMXMXMXMXMXMXMXMXMXMXAXAXAXAXBXBXVXrXG.T.R.R.E.R.R.G.rXpXhXlXzXfXvX4XL.VXzXzXzXkXvXvXuXmXI 1XzXn VXQ vX4XL.zXxX=X~ &XnX<X&XzXyXlXhXzXxXxXlXfXuXfXjXhXfXhXhXjXjXjXhXfXfXzXnXKXFXnXBXZXZXZXNXBXHXBXfXvXfXFXvXwXxXjXjXBXFXxXiXhXdXI iXzX*X/ R ^ , ! vXkX! pX X; uXqX4X5XiXqXyX<X! &XS o ; ; 4XI / / ! #Xb ^ #X~ uX:XZ 4X1X2X7X, > T C 6X1X( . b S @X:X>X&XX O  X=X%Xb O < < ^ =X:XS R 3XQ Q Q Q %X X@XI Q P b  Xl ; , , /  X@X!  X^ ^ > R ! b C P S D b S / l S T C A S P P P S S S J K J P J D D J P K D D S S S J S Q , P W > D Z T D b T D A C P I ! L. XQ #X,XqXnXHXBXNXMXMXMXMXAXMXMXMXMXMXMXMXMXMXMXMXMXMXMXMXMXMXMXMXDXKXGXGXGXGXGXGXGXGXGXGXGXGXGXGXGXGXGXGXGXGXGXGXGXGXGXGXGXMXNXDXMXMXMXMXMXMXMXMXMXMXMXMXMX",
"MXMXMXMXMXMXMXMXMXMXMXMXMXMXMXMXMXMXMXMXMXMXMXMXMXMXDXKXGXGXGXGXGXGXGXGXGXGXGXGXGXGXGXGXGXGXGXGXGXGXGXGXGXGXGXMXMXMXMXMXMXMXMXMXMXMXAXAXAXAXBXBXVXrXG.R.R.R.E.R.G.U.bXeXxXdXxXfXvXqX#XxX&XzX4XvXyX1XhXVXU .XpX* pX$XiXD  Xb FXb L.I  XhX; zXkXzXZ Z I iXvXiXzXiXjXdXhXuXhXzXdXlXlXdXzXhXzXZXZXBXHXFXDXHXHXDXKXFXNXnXNXKXvXzXdXvXlXNXZXnXqXxX2XQ uXvX XI #X! K l  XmXL.zXP  XkX3XyX4X7XqX&XX   . . $X> > iXI L.! / / K  X X XqX<XZ 7X=XqX$X. D >  X<X6XA . 1 S #X2X<X XX O , *   O . D L.%X&X>XP / qXQ P L.T #X#X&XI R I b ^ Q L.A l C @X^  X^ / @XP > 1 A S T A b C S ! C J T C A A S J J S S P J K K J J K J P S S S S S S S K J T > P P , C Z J D b A P J T K R  XI #X XL.>XqXvXFXBXMXMXMXAXMXAXMXMXMXMXMXMXMXMXMXMXMXMXMXMXMXMXMXMXMXDXKXGXGXGXGXGXGXGXGXGXGXGXGXGXGXGXGXGXGXGXGXGXGXGXGXGXGXGXDXMXDXMXMXMXMXMXMXMXMXMXMXMXMXMX",
"MXMXMXMXMXMXMXMXMXMXMXMXMXMXMXMXMXMXMXMXMXMXMXMXMXMXDXKXGXGXGXGXGXGXGXGXGXGXGXGXGXGXGXGXGXGXGXGXGXGXGXGXGXGXGXMXMXMXMXMXMXMXMXMXMXMXAXAXAXAXBXBXVXrXG.R.R.R.E.R.G.I.bXeXxXgXxXfXvX1XL.nXQ yX! pX1 D 1XFXL.L.1Xo =X1XL. XFX, pXQ nX3XA uXI nXhXnXK 3X4X1 kXvXiXvXjXfXlXfXfXzXfXhXjXfXzXhXjXBXBXvXlXnXKXnXvXZXZXFXHXKXFXFXlXdXlXxXxXNXDXnXqXzX3X! lXuX%X#X^ C ~  Xl &X,XL.U zXqXiXqX6X4XvXb . J yXI %X; > zXA R / R D 1  X#X^ jX:Xb 6X<XyX X, S ^ <XdXdXT > 1 C @X=X>X#X< ; X   * O Z l / 7X$X2XA , <XL.P ! P &X@XL.T J T b R Z 1 b / b ! ^  X^ ^ / @X> > C / C P C C S ! l S R A A D S P P J J P P S K P T J P T S S S S S S S K S R l D l C J ; C S 1 l R R T ^ Z D K I L.L.-XqXvXFXBXMXMXMXAXMXAXMXMXMXMXMXMXMXMXMXMXMXMXMXMXMXMXMXMXMXDXKXGXGXGXGXGXGXGXGXGXGXGXGXGXGXGXGXGXGXGXGXGXGXGXGXGXGXGXDXMXDXMXMXMXMXMXMXMXMXMXMXMXMXMX",
"MXMXMXMXMXMXMXMXMXMXMXMXMXMXMXMXMXMXMXMXMXMXMXMXMXMXDXKXGXGXGXGXGXGXGXGXGXGXGXGXGXGXGXGXGXGXGXGXGXGXGXGXGXGXGXMXMXMXMXMXMXMXMXMXMXMXAXAXAXAXBXBXVXrXG.R.R.R.E.R.G.0XbXwXxXcXzXfXvXqX.XnX! zX#XiX XZXhXzXqXn #X&Xb 2X~ #XFXA %X X XA 3XkXl VX4XxXZ <XFXb >XkXuXqXhXfXzXhXdXlXjXfXhXjXlXjXfXnXZXlXjXlXKXvXfXzXjXDXvXjXvXKXvXhXNXjXnXNXBXnXiXjX7X/ hXhX#XI < b < ! ~ K n Z kXiX4X4X4X6XfX Xo 5Xb C R + o 1 qXS %XQ ~ #XP  XL.~ xXn < iX1X:XR R C / T ! T < A S A $X1X1XL.< F b Z l 2 * 1 + ^ %X>XE , :X^ K ~ T &XL.<XA + Z Z ^ R K A P l  X X^ L.^ #X1 D P b C ! A Z b S / 1 D R A A A S J J S S P T J P R R P T Q S S S S S S S K S T > > < S W K K L.W Q L.W T ^ Q !  X~ #X=X1XuXvXFXBXMXMXMXAXMXAXMXMXMXMXMXMXMXMXMXMXMXMXMXMXMXMXMXMXMXDXKXGXGXGXGXGXGXGXGXGXGXGXGXGXGXGXGXGXGXGXGXGXGXGXGXGXGXGXDXMXDXMXMXMXMXMXMXMXMXMXMXMXMXMX",
"MXMXMXMXMXMXMXMXMXMXMXMXMXMXMXMXMXMXMXMXMXMXMXMXMXMXDXKXGXGXGXGXGXGXGXGXGXGXGXGXGXGXGXGXGXGXGXGXGXGXGXGXGXGXGXMXMXMXMXMXMXMXMXMXMXMXAXAXAXAXBXBXVXrXG.R.R.R.E.R.G.tXbXiXxXcXlXhXvXqX XvXK Q  XvXb :XpXkXnX;  XiX. zXI &XVXZ 4XL.l I VX1XI vXI VXA :XFXZ  XVXkXpXhXuXhXhXdXhXlXhXhXjXhXzXfXxXFXnXxXxXZXBXxXfXhXFXNXhXuXvXnXfXBXxXBXNXBXnXyXhX6X~ uXlX$X! Z b l #XK I Q K :XkX7XqXyX<XuX^ , hX< b P ; . b fXA R  X^  XZ #X#X~ xX~ , qX4X1XE ! X . . . .   A S F  X>X5X^ < F b / @X<X! b P + Q 3XC T 5XQ J ^ T %XL.@X, X S A W K R Z , A &X@X^ ^ @XS , ^ P L., A R D l J / 1 S R Z A A D J J S S J P I T I I P P J S S S S S S S K J J < C S T J Q W I J P T ! L./  X X#X X%X=X1XiXvXFXBXMXMXMXAXAXAXMXMXMXMXMXMXMXMXMXMXMXMXMXMXMXMXMXMXMXDXKXGXGXGXGXGXGXGXGXGXGXGXGXGXGXGXGXGXGXGXGXGXGXGXGXGXGXGXDXMXDXMXMXMXMXMXMXMXMXMXMXMXMXMX",
"MXMXMXMXMXMXMXMXMXMXMXMXMXMXMXMXMXMXMXMXMXMXMXMXMXMXDXKXGXGXGXGXGXGXGXGXGXGXGXGXGXGXGXGXGXGXGXGXGXGXGXGXGXGXGXMXMXMXMXMXMXMXMXMXMXMXAXAXAXAXBXBXVXrXR.T.R.R.E.R.U.rXpXuXxXcXcXjXvXqXL.VXQ  X^ zXD  XxXpXvXb >XFX, xXU %XFXn 7X~ 1XI pXpXZ FXI 4XI 1XZXG %XvXiXxXlXfXuXhXhXfXhXjXjXhXfXxXhXlXFXFXBXFXHXFXNXvXNXZXDXnXfXvXBXyXxXvXBXNXBXnXuXdXqXR hXjX%X@X XK L.I l pX:XqXl uXyXqXiX4XyXxXb . R zXR @X+ ; uXI / ! L./ b  X%X! hXqXD 4X1X<XS J < 1 , * 2 , C b Z #X:X1X^ b A ; / 7X#X7Xb C D < 1XS W 5XR R ! J $X*X@X; X Z K L.1 , < C L. X X^  X XO R ! l #XT , J P b P / < P E C A D S J P J J P D P T K S P J A S S S S S S S K J S J ! P R W A K J ^ L.Q P J A A Q ~ #X$X$X=X2XvXHXBXLXMXMXAXMXAXMXMXMXMXMXMXMXMXMXMXMXMXMXMXMXMXMXMXMXDXKXGXGXGXGXGXGXGXGXGXGXGXGXGXGXGXGXGXGXGXGXGXGXGXGXGXGXGXMXMXMXMXMXMXMXMXMXMXMXMXMXMXMXMX",
"MXMXMXMXMXMXMXMXMXMXMXMXMXMXMXMXMXMXMXMXMXMXMXMXMXMXDXKXGXGXGXGXGXGXGXGXGXGXGXGXGXGXGXGXGXGXGXGXGXGXGXGXGXGXGXMXMXMXMXMXMXMXMXMXMXMXAXAXAXAXMXBXVXrXR.T.R.R.E.R.U.rXwXjXcXcXcXjXvX4XP.VX^ VXL.kXL.FXzXiXmXI &XZXK zX5XZ iX< FXZ iX! L.zX* kXK :XZ >XVX; iX3Xb ! kXlXuXhXlXdXfXjXlXhXfXzXjXfXNXFXFXZXBXFXHXBXKXKXFXHXDXHXHXxXvXFXBXNXBXnXdXuXiXP uXzX$X! !  XZ 1 qXvXL.iX.X< zX4XqX2X4XhX$X. o o . $X< + iXZ ^  X! %XU ! .X^ qX:XC <X5X7X! ! ! J , < ^ / R S Z  X1X3XL.b T < / 1X&X3XT J A 1 $XP K 2XR ! R Q %X@X*X* + C Z I Z / R / @X XL./ #XZ C P T C J / J , J C T W < T R Z A A D S J J J J D T T J J T T D S S S S S S S K J J J J J A R R W W P Z b 1 l T I Q A I I ~ &XiXvXHXBXLXMXMXLXAXAXMXMXMXMXMXMXMXMXMXMXMXMXMXMXMXMXMXMXMXDXKXGXGXGXGXGXGXGXGXGXGXGXGXGXGXGXGXGXGXGXGXGXGXGXGXGXGXGXMXMXDXMXMXMXMXMXMXMXMXMXMXMXMXMX",
"MXMXMXMXMXMXMXMXMXMXMXMXMXMXMXMXMXMXMXMXMXMXMXMXMXMXDXKXGXGXGXGXGXGXGXGXGXGXGXGXGXGXGXGXGXGXGXGXGXGXGXGXGXGXGXMXMXMXMXMXMXMXMXMXMXBXAXAXAXAXMXBXVXrXR.T.R.R.E.R.Q.bXeXxXcXcXlXjXvX2X XkXP iXK vXA 4X=XkXxX#XhXvX#XpXxX XA iXnXL.wXiXl kX! Q  XzX~ A l L.FXK -X~ 4XxXhXdXlXfXfXjXjXjXjXhXlXjXlXBXBXlXjXNXFXHXKXFXBXNXxXxXlXdXjXBXBXBXBXvXdXdXfXS iXzX$X X~ Q 1 4XkXqXK pX.XK  XzX4X<XhX1X4X>XR &XA   1 > hXA / S K ^ I Q :X! iX5XA 7X1X=XD I T b 6X1X6X^ A P C @X&X1X#X1 S < W >X#X<XR l P , %XI J 4XP / P L.&X X$XX . Z R R R %X&X@X^ @XL.^ R ; / J P < S A / C C b R R < R P Z A A A D S S S J J I T T T T P J S S S S S S S K S P J S W , C R R Z C A ! ^ R L.L. X$X%X&X:X,XwXvXFXBXLXMXMXLXAXAXMXMXMXMXMXMXMXMXMXMXMXMXMXMXMXMXMXMXMXDXKXGXGXGXGXGXGXGXGXGXGXGXGXGXGXGXGXGXGXGXGXGXGXGXGXGXGXGXDXMXDXMXMXMXMXMXMXMXMXMXMXMXMXMX",
"MXMXMXMXMXMXMXMXMXMXMXMXMXMXMXMXMXMXMXMXMXMXMXMXMXMXDXKXGXGXGXGXGXGXGXGXGXGXGXGXGXGXGXGXGXGXGXGXGXGXGXGXGXGXGXMXMXMXMXMXMXMXMXMXMXMXLXLXAXAXAXNXVXrXR.E.R.R.E.R.0XbXeXnXcXcXlXhXzXzXkXkX&XuX%XfXI D 1XvXzXqXhXkXvXiXhXxXvXnXzXxXkXmXI #XFXzXvXzXvXpXzXzXkXqXnX:X&XxXjXiXlXhXfXhXhXjXzXdXzXxXuXvXHXNXnXfXvXHXnXjXjXdXhXxXlXNXNXBXDXBXBXvXuXdXhXS yXvX XQ  X< :XnX#X&X%XwX$XqXl :XfXqX<XyX6XhXuXxX4X; 4XX 6XW R ^ Q Q P P :XA pX1Xb 2X4X1XE K Z b <X<X6X( Z ! b #X3X<X X1 P , T 2X$X<XT C A Z $XE I 4XS ^ S / %X$X%X< > J W P ~ @X! @X X^  X@X> > S ! S + S l ! @X> 1 R R 1 R J C D D A S J S J P P J J R T S D S S S S S S S S K J A P J P > R R T C R L.T J P R L.~ #XU  X-X>XqXvXFXBXLXMXMXLXAXAXMXMXMXMXMXMXMXMXMXMXMXMXMXMXMXMXMXMXMXDXKXGXGXGXGXGXGXGXGXGXGXGXGXGXGXGXGXGXGXGXGXGXGXGXGXGXGXGXDXMXDXMXMXMXMXMXMXMXMXMXMXMXMXMX",
"MXMXMXMXMXMXMXMXMXMXMXMXMXMXMXMXMXMXMXMXMXMXMXMXMXMXLXKXGXGXGXGXGXGXGXGXGXGXGXGXGXGXGXGXGXGXGXGXGXGXGXGXGXGXGXMXMXMXMXMXMXMXMXMXAXAXMXBXBXMXAXMXBXrXR.E.E.T.!.G.0XvXwXvXhXzXxXlXjXzXlXfXMXxXjXxXnXzXvXlXwXvXfXuXhXuXnXvXzX:XqXvXfXzXzX1 1XvXuXiXlXhXkXuXhXfXNX%X4XlXzXdXfXjXhXhXhXhXhXjXlXlXlXjXvXHXHXBXBXHXHXnXlXjXjXxXNXDXDXBXBXBXBXvXyXfXjXK 4XnX=X! P #XxX#X:X X; 2X<X=XK < kXqX4XqX2XqX<XyX<XX R X :X XA #XL.^ I b 4XP yX1XA 1X1X6XS *XW D  X2X7XS ! J 1 @X:X4X#Xb D 1 &X3X7X@X, ! C 1 6XA Q 3XA  XZ  X@X$X#Xo C D ! K ! @X^ #X^ ^ *XP   l J R A A Z C @XC < b R R < W S Z D D D D S S J P S P R R T P S S S S S S S S S S S S T J T , J R T W Q I L.Z b ^ ! ^ .XK L.%X#X4XxXHXBXNXBXMXAXAXAXMXMXMXMXMXMXMXMXMXMXMXMXMXMXMXMXMXMXMXDXKXGXGXGXGXGXGXGXGXGXGXGXGXGXGXGXGXGXGXGXGXGXGXGXGXGXGXGXDXMXDXMXMXMXMXMXMXMXMXMXMXMXMXMX",
"MXMXMXMXMXMXMXMXMXMXMXMXMXMXMXMXMXMXMXMXMXMXMXMXMXMXDXKXGXGXGXGXGXGXGXGXGXGXGXGXGXGXGXGXGXGXGXGXGXGXGXGXGXGXGXMXMXMXMXMXMXMXMXAXAXAXBXBXBXMXSXAXBXrXR.E.E.T.W.U.eXzXuXzXkXlXzXjXlXxXjXlX:XjXvXfXhXvXuXzXdXxXzXvXvXnX>X~ W #XR W nXiXvX<Xl zXvXdXiXuXhXzXuXvXqX#XzXjXdXfXjXhXdXhXhXhXhXjXlXlXlXlXvXnXDXHXFXNXNXFXHXFXFXDXBXBXDXKXNXNXBXNXhXdXjXA <XhX5XR P nXhX X-X#XU qX<X%XL.o U kX1X4XqX4X4X3X4X; P o &X@XC P Q / ! b 5XA 4X5XZ 7X:X6X XP ~ C =X2XfXR D P D >X1X1XS C ( F / / T > R 2 1 S 6XS K 4XA L.C $X&X@X$XX * C Q I / *X X X X X X; * b S / b S / #X< 1 Z Z W T 1 ( D A A A A D S J P P P T E T P S S S S S S S S S S S J K P S J , P R T T I T W R ! L. X XL.!  X X>XqXxXHXBXNXBXMXAXAXAXMXMXMXMXMXMXMXMXMXMXMXMXMXMXMXMXMXMXMXDXKXGXGXGXGXGXGXGXGXGXGXGXGXGXGXGXGXGXGXGXGXGXGXGXGXGXGXGXDXMXDXMXMXMXMXMXMXMXMXMXMXMXMXMX",
"MXMXMXMXMXMXMXMXMXMXMXMXMXMXMXMXMXMXMXMXMXMXMXMXMXMXLXKXGXGXGXGXGXGXGXGXGXGXGXGXGXGXGXGXGXGXGXGXGXGXGXGXGXGXGXMXMXMXMXMXMXMXMXAXAXAXBXBXBXMXSXAXBXaXR.E.E.R.W.U.rXpXkXzXkXlXlXjXlXlXqXvX/ Z #XNXkXqXhXkXqX2XdX3X%XI #XdXhX#XBXL.#XBXiXZX=XZ 1XvXnXvXpXxXzXiX#X2XvXfXuXjXjXfXfXhXhXhXhXjXlXlXlXjXjXnXDXDXZXKXBXvXnXvXvXnXNXZXDXBXBXNXnXNXhXiXxXT #XnX4XZ A Q xXiX%X%X~ L.iX X X; ,  XkX5XqX3X4X5XxX1 b Z ! &XK ~ ! ^ ~ b <XK &X4Xb 7X1X1X:XZ Q C O / S < A D Z P <XC b A b , ; b < l C l C &X=XP ! =Xb #XK @X@X#X$X+ . Z / ! L.*X X X X#Xb o + D A ! A @XW < l P D Z W S b ! A D T T P P P J J J P P P P S S S S S S S S S S S S K J P D J < T P ! P Q ^ I ! L.R ! I L.! L.#X%XqXxXHXBXNXBXMXAXAXAXMXMXMXMXMXMXMXMXMXMXMXMXMXMXMXMXMXMXMXDXKXGXGXGXGXGXGXGXGXGXGXGXGXGXGXGXGXGXGXGXGXGXGXGXGXGXGXGXMXMXMXMXMXMXMXMXMXMXMXMXMXMXMXMX",
"MXMXMXMXMXMXMXMXMXMXMXMXMXMXMXMXMXMXMXMXMXMXMXMXMXMXDXKXGXGXGXGXGXGXGXGXGXGXGXGXGXGXGXGXGXGXGXGXGXGXGXGXGXGXGXMXMXMXMXMXMXMXMXAXAXAXBXBXBXMXSXAXBXaXG.E.R.R.W.I.bXwXzXzXlXlXlXjXlXjXxXZXR kXI 1XvXxXvXhXzX<X@X@X-XvXvXVXL.A nXiX XhXiXhXvX4XQ L.%X:XyX1X@X#XuXzXfXuXjXlXdXhXlXfXhXhXhXjXlXlXlXlXdXxXDXHXFXDXBXZXBXBXBXZXHXHXKXNXFXZXNXZXzXqXvX^ @XjXqXR L.D ; :XnXiX5X! kX X:X, 1 : qXpX<X5X5X4XqX:X> . D iXl  XI I ^ , *X^ @XyXA >X4X5X4XP T &XJ ! 1 L.< P T l ^ , / l l l A D T D ; b #X&X<XA / $XK ! J $X#X*X*X< o I *XL.@X XL.@X*XI o > o I S R P W ; A E E Z Z / A C / Z A S S S S J J P P P P J S S S S J S S S S S S S S S J P J I < P C T l A I l A Z Z K Z L.I Q %X=X4XxXHXBXNXBXMXAXAXAXMXMXMXMXMXMXMXMXMXMXMXMXMXMXMXMXMXMXMXDXKXGXGXGXGXGXGXGXGXGXGXGXGXGXGXGXGXGXGXGXGXGXGXGXGXGXGXGXMXMXMXMXMXMXMXMXMXMXMXMXMXMXMXMX",
"MXMXMXMXMXMXMXMXMXMXMXMXMXMXMXMXMXMXMXMXMXMXMXMXMXMXDXKXGXGXGXGXGXGXGXGXGXGXGXGXGXGXGXGXGXGXGXGXGXGXGXGXGXGXGXMXMXMXMXMXMXMXMXAXAXAXBXBXBXMXSXSXLXaXK.E.R.W.R.Q.bXqXxXjXlXlXlXlXzXfXfXxX! kX:X XvXqXqXxXuXzXnXvXzXhXkXvXQ vXZXQ -XnXkXiXzXvXzX4X:X.X$X:XkXxXhXzXfXuXjXlXdXhXlXfXhXhXjXjXlXlXlXjXlXlXxXNXKXHXHXHXKXFXFXKXBXnXnXnXxXxXxXDXxXqXxX#XI xXuX^ I ~ ~ , I qXVX! iX X>X< 1 , A iXqX5X4X4X4XyX4X XC :XI ~ ! Q #Xl R &X~ iXb 4X6X%X4XuXA . < J S . l , O > @X/ X , C L.1 O > ; L.%X:X X2XK / ! Q S W *X*X=X^ D l ^ &X X$X X X$X X* * > ; P T P b < J P ! A C J ^ C A ! C C D D S S J J J P J J J J S S S J S S S S S S S S J J J J T , J < ! b J S Z / D ! I I ! ! ! L.5X4XzXHXBXNXMXMXAXAXAXMXMXMXMXMXMXMXMXMXMXMXMXMXMXMXMXMXMXMXLXKXGXGXGXGXGXGXGXGXGXGXGXGXGXGXGXGXGXGXGXGXGXGXGXGXGXGXGXDXMXDXMXMXMXMXMXMXMXMXMXMXMXMXMX",
"MXMXMXMXMXMXMXMXMXMXMXMXMXMXMXMXMXMXMXMXMXMXMXMXMXMXDXKXGXGXGXGXGXGXGXGXGXGXGXGXGXGXGXGXGXGXGXGXGXGXGXGXGXGXGXMXMXMXMXMXMXMXMXAXAXAXBXBXBXMXSXAXLXaXK.E.R.W.K.0XbXiXxXhXzXlXlXzXfXxXfXBX~ xX X XZXVXzXuXvXqXhXhXxXqXkXzXhXQ Q >XzXkXiXqXkXpXkXnXVXzXxXnXL.U b >XvXfXuXjXjXfXfXhXhXhXjXjXlXlXlXlXzXzXjXjXxXNXZXDXHXZXNXzXfXuXdXdXxXlXxXNXvXwXzX5XS lXuX!  XI  X$XK l =X:XyX X<X~ ; b * I xXqX4X4X7X5X3XnXW 1XK Z @XI Z ~ b qXZ yXb 4X<X<X<X7X%X*XR <X<XL.$X2X@X&X2X>X X@X7X>X&X>X&X&X<X:X#X>X<XA ^ K ! S @X! ~ >XP R D L.#XL.#X X X#Xb o , ; 1 S T T O T / A Z T C E / 1 S R A A P P P P J J S S J P P P J J S S S S S S S S S S J K S J T < R l J b K C P @XZ J Q D ~ L. X X-XqXzXHXBXNXBXMXAXAXAXMXMXMXMXMXMXMXMXMXMXMXMXMXMXMXMXMXMXMXLXKXGXGXGXGXGXGXGXGXGXGXGXGXGXGXGXGXGXGXGXGXGXGXGXGXGXGXGXDXMXDXMXMXMXMXMXMXMXMXMXMXMXMXMX",
"MXMXMXMXMXMXMXMXMXMXMXMXMXMXMXMXMXMXMXMXMXMXMXMXMXMXDXKXGXGXGXGXGXGXGXGXGXGXGXGXGXGXGXGXGXGXGXGXGXGXGXGXGXGXGXMXMXMXMXMXMXMXMXAXAXAXBXBXBXMXSXAXLXkXK.E.T.W.K.tXkXhXzXjXxXlXgXzXfXxXqXmX Xb A mXL.~ qXhXhXvXkXzXiXZXzXhXVXxXzXVXzXkXjXnXzXqX5X1Xb A ~ vX1 qXqXl zXjXdXfXjXhXdXhXhXhXjXjXlXlXlXlXjXhXxXvXfX6XlXHXxXjXjXxXNXFXHXHXFXBXDXBXnXyXfXfXZ 6XlX5X X XD ! #X~ A b #XuX#X~ ; l 1 * %XqX7X4X:XhX:XyXQ %X XP W D b ^ < 2XK >XZ 5X1X<X:X:X4X5XuX:X=XuX2X$X2X<X>X&XqX&X%X>X&X=X%X1X%XL.%X#X:XS S ! L.A  XP Q  XA ~ K @X@X X@X X*XP o > ; * Z D ^ b T l T T Z S A R T 1 R P A S A A A S S J P P P P P P P J J S S S S S S S S S K S S I P , ! Z Z l A Z R W C A I b  X~  X#X#XiXzXFXBXNXBXMXAXAXAXMXMXMXMXMXMXMXMXMXMXMXMXMXMXMXMXMXMXMXLXKXGXGXGXGXGXGXGXGXGXGXGXGXGXGXGXGXGXGXGXGXGXGXGXGXGXGXGXDXMXDXMXMXMXMXMXMXMXMXMXMXMXMXMX",
"MXMXMXMXMXMXMXMXMXMXMXMXMXMXMXMXMXMXMXMXMXMXMXMXMXMXDXKXGXGXGXGXGXGXGXGXGXGXGXGXGXGXGXGXGXGXGXGXGXGXGXGXGXGXGXMXMXMXMXMXMXMXMXAXAXAXBXBXBXMXSXAXMXbXK.W.T.W.U.tXpXzXlXjXxXlXgXlXxXuXzXvX.X#X XZX~ Q :X4XQ nX~ zX7XZ #XvX XqXxXiX:X1X#XI FXU 4X5XK FXqXZXb iXmXb 4XlXzXdXfXjXhXhXhXhXjXjXlXlXlXlXlXxXlXfXxXDXBXxXjXxXvXvXxXjXfXdXjXfXvXnXnXdXuXxXK >XzX:XQ R A b b L.Q I #XpXQ 1X; l b < * 1XuX1X6X:X6XyX:XI 4Xb Q $XuXD b / %XI ! >X6X1X6X:X5X1X1X1X4X>X1X3X2X2X1X1X:X<X6X1X:X3X3X>X1X1X4X>X3X XC R R I $XC K  XA ^ K %X@X$XL. X$X; ; ; > + E A ^ F  X< T D D D S ! S 1 / D C A P P P P P P J J J J J P P P P P S S S S S S S S J J J R J * P l C 1 b Z P Z J ^ Q I ! U ~  X1XpXzXFXBXNXBXMXAXAXAXMXMXMXMXMXMXMXMXMXMXMXMXMXMXMXMXMXMXMXLXKXGXGXGXGXGXGXGXGXGXGXGXGXGXGXGXGXGXGXGXGXGXGXGXGXGXGXGXDXMXDXMXMXMXMXMXMXMXMXMXMXMXMXMX",
"KXKXKXKXKXKXKXKXKXKXKXKXKXKXKXKXKXKXKXKXKXKXKXKXKXKXKXKXKXKXKXKXKXKXKXKXKXKXKXKXKXKXKXKXKXKXKXKXKXKXKXKXKXDXDXGXKXKXKXKXKXKXKXHXHXHXFXFXKXFXHXHXKXbXU.R.R.W.K.rXpXhXxXzXlXlXgXlXxXdXhXVXL.pXQ pX X2XFX4X, hXL.vXZ yXK qXA 4X:X1X1X5X:X. vX=XqXqXZ %XqXvXA <XnXb 6XdXjXhXfXhXhXfXfXhXhXhXlXxXzXlXjXlXjXfXKXFXfXjXjXlXxXnXNXBXDXZXBXBXBXnXnXhXqXvX X^ vX4XK D l Z A U < hXL.qX X:XK ; b , o , kX<X4XqX4X7XyXD 2Xb Q S Z Q P b qXb A 8X:X1X2X:X>X:X1X%X=X=X$X&X#X&X%X$X XL. XL.Q ! I I P I D A S l * $XZ L.L.^ -XW R A C $X@X@X X%Xb X * , o 1 R P P Z &Xb A R J S S  XC Z ! A A A A D S S S J P P P S S P P J P R J P P J S S S S J P P P D C 1 < D S D C C D S A P P ! I  X&X2XiXvXZXFXKXKXKXKXHXHXKXKXKXKXKXKXKXKXKXKXKXKXKXKXKXKXKXKXGXGXKXKXKXKXKXKXKXKXKXKXKXKXKXKXKXKXKXKXKXKXKXKXKXKXKXKXKXMXGXGXKXKXKXKXKXKXKXKXKXKXKXKXKXKX",
"GXGXGXGXGXGXGXGXGXGXGXGXGXGXGXGXGXGXGXGXGXGXGXGXGXGXGXKXDXDXDXDXMXMXMXMXMXMXMXMXMXMXMXMXMXMXMXMXMXDXMXDXDXMXMXKXGXGXGXGXGXGXGXGXHXHXGXFXFXHXHXHXHXbXK.R.R.W.W.rXpXxXdXxXjXxXfXzXfXlXfXnX~ kXL.5X%X; qXzXl L.&XqXl FX X$X&X#X XK 4XqX1Xb Z >X5XqX1 ! zXnXb iXnXb lXlXjXhXfXhXjXhXhXlXzXlXjXhXhXjXvXnXxXKXDXjXlXzXBXBXNXNXnXnXvXvXvXnXnXnXNXxXuXxX&XP zXzX X~ S P  XI A kX<X&X1X#X Xo ; l .XI Z nX1X2X5X:XjXW :XR S Q Z ! I o <X/ o Z l < b , Z < > b < < l < C ; X < b < < b C A S A A Z A A K P l $Xl #XL.~  XJ L.l . >X X X$XI < P , + X A A ! A C / L.> E S D P / b D W A A D D D S S S J P P S S S S P T E E S S S J P P P P D D K P T T R W J P K Z Z D D Z I Q I .X&X%X<XqXxXBXHXFXGXGXHXGXGXGXGXGXGXGXGXGXGXGXGXGXGXGXGXGXGXGXGXGXGXKXDXDXMXMXMXMXMXMXMXMXMXMXMXMXMXMXMXMXMXMXMXMXMXMXMXMXDXGXGXKXGXGXGXGXGXGXGXGXGXGXGXGXGX",
"GXGXGXGXGXGXGXGXGXGXGXGXGXGXGXGXGXGXGXGXGXGXGXGXGXGXGXKXDXMXMXMXMXMXMXMXMXMXMXMXMXMXMXMXMXMXMXMXMXMXMXMXDXMXMXGXGXGXGXGXGXGXGXGXHXHXGXHXHXGXGXGXHXbXK.R.R.W.Q.aXeXxXhXlXjXjXlXlXjXfXhXnXU iX&X#X%X&XVX1X1Xb ! iXD FX&X~ qXb L.l  XZX.XqXK * vX:XU mXiXxXZ >X~ @XxXjXfXfXhXhXhXhXuXdXhXjXhXhXvXZXjXhXvXHXvXyXvXvXlXlXlXxXxXxXxXxXvXvXvXvXnXxXqXdXuXC 7XlX*XR  X X^ b 1XzX#XI nX^ <XZ 5X:X XpX;  XxX4X6X<XyX%XQ <X, ~ P D P b I 2XZ qX:XqX:X:X1X4X5X<X7X7X6X4XuX<X^ :X6X3X4X6X4X<X%X6X=X2X1X<X4XQ R W P #X#X*X XC @Xl * / *X X*X;  XP ^ *X1 K K @X+ S C / D D W A ! E l P E Z Z A D D S S S J J P P P J D J R E J P J S J P P J S I J J J J J P P W / ! W W / ^ ~ L. XA #X$X X5XiXzXVXHXHXGXGXGXGXGXGXGXGXGXGXGXGXGXGXGXGXGXGXGXGXGXGXGXGXGXKXMXMXMXMXMXMXMXMXMXMXMXMXMXMXMXMXMXMXMXMXMXMXMXMXMXMXDXGXGXGXGXGXGXGXGXGXGXGXGXGXGXGXGX",
"GXGXGXGXGXGXGXGXGXGXGXGXGXGXGXGXGXGXGXGXGXGXGXGXGXGXGXKXMXMXMXMXMXMXMXMXMXMXMXMXMXMXMXMXMXMXMXMXDXDXMXMXDXMXDXGXGXGXGXGXGXGXGXHXHXHXGXHXHXHXGXGXHXbXK.W.R.W.Q.rXeXiXnXhXlXdXvXfXgXjXhXvX%XqX1X XL.qXZX1XpX XA yXA VX XQ nX; <XU K VX XuXhX. zX4Xl vX! nXA Z =XzXlXdXuXfXjXhXfXhXxXlXzXvXxXxXNXFXDXnXFXNXdXzXzXjXBXBXKXFXHXHXFXFXDXBXNXNXNXnXuXuXvXD =XvX2XZ ~  XK K vX:X:XL.1X=X XU K >X5Xl ; o #XiX2X4X6XqXb yXb S P R A I ; qXI #XyX2X:X4X4X2X1X2X<X&X>X=X&X:X2X:X&X$X%X&X&X=X>X:X>X@X>X#X>Xl $Xb / / ^ %XQ J I L.%XL. X&XC o I K Z S 1 I A R l C P P T 1 S S L.S l ! P C C A A A D S S S J J P T P S J T P J D D S P T T P P P P T T T P P P K P T I T W ! ! ~  XK @X%X.X5XqXzXVXHXHXGXGXGXGXGXGXGXGXGXGXGXGXGXGXGXGXGXGXGXGXGXGXGXGXGXKXLXMXMXMXMXMXMXMXMXMXMXMXMXMXMXAXMXMXMXMXMXMXMXMXMXMXMXGXGXGXGXGXGXGXGXGXGXGXGXGXGXGXGX",
"GXGXGXGXGXGXGXGXGXGXGXGXGXGXGXGXGXGXGXGXGXGXGXGXHXGXGXKXMXMXMXMXMXMXMXMXMXMXMXMXMXMXMXMXMXMXMXMXMXMXMXMXMXMXMXGXGXGXGXGXGXGXGXHXHXHXGXHXGXGXHXHXHXbXG.E.R.W.Q.tXbX2XvXzXzXfXxXfXdXxXjXfXlXhX4XL.#Xb L.:X.XnXD nXb FXL.L.FXA jX X XFX@X-XVX~ 1X2Xl D  XzXuXvXvXuXhXfXfXjXjXhXjXzXjXdXfXxXvXvXvXnXBXNXBXjXfXNXnXnXvXxXhXdXfXlXvXNXBXNXBXNXNXnXhXuXzX XI vXhXI Q  Xb 7X2X X&X* L.kX X#X; nXl o iX>X1 yXqX<X4XqX! *X#Xl I I l Z 1 A qXZ 6X=X4X>X7XZ P yX=X=X4X<X:X>X-X=X>X1X:X-X>X:XZ b %X>X#X1XK I / A ^ ^  X@XC L.Z ! #X X=XJ + O X ^  XX D A #X1 b T 1 R #Xb F ! ^ Z C ! S C A S A A D S S J J J J J J J J P T R P P T R T J S J S J T T T T Q W T Q W W W ! ! ! ~ L.~ Q  X$X5XqXzXBXHXHXGXGXGXGXGXGXGXGXGXGXGXGXGXGXGXGXGXGXGXGXGXKXGXGXGXKXDXMXMXMXMXMXMXMXMXMXMXMXMXMXMXMXMXMXMXMXMXMXMXMXMXMXMXGXGXGXGXGXGXGXGXGXGXGXGXGXGXGXGX",
"GXGXGXGXGXGXGXGXGXGXGXGXGXGXGXGXGXGXGXGXGXGXGXGXGXGXGXKXMXMXMXMXMXMXMXMXMXMXMXMXMXMXMXMXMXMXMXMXMXMXMXMXMXMXMXGXGXGXGXGXGXGXGXGXHXHXGXHXGXGXGXGXHXmXR.!.R.W.W.XXmXqXqXxXzXzXfXlXxXdXxXjXxXzXzXA nXkX<XqX1XnX XnX@XZ K xXxX~ nXqX-XnX X>XnXhXkXxXkXVXxXzXzXqXkXhXhXhXhXhXfXfXlXxXvXlXhXzXvXnXNXZXKXHXxXjXlXfXxXvXvXNXKXHXHXHXKXBXNXNXBXnXnXnXhXqXjX7Xb yXlX&XI ! I zX#X1XL.:XK kX X>XK b b VX^ =Xb Z lX6X1X2X3XZ yX, R C L.! Z * :XA $XqX>XyX XP %X:X5X<X%X=X<X:X>X>X>X=X%X>X:X&X; Q >X=X-X:Xl %X, =XK @XJ *Xb  XZ %X$XL.#X1 ^ A X + *X, T Z ^ C @XT  X/ < < F R W b D R A A P P S D D S S J J J P J J J J J P R E R W ! T S D S T R T P J J T R R R W W W Q W !  XL. XK L.%X5XuXxXBXHXHXGXGXHXGXGXGXGXGXGXGXGXGXGXGXGXGXGXGXGXGXGXGXGXGXGXKXMXMXMXMXMXMXMXMXMXMXMXMXMXMXMXMXMXMXMXMXMXMXMXMXMXMXMXGXGXGXGXGXGXGXGXGXGXGXGXGXGXGXGX",
"GXGXGXGXGXGXGXGXGXGXGXGXGXGXGXGXGXGXGXGXGXGXGXGXGXGXGXKXMXMXMXMXMXMXMXMXMXMXMXMXMXMXMXMXMXMXMXMXDXDXMXMXDXMXDXGXGXGXGXGXGXGXGXGXHXHXGXHXGXGXGXGXHXmXR.W.R.W.W.I.eXzX<XkXvXzXfXzXxXyXxXxXfXfXnXQ >XmXzXkXzXpXzXhXvX<XhXkXjXzXuXkXvXlXhXfXhXzXqXkXkXhXfXzXiXdXuXdXyXfXhXfXdXfXlXzXnXvXlXfXdXhXzXxXBXBXjXxXnXxXNXDXBXNXnXxXvXnXBXDXKXBXBXvXvXNXxXuXuXvXK %XvX7XD < >XVXyXL.#X$XU $X7X X.Xn pX^  XX ! *  XuX6X2XiXb 4XP Z P :X X1 A b iXb iX:X=X4X4XA < <X4X:X:X>X&X=X=X>X>X>X>XL.l >X#X1XI I <  XK Z %X^ 1 ~ b @XS Q #X^ <XC . C =XK o X K D #Xl @X$XR b , C S L.W P b R P Z A ( R P J S S J P J J P T P S S P P P D D J T T P R ! ! W T P T W / ~ R R W / / ~ ^ L.~ ^ .X X#X=X:XqXxXBXHXHXGXGXGXGXGXGXGXGXGXGXGXGXGXGXGXGXGXGXGXGXGXGXGXGXGXKXMXMXMXMXMXMXMXMXMXMXMXMXMXMXMXMXMXMXMXMXMXMXMXMXMXMXMXGXGXGXGXGXGXGXGXGXGXGXGXGXGXGXGX",
"GXGXGXGXGXGXGXGXGXGXGXGXGXGXGXGXGXGXGXGXGXGXGXGXGXGXGXKXLXMXLXMXMXMXMXMXMXMXMXMXMXMXMXMXMXMXMXMXMXDXMXMXDXMXMXGXGXGXGXGXGXGXGXGXHXHXHXHXHXGXGXGXFXbXG.E.R.Q.Q.U.I.VXeX4XnXfXxXjXdXvXfXuXxXfXzXfX4XjXuXhXhXjXhXhXkXxXzXiXpXkXiXhXuXiXfXvXqXzXzXuXhXiXyX4XiXuXfX5X6XuXhXhXjXlXlXjXvXNXDXMXNXNXCXBXHXvXxXjXlXvXjXjXlXxXnXNXZXDXDXBXDXnXxXfXhXnXvXhX4XzX^ A zXuX XZ Z I >XjXjXvXkXU iX X:XK ; o ; Q qX4Xo >XiX<XuX#XC yX1 P > A b D ;  X XD yX:X:X:XZ I :X XqX=X:X:X>X=X>X>X>X&XQ ;  X<X^ K 2XQ b Z $X XL. X@XA $X, $X$X%XD * b X ,  X/ ; / Z ! A S < < b R ( P S L.J C ^ S C A ! T R T P S S P J S S P J A S R ( P P S S J P J P Q ! R P J E ! ! R R R W / ~ ! / L.L.L.L.#X#X=X:XkXxXBXHXFXGXGXGXGXGXGXGXGXGXGXGXGXGXGXGXGXGXGXGXGXGXGXGXGXGXKXMXMXMXMXMXMXMXMXMXMXMXMXMXMXMXMXMXMXMXMXMXMXMXMXMXMXMXGXGXGXGXGXGXGXGXGXGXGXGXGXGXGXGX",
"GXGXGXGXGXGXGXGXGXGXGXGXGXGXGXGXGXGXGXGXGXGXGXGXGXGXGXKXMXMXMXMXMXMXMXMXMXMXMXMXMXMXMXMXMXMXMXMXMXMXMXMXDXMXMXGXGXGXGXGXGXGXGXGXGXGXHXHXHXGXGXGXFXmXG.E.W.W.W.W.U.tXbX-XgXxXjXxXkXzXkXhXjXlXjXhXlXlXhXhXhXhXhXfXlXiXhXuXjXuXjXhXhXuXlXuXiXqXqXpXqX:XjXzXqXiX6XiXqXyXuXfXfXhXlXzXnXnXnXZXKXNXPXNXKXlXfXjXjXxXvXKXDXFXHXKXBXZXKXNXxXdXhXuXdXvXvXzX7XjX4XZ 3XxX:X( I P b < ^ >XzX5X%XiXI qXo b 2XxX* =X&XX zX2X1XhX< 1XQ , I Q b Z S , :XA #X6X:X1X4X*X. @X*X XyX1X:X>X5X%X&XX / >X:X>XI Q 6X>XZ A Q ^  X@XD ^ Z P =X@X X;  X< + * + < D K  XA , b S ! T P J S / / b S ! F F S ! J T P P T ) S ) E T P E ) D T ( T P J K K J J K J R Q W ! ! / ! P S ! ^ ! ! ! ! L.L.L. X@X%X%X1XwXvXBXFXHXGXGXHXGXGXGXGXGXGXGXGXGXGXGXGXGXGXGXGXGXGXGXGXGXGXKXMXMXMXMXMXMXMXMXMXMXMXMXMXMXMXMXMXMXMXMXMXMXMXMXMXMXMXGXGXGXGXGXGXGXGXGXGXGXGXGXGXGXGX",
"GXGXGXGXGXGXGXGXGXGXGXGXGXGXGXGXGXGXGXGXGXGXGXGXGXGXGXKXMXMXMXMXMXMXMXMXMXMXMXMXMXMXMXMXMXMXMXMXMXMXMXMXDXMXMXGXGXGXGXGXGXGXGXGXGXGXHXHXHXGXGXGXHXmXG.E.W.W.W.W.G.Q.bXeX3XcXxXlXzXzXkXpXhXfXhXlXlXgXgXgXhXjXhXhXfXhXjXlXvXiXjXyXhXnX>XiXqXqXiX4X>X X1XzXhXyX5XiXiXiXuXhXlXlXxXxXvXnXnXzXiXdXxXNXBXvXxXlXvXBXvXzXBXvXnXDXFXKXNXzXjXfXdXdXdXxXnXzXhXqXxXS ~ cXzXR ^ I ( I < , b ^ A kX.X>X! Q L.I hX4X< o b uX2XiX*X1 yX< b A S b D b b qX< #XyX:X<X&X X Xb ! P P 7X:XP ; Q R L.>X>X>X%XX < / iXC R !  X Xb =X; &X%X:X1 R b > :XI o < W b  XZ l I J J P P S R / P C ( T A Z S ! S P P T T ) S ) T P S ) ) D ) E S R W R T Q Q J D A P E P P ! / ! /  X^ R Q / L.L.L.L.L.@X%X%X1XwXvXVXFXHXGXGXHXGXGXGXGXGXGXGXGXGXGXGXGXGXGXGXGXGXGXGXGXGXGXKXMXMXMXMXMXMXMXMXMXMXMXMXMXMXMXMXMXMXMXMXMXMXMXMXMXMXMXGXGXGXGXGXGXGXGXGXGXGXGXGXGXGXGX",
"GXGXGXGXGXGXGXGXGXGXGXGXGXGXGXGXGXGXGXGXGXGXGXGXGXGXGXKXMXMXMXMXMXMXMXMXMXMXMXMXMXMXMXMXMXMXMXMXMXMXMXMXDXMXMXGXGXGXGXGXGXGXGXGXGXGXHXHXHXGXGXGXHXmXG.E.W.R.W.R.R.G.0XbX3XyXPXgXjXzXkXkXjXfXfXlXgXfXfXgXjXlXjXhXyXlXjXiX5X7X4XqX>X1XI qXVXqX,X2XqX,X>X:XqXvXxXiXiXiXuXhXlXlXlXlXVXzXiXiXkXvXBXZXHXNXvXjXfXdXlXKXKXBXKXFXNXxXhXyXfXhXuXkXuXhXnXzXkXwXhX=XC iXlX>XI I P I W ^ A ^ A ~ nXb qXl ; hXP . S hX; #XuX1XvX; :X X< I l A , b < C uX, #XuX>X2X7X$Xb &X, D :X7Xl !  X>X<X=X=X1Xb #X< o < L.5X< K I #Xb S %X%XI o ~ #X X< %X< S C &X1  XD S P Z S P S / ! F S ^ A Z D S W J J P T P P P P J T P P P S ) T P P W W T T E T T S R W P S P Q Q ~ ^ L.^ ^  X X~ L.L. X@X%X%X,XwXvXBXFXHXGXGXHXGXGXGXGXGXGXGXGXGXGXGXGXGXGXGXGXGXGXGXGXGXGXKXMXMXMXMXMXMXMXMXMXMXMXMXMXMXMXMXMXMXMXMXMXMXMXMXMXMXMXGXGXGXGXGXGXGXGXGXGXGXGXGXGXGXGX",
"GXGXGXGXGXGXGXGXGXGXGXGXGXGXGXGXGXGXGXGXGXGXGXGXGXGXGXKXMXMXMXMXMXMXMXMXMXMXMXMXMXMXMXMXMXMXMXMXMXMXMXMXDXMXMXGXGXGXGXGXGXGXGXGXGXGXHXHXHXGXGXGXGXmXG.T.R.R.W.W.R.G.U.bXkX1XcXxXgXjXhXkXzXhXfXjXgXfXfXgXjXjXhXhXjXzXzX:XQ nXvX1XqXkX%XI ,XbXzXqX;X;X%X=X>X=X1XqXqXiXpXhXhXhXjXlXzXkXpXkXvXnXBXBXBXBXnXfXxXFXKXDXBXFXHXBXjXhXlXlXdXjXhXhXuXdXvXzXhXkX4XzXA #XiXhXI I ! D < < I < uXU >XqXI =XI I . =XnX< o ; &XqXqX>X, qXb 1 ! , ! I b > S uX> / jX1X&XqX1X4XR  X>X:X>X>X2X:X$X<X=X< ^ I 1 P Z 6Xl Z A b K , >X%X&X< o * I ; 1 P Z R I / b %XD b T F S S E L.E F ( W Z C T J T T D P T J J P P J T T T T P J T E D T R T J S T ^ W ~ ~ T P I R Q I I ~ L.L.L.L.~ L.L. X@X%X%X,XwXzXBXHXHXHXGXGXGXGXGXGXGXGXGXGXGXGXGXGXGXGXGXGXGXGXGXGXGXGXKXMXMXMXMXMXMXMXMXMXMXMXMXMXMXMXMXMXMXMXMXMXMXMXMXMXMXMXGXGXGXGXGXGXGXGXGXGXGXGXGXGXGXGX",
"GXGXGXGXGXGXGXGXGXGXGXGXGXGXGXGXGXGXGXGXGXGXGXGXGXGXGXKXMXMXMXMXMXMXMXMXMXMXMXMXMXMXMXMXMXMXMXMXMXMXMXMXDXMXDXGXGXGXGXGXGXGXGXGXGXGXHXHXGXGXGXGXGXmXG.T.T.T.R.E.R.R.G.0XmXqX<XPXcXlXhXkXzXlXfXgXgXjXjXjXhXhXhXfXjX<XhXuXI =XxXiX2XL.,X#XL.#XeXzXvXeX%X=X1XqXiXiXeXeXpXkXhXhXjXzXnXVXVXVXVXKXBXvXHXzXjXnXZXNXvXKXFXBXNXzXdXjXzXfXuXfXzXfXiXkXkXzXzXuXpXvXL.n kXhX>X! A , 1 ; K 1 1XlXZ zX~ &XL.. xX<X. b xX/ 1 uX2XuXP C yX+ S b =X=XA A ; b iXK S %X1X>X1X:XzX:X:X&X>X1X%X2X2XL.1 #XP ; K Q b b o :X:XI l  X>X#X< < b ; X * ! l I Z :Xb )  X~ b E S S D ! ^ S S / D A C W J D W D J J K J I I K K I T T P S J W J I T R T D D ! W T T R ~ ~ ~ / R J Q / Q R L.L.L. X X@X#X%X,XwXkXBXHXHXHXGXGXGXGXGXGXGXGXGXGXGXGXGXGXGXGXGXGXGXGXGXGXGXGXKXMXMXMXMXMXMXMXMXMXMXMXMXMXMXMXMXMXMXMXMXMXMXMXMXMXMXMXGXGXGXGXGXGXGXGXGXGXGXGXGXGXGXGX",
"GXGXGXGXGXGXGXGXGXGXGXGXGXGXGXGXGXGXGXGXGXGXGXGXGXGXGXKXMXMXMXMXMXMXMXMXMXMXMXMXMXMXMXMXMXMXMXMXMXMXMXMXDXMXDXGXGXGXGXGXGXGXGXGXGXGXHXHXGXGXGXHXGXmXG.Y.T.T.E.E.E.R.G.F.aXmX&X6XcXxXjXhXjXlXgXlXlXlXjXjXhXhXfXdXqXxXqXiXhXA L.kXmXvX-XP.P.P.U .X.X#X:X2XqXkXkXwXeXeXkXkXkXjXxXvXvXzXxXVXBXxXlXxXBXxXxXjXjXNXBXKXFXvXjXlXjXfXfXfXyXjXxXyXfXzXiXvXzXhXwXuXdXb -XzXfXQ I A ; b P Z iXjXI ^ VXP 1XI Z . *XjXZ 2XC b fX2XhX> >X$Xo K b A Z A P , o  X1 ^ L.1X:X! ^ 4X<X1X:X^ Z A D A  X1 , K Q K / b ^ . I qX#XZ &X X< :X^ ! l ; ; ! b  XZ * S ~ A C T E ) ) ^ ( D ( ! C A Z W T A W D J K K K I J K K J T T T S K W R J K R ! T D ) W T K R / ^ ~ W L.~ L.L.Q T ~  XL. X X@X#X%X:XwXuXNXHXHXGXGXGXGXGXGXGXGXGXGXGXGXGXGXGXGXGXGXGXGXGXGXGXGXGXKXMXMXMXMXMXMXMXMXMXMXMXMXMXMXMXMXMXMXMXMXMXMXMXMXMXMXMXGXGXGXGXGXGXGXGXGXGXGXGXGXGXGXGX",
"GXGXGXGXGXGXGXGXGXGXGXGXGXGXGXGXGXGXGXGXGXGXGXGXGXGXGXKXMXMXMXMXMXMXMXMXMXMXMXMXMXMXMXMXMXMXMXMXMXMXMXMXDXMXDXGXGXGXGXGXGXGXGXGXGXGXHXHXGXGXGXHXHXbXG.Y.T.T.E.E.E.Y.G.G.Q.mXqX>XiXcXzXhXkXjXlXlXjXjXjXjXhXhXfXuXyX7X2X1X2XL.L.A L..X#X.XQ ;XkXeXzX,XqXzXzXkXqXqXwXwXhXjXlXcXlXzXjXzXmXZXvXdXxXGXNX6XfXNXFXHXHXFXxXdXfXxXlXjXxXnXuXnXlXyXzXkXiXzXzXzX7XqXvX%XZ uXuX:XW I D ! Z I xXL.qXb  XiXK 4XX  XvX* . o 1 X L.iX4X:XX 4XQ ; P A ! P < ; K #XhX:Xb D A  XA #X=X:XZ o 7XQ A ! , < K Q K Z D &X X< D &XA P :X* l  X; L.>X< I Z / ^ < A ) E  Xl P E ) ( ^ ) ) / J Z Z J J R A I J J J J K J J K K J K T R J S Q R R K I W ! P S ~ ~ Q T Q ~ Q J ^ L.L.L.L.L./ L.L. X X X$X%X:XwXqXNXHXGXGXGXGXGXGXGXGXGXGXGXGXGXGXGXGXGXGXGXGXGXGXGXGXGXGXKXMXMXMXMXMXMXMXMXMXMXMXMXMXMXMXMXMXMXMXMXMXMXMXMXMXMXMXGXGXGXGXGXGXGXGXGXGXGXGXGXGXGXGX",
"GXGXGXGXGXGXGXGXGXGXGXGXGXGXGXGXGXGXGXGXGXGXGXGXGXGXGXKXMXMXMXMXMXMXMXMXMXMXMXMXMXMXMXMXMXMXMXMXMXMXMXMXDXMXDXGXGXGXGXGXGXGXGXGXGXGXHXHXHXGXGXHXHXbXG.Y.T.T.E.E.T.T.E.W.&.tXmX1X8XgXxXkXkXlXlXgXgXjXjXjXjXhXfXuXiXuXhXiXkXxX X.X=X;X%XP.kXzXpXpX,X%XiXpX4XqX5XqXwXwXuXgXcXcXcXdXxXVXVXzXjXNXDXDXxXhXBXFXNXZXDXlXlXjXlXlXhXlXxXlXfXZXhXyXvXuXqXhXzXhXlX4XiXxX<  XxXiXI ! W P A ^ uX<X! Z Z 7X1XP qX< <XZ ; b =X&X; 3XqXqXL.; uXC l P b + C &XxX6XP ; Z R K 6X>X1 S ; Z Z  X7XX b b A D P I I L.S b :Xo o > >XZ + o Z %XQ . R I P  X> D F C F ^ 1 P S S ^ / D E ^ Z D C R Z ! S S T J S J J K K K K K K J R K A T Q L.Q K I Q Q I T / ~ J T L./ T R L.~ Q L.@XL.L.L. X X X$X%X:XqX7XnXHXGXGXGXGXGXGXGXGXGXGXGXGXGXGXGXGXGXGXGXGXGXGXGXGXGXGXKXMXMXMXMXMXMXMXMXMXMXMXMXMXMXMXMXMXMXMXMXMXMXMXMXMXMXMXGXGXGXGXGXGXGXGXGXGXGXGXGXGXGXGX",
"GXGXGXGXGXGXGXGXGXGXGXGXGXGXGXGXGXGXGXGXGXGXGXGXGXGXGXKXMXMXMXMXMXMXMXMXMXMXMXMXMXMXMXMXMXMXMXMXMXMXMXMXDXMXDXGXGXGXGXGXGXGXGXGXGXGXHXHXHXGXGXHXHXbXG.Y.Y.T.R.T.E.Y.E.T.G.F.bXbX%X6XxXlXkXkXlXlXjXjXjXjXhXdXuXwX3X:X>X%X XL.uXkXzXiX%XiXVXzXzXqX%X.X#X%X-X,XqXwXpXkXwXgXcXcXyXnXnXnXnXnXjXMXHXSXjXvXzXjXHXNXhXxXfXxXfXNXdXlXKXqXnXvXiXzXxXqXiXjXlXxX4XiX6XzX>X; 2XzXyXA K / < >X4X=X X#X/ b qX>XI 2X, A hX>XI qX; , uX<XfXD < qX* ; C  XlXhX/ , ; I K P b R 1XA I 4X Xb L.<Xb K Z b Z K K ! K l 4X; !  X1XL.X , < o I b D ! C &Xb @X&X%X@X$X$XD F ( ! L.T A $XZ C A Z ! K Z ! C P ) S S K J J I J P J S T P A Q l Z K z z P.P.U K ~ ~ ~ I ~ Q L.I Q  X! Q @X X^  XL. X.X#X=X<XqX1XVXHXKXGXHXGXGXGXGXGXGXGXGXGXGXGXGXGXGXGXGXGXGXGXGXGXGXGXKXMXMXMXMXMXMXMXMXMXMXMXMXMXMXMXMXMXMXMXMXMXMXMXMXMXMXMXGXGXGXGXGXGXGXGXGXGXGXGXGXGXGXGX",
"GXGXGXGXGXGXGXGXGXGXGXGXGXGXGXGXGXGXGXGXGXGXGXGXGXGXGXKXMXMXMXMXMXMXMXMXMXMXMXMXMXMXMXMXMXMXMXMXMXMXMXMXDXMXDXGXGXGXGXGXGXGXGXGXGXGXHXHXHXGXGXHXHXbXG.Y.Y.T.E.E.T.E.Y.Y.G.G.XXbXkX@XpXvXwXlXlXfXfXjXhXfXuXqX7X4XiX3X4XhX XzXxXxXiXeXQ Q L.%X.X X%X2X2X2X,X5XpXpXpXeXwXlXgXdXlXnXkXVXvXpXNXDXPXSXxXhXzXHXnXfXvXdXvXqXBXvXdXDXxXuXVXvXqXvXzXqXzXuXyXyXxXqX7X6XlX/ R zXuX>XS P b 6XuX@X X=XyX4Xb fX1XS 1Xb l =XqX, , ; K fX2XzX* Z :X1XzXlX$Xb + b I b C P b #X7XA ! A Q b  X:X; K K yXZ Z I < b 4Xo Z <X<X#XX + , ; > . D ^ , 7Xb T  XR S C 1 1 ; F ( ^ R A / R A C A C T E C ) D A D S S S J J P I T P A P S D ~ , = u = h L U P.I K L.~ R R L.~ L.Q  X XQ Q ~ ~ L.L. X.X#X%X:X2X,XVXHXFXGXGXGXGXGXGXGXGXGXGXGXGXGXGXGXGXGXGXGXGXGXGXGXGXGXKXMXMXMXMXMXMXMXMXMXMXMXMXMXMXMXMXMXMXMXMXMXMXMXMXMXMXMXGXGXGXGXGXGXGXGXGXGXGXGXGXGXGXGX",
"GXGXGXGXGXGXGXGXGXGXGXGXGXGXGXGXGXGXGXGXGXGXGXGXGXGXGXKXMXMXMXMXMXMXMXMXMXMXMXMXMXMXMXMXMXMXMXMXMXMXMXMXDXMXDXGXGXGXGXGXGXGXGXGXGXGXHXHXHXGXGXHXHXmXG.Y.Y.T.E.E.Y.E.Y.Y.Y.G.t.rXmX2X&XvXkXjXzXfXfXjXlXzXzXlXjXhX3XiXwX%X~ -X:X5X%XA P.%X X.XL.=XzXbX-X,X,XeXbXwX2XeXkXwXdXnXnXpXVXpXbXVXKXZXDXAXdXlXKXBXjXvXfXvXvXfXHXjXxXFXfXnXZXqXnXvXqXxXzX6XlXyXqXfX6X6XuXiXK =XhXvXA ^ b 1X4XuXhXuXiXnX5XP hX%XP fXX L.P o , , o ! 7X2X1X1 #X:XI C . b Q A qX%XP b , L.:XD ~ A L.A ~ *X< A b < Z I < Z >Xo Z <X#X>X< ; < , ; ; S R 1 :XD + 2 1 > , b b D ) ) ^  XS K @XA A Z K b Z E S F ) F D S ) P P P P S J P S P J K ~ z = 8 8 8 8 8 Z n , G L..XU Q L.~ K Q #XL.Q L.L.L.L. X X#X=X,X1X:XVXHXFXGXGXGXGXGXGXGXGXGXGXGXGXGXGXGXGXGXGXGXGXGXGXGXGXGXKXMXMXMXMXMXMXMXMXMXMXMXMXMXMXMXMXMXMXMXMXMXMXMXMXMXMXMXGXGXGXGXGXGXGXGXGXGXGXGXGXGXGXGX",
"GXGXGXGXGXGXGXGXGXGXGXGXGXGXGXGXGXGXGXGXGXGXGXGXGXGXGXKXMXMXMXMXMXMXMXMXMXMXMXMXMXMXMXMXMXMXMXMXMXMXMXMXDXMXDXGXGXGXGXGXGXGXGXGXGXGXHXHXHXGXGXHXHXmXG.Y.Y.T.E.E.E.Y.E.E.;.E.&.K.aXmX,X%XNXuXlXhXjXjXjXfXyX6X4X2X:X:X:X:XqXK A K G ,XmX,X.XQ ,XmXwX.X;X.XeXbX,X,XeXpXwXkXpXkXkXVXVXI.tXVXaXeXZXmXuXNXHX6XzXvXdXFXfXZXBXfXDXnXxXFXzXuXFXlXqXnXiXyXhXjXxX4XiX5XqXkX&XC zXqXxX< Z < 1 ; l b b b ! b D zX&XA 6Xb X , 1 b ; ; :XqX7X$X1 . l b I P I K Z A , P I  X:XA R S / K / :XK b b P 1 ; / =Xo C 2X X>X XX ; , + * S ! l 1Xb K R A J C F ( E E E /  XW K L.R G l b K A b A K A D D S S S S P P P T T I J J K A U h 8 h h 8 8 - u = = : G H.G z P.#XL.I L.L.~ L.L.L. XL. X#X,X2X,X-XnXHXFXGXGXGXGXGXGXGXGXGXGXGXGXGXGXGXGXGXGXGXGXGXGXGXGXGXKXMXMXMXMXMXMXMXMXMXMXMXMXMXMXMXMXMXMXMXMXMXMXMXMXMXMXMXGXGXGXGXGXGXGXGXGXGXGXGXGXGXGXGX",
"GXGXGXGXGXGXGXGXGXGXGXGXGXGXGXGXGXGXGXGXGXGXGXGXGXGXGXKXMXMXMXMXMXMXMXMXMXMXMXMXMXMXMXMXMXMXMXMXMXMXMXMXMXMXDXGXGXGXGXGXGXGXGXGXGXGXHXHXHXGXGXHXFXmXG.Y.Y.T.E.E.E.Y.E.E.;.E.Y.&.Q.mXbX%X1XxXiXlXfXhXjXzXzXzXzXlXvXhXqXkX2XL.L.I kXmX:XU L.%XmX,X.X.X;X,XpXeXeX,XeXeX,XbXbXVXbXrXK.-.R.R.G.U.bXmXzXNXzXxXvXyXBXNXlXHXvXvXHXxXBXNXqXFXxXdXnXzXwXkXxXpXpXpXeXeXeXeXzXQ I hXdXqXA  XQ P K D b b A ! &X< uX6Xb 6XL.+ * ; b ; ; 7XyX4XfX/ b I K S Z A l b I fX>X#X4XA ~ I I b ~ :X< S < o A =XR . R 1X#X%X#X+ < , o , / I b 4Xb Z >Xb C C < C P P D )  X( D Q L.G Z = , Z I A b Z Z A A S S D S P I I Q T T I T Q Q P.h 8 8 8 8 h 8 h 8 z = = h z : n H.P.K U #X.XQ G P.L..X#X;X,X,X=X-XnXHXFXGXGXGXGXGXGXGXGXGXGXGXGXGXGXGXGXGXGXGXGXGXGXGXGXGXKXMXMXMXMXMXMXMXMXMXMXMXMXMXMXMXMXMXMXMXMXMXMXMXMXMXMXMXGXGXGXGXGXGXGXGXGXGXGXGXGXGXGXGX",
"GXGXGXGXGXGXGXGXGXGXGXGXGXGXGXGXGXGXGXGXGXGXGXGXGXGXGXKXMXMXMXMXMXMXMXMXMXMXMXMXMXMXMXMXMXMXMXMXMXMXMXMXMXMXMXGXGXGXGXGXGXGXGXGXGXGXHXHXHXGXGXHXFXmXG.Y.Y.T.E.E.T.E.Y.Y.Y.;.Y.;.&.tXmXzX XyXvXuXzXlXjXhXfXuXiXwX2X:X<X1XqXzX<X=XVXP.U .XH.eXpXP..X;X,X;XeX;XeXrXbXJ.F.aXtX0XK.-.-.-.;.-.S.Q.mXVXkXxXjXNXvXNXFXvXZXBXNXFXZXnXFXjXnXNXfXxXNXkXzXbXbXpXeXaXP.,XrXeXwXhXb #XkXzXL.Z R R K ! A b P F uXuXb =XjXZ  X1X1 o , 1 * Z hX>X1XyX=X, b R , < S :XjX>Xl R :XI R P A A  X>X; ; b &X X, *  X1X*X%X<X< * * * ;  XZ K :XZ 1 ^ >XZ A 1 > 1 S P E ^  XD K L.U G h = : = z G G K K D A D S S K I I K Q I ~ P.P.L.Q Q j 8 8 8 8 8 8 u j 8 j 8 8 h h u u G z n P.P.L z G U P.#X;X-X-X=X-XnXFXFXGXGXGXGXGXGXGXGXGXGXGXGXGXGXGXGXGXGXGXGXGXGXGXGXGXKXMXMXMXMXMXMXMXMXMXMXMXMXMXMXMXMXMXMXMXMXMXMXMXMXMXMXMXGXGXGXGXGXGXGXGXGXGXGXGXGXGXGXGX",
"GXGXGXGXGXGXGXGXGXGXGXGXGXGXGXGXGXGXGXGXGXGXGXGXGXGXGXKXMXMXMXMXMXMXMXMXMXMXMXMXMXMXMXMXMXMXMXMXMXMXMXMXDXMXDXGXGXGXGXGXGXGXGXGXGXGXHXHXHXGXGXHXHXbXG.Y.Y.T.E.E.T.R.Y.Y.Y.;.;.Y.=.U.kXvXqX XvXpXhXhXdXhXhXhXhXkXzXkXvXwXqX#X>XVX.XU P..X.XeXP.P.;X,XH.;XrX0XrX0XG.@.#.G.@.@.-.-.;.:.;.y.G.K.bXbXkXnXDXNXNXHXNXBXFXBXDXHXBXDXBXxXHXgXnXNXxXvXvXvXeXbXbXP.x D.rXeXeXqX4X, 2XhXjX^ A S R o ; 1 A , >XhX%XA &XnXL.A qXI ; o < * D xX1X>X2XuX< 1 >X<XzXyXI * o @X4XS D 4X Xb *X$Xl >X*X, X b 2X:X&X#X<XI o * o P %Xb ! :X1 o  XK &X, A 1 2 1 F E / @XR D ~ L.G Z = h 8 - = z Z G K A S K K K K I G z L L U U G Z z h u 8 8 h h u u u j $ j k j h k j j k j u k L M n z G U P.#X;X-X-X,XmXFXFXGXGXGXGXGXGXGXGXGXGXGXGXGXGXGXGXGXGXGXGXGXGXGXGXGXKXMXMXMXMXMXMXMXMXMXMXMXMXMXMXMXMXMXMXMXMXMXMXMXMXMXMXMXGXGXGXGXGXGXGXGXGXGXGXGXGXGXGXGX",
"GXGXGXGXGXGXGXGXGXGXGXGXGXGXGXGXGXGXGXGXGXGXGXGXGXGXGXKXMXMXMXMXMXMXMXMXMXMXMXMXMXMXMXMXMXMXMXMXMXMXMXMXDXMXMXGXGXGXGXGXGXGXGXGXGXGXHXHXHXGXGXHXHXbXG.Y.Y.Y.E.E.R.T.E.Y.;.~.~.*.Y.&.I.bXkX:X XnXvXvXxXlXjXhXhXhXwX2X2XeXwXeXwX.XH P.P.H.P.P.I.;X0XU.v U.Q.I.&.@.[ :.*.#.;.*.*.;.*.:.Y.y.y.K.bXFXVXZXFXBXFXNXVXFXVXHXZXZXZXZXnXKXPXHXnXvXVXbXzXbXVXbXF.c c v U.rXeXiXzX X< dXuXhXD Z R ; o + ) 1 <XiXL.=X. Q xX:XC  X>XA X ; ; #X7X2X:X6X=Xb ! Q 1 o ; 2X>X X:XI L.; Q A I <XC > . 1 =X2X&X*X%X:X X* X b @XI l &X#X* S I P R *Xb A A A C A ^ @X~ F P @XI n h 8 8 8 h = = = h z Z K K K K K G z = = = 8 = = : = = 8 h 8 8 8 8 h u u j u u 8 j u k k u c x j z z M G M G H..X;X;X;X,XmXFXFXGXGXGXGXGXGXGXGXGXGXGXGXGXGXGXGXGXGXGXGXGXGXGXGXGXKXMXMXMXMXMXMXMXMXMXMXMXMXMXMXMXMXMXMXMXMXMXMXMXMXMXMXMXGXGXGXGXGXGXGXGXGXGXGXGXGXGXGXGX",
"GXGXGXGXGXGXGXGXGXGXGXGXGXGXGXGXGXGXGXGXGXGXGXGXGXGXGXKXMXMXMXMXMXMXMXMXMXMXMXMXMXMXMXMXMXMXMXMXMXDXMXMXKXMXMXGXGXGXGXGXGXGXGXGXGXGXHXHXHXGXHXGXGXmXG.Y.Y.Y.E.E.T.Y.Y.Y.Y.;.;.;.=.G.&.0XmXbX.X&XwXL.E &XjXlXuXwXkXbXmXVXrX;XI.H P.XXF.c U.XXI.K.&.@.&.@.] ] -.#.:.$.#.-.:.:.*.*.=.=.y.=.=.W.rXVXZXFXFXFXFXFXFXZXFXVXVXZXBXNXNXNXCXCXnXnXnXmXmXbX0X&.t &.-.] &.0XeXqXqXvXK , zXlX3X) ( C < C P F :X1X XL.@XR , <XzX! P &X#Xb X o 5X7X2X>XqX#Xb b Z l * ; , @XqX; I R P X :X@X* A :X1X:X#X&X=X%X:Xo < L.L.Z I 2X~ , -X^ b ! S ^ C A A D 1 W #XL.F ( L.I G u $ 9 9 9 4 8 8 8 8 $ & 8 h & 8 = - $ h 8 8 h h u u u 8 j 8 8 8 8 8 8 h 8 u j 8 j 8 j j j k k k z k z c M L L H H.P.;X;X-XVXHXHXKXGXHXGXGXGXGXGXGXGXGXGXGXGXGXGXGXGXGXGXGXGXGXGXGXKXMXMXMXMXMXMXMXMXMXMXMXMXMXMXMXMXMXMXMXMXMXMXMXMXMXMXMXGXGXKXGXGXGXGXGXGXGXGXGXGXGXGXGX",
"GXGXGXGXGXGXGXGXGXGXGXGXGXGXGXGXGXGXGXGXGXGXGXGXHXGXGXKXMXMXMXDXMXMXMXMXMXMXMXMXMXMXMXMXMXMXMXMXMXDXMXMXDXMXMXGXGXGXGXGXGXGXGXGXHXGXHXHXHXGXHXHXGXmXG.Y.Y.Y.E.E.Y.Y.Y.Y.Y.Y.;.;.=.Y.-.&.rXbXkX#XP $XyXzXkXpXbXmXbXtXU.c 9 v U.U.F.F.&.t &.&.t @.#.@.$.:.>.$.*.[ $.$.=.@.*.$.:.;.-.=.G.=.;.Y.Q.OXrXbXmXmXmXmXbXbX0XtXaXVXFXFXFXZXFXZXVXVXmXrXQ.F.&.&.@.@.#.#.#.&.,X:XqXeXkXb l dXgXqXF S / ! S < $X<X#X&XR =X6XA ~ hX6XP I :X Xb 1 hX=X:X2XyXiXiXzX4X:XW C o :X XX Q * P 2Xo K jX&X=X%X:X&X X6XA A %Xb A -X%X1 l 1X%X>X=XQ / <X+ F P , ^ $XL.A P ^ ( A z u i 9 9 4 6 8 8 j 8 8 i 8 8 & 8 8 j u 8 8 8 8 8 h h h j 8 8 8 8 8 8 8 j j u u u k j j j j k k k k z z c M L H H H.P.;X;X=XnXHXGXHXGXHXGXGXGXGXGXGXGXGXGXGXGXGXGXGXGXGXGXKXKXHXGXGXKXMXMXMXMXMXMXMXMXMXMXMXMXMXMXMXMXMXMXMXMXMXMXMXMXMXMXMXGXGXKXGXGXGXGXGXGXGXGXGXGXGXGXGX",
"GXGXGXGXGXGXGXGXGXGXGXGXGXGXGXGXGXGXGXGXGXGXGXGXGXGXGXKXMXMXMXMXMXMXMXMXMXMXMXMXMXMXMXMXMXMXMXMXMXMXMXMXMXMXMXGXGXGXGXGXGXGXGXGXHXGXHXHXHXGXHXHXGXmXG.Y.Y.Y.E.E.T.Y.Y.Y.Y.Y.;.=.;.=.T.&.c bXbXiXPXPXvXkXbXbXrXQ.@.@.' @.@.@.G.&.&.@.] @.@.@.] #.#.$.[ $.>.$.:.*.$.$.*.#.-.-.:.$.-.-.:.~.~.;.;.Y.G.G.G.U.K.K.K.G.W.W.!.tXrXrXrXrXrXrX0XW.G.-.#.] ] #.#.@.#.#.#.r c 0XeXiXiXlX< A lXyXyXC J S I ,  XxX^ #XiXlXnXlXI l  XiX:XP I #XI P uX<X1X&X:X>X%X>X4XqXfX; X 4X>X. ^ uXo , 2X%X%X>X*X$X#X1XR o b Z -X:XZ A n < < < < A ~  X X< D 1 /  XL.Q P ^ / K Z : & 8 4 0 0 j j $ 4 6 j 8 8 8 j h $ $ 8 8 h h 8 8 j u = 8 h 8 8 8 8 h 8 8 u 8 8 8 j h h h j j k k k k x c M L L H H.P.;X;X-XVXHXGXGXGXHXGXGXGXGXGXGXGXGXGXGXGXGXGXGXGXGXGXGXGXGXGXGXKXMXMXMXMXMXMXMXMXMXMXMXMXMXMXMXMXMXMXMXMXMXMXMXMXMXMXMXGXGXGXGXGXGXGXGXGXGXGXGXGXGXGXGX",
"GXGXGXGXGXGXGXGXGXGXGXKXGXHXGXGXGXGXGXGXGXGXKXGXGXGXKXKXDXDXMXMXDXDXDXDXDXDXDXDXDXDXDXDXDXDXDXDXDXDXDXDXMXMXDXKXGXGXGXGXGXGXGXHXHXHXHXHXFXGXHXHXHXmXG.Y.Y.Y.E.E.R.T.Y.Y.Y.Y.;.;.Y.=.-.G.&.I.bXbXqXkXbXrX0XG.#.] $.$.%.$.#.@.@.' @.#.#.#.%.#.$.$.[ $.$.>.>.$.[ #.*.*.$.*.#.-.:.:.=.=.:.;.~.Y.Y.E.E.E.E.E.E.E.E.E.E.Y.Y.Y.~.;.G.G.-.-.=.-.-.-.*.:.*.*.] #.#.] #.@.v U.;X,XiX5XcXC Z xXyXdXJ Z ~ K  XxXhX4X#XI b ; I Z  XZ #XyX2X! Z X #XyX&XqX<X:X<X2X<X%X>X:X, X :X7XqX1 o &X>X%X%X:X>X&X=X&X, P 4X>XD b I 1Xl :X X~ K b , , , b C ( @X@XR A ~ #XK l z 8 8 9 9 j 9 $ 4 j 8 4 u 8 8 8 8 8 8 8 8 8 = u = = h = - u - = = 8 - u z h 8 n M h u j k j j j k k k z x z M L H D.H.P.;X;X:XVXFXHXKXGXHXHXGXGXGXGXGXGXGXGXGXGXGXKXGXHXGXGXGXGXGXGXKXKXDXDXDXDXDXDXDXDXDXDXDXDXDXDXDXDXDXDXDXDXDXDXDXDXDXDXKXKXGXGXGXHXKXGXGXGXGXGXGXGXGXKXGX",
"DXDXDXDXDXDXDXDXDXDXDXDXDXDXDXDXDXDXDXDXDXDXDXDXLXLXDXKXKXGXGXGXGXGXGXGXGXGXKXKXGXKXGXGXGXGXGXGXGXKXGXGXGXGXKXKXDXDXDXDXDXDXDXDXLXLXLXDXLXLXLXLXDXbXG.Y.T.T.R.T.R.R.T.Y.Y.Y.;.;.*.~.~.=.G.t Q.bXmXtXU.&.@.' #.:.$.$.$.$.$.[ $.#.#.%.$.$.[ %.$.[ $.%.>.%.>.:.#.-.*.*.*.*.-.-.:.*.*.;.;.:.=.Y.Y.Y.T.E.E.E.E.E.E.T.E.E.E.E.Y.Y.G.G.Y.~.=.-.-.-.$.$.$.*.] @.] ] #.] @.e U.0X,XIX6XqXb < fXdXjXQ C n b Z < ; , b b Q ! Z 2X5X! Z ~ iXjX:X1 :X4X=X=X1X3X%X&X2X7X6X1X; o 5Xb . *X1X&X1X&X#X$X:X:Xb Q >XZ ; L.=X:X~ Q :X#XI Q  X^ ^ A C R @X$XT C / =XG G j 8 8 9 8 4 8 8 8 8 8 8 8 8 8 - 8 8 - 8 8 8 - = = u u = u z z : z Z G h z L G h H Y z u h j j j j k k k z z z L L H F.H.P.;X;X,XVXBXLXMXDXKXLXDXDXDXDXDXDXDXDXDXDXDXDXDXDXDXDXMXMXMXDXDXKXKXGXGXGXHXHXHXGXHXHXGXGXGXGXGXKXGXGXGXGXGXGXGXGXGXGXKXDXMXLXDXDXDXMXDXDXDXDXDXDXDXDXDX",
"MXMXMXMXMXMXMXMXMXMXMXMXMXMXMXMXMXMXMXMXMXMXMXMXMXMXMXKXGXGXGXGXGXGXGXGXGXGXGXGXGXGXGXGXGXGXGXGXGXGXGXGXGXGXGXMXMXMXMXMXMXMXMXMXAXMXNXCXBXMXAXAXBXbXG.Y.T.T.R.T.R.R.Y.Y.Y.Y.;.;.~.:.:.*.=.Y.] Q.=.@.@.#.-.*.$.$.$.$.$.[ [ [ [ [ $.[ %.>.>.>.>.$.$.[ $.[ $.#.@.] #.#.=.#.-.-.;.*.=.=.;.Y.Y.G.Y.E.T.E.E.E.E.E.E.E.T.Y.E.E.E.Y.G.G.=.=.=.=.-.-.*.*.$.*.#.#.@.] #.#.] ' &.J.,X>XqXiXuXb Z zXwXkX-Xl l K S A A Q S ; K 1 ! zX4XuXL.X K *XZ < 3XyXuX<X&X4X2X%X>X#X2X:X; . X ! 6X&X*X$X:X4X:X>XI o I Q S I I %X:XA Q =X! Q Q ~ I I A / $X#XP ; ! =XU G k j 4 9 4 8 $ - $ 8 8 $ 8 8 # 8 h h $ k h = z U z z U U n G U G u G G G h n G : z M M z u u u j j j j k k z z z M L L H H.P.;X,X,XZXNXNXMXMXKXAXMXMXMXMXMXMXMXMXMXMXMXMXMXMXMXMXMXMXMXMXMXKXGXGXGXGXGXGXGXGXGXGXGXGXGXGXGXGXGXGXGXGXGXGXGXGXGXGXGXMXMXMXMXMXMXMXMXMXMXMXMXMXMXMXMX",
"MXMXMXMXMXMXMXMXMXMXMXMXMXMXMXMXMXMXMXMXMXMXMXMXDXMXMXKXGXGXGXGXGXGXGXGXGXGXGXGXGXGXGXGXGXGXGXGXGXGXGXGXKXGXGXMXMXMXMXMXMXMXMXMXAXMXBXBXBXAXSXSXBXbXG.Y.T.T.E.E.R.R.Y.Y.Y.Y.;.;.;.;.;.;.*.#.-.#.#.$.*.$.#.#.#.#.[ [ [ [ $.$.[ [ $.[ [ %.>.[ [ $.$.$.>.$.*.] G.&.&.@.@.&.f t @.=.-.&.#.=.=.=.=.Y.T.T.T.Y.Y.T.E.E.E.T.T.T.Y.G.G.G.G.y.y.-.-.-.-.-.#.#.#.#.#.@.] #.$.] ' v F.P.,X5XyXuXC % wXwXyX<XC b A T K , o * b R l 5X4X X X#X^  X&XZ P *X^ :X4X2X7X4X1XqX<XyX<XK %XiX:X>XqX>X X XD K P  XP l , K Q K :Xl @X=X@XI I W S !  X*X$XS +  X XT Z L 8 9 9 9 8 L M L k $ L H.P.j j P.P.L - H.z h L G h = G L = z L : = G Z G h L K % h M n k h h h k j j k k k z x z M L L H H.P.;X,X1XFXCXLXMXMXKXAXAXMXMXMXMXMXMXMXMXMXMXMXMXMXMXMXDXDXDXMXDXKXGXGXGXGXGXGXGXGXGXGXGXGXGXGXGXGXGXGXGXGXGXGXGXGXGXGXGXMXMXDXMXMXDXMXMXMXMXMXMXMXMXMXMX",
"MXMXMXMXMXMXMXMXMXMXMXMXMXMXMXMXMXMXMXMXMXMXMXMXMXMXMXKXGXGXGXGXGXGXGXGXGXGXGXGXGXGXGXGXGXGXGXGXGXGXGXGXKXGXGXMXMXMXMXMXMXMXMXMXAXMXBXBXBXAXSXSXBXbXG.Y.T.T.E.E.E.E.Y.Y.Y.Y.;.;.;.*.:.:.*.-.=.#.:.>.$.$.$.$.#.#.#.#.$.[ $.$.[ $.[ $.$.[ $.%.[ $.[ $.[ [ -.@.rXbXbXtXK.aXrXtX=.&.Q.0X!.S.G.Q.0XW.G.R.W.W.W.W.W.T.T.G.G.G.G.G.G.G.y.&.f &.-.-.@.t t ] #.] ' @.' ` ` -.@.r t J.XX=XiX2XvXA * 1XcXqXyX! C b I A o o * Q , %XyXI  X, o < l R Q / ! I I ! ~  X X X#X X$X>X X~ ~ I A K K A I I b ; X + ; X I ~ L.Z -X#XL.Q ! / !  X#X*XA > / &X XZ z 8 9 9 9 9 8 I.U P.Y $ P.L j - L H.- = % P.h h P.h h # z G # z P.z % L U L & z G % h L G z = h u j j j k k k k x c Z L L U H.P.;X,X,XZXNXLXMXMXKXMXAXMXMXMXMXMXMXMXMXMXMXMXMXMXMXMXMXMXMXMXMXKXGXGXGXGXGXGXGXGXGXGXGXGXGXGXGXGXGXGXGXGXGXGXGXGXGXGXGXMXMXKXMXMXDXMXMXMXMXMXMXMXMXMXMX",
"MXMXMXMXMXMXMXMXMXMXMXMXMXMXMXMXMXMXMXMXMXMXMXMXMXMXDXKXGXGXGXGXGXGXGXGXGXGXGXGXGXGXGXGXGXGXGXGXGXGXGXGXGXGXGXMXMXMXMXMXMXMXMXMXAXMXBXBXBXMXSXSXBXbXG.Y.T.T.E.E.E.E.Y.Y.Y.Y.Y.=.=.=.-.-.=.-.-.-.*.*.*.*.$.$.$.$.$.$.$.[ [ [ [ [ #.#.$.$.$.$.[ [ #.[ #.#.#.&.y.rXrXF.Q.bXI.VXQ.@.bXmXtX&.0XmXaXmXQ.G.mXbXbX0XG.G.G.tXaXI.D.aXtXF.F.0XrXXX-.-.Q.tXtXI.@.@.0XD.c tXS.] ] @.@.t J.XX;XpX,XnX*X. ^ cX7XvX&Xb A A , l C K l I %X&X; * < , X R I ; A A I Q P I K K Z P P P P A I K I S l Z b . ^ 4X1 ; ; * b ! 1 ^ >X#X#X! Q  X#X%XL.C > #X9XP Z n h 8 9 9 0 9 8 P.l G U # P.H.h % U n z U X P.z % G H.U # z U & z G = - U h L : G L G h U L h j j u j j j j k k k x z G L L U H.P.#X;X,XFXCXNXMXMXAXLXAXMXMXMXMXMXMXMXMXMXMXMXMXMXMXMXMXMXMXMXDXKXGXGXGXGXGXGXGXGXGXGXGXGXGXGXGXGXGXGXGXGXGXGXGXGXGXGXGXDXMXDXMXMXMXMXMXMXMXMXMXMXMXMXMX",
"MXMXMXMXMXMXMXMXMXMXMXMXMXMXMXMXMXMXMXMXMXMXMXMXMXMXDXKXGXGXGXGXGXGXGXGXGXGXGXGXGXGXGXGXGXGXGXGXGXGXGXGXGXGXGXMXMXMXMXMXMXMXMXMXAXMXBXBXBXMXSXSXBXbXG.Y.T.T.E.E.Y.Y.Y.T.Y.Y.y.y.y.y.=.=.=.-.*.#.#.#.#.#.$.$.$.$.$.$.$.$.$.$.$.$.[ [ [ [ [ $.[ [ $.$.$.$.-.@.@.tXtX5 Q.bXI.bXG.S.bXeXrX&.XXmXG aX0XI.bXXXJ.K.K.K.G.rXmX;XXXbXaXF.F.bXbXrXS.&.mX,X;XmXS.&.bXP.rXrX@.] ] #.] ' v c P.;XpX5XdX<X> 1 qXuXwX7X XA K I I A K <  XL.; , , ; I uX:X; ; =X+ ; I < C A I K Z A R b > b b .  X$Xb +  XQ ~ X , , , I ; &X%X#X X X X#X&X~ Z n $X@XI Z n h - 9 0 9 9 9 j P.Q .Xz & U L u # U Z z P.% Q n % = z L = z L - z U L h L h Z h z G z = n z u h j h k j j j k z z c G z z G L H.P.;X,X>XFXCXNXMXMXAXLXAXMXMXMXMXMXMXMXMXMXMXMXMXMXMXMXMXMXMXMXDXKXGXGXGXGXGXGXGXGXGXGXGXGXGXGXGXGXGXGXGXGXGXGXGXGXGXGXGXDXMXDXMXMXMXMXMXMXMXMXMXMXMXMXMX",
"MXMXMXMXMXMXMXMXMXMXMXMXMXMXMXMXMXMXMXMXMXMXMXMXMXMXDXKXGXGXGXGXGXGXGXGXGXGXGXGXGXGXGXGXGXGXGXGXGXGXGXGXGXGXGXMXMXMXMXMXMXMXMXMXAXMXBXBXBXMXSXSXBXbXG.Y.T.T.E.T.E.T.Y.T.Y.=.=.G.=.=.;.:.:.:.:.:.*.*.*.$.$.$.$.$.>.$.$.$.[ [ [ ] [ [ [ [ $.[ [ [ [ $.[ $.*.#.w rXtXc ;XaXbXrX&.I.bXP.bXF.I.bXP.bXtXF.mXbX0XU.G.Q.G.tXbXeXeXbXrXS.U.bX;XbXG.S.bX.XQ bXS.S.bXeXbXc r -.#.@.] @.' r &.I.P.2XyXiXiXF o  XzXiXqX1XP b b K K 1 , :X; , < + 4Xl >X; W vXb *XfX.  X=XP ; b @XI <X. ^  X* qX, X >  XP 7XD ; .  Xl 1 %X>X#X@X X%X%XQ A Q %X#XQ n h h = 8 9 v 0 v 9 $ P.h U z # P.n h z G H.U L = L z z U H._ 8 z c = h z z h h 8 h 8 = = = = : = = h h h j j j j h h k z z Z G U P.P.#X;X-X-XKXCXCXDXNXAXLXAXMXMXMXMXMXMXMXMXMXMXMXMXMXMXMXMXMXMXMXDXKXGXGXGXGXGXGXGXGXGXGXGXGXGXGXGXGXGXGXGXGXGXGXGXGXGXGXGXDXMXDXMXMXMXMXMXMXMXMXMXMXMXMXMX",
"MXMXMXMXMXMXMXMXMXMXMXMXMXMXMXMXMXMXMXMXMXMXMXMXMXMXDXKXGXGXGXGXGXGXGXGXGXGXGXGXGXGXGXGXGXGXGXGXGXGXGXGXGXGXGXMXMXMXMXMXMXMXMXMXAXMXBXBXBXMXSXSXBXbXG.Y.T.T.E.T.T.Y.Y.Y.G.Y.G.Y.=.;.;.;.:.:.>.$.$.#.#.#.$.$.$.>.%.$.$.$.$.#.#.#.#.[ [ [ [ [ [ [ $.$.$.$.$.*.@.aXtXt 0XmXI.mXt 0XmXbXmXU.I.bXH bXtXI.bXXXD.U.G.R.G.tXaXaXbXrXrX&.;XbXI.bXG.&.aXpXpXbX&.&.rXeXbXP.r ] @.] ] ] ] @.r v J.P.%XyXyXjX$X> > <XhXiXzX>X^ b Z D ;  XQ o X *X7X:X1X.  X=X=X&X:XX ~ 7Xb + I =Xb >X* I #XX >X< + ; >XP Z Z . L.R >  X=X X*X$X*X@XQ A L.=X#XG Z z u = 8 9 0 9 4 9 9 8 ;Xj H.H.$ H.P.P.z # L L h = z = = z u 8 - 8 h 8 h = = h = h = h h h h z h h z h h h h h h h z z G G K Q L..X#X;X;X%X#X&XZXCXCXDXMXLXLXMXMXMXMXMXMXMXMXMXMXMXMXMXMXMXMXMXMXMXMXDXKXGXGXGXGXGXGXGXGXGXGXGXGXGXGXGXGXGXGXGXGXGXGXGXGXGXGXGXDXMXDXMXMXMXMXMXMXMXMXMXMXMXMXMX",
"MXMXMXMXMXMXMXMXMXMXMXMXMXMXMXMXMXMXMXMXMXMXMXMXMXMXDXKXGXGXGXGXGXGXGXGXGXGXGXGXGXGXGXGXGXGXGXGXGXGXGXGXGXGXGXMXMXMXMXMXMXMXMXMXAXMXBXBXBXMXSXSXBXbXG.Y.T.T.E.T.T.T.Y.G.y.G.&.&.&.&.-.-.*.:.:.:.*.*.*.*.*.*.#.#.#.#.#.#.#.#.#.[ [ [ [ [ [ [ $.$.$.[ >.$.[ *.#.!.tX@.Q.rX&.bXQ.rXtXF.mXXXQ.mXbXmXXXI.bXaXrX0XG.W.G.rXaXeXeXrXrX&.eXbXbXbX0Xc bXP.,XrX&.&.mXD.;XaX&.` ] @.] ] #.] @.q v H H.#X,XwXqXfX/ . Z iXqXqX4X1X^ Z < * &X%X1 Z X < &X* qXR <XL.&XX @X X+ . Z =X$X@X. P 4X.  XqX! ; l > < D #XA o  X&X$X#X#X X^ I Q %X-X~ Z G h 8 9 9 9 9 0 9 9 9 4 j j 8 $ j j u # & & 8 $ $ & - 8 u 8 = = h u 8 = h h 8 h h = h = = h = , = = : , , h z h Z G G L Q ~ P.L. X X X.X#X#X#X%X%XZXCXCXDXMXLXAXMXMXMXMXMXMXMXMXMXMXMXMXMXMXMXMXMXMXMXMXDXKXGXGXGXGXGXGXGXGXGXGXGXGXGXGXGXGXGXGXGXGXGXGXGXGXGXGXGXMXMXMXMXMXMXMXMXMXMXMXMXMXMXMXMX",
"MXMXMXMXMXMXMXMXMXMXMXMXMXMXMXMXMXMXMXMXMXMXMXMXMXMXDXKXGXGXGXGXGXGXGXGXGXGXGXGXGXGXGXGXGXGXGXGXGXGXGXGXGXGXGXMXMXMXMXMXMXMXMXMXAXMXBXBXBXAXSXSXBXbXG.Y.T.T.E.T.T.E.T.G.W.rXrXtX0XQ.U.G.&.-.#.#.#.@.] ] @.@.#.#.#.#.#.#.#.$.$.$.$.$.$.$.$.$.$.$.*.[ $.>.$.*.] #.#.-.&.@.-.-.S.G.-.@.K.Q.&.0X0XXXG.K.tXtXrXtXR.R.G.tXtXXX0X0XtXG.aXtXc rXrXt bXXXB VXG.@.VXF.c VXR.] ] @.@.] #.] ] @.q v L H.P.,XwX6XuXqXC . P hXjXiXiX>X%XD . b  X X^ A b ; b ; ; b ^ . &X&XR b P @X+ =XX ; @XX o Z C P I ^ I b o +  X=X X$X%X$XL.Q L.=X%XQ Z n k 8 8 9 9 9 9 9 0 9 9 0 j 8 9 9 $ 8 6 8 j 8 8 8 j u u 8 8 8 8 u h h h = h = = = = , = : - h : , l z Z Z G U Q Q Q ~ ~ ~ ~ ~ ~ ~ ^ L. X X X#X#X$X$XDXCXCXLXMXLXLXMXMXMXMXMXMXMXMXMXMXMXMXMXMXMXMXMXMXMXMXDXKXGXGXGXGXGXGXGXGXGXGXGXGXGXGXGXGXGXGXGXGXGXGXGXGXGXGXGXMXMXDXMXMXMXMXMXMXMXMXMXMXMXMXMX",
"MXMXMXMXMXMXMXMXMXMXMXMXMXMXMXMXMXMXMXMXMXMXMXMXMXMXDXKXGXGXGXGXGXGXGXGXGXGXGXGXGXGXGXGXGXGXGXGXGXGXGXGXGXGXGXMXMXMXMXMXMXMXMXMXAXMXBXBXBXAXSXSXBXbXG.Y.Y.T.E.R.T.T.G.G.K.rXaXbXbXbXbXbXaXeXtX0XQ.K.G.t.&.&.@.] ] ] ] ] ] [ [ [ $.$.$.%.$.$.#.#.#.[ $.$.*.*.#.#.#.=.=.#.-.-.#.#.=.Y.=.-.G.&.y.y.R.R.G.y.G.T.Y.E.Y.R.G.F.G.G.G.S.G.&.&.&.=.G.&.y.t G.=.#.=.&.t y.G.@.] ] ] ] @.] ] ] ] @.e v H.L  X1XyXqXuX&X< X K :XhXzXyXqX6Xb ; ; < ~  X X@X! A A C 1 l P D < , Z , C Z A l  X! ! K Z < * X b L.3X:X=X#X#X$X*X X%X1X Xl l Z , & 9 9 9 5 t t 9 9 9 9 9 4 9 4 v 9 8 j 0 4 9 4 8 6 $ 8 8 $ 8 8 - - = h h h = h h z z z Z Z K L U I Q Q I K I I I I I T Q Q ! ! ! / ^  X#X%X%X#X#X$XDXMXMXMXMXLXLXMXMXMXMXMXMXMXMXMXMXMXMXMXMXMXMXMXMXMXMXDXKXGXGXGXGXGXGXGXGXGXGXGXGXGXGXGXGXGXGXGXGXGXGXGXGXGXGXGXDXMXDXMXMXMXMXMXMXMXMXMXMXMXMXMX",
"MXMXMXMXMXMXMXMXMXMXMXMXMXMXMXMXMXMXMXMXMXMXMXMXMXMXDXKXGXGXGXGXGXGXGXGXGXGXGXGXGXGXGXGXGXGXGXGXGXGXGXGXGXGXGXMXMXMXMXMXMXMXMXMXAXMXBXBXBXAXSXSXLXbXG.Y.Y.T.E.R.T.E.T.G.U.rXeXpXuXiXfXfXcXzXvXbXbXbXbXbXaXrXtXtX0XQ.Q.R.G.=.-.-.@.@.@.] ] ] ' ] ` ] @.` @.] &.&.@.-.-.#.=.-.;.=.;.-.~.Y.Y.R.T.E.E.E.T.E.E.E.E.E.E.E.R.G.G.R.Y.G.-.=.=.=.#.#.-.@.-.` #.#.] ] -.` ` @.] ] ] #.] ] ] #.] ' @.v 0 L L I #X4XwXhXiX=Xb ; 1  X7XiXyXuX2X XP < ; o ; < Z I I ^  XP ^ ^ ^ ^ ! I ~ P Z , ; o ; b K  X1X<X-X%X#X X X*X*X%X%X XI Z Z z , = h j 9 9 9 9 0 0 0 8 $ $ 8 4 0 4 4 $ $ 8 & $ 8 - 8 k h h k z j G L G G G K L P.U Q U K K I K K K K J K K J K J I T T R R R R ! ! / ^ L. X@X#X$X$X$XDXMXMXNXMXLXAXMXMXMXMXMXMXMXMXMXMXMXMXMXMXMXMXMXMXMXMXDXKXGXGXGXGXGXGXGXGXGXGXGXGXGXGXGXGXGXGXGXGXGXGXGXGXGXGXGXDXMXDXMXMXMXMXMXMXMXMXMXMXMXMXMX",
"MXMXMXMXMXMXMXMXMXMXMXMXMXMXMXMXMXMXMXMXMXMXMXMXMXMXDXKXGXGXGXGXGXGXGXGXGXGXGXGXGXGXGXGXGXGXGXGXGXGXGXGXGXGXGXMXMXMXMXMXMXMXMXMXAXMXBXBXBXMXSXSXNXbXG.Y.Y.T.T.T.T.Y.T.G.K.rXeXpXkXkXkXhXfXfXuXpXpXpXpXpXkXbXbXbXbXbXbXbXbXbXbXbXrXrXeXeX0X;XXXI.U.U.U.F.F.&.&.&.&.&.@.@.@.@.@.&.&.&.-.-.=.S.G.G.G.G.T.T.R.E.E.E.E.E.T.T.T.R.Y.Y.=.=.=.=.=.-.-.-.-.-.#.#.#.#.#.#.#.#.#.] ] ] @.@.#.#.#.] @.@.] v j M L P..X,XwXpXiX1XI ; + S &X1XjXjXfXiX4X=XL.P Z 1 < o o < X ; * ; + ; ; * b T ! #X1X2X<X>X=X%X X@X@X X@X%X&X&X~ K l , = - = = - & - 8 8 8 8 8 u u h h z z z z G Z G G G K U I Q Q Q I I I I I I I K J K K K K K K K K K K K K J J J J I I I I T T R R R W ! ! ^ L. X X#X#X#X$X&XDXNXNXLXNXLXLXMXMXMXMXMXMXMXMXMXMXMXMXMXMXMXMXMXMXMXMXDXKXGXGXGXGXGXGXGXGXGXGXGXGXGXGXGXGXGXGXGXGXGXGXGXGXGXGXGXDXMXDXMXMXMXMXMXMXMXMXMXMXMXMXMX",
"MXMXMXMXMXMXMXMXMXMXMXMXMXMXMXMXMXMXMXMXMXMXMXMXMXMXDXKXGXGXGXGXGXGXGXGXGXGXGXGXGXGXGXGXGXGXGXGXGXGXGXGXGXGXGXMXMXMXMXMXMXMXMXMXAXMXBXBXBXMXSXSXMXmXG.Y.T.T.T.T.T.T.Y.G.K.aXpXuXkXkXkXkXhXfXfXfXjXhXhXfXfXfXfXfXwXyXuXfXfXfXfXfXjXlXzXzXzXvXbXmXbXbXbXbXbXbXaXrXrXrXtXtXtX0X0X0XXXXXQ.Q.Q.Q.Q.I.I.K.K.K.K.K.U.G.G.G.G.G.G.G.-.&.&.&.&.&.@.@.@.@.@.] r r r r r w r r r w w w r w r w w w w w w q 4 - 8 j n U .X1XyXyXyX6X Xb ; > b ~ :XqXyXyXfXzXiX4X2X#X; 4X4X%X<X<X<X4X1 @XqX<XfX1X=X=X%X X^ L.L.@X#X=X=X$X/ J < l A K L L L U H.H.H.P.P.P.P.P.P.L.L.L.L.L.L.L./ / ! ! W R R R P P P P P P J J J J J S S S S S S S S S S S J J J J J P P P P I T T R R Q W ! / ^ L. X X#X#X$X%X&XDXBXNXLXNXLXMXMXMXMXMXMXMXMXMXMXMXMXMXMXMXMXMXMXMXMXMXDXKXGXGXGXGXGXGXGXGXGXGXGXGXGXGXGXGXGXGXGXGXGXGXGXGXGXGXGXDXMXDXMXMXMXMXMXMXMXMXMXMXMXMXMX",
"MXMXMXMXMXMXMXMXMXMXMXMXMXMXMXMXMXMXMXMXMXMXMXMXMXMXDXKXGXGXGXGXGXGXGXGXGXGXGXGXGXGXGXGXGXGXGXGXGXGXGXGXGXGXGXMXMXMXMXMXMXMXMXMXAXMXBXBXBXMXSXSXNXbXG.Y.T.T.T.E.T.T.Y.G.U.aXpXuXkXkXkXzXlXcXfXfXhXhXfXfXfXfXfXfXfXfXhXhXhXhXhXhXuXuXuXuXpXpXpXpXpXpXpXpXaXaXaXaXkXkXkXkXbXbXbXbXbXbXbXbXbXbXmXbXbXbXbXbXbXbXbXaXaXaXaXaXrXrXrXeXeX0X0X0X0X0X0X;XXXXXI.I.I.I.I.I.U.U.U.J.J.J.J.J.F.F.F.F.F.F.F.F.H.L G G n n n A ^ >XyXuXyXyX<X@XZ < o * b ~ @X#X4XuX7XnX Xb hX=X:X XhXS S iX>X<XP D T @X%X XL.*X=X=X=X$X! D b 1 S ^ #X&X;X;X;X;X#X#X.X.X.X.X.X.XL.L.L.~ ~ ! ! ! ! ! W Q R T P P P P P P P P J J J J S S J J J J S S S S S S J J J J J P P P T I T T R R Q W ! / ^ L. X X#X#X$X%X&XKXBXNXLXMXCXCXMXMXMXMXMXMXMXMXMXMXMXMXMXMXMXMXMXMXMXMXDXKXGXGXGXGXGXGXGXGXGXGXGXGXGXGXGXGXGXGXGXGXGXGXGXGXGXGXGXMXMXMXMXMXMXMXMXMXMXMXMXMXMXMXMX",
"MXMXMXMXMXMXMXMXMXMXMXMXMXMXMXMXMXMXMXMXMXMXMXMXMXMXDXKXGXGXGXGXGXGXGXGXGXGXGXGXGXGXGXGXGXGXGXGXGXGXGXGXGXGXGXMXMXMXMXMXMXMXMXMXAXMXBXBXBXMXSXSXNXmXG.Y.T.T.T.E.T.T.Y.G.U.aXpXuXkXkXkXkXlXjXjXjXfXfXfXhXhXhXjXjXlXjXjXhXhXfXfXhXkXkXkXkXkXkXkXpXpXpXpXpXpXpXpXpXiXiXiXiXiXiXuXiXuXuXuXpXpXpXpXpXpXpXpXkXzXzXkXzXzXzXzXzXzXzXzXkXbXbXzXbXbXzXzXzXbXbXbXbXbXbXkXkXbXbXbXbXaXaXkXkXkXaXaXaXaXaXpXpXrXkXkXpXwX-XU l b b S L.>XyXuXyXuXqX:X XK l , ; * , 1 l C . I qX&XqX^ . l < , + < Z Q *X>X<X<X<X&X XT C < 1 A ! #X$X#X@XL.L.L.L..X XL.L.L.L.P.~ ~ ~ / ~ / ! ! ! R R R R R R R E T T T P P P P P J J J J J J J P S S S S S S S J J J J J P P I I T T R R Q W ! / ^ L. X X#X#X%X%X&XKXBXNXLXMXCXMXMXMXMXMXMXMXMXMXMXMXMXMXMXMXMXMXMXMXMXMXDXKXGXGXGXGXGXGXGXGXGXGXGXGXGXGXGXGXGXGXGXGXGXGXGXGXGXGXGXMXMXMXMXMXMXMXMXMXMXMXMXMXMXMXMX",
"MXMXMXMXMXMXMXMXMXMXMXMXMXMXMXMXMXMXMXMXMXMXMXMXMXMXDXKXGXGXGXGXGXGXGXGXGXGXGXGXGXGXGXGXGXGXGXGXGXGXGXGXGXGXGXMXMXMXMXMXMXMXMXMXAXMXBXBXBXMXSXSXNXmXG.Y.T.T.T.T.T.T.Y.G.U.rXpXuXhXkXkXzXlXjXjXfXlXjXjXhXhXhXhXhXhXfXfXfXfXfXfXhXdXdXdXhXhXkXkXhXkXhXhXpXhXpXpXuXfXfXhXuXfXuXfXuXlXzXzXkXjXkXkXkXjXlXlXlXlXlXjXjXkXhXhXhXhXhXuXiXiXiXwXqXwXiXwXwXqXqXeXeXqXqXqXqXqX4X4X4X4X5X5X5X4X4X4X4X4X5X5X2XeXeX,X,X4XiXqX8XW Z b C A K L.>X2X4XiXuXuXiX6X4X%XL.P ! P ^ o *XqX=X+  X@X X=X=X1X3X5X<X>X&X XI C 1 1 C ) / *X9X$X*X@X#X#X@XL.@X X X X X X X X X^ ^ / ! ! W ( ( ! W W W R R R E P P P P P P P P J J J J J J J J S S S S S S S S J J J J P P I T T T R R Q W ! / ^ L. X X*X$X%X%X=XKXBXNXMXMXMXMXMXMXMXMXMXMXMXMXMXMXMXMXMXMXMXMXMXMXMXMXDXKXGXGXGXGXGXGXGXGXGXGXGXGXGXGXGXGXGXGXGXGXGXGXGXGXGXGXGXDXMXDXMXMXMXMXMXMXMXMXMXMXMXMXMX",
"MXMXMXMXMXMXMXMXMXMXMXMXMXMXMXMXMXMXMXMXMXMXMXMXMXMXDXKXGXGXGXGXGXGXGXGXGXGXGXGXGXGXGXGXGXGXGXGXGXGXGXGXGXGXGXMXMXMXMXMXMXMXMXMXAXMXBXBXBXMXSXSXNXmXG.Y.T.T.T.T.T.T.Y.G.U.rXpXuXhXkXkXzXlXcXjXfXjXjXhXhXhXfXfXfXjXjXhXhXhXhXhXkXkXkXkXkXkXhXdXuXfXgXiXiXiXiXiXiXdXfXfXhXjXjXlXlXdXdXdXhXkXjXlXlXlXlXlXlXlXlXjXjXlXlXlXlXlXjXjXjXfXfXdXdXdXdXdXuXuXuXuXuXuXiXwXqXwXyXyXyXyXqXqXqX7X7X6X4X7X4X4X4XqX2X2XeX4X1X1X2XyX5X*XK l l l l S I  X&X<X2X4X6X4XxXfXhX4XxX%X, 7Xl L.hX1XqX>X1X>X&X@XW D b 1 < b A R @X9X9X$X*X@X X@X#X#X X X#X X X X X X XL.^ ^ ^ / / ~ ! ! ! W W R R T T P P P P P P P P P P J J J J S S S S S S S S S S S S J J J J J P I T T T R R Q W ! / ^ L. X X#X$X%X&X=XKXBXNXMXMXMXMXMXMXMXMXMXMXMXMXMXMXMXMXMXMXMXMXMXMXMXMXDXKXGXGXGXGXGXGXGXGXGXGXGXGXGXGXGXGXGXGXGXGXGXGXGXGXGXGXGXDXMXDXMXMXMXMXMXMXMXMXMXMXMXMXMX",
"MXMXMXMXMXMXMXMXMXMXMXMXMXMXMXMXMXMXMXMXMXMXMXMXMXMXDXKXGXGXGXGXGXGXGXGXGXGXGXGXGXGXGXGXGXGXGXGXGXGXGXGXGXGXGXMXMXMXMXMXMXMXMXMXAXMXBXBXBXMXSXSXNXmXG.Y.T.T.T.E.T.T.Y.G.U.rXpXuXhXkXkXzXhXcXfXfXhXhXfXfXfXhXhXhXhXhXfXfXfXdXdXdXhXhXkXhXkXkXhXhXcXcXcXgXcXgXgXcXlXjXjXkXfXfXfXfXxXzXlXlXlXlXlXlXlXcXlXlXlXlXlXlXgXgXgXjXjXjXjXjXgXgXfXdXdXdXyXyXyXyXyXyXwXwXqXqXqXqXqXqXqX6X7X7XqX6X7X7X7X7X7X4X4X3X4X4X4X8X5X6X3X4X6XqX2X#XQ A l < , < b A I !  XI $X X=X$X2XQ > 1 6X^ / ! L.A b l 1 < , < A ! $X&X&X&X*X*X*X*X*X*X$X#X@X@X@X@X@X@X X XL.^ ^ / / / ! ! ! ! ! ! ! W W R R R E E T T T P P P P P J J J J S S S S S S S S S S S S J J J J J P I T T T R R Q W ! / ^ L. X X*X$X&X=X=XKXBXNXMXMXMXLXMXMXMXMXMXMXMXMXMXMXMXMXMXMXMXMXMXMXMXMXDXKXGXGXGXGXGXGXGXGXGXGXGXGXGXGXGXGXGXGXGXGXGXGXGXGXGXGXGXDXMXDXMXMXMXMXMXMXMXMXMXMXMXMXMX",
"MXMXMXMXMXMXMXMXMXMXMXMXMXMXMXMXMXMXMXMXMXMXMXMXMXMXDXKXGXGXGXGXGXGXGXGXGXGXGXGXGXGXGXGXGXGXGXGXGXGXGXGXGXGXGXMXMXMXMXMXMXMXMXMXAXMXBXBXBXMXSXSXMXmXG.Y.T.T.T.E.T.T.Y.G.U.rXwXuXhXkXkXkXhXfXfXfXjXjXhXhXfXfXfXfXfXfXhXhXhXhXhXhXhXhXhXhXhXhXfXfXgXgXgXgXgXgXgXdXfXhXhXhXjXjXjXlXfXfXfXgXgXlXlXlXlXcXlXcXlXcXcXcXlXlXlXlXjXgXgXgXgXgXgXdXdXdXdXyXdXyXdXyXyXyXyXqXwXqXwXwXwXqXqXqXqXqX6X6XqXqX7X7X2X4X4X2X5X6X5X<X8X2X2X2X3XqXqX4X%X XR A b < , , < < , < < < , b , l , < < ; > , l b A R  X%X=X=X&X&X$X#X*X&X$X*X@X*X@X@X#X$X@XL. X X X XL.L.L.L.^ ^ / / ! ! ( ( W W R R E T P P P P P P P P P P J J J J J J J J S S S S S S S S J J J J J P I T T T R R Q W ! / L.L. X X*X$X&X=X=XKXBXNXMXMXLXLXMXMXMXMXMXMXMXMXMXMXMXMXMXMXMXMXMXMXMXMXDXKXGXGXGXGXGXGXGXGXGXGXGXGXGXGXGXGXGXGXGXGXGXGXGXGXGXGXGXDXMXDXMXMXMXMXMXMXMXMXMXMXMXMXMX",
"MXMXMXMXMXMXMXMXMXMXMXMXMXMXMXMXMXMXMXMXMXMXMXMXDXMXDXKXGXGXGXGXGXGXGXGXGXGXGXGXGXGXGXGXGXGXGXGXGXGXGXGXGXGXGXMXMXMXMXMXMXMXMXMXAXMXBXBXBXMXSXSXNXmXG.Y.Y.T.E.E.T.Y.Y.G.U.rXpXuXhXkXkXkXhXfXfXfXhXhXhXhXhXhXfXfXfXfXfXfXhXfXfXfXhXhXhXhXhXfXfXfXfXfXfXfXfXgXgXdXgXgXgXfXfXgXgXgXgXcXcXcXcXcXcXcXlXcXlXcXlXlXlXlXcXcXcXcXcXgXgXgXgXgXgXdXdXdXdXyXdXyXyXyXyXyXyXyXqXqXqX6X6X6X6X6X6X7X6X6X7X4X4X4X4X3X3X3X3X3X3X3X3X5X5X2X2X2X1X2X4X7X6X7X<X&X X^ I P D Z C b b b Z C C Z D I ! ^ &X=X>X:X:X=X&X$X%X%X%X$X$X$X$X$X*X#X@X@X@X@X@X X@X X XL.L.L.^ ^ ^ ^ / / ! ! ! ! W W W R R E T T P P P P P P P P J J J J J J S S S S S S S S J J J J J P P P I I T T R R Q W ! / ^ L. X@X#X%X%X&X&XKXNXMXDXMXMXMXMXMXMXMXMXMXMXMXMXMXMXMXMXMXMXMXMXDXLXMXDXKXGXGXGXGXGXGXGXGXGXGXGXGXGXGXGXGXGXGXGXGXGXGXGXGXGXGXGXDXMXMXMXMXMXMXMXMXMXMXMXMXMXMXMX",
"MXMXMXMXMXMXMXMXMXMXMXMXMXMXMXMXMXMXMXMXMXMXMXMXMXMXMXKXGXGXGXGXGXGXGXGXGXGXGXGXGXGXGXGXGXGXGXGXGXGXGXGXGXGXGXDXMXMXMXMXMXMXMXMXAXMXBXBXBXAXSXSXMXmXG.E.T.T.E.E.T.Y.Y.G.K.rXpXuXhXkXkXkXhXfXfXfXhXhXhXhXhXhXfXhXfXfXfXfXfXhXfXfXfXfXfXhXfXhXfXfXfXhXhXhXfXfXfXfXfXfXfXfXfXfXfXfXfXcXcXcXcXcXcXcXlXlXlXlXlXlXlXlXlXlXlXgXgXgXfXfXfXdXdXdXdXyXyXyXyXyXyXyXyXiXwXwXqXqXqX6XqX6X6X6X6X7X7X6X4X4X4X4X3X3X4X4X3X3X3X3X5X5X5X2X2X2X2X2X1X1X1X1X2X3X4X6X7X4X5X2X1X<X1X1X1X1X1X1X1X1X1X1X=X=X&X&X&X&X&X&X%X%X%X%X%X$X#X$X$X#X@X@X@X@X@X X@X X XL. X^ ^ ^ ^ ^ / / / ! ! ! W W W R R E T T P P P P P P P P J J J J J J S S S S S S S S J J J J J P P P I I T T R R Q W ! / ^ L. X@X#X%X%X&X=XKXBXMXDXMXMXMXMXMXMXMXMXMXMXMXMXMXMXMXMXMXMXMXMXMXMXMXDXKXGXGXGXGXGXGXGXGXGXGXGXGXGXGXGXGXGXGXGXGXGXGXGXGXGXGXGXDXMXDXMXMXDXMXMXMXMXMXMXMXMXMXMX",
"MXMXMXMXMXMXMXMXMXMXMXMXMXMXMXMXMXMXMXMXMXMXMXMXMXMXMXKXGXGXGXGXGXGXGXGXGXGXGXGXGXGXGXGXGXGXGXGXGXGXGXGXGXGXGXDXMXMXMXMXMXMXMXMXAXMXBXBXBXAXSXSXMXmXG.E.T.T.T.T.T.Y.Y.G.K.rXpXuXhXkXkXkXhXcXfXfXhXhXhXhXhXhXhXhXfXfXfXfXhXhXfXfXfXfXfXfXfXhXhXhXhXhXhXhXhXhXhXhXhXpXhXhXhXhXhXhXhXkXkXkXkXhXkXlXzXzXzXzXzXlXzXzXzXzXjXkXkXkXkXhXhXhXhXuXuXuXuXuXwXwXwXwXwXwXwXwXqXqXqXqXqX6X7X7X7X7X7X7X7X4X4X4X4X4X3X3X3X3X3X3X5X5X5X2X2X2X1X1X2X1X<X:X:X:X:X:X:X:X:X:X:X:X:X:X>X>X>X>X=X&X&X$X=X&X&X%X%X%X&X&X%X%X%X%X%X$X#X#X#X#X@X#X@X@X@X X@X X X X XL.^ ^ L.^ ^ / ~ ~ ! ! W W W R R E T T P P P P P P P P J J J J J J S S S S S S S S J J J J J P P P I I T T R R Q W ! / ^ L. X@X#X#X%X&X&XKXNXMXMXMXMXMXMXMXMXMXMXMXMXMXMXMXMXMXMXMXMXMXMXMXMXMXDXKXGXGXGXGXGXGXGXGXGXGXGXGXGXGXGXGXGXGXGXGXGXGXGXGXGXGXGXMXMXMXMXMXDXMXMXMXMXMXMXMXMXMXMX",
"MXMXMXMXAXAXMXMXMXMXMXMXAXAXMXMXMXMXMXMXMXMXAXAXDXMXDXKXGXGXGXGXGXGXGXGXGXGXGXGXGXGXGXGXGXGXGXGXGXGXGXGXGXGXGXMXMXMXMXMXLXLXMXMXAXMXBXBXBXAXSXSXNXmXG.E.T.T.T.T.T.Y.Y.G.K.rXpXuXhXkXkXkXhXcXfXfXhXhXhXhXhXhXhXhXhXhXfXfXfXfXfXfXfXfXfXfXfXhXhXhXhXhXhXhXhXhXkXkXhXpXpXkXhXhXhXhXhXkXkXkXkXkXkXkXzXzXzXzXzXzXzXzXzXkXkXkXkXkXkXkXhXhXpXpXpXuXuXuXwXwXwXwXwXwXwXwXqXqXqXqXqXqXqXqXqXqXqXqXqX4X4X4X4X7X4X4X3X3X3X3X5X5X5X2X2X1X1X1X1X1X2X2X1X:X>X>X:X:X:X:X:X:X>X>X>X>X=X=X=X=X=X=X&X&X&X&X&X&X%X%X%X%X%X%X%X$X#X#X#X*X@X#X@X@X@X X@X X X XL.L.^ ^ ^ / ^ / / ~ ! ! W W W R R E T T P P P P P P P P J J J J J J S S S S S S S J J J J J J P P P I I T T R R Q W ! / ^ L. X@X#X#X%X%X&XDXNXMXMXMXMXMXMXMXMXAXMXMXMXMXMXMXMXMXMXMXMXAXDXDXMXMXDXKXGXGXGXGXGXGXGXGXGXGXGXGXGXGXGXGXGXGXGXGXGXGXGXGXGXGXGXDXMXMXMXMXDXMXMXMXMXMXAXAXMXMXMX",
"DXDXDXDXDXDXDXDXDXDXDXDXDXDXDXDXDXDXDXDXDXDXDXDXMXMXDXKXGXGXGXGXGXGXGXGXGXGXGXGXGXGXGXGXGXGXGXGXGXGXGXGXGXGXKXMXDXDXDXDXDXDXLXLXLXDXBXBXBXAXAXSXNXmXG.E.T.T.E.T.T.Y.Y.G.K.rXpXuXhXkXkXkXhXcXcXfXhXhXhXhXhXhXhXhXfXfXfXfXfXfXfXfXfXfXfXfXfXfXhXhXfXhXhXhXhXhXhXhXfXfXfXfXfXfXfXfXfXfXcXcXfXfXjXlXlXlXlXlXlXlXlXlXlXlXhXhXhXhXfXfXuXuXuXuXiXiXiXiXiXiXiXiXqXqXqXqXwXwXqXqXqXqXqXeXeXqXqXqXqXqXqX4X4X7X7X7X3X3X3X3X5X5X2X2X2X2X1X1X1X1X<X<X<X1X2X2X<X<X:X:X:X>X>X>X:X>X=X=X=X=X=X>X&X&X=X=X=X&X%X%X%X%X%X%X$X$X#X$X$X#X#X@X@X@X@X X X X X X X XL.L.^ ^ / / / ! ! ! W W W R R E T T T P P P P P P P J J J J J J S S S S S S S S J J J J J J P P T T T T R R Q W ~ / ^ L. X X*X#X%X%X&XKXNXNXMXMXLXLXDXDXDXDXDXDXDXDXDXDXDXDXDXDXDXDXMXMXMXMXDXKXGXGXGXGXGXGXGXGXGXGXGXGXGXGXGXGXGXGXGXGXGXGXGXGXGXGXGXDXMXMXMXMXDXMXDXDXDXDXDXDXLXDXDX",
"MXMXMXMXMXMXMXMXMXMXMXMXMXMXMXMXMXMXMXMXMXMXMXMXMXMXMXKXGXGXGXGXGXGXGXGXGXGXGXGXGXGXGXGXGXGXGXGXGXGXGXGXGXGXGXDXMXMXMXMXMXMXMXMXAXMXBXBXBXMXSXSXNXmXG.E.T.T.E.E.R.Y.Y.G.U.rXpXuXhXkXkXkXhXcXcXfXhXhXhXhXhXhXhXhXfXfXfXfXfXfXfXfXfXfXfXfXfXfXhXhXfXfXfXfXfXfXfXfXgXgXgXgXgXgXgXgXfXcXcXcXfXcXlXlXlXjXlXlXlXlXlXlXlXjXcXcXgXfXfXgXdXuXuXiXyXyXyXyXiXyXiXyXiXyXqXqXqXqXqXqXqXqXqXqXqXqXqXqXqX4X7X7X7X7X7X4X4X4X4X3X5X5X5X2X2X2X8X8X5X1X<X:X:X:X:X:X<X<X:X:X:X:X>X>X>X>X>X-X=X=X=X=X=X=X&X&X&X&X&X&X%X%X%X$X$X$X$X$X$X*X@X@X@X@X@X X X X X X X XL.^ ^ / / ! ! ! ! ! W W ( R R E T T P P P P P P P P J P J J J J S S S S S S S S J J J J J J P P T T T T R R Q W ~ / ^ L. X X#X#X$X%X&XDXBXNXMXNXCXCXMXMXMXMXMXMXMXMXMXMXMXMXMXMXMXMXMXMXMXMXDXKXGXGXGXGXGXGXGXGXGXGXGXGXGXGXGXGXGXGXGXGXGXGXGXGXGXGXGXDXMXMXMXMXMXMXMXMXMXMXMXMXMXMXMX",
"MXMXMXMXAXMXMXMXMXMXMXMXAXMXMXMXMXMXMXMXMXMXMXMXDXMXDXKXGXGXGXGXGXGXGXGXGXGXGXGXGXGXGXGXGXGXGXGXGXKXGXGXKXGXGXDXMXMXMXMXAXMXMXMXAXMXBXBXBXAXSXSXLXmXG.E.T.T.E.E.R.Y.Y.G.U.rXpXuXhXkXkXkXhXcXcXfXhXhXhXhXhXhXhXhXfXfXfXfXfXfXfXfXfXfXhXfXuXuXuXuXfXfXgXgXgXgXgXgXgXgXgXfXfXfXfXfXfXfXjXcXgXcXlXlXlXlXlXlXlXlXlXlXlXlXcXfXgXfXfXdXdXuXdXuXuXuXyXiXyXiXiXiXiXqXwXwXqXqXqX6X6X6X6X6X6X7X6X6X7X7X7X7X7X7X7X7X7X4X4X4X3X5X2X2X2X8X1X1X<X1X2X5X5X2X1X1X<X<X:X:X:X:X:X:X-X>X>X>X>X>X-X=X=X=X&X&X%X%X&X&X$X%X%X$X$X$X$X*X*X*X@X@X@X@X@X X X X X X X XL.^ / / ~ ! ! ~ ! ! ( W ( R R E T T P P P P P P P P J J J J J J S S S S S S S S J J J J J J P P T T T T R R Q W ! / ^ L. X X#X#X%X%X$XDXBXMXLXMXMXMXMXMXMXMXAXMXMXMXMXMXMXMXMXMXMXMXMXDXDXDXDXKXGXKXGXGXGXGXGXGXGXGXGXGXGXGXGXGXGXGXGXGXGXGXGXGXGXGXKXMXMXDXMXLXDXMXMXMXMXMXAXMXMXMXMX",
"KXKXKXKXKXKXKXKXKXKXKXKXKXKXKXKXKXKXKXKXKXKXKXKXKXDXKXKXGXKXKXKXKXKXKXKXKXKXKXKXKXKXKXKXKXKXKXKXKXKXKXKXKXHXGXDXKXKXKXKXKXKXKXKXHXKXFXKXKXKXKXKXKXVXG.E.T.T.E.E.R.Y.Y.G.U.rXpXuXhXkXkXkXhXfXfXhXhXhXhXhXhXhXhXhXfXfXfXfXfXfXfXfXhXhXhXfXuXuXuXuXfXgXgXgXgXgXgXgXgXgXgXfXfXfXfXfXfXgXlXlXjXjXlXlXlXlXlXlXlXlXlXlXlXlXjXgXgXgXfXfXdXfXdXuXuXuXyXyXyXyXiXiXiXwXwXwXqX6X6X6X6X6X6X6X6X7X7X7X7X7X7X7X7X7X7X7X4X4X4X4X3X5X2X2X2X8X8X8X1X1X<X<X:X:X:X:X1X<X:X:X:X:X>X>X>X>X=X=X&X&X&X&X&X&X=X&X&X&X&X%X$X%X%X%X$X$X$X*X*X*X@X@X@X@X@X X X X X X X XL.^ / / ! ! ! ! ! ! ( W W R R E T T P P P P P P P P J J J J J S S S S S S S S S J J J J J P P P I I T T R R Q W ! / ^ L. X X#X#X$X%X%XKXDXKXKXDXKXKXKXKXKXKXKXKXKXKXKXKXKXKXKXKXKXKXKXKXKXKXKXKXKXKXKXKXKXKXKXKXKXKXKXKXKXKXKXKXKXKXKXKXKXKXKXKXKXKXGXKXKXKXKXKXKXKXKXKXKXKXKXKXKXKXKX",
"GXGXGXGXGXGXGXGXGXGXGXGXGXGXGXGXGXGXGXGXGXGXGXGXGXGXGXKXMXMXMXMXMXMXMXMXMXMXMXMXMXMXMXMXMXMXMXMXMXMXMXMXDXMXMXGXGXGXGXGXGXGXGXGXGXGXHXHXGXGXHXHXGXZXG.T.T.T.T.R.R.T.Y.G.U.rXpXuXhXkXzXlXlXjXhXhXjXvXdXdXlXfXdXlXlXdXfXlXjXdXdXlXhXjXjXfXfXjXhXfXfXfXlXdXfXcXyXxXlXfXgXgXyXdXlXfXlXgXfXfXjXjXlXlXfXxXxXzXjXjXlXlXjXlXlXjXjXjXfXfXfXfXdXuXuXuXuXuXyXiXiXwXqXqXqXqXqXqXqX6X6X6X6X6X6X6X6X6X7X7X4X7X4X4X4X4X4X4X4X3X5X5X2X2X2X2X2X1X1X1X1X1X1X1X1X:X<X:X:X>X:X:X>X>X>X>X>X>X=X=X=X=X=X=X&X&X&X&X&X&X&X$X%X$X$X$X$X$X#X#X#X@X@X@X@X@X@X X X X XL.^ ^ ^ / ^ / ! ! ! ! ! W R R R R E T T T P P P P P P J J J J J J S S S S S S S S J J J J P P P P P P T T R R W W ~ / ^ L. X@X#X#X%X%X%XnXHXHXGXGXGXGXGXGXGXGXGXGXGXGXGXGXGXGXGXGXGXGXGXGXGXGXGXKXMXMXMXMXMXMXMXMXMXMXMXMXMXMXMXMXMXMXMXMXMXMXMXMXMXMXMXGXGXGXGXGXGXGXGXGXGXGXGXGXGXGXGX",
"GXGXGXGXGXGXGXGXGXGXGXGXGXGXGXGXGXGXGXGXGXGXGXGXGXGXGXKXMXMXMXMXMXMXMXMXMXMXMXMXMXMXMXMXMXMXMXMXMXMXMXMXDXMXMXGXGXGXGXGXGXGXGXGXGXGXGXHXGXGXHXHXGXZXG.T.T.T.T.R.R.T.T.G.U.rXpXpXkXkXkXjXjXhXhXhXdXqXzXlXjXfXxX7XyXfXdXqXyXlXjXqXuXuXfXfXfXfXfXfXjXdXyXlXgXfXlX6XyXlXdXxXxXyXjXlXqXjXxXlXfXjXlXlXxXfXdXjXxXlXjXzXjXjXjXjXjXjXfXfXfXfXfXdXuXuXuXuXyXiXyXwXwXqXqXqXqXqXqXqXqX6X6X6X6X6X7X6X7X7X7X7X4X4X4X4X4X4X3X3X5X5X2X2X2X2X2X2X2X1X1X1X1X1X1X:X<X:X:X:X:X:X>X>X>X>X>X>X=X=X=X=X=X=X&X&X&X&X&X&X&X$X%X$X$X$X$X$X#X#X#X@X@X@X@X@X@X X X X XL.^ ^ ^ ^ ^ / ! ! ! ! ! W R R R R E T T T P P P P P P J J J J J J S S S S S S S S J J S S P P P P P P T T R R W W ~ / ^ L. X@X#X%X%X%X&XnXHXHXGXGXGXGXGXGXGXGXGXGXGXGXGXGXGXGXGXGXGXGXGXGXGXGXGXKXMXMXMXMXMXMXMXMXMXMXMXMXMXMXMXMXMXMXMXMXMXMXMXMXMXMXMXGXGXGXGXGXGXGXGXGXGXGXGXGXGXGXGX",
"GXGXGXGXGXGXGXGXGXGXGXGXGXGXGXGXGXGXGXGXGXGXGXGXGXGXGXKXMXMXMXMXMXMXMXMXMXMXMXMXMXMXMXMXMXMXMXMXMXMXMXMXDXMXMXGXGXGXGXGXGXGXGXGXGXGXGXHXGXGXHXHXGXZXG.T.T.E.R.R.T.Y.T.G.U.rXpXpXkXkXkXjXjXhXhXkXlXjXdXlXqXjXlXDXBXNXNXNXNXnXxXzXhXiXiXfXzXlXdXiXgXyXfXfXdXgXxXxXzXfXyXyXlXlXyXxXlXlXjXfXfXjXjXfXlXlXxXzXlXlXjXhXjXjXjXjXjXjXfXfXfXfXfXdXuXuXuXuXyXiXiXiXwXqXqXqXqXqXqXqXqX6X6X6X6X6X6X6X7X7X7X7X4X4X4X4X4X4X3X3X5X5X5X2X2X2X2X2X2X1X1X1X1X1X1X:X<X:X:X:X:X:X>X>X>X>X>X>X=X=X=X=X=X=X&X&X&X&X&X&X&X$X$X%X$X$X$X$X#X#X#X@X@X@X@X@X@X X X X XL.^ ^ ^ ^ ^ / / ! ! ! ! W R R R R E T T T P P P J P P J J J J J J S S S S S S S S J J S S P P P P P P T T R R W W ~ ^ ^ L. X@X#X%X%X%X&XnXHXHXGXGXGXGXGXGXGXGXGXGXGXGXGXGXGXGXGXGXGXGXGXGXGXGXGXKXMXMXMXMXMXMXMXMXMXMXMXMXMXMXMXMXMXMXMXMXMXMXMXMXMXMXMXGXGXGXGXGXGXGXGXGXGXGXGXGXGXGXGX",
"GXGXGXGXGXGXGXGXGXGXGXGXGXGXGXGXGXGXGXGXGXGXGXGXGXGXGXKXMXMXMXMXMXMXMXMXMXMXMXMXMXMXMXMXMXMXMXMXMXMXMXMXDXMXMXGXGXGXGXGXGXGXGXGXGXGXGXGXGXGXHXHXGXZXG.T.T.E.R.R.T.T.T.G.U.rXpXpXkXkXkXkXhXhXhXkXlXwXjXdXKXxX<X XA l 1 Z J W =XzXnXnXvXjXyXyXfXxXyXlXlXgXlX6X6XdXdXlXxXjXdXfXdXjXlXfXdXjXlXzXxXnXlXxXxXlXjXlXlXjXjXjXjXjXjXjXfXfXfXfXfXdXuXuXuXuXyXiXiXwXwXqXqXqXqXqXqXqXqX6X6X6X6X6X6X6X7X7X7X7X7X4X4X4X4X4X3X3X5X5X5X2X2X2X2X2X2X1X1X1X1X1X1X:X:X:X:X:X:X>X>X>X>X>X>X-X=X=X=X=X=X=X&X&X&X&X%X%X&X$X$X%X$X$X$X$X#X#X#X@X@X@X@X@X@X X X X XL.^ ^ ^ ^ ^ / / ! ! ! ! W R R R R E T T T P P P J P P J P J J J J S S S S S S S S J J S P P P P P P T T R R R W W ~ ^ ^ L. X@X#X%X%X%X&XnXHXHXGXGXGXGXGXGXGXGXGXGXGXGXGXGXGXGXGXGXGXGXGXGXGXGXGXKXMXMXMXMXMXMXMXMXMXMXMXMXMXMXMXMXMXMXMXMXMXMXMXMXMXMXMXGXGXGXGXGXGXGXGXGXGXGXGXGXGXGXGX",
"GXGXGXGXGXGXGXGXGXGXGXGXGXGXGXGXGXGXGXGXGXGXGXGXGXGXGXKXMXMXMXMXMXMXMXMXMXMXMXMXMXMXMXMXMXMXMXMXMXMXMXMXDXMXDXGXGXGXGXGXGXGXGXGXGXGXGXHXGXGXHXHXGXZXG.E.T.R.R.R.T.Y.Y.G.G.rXpXpXhXhXkXkXhXhXhXkXfXfXxXvXW > . . X + + X . . . . > I <XzXnXxXfX6XdXjX6XfXxXyXnXlXlXfXyXfXyXfXxXdXdXjXxXNXNXxX6X1X3XyXzXvXvXlXjXhXjXjXjXjXjXjXfXfXfXfXdXdXuXuXyXyXyXyXyXiXwXqXqXqXqXqXqXqXqX6X6X6X6X6X6X6X7X7X7X7X7X7X4X4X4X4X3X3X5X3X5X2X2X2X1X1X1X1X1X<X1X<X<X<X:X:X:X:X:X:X>X>X>X>X-X=X=X=X=X=X=X=X&X&X&X&X&X&X&X$X%X$X$X$X$X$X#X#X#X@X@X@X@X@X@X X X X X XL.^ ^ ^ / / / ! ! ! ! W R R R R E T T T P P P P P P J J J J J J S S S S S S S S J J S J P P P P P T T T R Q Q W ~ ^ ^ L.L.@X#X%X%X%X=XnXHXFXGXGXGXGXGXGXGXGXGXGXGXGXGXGXGXGXGXGXGXGXGXGXGXGXGXKXMXMXMXMXMXMXMXMXMXMXMXMXMXMXMXMXMXMXMXMXMXMXMXMXMXMXMXGXGXGXGXGXGXGXGXGXGXGXGXGXGXGXGX",
"GXGXGXGXGXGXGXGXGXGXGXGXGXGXGXGXGXGXGXGXGXGXGXGXGXGXGXKXMXMXMXMXMXMXMXMXMXMXMXMXMXMXMXMXMXMXMXMXMXMXMXMXDXMXDXGXGXGXGXGXGXGXGXGXGXGXGXHXGXGXHXHXGXZXG.E.T.E.R.R.T.Y.Y.G.G.rXpXpXhXhXkXkXhXhXhXhXiXNXdXZ X X W >X4XjXvXlXdX4X@XS > X . + R 6XnXNXfX7XNXyX6XzXxXlXlX7XxXlXfXxXyXfXlXvXlX&XJ C C C C Z A R :XvXnXdXjXjXjXjXjXjXfXfXfXfXdXdXuXuXyXyXyXyXyXiXiXqXqXqXqXqXqXqXqX6X6X6X6X6X6X6X7X7X7X7X7X7X4X4X4X4X3X3X3X3X3X5X2X1X1X1X1X1X1X<X1X<X<X<X<X<X<X:X:X:X:X:X>X>X>X-X=X=X=X=X=X=X&X&X&X&X&X&X&X&X$X$X$X$X$X$X#X#X#X@X@X@X@X@X@X X X X X XL.^ / / / / / ! ! ! ! W R R R R E T T T P P P P P P J J J J J J S S S S S S S S J J S P P P P P P T T T R R Q W ~ ^ ^ L. X@X#X%X%X=X=XNXHXFXGXGXGXGXGXGXGXGXGXGXGXGXGXGXGXGXGXGXGXGXGXGXGXGXGXKXMXMXMXMXMXMXMXMXMXMXMXMXMXMXMXMXMXMXMXMXMXMXMXMXMXMXMXGXGXGXGXGXGXGXGXGXGXGXGXGXGXGXGX",
"GXGXGXGXGXGXGXGXGXGXGXGXGXGXGXGXGXGXGXGXGXGXGXGXGXGXGXKXMXMXMXMXMXMXMXMXMXMXMXMXMXMXMXMXMXMXMXMXMXMXMXMXDXMXDXGXGXGXGXGXGXGXGXGXGXGXGXHXGXGXHXHXGXZXG.E.T.E.E.E.T.Y.Y.G.G.rXeXpXhXhXkXjXhXhXhXhXxXvXl . Z fXBXzXvXxXjXjXxXvXNXNXnXyX X< . . A <XBXNXlX,   > O 2   T lXyXyXlX6XNXxX$X1 + > l b < Z P P C C W 7XNXjXjXjXjXjXjXfXfXfXfXdXdXdXuXyXyXyXyXyXiXiXqXqXqXqXqXqXqXqX6X6X6X6X6X6X6X7X7X7X7X4X4X4X4X4X4X3X3X3X3X3X5X2X2X1X1X1X1X1X<X1X<X<X<X<X<X<X:X>X>X:X:X>X>X>X-X=X=X=X=X=X=X&X&X&X&X&X&X&X$X$X%X$X$X$X$X#X#X#X@X@X@X@X@X@X X X X X X^ ^ / / ^ / / ! ! ! ! W R R R R E T T T P P P P P P J J J J J J S S S S S S S S J J S P P P P P P T T T R R Q W ~ ^ ^ L. X@X#X%X%X=X=XNXHXFXGXGXGXGXGXGXGXGXGXGXGXGXGXGXGXGXGXGXGXGXGXGXGXGXGXKXMXMXMXMXMXMXMXMXMXMXMXMXMXMXMXMXMXMXMXMXMXMXMXMXMXMXMXGXGXGXGXGXGXGXGXGXGXGXGXGXGXGXGX",
"GXGXGXGXGXGXGXGXGXGXGXGXGXGXGXGXGXGXGXGXGXGXGXGXGXGXGXKXMXMXMXMXMXMXMXMXMXMXMXMXMXMXMXMXMXMXMXMXMXMXMXMXDXMXDXGXGXGXGXGXGXGXGXGXGXGXGXHXGXGXHXHXGXZXG.E.T.E.E.E.T.Y.Y.G.G.rXeXpXhXhXkXjXjXhXhXhXNXW . W BXxXjXdXdXdXdXfXdXyXyXdXhXlXNXZX7XD o . 1 yXT . 1 > , + , vXxXjXxXyXNXdXC * ; R 1X6X7XqX~ Z A ! R C W 6XjXjXjXjXjXjXfXfXfXfXdXdXdXuXuXyXyXyXyXiXwXqXqXqXqXqXqXqXqX6X6X6X6X6X6X6X7X7X7X7X4X4X4X4X4X4X3X3X3X3X3X5X2X1X1X1X1X1X1X<X1X<X<X:X:X:X:X>X=X=X>X:X>X>X>X-X=X=X=X=X=X=X&X&X&X&X&X&X&X$X$X$X$X$X$X$X$X#X#X@X@X@X@X@X@X@X X X X X^ ^ / / ^ / / ! ! ! ! W R R R R E T T T P P P P P P J J J J J J S S S S S S S S J J S P P P P P P T T T R R Q W ~ ^ ^ L. X X#X%X=X=X=XNXHXFXGXGXGXGXGXGXGXGXGXGXGXGXGXGXGXGXGXGXGXGXGXGXGXGXGXKXMXMXMXMXMXMXMXMXMXMXMXMXMXMXMXMXMXMXMXMXMXMXMXMXMXMXMXGXGXGXGXGXGXGXGXGXGXGXGXGXGXGXGX",
"GXGXGXGXGXGXGXGXGXGXGXGXGXGXGXGXGXGXGXGXGXGXGXGXGXGXGXKXMXMXMXMXMXMXMXMXMXMXMXMXMXMXMXMXMXMXMXMXMXMXMXMXDXMXDXGXGXGXGXGXGXGXGXGXGXGXGXHXGXGXHXHXGXKXR.E.T.T.E.E.T.T.T.G.G.rXpXpXhXhXkXhXlXhXiXvXzXX l nXxXwXxXfXfXfXfXfXhXhXfXfXfXdXuXjXxXNXlXW O   ; > < , 2   >XnXfXjXyXnXyX2 O A 3XBXNXxXnXnXNX^ Z P P T A / xXzXzXlXdXxXuXjXfXfXdXdXuXuXyXyXyXyXiXwXiXwXqXqXqXqXqXqXqX6X6X6X6X6X6X6X7X7X4X4X4X4X4X4X4X4X3X3X5X5X5X2X2X2X2X2X<X3X<X:X4X>X3X<X<X7X6X6X3XqX1X3X-X-X-X-X=X=X&X&X=X&X&X&X&X&X%X%X$X%X%X$X$X$X$X#X#X#X#X@X@X@X@X@X@X X X X XL.L.^ ^ ^ / / / ! ! ! W W R R R E T T P P T S R J J P P D P S S J J S S S S S S S J J S S J P P P P T T T R Q W W ~ / ^ L. X@X#X%X=X-X:XnXHXHXGXGXGXGXGXGXGXGXGXGXGXGXGXGXGXGXGXGXGXGXGXGXGXGXGXKXMXMXMXMXMXMXMXMXMXMXMXMXMXMXMXMXMXMXMXMXMXMXMXMXMXMXMXGXGXGXGXGXGXGXGXGXGXGXGXGXGXGXGX",
"GXGXGXGXGXGXGXGXGXGXGXGXGXGXGXGXGXGXGXGXGXGXGXGXGXGXGXKXMXMXMXMXMXMXMXMXMXMXMXMXMXMXMXMXMXMXMXMXMXMXMXMXDXMXDXGXGXGXGXGXGXGXGXGXGXGXGXHXGXGXHXHXGXFXR.E.T.R.R.R.R.T.T.G.G.rXpXpXhXhXzXhXjXhXuXnXL.O 1XnXfXjXfXjXhXfXfXfXfXfXfXfXjXhXyXdXyXjXxXNXlX1 > 2 > 2 > T BX3XgXfXvX6X,   ^ xXLXyX6XlXlXfXnXqXT T I P T D qXlXjXjXfXlXdXjXfXfXdXdXuXuXyXyXyXiXiXwXiXiXqXqXqXqXqXqXqX6X6X6X6X6X6X6X7X7X4X4X4X4X4X4X4X4X3X3X3X3X5X2X2X2X2X1X:X3X1X>X2X<X:X<X3X XW ! W J C ; :X>X>X-X=X=X=X&X=X&X&X&X&X&X%X%X$X%X%X$X$X$X$X#X#X#X#X@X@X@X@X@X@X X X X X XL.^ ^ ^ / / / ! ! ! W W R R R E E E T P P J R D P T P S P J S S J J S S S S S S J J S S J P P P P T T T R Q W W ~ / ^ L. X@X#X%X=X-X:XnXHXHXGXGXGXGXGXGXGXGXGXGXGXGXGXGXGXGXGXGXGXGXGXGXGXGXGXKXMXMXMXMXMXMXMXMXMXMXMXMXMXMXMXMXMXMXMXMXMXMXMXMXMXMXMXGXGXGXGXGXGXGXGXGXGXGXGXGXGXGXGX",
"GXGXGXGXGXGXGXGXGXGXGXGXGXGXGXGXGXGXGXGXGXGXGXGXGXGXGXKXMXMXMXMXMXMXMXMXMXMXMXMXMXMXMXMXMXMXMXMXMXMXMXMXDXMXDXGXGXGXGXGXGXGXGXGXGXGXGXHXGXGXHXHXGXFXR.E.T.T.R.E.R.T.T.G.G.rXpXpXhXhXzXkXhXhXhXNXb , BXfXyXxXdXjXhXhXfXfXfXfXfXfXuXlXjXjXyXyXqXnX3X* 2 > , 1 > NXjXzXlXjXxXb . @XnXlXdXjXjXlXlXlXlXvX/ J P P R Z &XxXjXjXjXjXhXfXdXdXdXuXuXuXuXuXyXyXiXwXiXiXqXqXqXqXqXqXqX6X6X6X6X6X6X6X7X7X4X4X4X4X4X4X4X4X3X3X3X5X5X2X2X2X2X1X<X8X8X:X<X<X<X7X#XO . X . . . E 1X:X>X=X=X=X=X=X=X&X&X&X&X&X%X%X$X$X%X$X$X$X$X#X#X#X#X#X@X@X@X@X@X X X X XL.L.^ ^ ^ / / / ! ! ! W W R R R E E E T P J T T D R P T P T R P S S D S S S S S S J J S S P P P P T T T T R Q W W ~ / / L. X@X#X%X=X-X:XnXHXHXGXGXGXGXGXGXGXGXGXGXGXGXGXGXGXGXGXGXGXGXGXGXGXGXGXKXMXMXMXMXMXMXMXMXMXMXMXMXMXMXMXMXMXMXMXMXMXMXMXMXMXMXMXGXGXGXGXGXGXGXGXGXGXGXGXGXGXGXGX",
"GXGXGXGXGXGXGXGXGXGXGXGXGXGXGXGXGXGXGXGXGXGXGXGXGXGXGXKXMXMXMXMXMXMXMXMXMXMXMXMXMXMXMXMXMXMXMXMXMXMXMXMXDXMXDXGXGXGXGXGXGXGXGXGXGXGXGXHXGXGXHXHXGXFXR.E.T.T.T.E.T.Y.T.G.G.rXpXpXhXhXkXkXhXhXlXnX, P NXqXjXfXjXfXfXhXfXfXfXfXfXfXjXhXjXjXdXfXxXfX1 + > 2 1 + + C xXNX6XNXC X  XvXxXyXdXxXjXfXlXjXhXxX/ D P T S S ^ vXlXjXlXjXjXdXfXdXdXuXuXuXuXuXyXyXiXwXiXiXqXqXqXqXqXqXqX6X6X6X6X6X6X6X7X7X4X4X7X7X4X4X4X4X3X3X3X5X5X2X2X2X2X1X2X:X<X2X:X>X7X5X>   , ; * + 1 3X<X:X>X=X=X=X=X=X=X=X&X&X&X&X%X%X$X$X%X$X$X$X$X#X@X@X#X#X@X@X@X@X@X X X X XL.^ ^ ^ ^ / / / ! ! ! W W R R R E E E P T J T P J W Z > , 1 J P J J S S S S S S S J J S S P P P P T T T T R Q W W ~ / / L. X@X#X%X=X-X:XnXHXHXGXGXGXGXGXGXGXGXGXGXGXGXGXGXGXGXGXGXGXGXGXGXGXGXGXKXMXMXMXMXMXMXMXMXMXMXMXMXMXMXMXMXMXMXMXMXMXMXMXMXMXMXMXGXGXGXGXGXGXGXGXGXGXGXGXGXGXGXGX",
"GXGXGXGXGXGXGXGXGXGXGXGXGXGXGXGXGXGXGXGXGXGXGXGXGXGXGXKXMXMXMXMXMXMXMXMXMXMXMXMXMXMXMXMXMXMXMXMXMXMXMXMXMXMXDXGXGXGXGXGXGXGXGXGXGXGXGXHXGXGXHXHXGXFXG.E.T.T.T.E.T.Y.Y.G.G.rXeXpXhXhXkXjXhXhXzXzXo  XNXjXzXyXfXfXfXfXfXfXfXfXfXfXlXqXfXjXdXdXNX#X+ 1 + C + < #X. .  XHX/ X A NXjXdXxXjXyXlXlXdXlXxXxX! D T J S J W nXlXjXlXfXjXdXfXfXdXuXuXuXuXuXyXiXiXwXwXqXqXqXqXqXqX6X6X6X6X6X6X6X6X6X7X7X4X4X7X7X4X4X3X3X3X3X5X5X5X2X2X2X1X1X3X:X<X<X<X:XyX! X ; ; O > . &X1X>X>X=X>X>X>X=X&X=X&X&X&X&X&X&X&X$X$X$X$X$X$X$X#X@X@X@X@X@X@X@X@X@X X X X XL.L.^ ^ ^ / / / ! ! ! W W R R R E T T P R J P J T P , X o * D P P P S S S S S S S J J S S P P P P P T T T R Q W W ~ / ^ L. X@X#X%X=X-X:XnXHXHXGXGXGXGXGXGXGXGXGXGXGXGXGXGXGXGXGXGXGXGXGXGXGXGXGXKXMXMXMXMXMXMXMXMXMXMXMXMXMXMXMXMXMXMXMXMXMXMXMXMXMXMXMXGXGXGXGXGXGXGXGXGXGXGXGXGXGXGXGX",
"GXGXGXGXGXGXGXGXGXGXGXGXGXGXGXGXGXGXGXGXGXGXGXGXGXGXGXKXMXMXMXMXMXMXMXMXMXMXMXMXMXMXMXMXMXMXMXMXMXMXMXMXMXMXMXGXGXGXGXGXGXGXGXGXGXGXGXGXGXGXHXHXGXFXG.E.T.T.T.T.T.Y.Y.G.G.rXpXpXhXhXhXlXhXfXzXhXX #XNXdXfXzXfXfXfXfXfXfXfXfXfXfXdXdXzXyXdXxXdX* + < 2 > O 3XKX6X< X 1 ; > xXdXgXlXdXyXfXxXzXfXlXxXxXJ J T D Q A / vXjXfXlXfXjXfXfXfXdXdXuXuXuXuXyXiXiXwXwXqXqXqXqXqXqX6XqX6X6X6X6X6X6X6X7X7X4X4X7X7X4X4X3X3X3X3X5X5X5X2X2X2X1X1X2X1X<X>X2X4X&X* + + X > + C 6X<X=X=X=X>X>X-X=X&X=X&X&X&X&X&X&X&X$X$X$X$X$X$X$X#X#X#X#X@X@X@X@X@X@X@X X X XL.L.^ ^ ^ / / / ! ! ! W W R R R E T T T R P J J R C O > ; * J P J S S S S S S S S J J S S P P P P P T T T R Q W W ~ / ^ ^  X@X#X%X=X>X:XnXGXHXGXGXGXGXGXGXGXGXGXGXGXGXGXGXGXGXGXGXGXGXGXGXGXGXGXKXMXMXMXMXMXMXMXMXMXMXMXMXMXMXMXMXMXMXMXMXMXMXMXMXMXMXMXGXGXGXGXGXGXGXGXGXGXGXGXGXGXGXGX",
"GXGXGXGXGXGXGXGXGXGXGXGXGXGXGXGXGXGXGXGXGXGXGXGXGXGXGXKXMXMXMXMXMXMXMXMXMXMXMXMXMXMXMXMXMXMXMXMXMXMXMXMXDXMXDXGXGXGXGXGXGXGXGXGXGXGXGXHXGXGXHXHXGXFXG.E.T.T.R.T.T.Y.Y.G.G.rXeXuXhXhXkXzXhXfXxXhXO %XNXqXdXxXlXdXfXfXfXfXfXfXfXfXfXlXjX7XlXnX^ + < 2 1 + W DXdXxXNX Xo > #XHXyXjXdXfXvXxXqXdXxXyXxX6XZ J I D W A @XxXhXfXjXhXfXhXfXfXdXdXuXuXuXuXyXiXiXwXwXqXqXqXqXqXqX6XqX6X6X6X6X6X6X6X7X7X4X4X4X4X4X4X3X3X3X3X5X5X5X2X3X2X1X1X<X2X<X:X2X3XZ . + ; ; O O <X<X-X>X>X=X=X-X-X=X=X&X&X&X&X&X&X&X&X&X$X$X$X$X$X$X#X#X#X#X@X@X@X@X@X@X@X X X XL.L.^ ^ ^ / / / ! ! ! W W R R R E T T E T T P P R , o + + O S S S J J S S S S S S J J S S J P P P T T T T R Q W W ~ / / ^ L.@X#X%X=X>X:XnXHXHXGXGXGXGXGXGXGXGXGXGXGXGXGXGXGXGXGXGXGXGXGXGXGXGXGXKXMXMXMXMXMXMXMXMXMXMXMXMXMXMXMXMXMXMXMXMXMXMXMXMXMXMXMXGXGXGXGXGXGXGXGXGXGXGXGXGXGXGXGX",
"GXGXGXGXGXGXGXGXGXGXGXGXGXGXGXGXGXGXGXGXGXGXGXGXGXGXGXKXMXMXMXMXMXMXMXMXMXMXMXMXMXMXMXMXMXMXMXMXMXMXMXMXDXMXMXGXGXGXGXGXGXGXGXGXGXGXHXHXGXGXHXHXGXKXK.T.T.T.R.E.T.Y.Y.G.G.rXeXiXuXhXkXxXfXuXxXkXX &XNXjXlXqXxXuXhXfXfXfXfXfXfXfXfXfXdXlXNX3XX 2 , 2 > 2 dXjXfXyXDXL.> < o @XNXgXlXjXyXdXxXzXfXzXNX$XZ P I J S D >XvXjXjXjXjXdXhXfXfXdXdXuXuXuXuXyXiXiXwXwXqXqXqXqXqXqX6XqX6X6X6X6X6X6X6X7X7X4X4X4X4X4X4X3X3X3X3X5X5X5X3X3X2X1X1X<X<X:X3X8X>X  + + O + . / wX&X<X<X>X-X=X=X=X=X=X&X&X&X&X&X%X&X&X&X%X&X%X$X$X$X#X#X*X#X@X@X@X@X@X@X@X X X XL.^ ^ ^ ^ / / / ! ! ! W W R R R E T T T S P P P R ; + ; ; + T P S S S S S S S S S J J S S J P P P P T T T R Q W W ~ / / ^  X@X#X%X=X>X:XnXHXHXGXGXGXGXGXGXGXGXGXGXGXGXGXGXGXGXGXGXGXGXGXGXGXGXGXKXMXMXMXMXMXMXMXMXMXMXMXMXMXMXMXMXMXMXMXMXMXMXMXMXMXMXMXGXGXGXGXGXGXGXGXGXGXGXGXGXGXGXGX",
"GXGXGXGXGXGXGXGXGXGXGXGXGXGXGXGXGXGXGXGXGXGXGXGXGXGXGXKXMXMXMXMXMXMXMXMXMXMXMXMXMXMXMXMXMXMXMXMXMXMXMXMXDXMXDXGXGXGXGXGXGXGXGXGXGXGXHXHXGXGXGXGXGXFXU.T.G.T.E.E.T.Y.Y.G.G.rXeXpXhXkXkXkXfXyXhXnX; ~ nXdXlXuXxXqXjXfXfXjXjXdXdXfXuXzXdXxXxX, + > > 1    XZXuXuXvX=XO ; dXS . T nXxXdXlXfXxXzXxXfXnXZ S S J R D K jXjXhXfXhXjXhXfXfXdXdXdXdXdXuXyXyXyXyXwXyXwXqXqXqXqXqXqXqX6X6X6X6X6X6X6X7X7X7X7X4X4X4X4X3X3X3X3X3X3X3X2X2X2X2X1X4X>X3X<X6X;   + + +   b 1X1X=X:X-X>X>X-X-X-X-X=X=X=X=X=X&X%X%X%X%X%X%X$X$X#X#X*X*X#X#X@X@X X X X X X X X XL.^ ^ / / / / / / ! ! W ( ( ( R R T T T P S P T S <   O + b J J S S S S S J D D J J J J J J P R T P P P T W R W ! R ^ ^ @X XL.$X@X=X:X:XNXHXHXGXGXGXGXGXGXGXGXGXGXGXGXGXGXGXGXGXGXGXGXGXGXGXGXGXKXMXMXMXMXMXMXMXMXMXMXMXMXMXMXMXMXMXMXMXMXMXMXMXMXMXMXMXGXGXGXGXGXGXGXGXGXGXGXGXGXGXGXGX",
"GXGXGXGXGXGXGXGXGXGXGXGXGXGXGXGXGXGXGXGXGXGXGXGXGXGXGXKXMXMXMXMXMXMXMXMXMXMXMXMXMXMXMXMXMXMXMXMXMXMXMXMXDXMXDXGXGXGXGXGXGXGXGXGXGXGXHXHXHXGXGXGXGXFXU.T.G.T.E.E.Y.Y.Y.G.G.rXeXpXuXhXkXkXjXdXlXnXA > BXlXdXfXfXvXjXlXhXuXdXlXlXfXhX7XxXfX1 O 2 > 1   C xXlXiXiXBX1 . 1XCXNX@X. A xXfXlXxX6XlXdXCX=Xb D T J J K ! xXzXlXjXjXjXfXfXfXdXdXdXdXdXuXyXyXyXyXwXyXwXqXqXqXqXqXqXqX6X6X6X6X6X6X6X7X7X7X7X4X4X4X4X3X3X3X3X3X3X3X2X2X2X2X2X<X1X<XcXS   > + 3 +   #X4X%X2X-X-X>X>X-X-X-X-X=X=X=X=X=X&X%X%X%X%X%X$X$X$X#X#X*X#X*X@X@X X X X X X X X X XL.^ ^ / / / / / ! ! ! W ( ( ( R R T T E T P S P S 1 3 O 2 A T J S J S P S S J J S D J D T T S J P E W T W W R R ! ! ! ! ! L.@X&X&X-X=X:XNXHXHXGXGXGXGXGXGXGXGXGXGXGXGXGXGXGXGXGXGXGXGXGXGXGXGXGXKXMXMXMXMXMXMXMXMXMXMXMXMXMXMXMXMXMXMXMXMXMXMXMXMXMXMXMXGXGXGXGXGXGXGXGXGXGXGXGXGXGXGXGX",
"GXGXGXGXGXGXGXGXGXGXGXGXGXGXGXGXGXGXGXGXGXGXGXGXGXGXGXKXMXMXMXMXMXMXMXMXMXMXMXMXMXMXMXMXMXMXMXMXMXMXMXMXDXMXMXGXGXGXGXGXGXGXGXGXGXGXHXHXHXGXGXGXHXFXU.T.G.T.E.E.Y.Y.Y.G.G.rXeXpXuXhXkXkXlXfXhXvX:X. 3XNXyXdXfXyXuXyXhXzXlXdXdXjXhXNXxX2 + 1 O 1 , + 1XnX7XhXnX@XX 1 BXyX6XFX1X.  XNXjXdXxXdXxXxXA S D S A W C 7XxXxXlXjXjXjXfXfXfXdXdXdXdXdXyXyXyXyXyXwXyXyXwXqXqXqXqXqXqX6X6X6X6X6X6X6X7X7X7X7X4X4X4X3X3X3X4X4X3X3X3X2X2X2X2X2X1X<X3X<XO   ; O > . A 6X1X:X-X-X-X>X>X-X-X-X-X=X=X=X=X=X&X%X%X%X%X$X$X$X$X#X#X*X#X*X*X@X@X X X X X X X X XL.^ ^ / / / / ! ! ! ! W ( ( ( R R T T T T P P T T S C C S T J S S J J S S S J S S S J S P P J P P P P P R T R W ! / !  X/  X*X X%X>X-X:XnXHXHXGXGXGXGXGXGXGXGXGXGXGXGXGXGXGXGXGXGXGXGXGXGXGXGXGXKXMXMXMXMXMXMXMXMXMXMXMXMXMXMXMXMXMXMXMXMXMXMXMXMXMXMXMXGXGXGXGXGXGXGXGXGXGXGXGXGXGXGXGX",
"GXGXGXGXGXGXGXGXGXGXGXGXGXGXGXGXGXGXGXGXGXGXGXGXGXGXGXKXMXMXMXMXMXMXMXMXMXMXMXMXMXMXMXMXMXMXMXMXMXMXMXMXMXMXMXGXGXGXGXGXGXGXGXGXGXGXHXHXHXGXGXGXHXFXK.T.G.T.E.E.Y.Y.Y.G.G.rXeXpXhXhXhXhXlXfXuXlXNX1 > zXNXyXjXlXxXfXdXhXjXfXfXlXnX1X* X 2 2 > 2 + A xXfXfXhXhX* o zXxXfXlXyXxXdXfXvXyXfXjXqXDX$Xb R S J J D R nXlXjXhXhXjXjXhXfXfXdXdXdXdXdXuXyXyXyXyXwXyXyXwXqXqXqXqXqXqX6X6X6X6X6X6X6X7X7X7X4X4X4X4X3X3X4X4X4X3X3X3X2X2X2X2X1X<X<XyX1   +   > O + 1X1X>X4X&X-X-X>X>X-X-X-X-X=X&X&X&X&X%X%X%X%X%X$X$X$X$X$X#X*X#X*X*X@X@X X X X X X X X XL.^ ^ / / / / ! ! ! ! W ( ( ( E R T T P T T P T R T P R W P A J J D S S T P J S S P J J S S P E P J T W R P R W ! ^ ! / ^ *X XS  X>X:X:XnXHXHXGXGXGXGXGXGXGXGXGXGXGXGXGXGXGXGXGXGXGXGXGXGXGXGXGXKXMXMXMXMXMXMXMXMXMXMXMXMXMXMXMXMXMXMXMXMXMXMXMXMXMXMXMXGXGXGXGXGXGXGXGXGXGXGXGXGXGXGXGX",
"GXGXGXGXGXGXGXGXGXGXGXGXGXGXGXGXGXGXGXGXGXGXGXGXGXGXGXKXMXMXMXMXMXMXMXMXMXMXMXMXMXMXMXMXMXMXMXMXMXMXMXMXDXMXDXGXGXGXGXGXGXGXGXGXGXGXHXHXHXGXGXGXHXFXU.R.G.T.E.E.Y.Y.Y.Y.G.rXeXiXhXhXhXhXlXfXuXhXxX1X. Z jXNXzXdXqXlXlXyXdXvXNXzXD + . < > + 1 > + 6XxXdXlXnXR . ^ NX6X6XlXlXdXzXxXdXdXxXlXLX<Xb A A J R T 1 dXxXjXhXfXfXhXhXhXfXfXdXdXdXdXdXdXyXyXyXyXwXyXwXqXqXqXqXqXqXqX6X6X6X6X6X6X6X7X7X7X4X4X4X4X5X2X2X3X3X2X2X2X2X2X1X1X1X>XyX%X. + + O >   ^ 4X-X<X>X1X=X>X>X>X=X=X>X=X&X&X&X&X&X&X&X&X&X%X%X%X$X$X$X$X*X*X*X#X@X@X@X@X X@X X X X XL.L.^ ^ ^ / / ! ! ! ! ( ( ( ( E R T T T T T P S S P P S J D S E J D S J D C S P S J S S P P P P P T ! P R W R R ! ! D C ( $X^ Z  X>X:X:XnXHXHXGXGXGXGXGXGXGXGXGXGXGXGXGXGXGXGXGXGXGXGXGXGXGXGXGXKXMXMXMXMXMXMXMXMXMXMXMXMXMXMXMXMXMXMXMXMXMXMXMXMXMXMXMXGXGXGXGXGXGXGXGXGXGXGXGXGXGXGXGX",
"GXGXGXGXGXGXGXGXGXGXGXGXGXGXGXGXGXGXGXGXGXGXGXGXGXGXGXKXMXMXMXMXMXMXMXMXMXMXMXMXMXMXMXMXMXMXMXMXMXMXMXMXDXMXDXGXGXGXGXGXGXGXGXGXGXGXHXHXHXGXGXGXHXFXK.R.G.T.E.E.Y.Y.Y.Y.G.rXeXiXuXhXkXhXlXjXhXkXjXNXL.. > &XdXvXnXNXNXnXvX7XI O X R W O , > 2   ( NXlXyXzXdXo < nXjXjXjXlXlXyXlXqXlXdXdXxX2XA Z D D T Z Z $XvXlXjXjXhXhXhXhXfXfXfXdXdXdXdXdXdXyXyXyXyXwXyXwXqXqXqXqXqXqXqX6X6X6X6X6X6X6X7X7X7X4X4X4X4X5X2X2X5X5X2X2X2X2X2X1X1X1X3XyX> O + + > . < 6X>X>X1X=X<X<X>X>X-X=X-X>X=X&X&X&X&X&X&X&X&X&X%X%X%X$X$X$X$X*X*X*X#X@X@X@X@X X@X@X X X XL.L.^ ^ ^ / / ! ! ! ! ( ( ( ( E R T T T T T P S S ) P S S S P P S S R C > O C R D J J S T P J R R D l , b R W R / S < < R #XP A %X>X-X:XnXHXHXGXGXGXGXGXGXGXGXGXGXGXGXGXGXGXGXGXGXGXGXGXGXGXGXGXKXMXMXMXMXMXMXMXMXMXMXMXMXMXMXMXMXMXMXMXMXMXMXMXMXMXMXMXGXGXGXGXGXGXGXGXGXGXGXGXGXGXGXGX",
"GXGXGXGXGXGXGXGXGXGXGXGXGXGXGXGXGXGXGXGXGXGXGXGXGXGXGXKXMXMXMXMXMXMXMXMXMXMXMXMXMXMXMXMXMXMXMXMXMXMXMXMXDXMXDXGXGXGXGXGXGXGXGXGXGXGXHXHXHXGXGXGXHXFXK.R.T.T.E.E.T.Y.Y.Y.G.rXeXiXuXkXkXhXlXlXhXlXdXjXDX#X* . X b J D A 1 O . . , 7XlX> * ; + 2 > zXfXqXlXxXZ . &XxX6XlXjXyXdXlX6XzXdXxXNX6X1 b Z Z P S A / NXdXxXlXjXjXjXjXhXfXfXdXdXdXdXdXdXdXyXyXyXyXwXyXwXqXqXqXqXqX6XqX6X6X6X6X6X6X6X7X7X7X7X4X4X4X5X2X2X2X5X2X2X2X2X2X8X1X1XyX^ . ; + ; +   @X7X<X:X<X:X&X1X>X>X-X=X-X>X=X&X&X&X&X&X&X&X&X&X%X%X%X$X$X$X$X*X*X*X#X@X@X@X@X X@X@X X X XL.^ ^ ^ ^ / / ! ! ! W ( ( ( ( ( R T T T T T T T T T T T P P P D D P T > O . b T D J J P J S P E A < + > + S ! W W C b 1 (  XC I >X>X>X:XnXHXHXGXGXGXGXGXGXGXGXGXGXGXGXGXGXGXGXGXGXGXGXGXGXGXGXGXKXMXMXMXMXMXMXMXMXMXMXMXMXMXMXMXMXMXMXMXMXMXMXMXMXMXMXMXGXGXGXGXGXGXGXGXGXGXGXGXGXGXGXGX",
"GXGXGXGXGXGXGXGXGXGXGXGXGXGXGXGXGXGXGXGXGXGXGXGXGXGXGXKXMXMXMXMXMXMXMXMXMXMXMXMXMXMXMXMXMXMXMXMXMXMXMXMXDXMXDXGXGXGXGXGXGXGXGXGXGXGXHXHXHXGXGXGXHXFXK.R.T.T.E.E.T.Y.Y.G.G.rXeXuXuXkXkXhXhXfXfXhXjXjXqXNXjX#XC ; X . . + b / 7XnXKXA   > , >   @XnXdXgXxX>X. b NXjXfXdXdXfXfXdXxXlXNXlX X< b A S D Z 1 #XBXjXxXfXjXjXhXfXhXhXhXfXdXdXdXdXdXdXdXyXyXyXyXwXyXqXqXqXqXqXqX6XqX6X6X6X6X6X6X6X7X7X7X7X4X4X4X5X2X2X2X3X2X2X2X2X2X8X1X1X1X  ; + O > . A wX1X>X>X2X&X:X>X>X>X-X=X-X>X=X&X%X%X%X&X&X&X&X&X%X%X%X$X$X$X$X*X*X*X#X@X@X@X@X X@X@X X X X X^ ^ / / / ! ! ! W W W ( ( ( ( R E T R T P P P S S S J S P P S J P Z O > ; C J D T S P S J R A ; + b ! ; A / W S C  X> T ^ b ! >X%X-X:XnXHXHXGXGXGXGXGXGXGXGXGXGXGXGXGXGXGXGXGXGXGXGXGXGXGXGXGXKXMXMXMXMXMXMXMXMXMXMXMXMXMXMXMXMXMXMXMXMXMXMXMXMXMXMXMXGXGXGXGXGXGXGXGXGXGXGXGXGXGXGXGX",
"GXGXGXGXGXGXGXGXGXGXGXGXGXGXGXGXGXGXGXGXGXGXGXGXGXGXGXDXMXMXMXMXMXMXMXMXMXMXMXMXMXMXMXMXMXMXMXMXMXMXMXMXMXMXDXGXGXGXGXGXGXGXGXGXGXGXHXHXHXGXGXGXGXZXQ.T.G.T.E.E.Y.Y.Y.G.G.rXeXiXhXhXkXkXhXfXhXhXhXfXdXfXxXnXnXxXjXlXjXxXNXvXzXvXyX  2 > , * < xXfXyXjXNXb   <XNXvXzXNXNXNXCXxXlX6X#X1 > C F A Z < Q 3XvXvXjXhXlXfXjXxXqXzXjXyXjXuXjXwX6XxXqXdXyXyXqXqXdX6XfX6X7XqXdX1XgXqX7XwX4XqX6X7X7X6X6X7X3X3X5X5X5X4X2X2X3X5X8X1X:X5X:X2XyXS . > + > O O 1X<X1X1X:X>X>X>X:X>X>X>X=X=X<X>X$X>X#X&X&X%X&X$X&X$X&X$X&X#X&X#X$X@X$X@X X@X@X@X X@X@X X X@XL.^ ^ / ! L. X@X XL.L.W ( E ! T P / P T T R ( R R R S S E J S D J T b + O , J A T S J T A ! T > O 1 / W ; A ! / < ^ P > ! P Z / &X-X>X-XnXFXHXKXGXHXGXGXGXGXGXGXGXGXGXGXGXGXGXGXGXGXGXGXKXGXGXGXDXMXMXMXMXMXMXMXMXMXMXMXMXMXMXMXMXMXMXMXMXMXMXMXMXMXMXMXKXGXGXGXGXGXGXGXGXGXGXGXGXGXGXGX",
"GXGXGXGXGXGXGXGXGXGXGXGXGXGXGXGXGXGXGXGXGXGXGXGXGXGXGXKXMXMXMXMXMXMXMXMXMXMXMXMXMXMXMXMXMXMXMXMXMXMXMXMXMXMXDXGXGXGXGXGXGXGXGXGXGXGXHXHXHXGXGXGXGXZXQ.R.T.T.E.E.Y.Y.Y.G.G.rXeXiXhXhXkXkXhXfXhXhXjXjXfXdXfXjXjXfXfXxXfXfXlXxXqXxXS ; 2 > < . #XvXdXjXxX#X. ( NXNXR C C C C A Z < > ; 1 b C b ; A >XdXvXlXdXjXxXjXxXjXdXlXyXjXvXyXjXqXlXjXqXwXfXqXdXyXdX4XqXqX7XhX6XyXjX2X6XdX3XqX2XyX6X2X7X7X3X7X5X6X3X<X5X2X:X2X:X4X2XyX:X:XuX$X. + + + ; . / dX2X&X1X<X&X>X<X>X=X1X$X=X<X@X<X1X$X>X&X&X=X:X#X#X=X&X$X@X@X@X&X X@X@X&X#X$X$XL.#XL.@X@X XL.^ ^ ^ ^ #X^ Z D Z 2 P ! ! E R ! T T E / S P A 1 1 S T P J T S P D ! ; + > D J D D S J D P R < > ; D W T + A ^ S b L.D < E P A  X>X%X-X>XnXFXHXGXGXGXGXGXGXGXGXGXGXGXGXGXGXGXGXGXGXGXGXGXGXGXGXGXKXMXMXMXMXMXMXMXMXMXMXMXMXMXMXMXMXMXMXMXMXMXMXMXMXMXMXDXKXGXGXGXGXGXGXGXGXGXGXGXGXGXGXGX",
"KXKXKXKXKXKXKXKXKXKXKXKXKXKXKXKXKXKXKXKXKXKXKXKXHXGXGXKXDXDXDXDXDXDXDXDXDXDXDXDXDXDXDXDXDXDXDXDXDXMXMXDXDXDXKXKXKXKXKXKXKXKXKXKXHXKXFXFXKXHXHXHXGXZXQ.R.T.T.E.E.Y.Y.Y.G.G.rXeXuXhXhXkXkXhXcXhXhXfXjXjXfXdXdXfXfXdXjXdXdXuXdXxX6XO > > 2 > < nXhXdXdXnX; + 3XNX/ . X o     + < , b < l ; b D 7XxXvXvXvXzXjXjXjXlXjXjXlXlXhXfXqX6XfXuX7XdX7XfX6XdXwXyX3XfXxX7XqX7X3X7X7X3XqX7X7XqXyX2X3XyXqX3X7X7X7X3X3X<X2XqXyX6XyX<X2X&X3X3X6X; . 2 3 +   < 3X1X<X=X1X>X>X3X<X&X=X<X&X>X=X<X@X&X&X=X>X#X=X@X&X=X@X$X&X1X&X&X#X$X@X=X! ; + P $X XL.#X X^ @X^ / $XL.A ; O . . . . A ! E T ! R P ! 2   O     1 S P J P S P S T C O O < W S J D P J D ! Z + * 1 R R A + S  X1 S L.C C S P Z  X>X$X>X>XNXFXHXKXGXHXGXKXKXKXKXKXKXKXKXKXKXKXKXKXKXKXKXGXHXGXGXKXKXDXDXDXDXDXDXDXDXDXDXDXDXDXDXDXDXDXDXDXDXDXDXDXDXDXDXKXKXKXKXGXGXGXKXKXKXKXKXKXKXKXKXKX",
"DXLXDXDXDXDXDXDXDXDXDXDXDXDXDXDXDXDXDXDXDXDXDXDXMXDXKXKXKXGXGXGXGXGXGXGXGXGXGXGXGXGXGXGXGXGXGXGXGXGXKXKXGXKXKXKXDXDXDXDXDXDXDXDXLXDXLXMXLXDXLXLXDXVXI.T.T.T.E.E.Y.Y.Y.G.G.rXeXiXhXhXkXkXhXcXhXhXdXhXjXhXfXfXjXlXfXdXfXlXyXuXKXR O > > 1 O =XBXqXdXnXL.. ( NXlX*X@X#XW ! T > ; l < l C 6XNXNXzXxXjXdXdXlXxXjXjXjXjXlXjXdXlXdXxXNXlXvXxXlXNXfXjXdXdXdXqXdX1X7XjXdXjXjXdXlX6X7XyX6X6X6XqX6X3X7X7X3X1X6XfXlXiX3X>X%X>XyXfXyX<XlX! . > O > O O &X6X=X>X1X>X>X<X>X>X1X3X1X7X3X1X3X=X<X=X$X=X&X&X&X>X>X<X>X$XL. X>X^ $X&X^ > X . > $X X$X/ L.@X/ @X@XD + . X . l ^ 2 . > ! R R R T R P O +     + / R T S P J D P S O ; O 1 T A J J J S T P ; * + A E ! 1 , ! W < W / 1 Z S ! C  X=X&X>X-XBXDXLXLXDXAXDXDXDXDXDXDXDXDXDXDXDXDXDXDXDXDXDXDXDXDXKXKXKXKXKXGXGXGXGXGXGXGXGXGXGXGXGXGXGXGXGXGXGXGXGXGXGXGXGXKXKXDXDXDXDXDXMXDXDXDXDXDXDXDXDXDX",
"MXMXMXMXMXMXMXMXMXMXMXMXMXMXMXMXMXMXMXMXMXMXMXMXMXMXDXKXGXGXGXGXGXGXGXGXGXGXGXGXGXGXGXGXGXGXGXGXGXGXGXGXGXGXKXDXMXMXMXMXMXMXMXMXAXMXMXMXNXAXAXAXBXmXK.T.G.T.E.E.Y.Y.Y.G.G.rXeXuXhXhXkXkXhXfXhXhXhXhXhXhXfXdXfXfXhXdXjXjXyXxXqX* > 2 < + C vXhXiXlXfXo > zXxX6XnXnXMXnXCXNXqX/ * 1 1 C S dXNXfXlXjXzXlXdXfXxXxXfXjXlXwXxXfXdXlX=X-X<X-X$X! 3XwX7XdX4XhX7XyXxXwX7X3X4XwX&X1XfX4X7XyX6X1X2XqX6X2X6XyXfX&XA > O . . . + C 1XlX$X. O > @ 3 O A yX1X<X<X2X&X<X<X$X<X&XL.^ W R J 1 -X&X&X&X%X>X&X<XZ 1 < 2 * . ^ $X&X$X&X< . , + < &X X X@XL.L.@XL.C   O * > R @X#XA . O / R ! P R ! < . ; ; o 1 R A S S D R Z W > + > + 1 J D S J D S R 1 O > > T R R * C L.Z C ^ R < b S @XC @X&X-X=X=XBXBXNXMXMXMXMXMXMXMXMXMXMXMXMXMXMXMXMXMXMXMXMXMXMXMXMXDXKXGXGXGXGXGXGXGXGXGXGXGXGXGXGXGXGXGXGXGXGXGXGXGXGXGXGXKXDXMXMXMXMXMXMXMXMXMXMXMXMXMXMXMX",
"MXMXMXMXMXMXMXMXMXMXMXMXMXMXMXMXMXMXMXMXMXMXMXMXMXMXDXKXGXGXGXGXGXGXGXGXGXGXGXGXGXGXGXGXGXGXGXGXGXGXGXGXGXGXKXDXMXMXMXMXMXMXMXMXAXMXNXMXBXAXAXAXBXVXW.R.G.T.E.E.Y.Y.Y.G.G.rXeXuXhXhXkXkXhXfXhXhXhXfXfXhXjXfXfXfXdXlXjXdXjXNXD O 2 2 > . 7XnXqXhXVXS . $XDX3XgXgXyXyXjXdX6XCXBX@X; 1 l 1 1 7XvXqXzXzXlXhXhXjXlXjXfXhXjXxXfXvXP > > > ; o l lXdXzXdXuX7XyXxXD , o o + O ; 3XqXqXyX7X<XdXjX<X2XfXqX$X* . + o . + ; > X . , 7Xb . ; + 2   2 1X<X:X:X>X1X>X:X:X3X:X, . X . . . A <X=X>X&X&X&X3XS . . . O . 1 1X@X&X#X@X+ +   . R &X^  X X X#X/ < . O O O J #XR ! < O > / P ( T ! T   O + + + ! P P R J S J T C + b * + < J J S J J T A + ; ; b W W Z + S / < S L.A 1 1 T @Xb Q  X-X&X&XZXNXNXDXMXLXLXMXMXMXMXMXMXMXMXMXMXMXMXMXMXMXMXMXMXMXMXLXKXGXGXGXGXGXGXGXGXGXGXGXGXGXGXGXGXGXGXGXGXGXGXGXGXGXGXHXDXMXMXMXDXMXMXMXMXMXMXMXMXMXMXMX",
"MXMXMXMXMXMXMXMXMXMXMXMXMXMXMXMXMXMXMXMXMXMXMXMXLXMXDXKXGXGXGXGXGXGXGXGXGXGXGXGXGXGXGXGXGXGXGXGXGXGXGXGXGXGXKXDXMXMXMXMXMXMXMXMXAXMXNXNXNXAXAXLXBXVXW.R.G.T.E.E.T.Y.Y.G.G.rXeXuXhXhXkXkXhXfXhXhXhXfXfXjXjXhXhXjXdXlXfXyXnX7X* , 2 2 + F NXjXuXzXiXX 1 NX6XfXnXdXxX7XjXxXqX6XzXnXS ; b A b C xXxXjXdXdXxXxXfXfXxXlXjXxXyXjX7X, l C 1 b < dXlXqX3X3XjX6XxX$X. * > , > . / vX3XyX7XdX3X7X3X3XzX2X1 .   > O . C <X4X6XzX/ .   + + O O 3 @ W dX<X2X<X-X<X:X=X2X3XS . + ; +   , 6X&X&X&X$X&X&X&XO   2 + + ; %X=X X X>XW . >   > #X@X X&XE #X#X> . > + . L.@X/ ^ ! * . b / P ( ( ( 1   > O   1 / S P S J J S T O C A + O , T S J S R J , + ; ; D W P > 1 ! P < ! ^ l 1 b ^  XA K  X-X=X%XFXNXNXDXMXDXDXMXMXMXMXMXMXMXMXMXMXMXMXMXMXMXMXMXMXMXMXDXKXGXGXGXGXGXGXGXGXGXGXGXGXGXGXGXGXGXGXGXGXGXGXGXGXGXGXKXDXMXMXDXDXDXDXMXMXMXMXMXMXMXMXMX",
"MXMXMXMXMXMXMXMXMXMXMXMXMXMXMXMXMXMXMXMXMXMXMXMXMXMXMXKXGXGXGXGXGXGXGXGXGXGXGXGXGXGXGXGXGXGXGXGXGXGXGXGXGXGXKXDXMXMXMXMXMXMXMXAXLXLXMXMXMXLXLXLXBXVXI.T.T.T.E.E.T.Y.Y.G.G.rXeXpXdXhXkXkXhXfXhXhXjXjXjXjXfXdXdXfXlXlXyXdXBXT o < > , > 6XzXqXfXnXA . 1XNXqXgX6XgXfXjXjXdXxXjXqXNX&X, b l A >  XNXfXlXlXjXhXlXlXhXjXlXdXxXxX1 C C C b + $XxXwXdXdXfXqXdX3XO > < ; ; * C xXqX4X6X6X3XdX1X6XxX/   X + < .   &XxX7X3X1X6XyX2 + + O + > . 1 yX=X2X:X:X1X<X:X-X7X( . ; ;   ; O  X2X&X&X&X<X#X<X1 . >   * . S &X@X&X@X=XC   * O l $X X@X/ =X@X2   + * . A @X/ ! ^ T .   S ^ E ( ( S . + O + O ( P S R P S S W 1 X ! C O * > R A P D R C O > O < P R C X S L.A l ^ / < 1 b #X@XL.Q =X=X&X%XFXNXNXDXMXMXMXMXMXMXMXMXMXMXMXMXMXMXMXMXMXMXMXMXMXMXMXMXKXGXGXGXGXGXGXGXGXGXGXGXGXGXGXGXGXGXGXGXGXGXGXGXGXGXGXGXDXMXMXMXMXMXMXMXMXMXMXMXMXMXMXMX",
"MXMXMXMXMXMXMXMXMXMXMXMXMXMXMXMXMXMXMXMXMXMXMXMXMXMXLXKXGXGXGXGXGXGXGXGXGXGXGXGXGXGXGXGXGXGXGXGXGXGXGXGXGXGXGXMXMXMXMXMXMXMXMXAXLXMXCXCXCXBXLXLXMXVXI.R.T.T.E.E.Y.Y.Y.G.G.rXeXuXuXhXkXkXhXfXhXhXjXjXhXfXfXfXfXfXfXhXdXxX3XO 2 2 , * A CXqXfXxX=X. R nX7XzXfXzXlXdXdXhXfXfXdXdXxXqX> C C Z C C lXlXjXhXjXhXjXzXdXxXfXjXNXD 1 Z b C < b NXiXqXwXiXdXqXxXD X > > > ; * lX6X6XiX2XiX4XqXyXlXA . > + ;   , 5XhX4X>X7X3X<XgX2 +   2 + 3 . &X6X%X3X>X1X>X1X=X7X<X  X + O > . P 3X&X1X&X-X@X<X#X. > + + + ; =X&X%X#X@X>X1   + O  X$X@X@X^ &X1   + + O > @X^ ! ^ ^ + . 2 ^ ! T E ( >   + >   1 R E S S T P P S X Z W < O ; + R S D E S O ; + * b W S   C W / 2 J / J < < A @X@X X&X%X%X>X-XBXBXNXMXMXMXAXMXMXMXMXMXMXMXMXMXMXMXMXMXMXMXMXMXMXMXMXDXKXGXGXGXGXGXGXGXGXGXGXGXGXGXGXGXGXGXGXGXGXGXGXGXGXGXGXGXDXMXMXMXMXMXMXMXMXMXMXMXMXMXMXMX",
"MXMXMXMXMXMXMXMXMXMXMXMXMXMXMXMXMXMXMXMXMXMXMXMXMXMXLXKXGXGXGXGXGXGXGXGXGXGXGXGXGXGXGXGXGXGXGXGXGXGXGXGXGXGXGXMXMXMXMXMXMXMXMXAXLXAXCXCXCXBXLXLXMXVXI.R.T.Y.E.R.Y.Y.Y.G.G.rXeXuXuXhXkXkXhXfXhXhXjXjXhXfXfXfXfXfXuXlX6XNXE O 2 > < ; yXjXyXjXCXb o 3XBXBXvXlXdXfXjXfXfXfXhXhXdXxXjX< l C C A l 3XxXxXiXhXzXiXhXzXfXdXKXT 1 J 1 C l > 3XlXuXuXqXuX4XnX#XX < > 3 2 . #XyX6XfX6X4XqX7X6XdXC   2 O > . ; 4X6X4X:X4X4X<XdX@X  O >   > . S 6X>X4X<X1X=X3X=X:X6X1 . , O > . 1 <X=X>X=X&X%X=X>X* @ + 3 > . Q =X$X@X$X$X&X> ; . , =X#X^ @X&XA   + + O   ( @X! / @X1   + S W E E @X2 . > + O O E E P S R S P T X < R S 2 * + , J P F ! , + > > * W J X > ! W P , ! / S , < P @X X X%X%X%X-X-XBXBXBXMXMXMXLXMXMXMXMXMXMXMXMXMXMXMXMXMXMXMXMXMXMXMXMXDXKXGXGXGXGXGXGXGXGXGXGXGXGXGXGXGXGXGXGXGXGXGXGXGXGXGXGXGXDXMXDXMXMXMXMXMXMXMXMXMXMXMXMXMX",
"MXMXMXMXMXMXMXMXMXMXMXMXMXMXMXMXMXMXMXMXMXMXMXMXMXMXDXKXGXGXGXGXGXGXGXGXGXGXGXGXGXGXGXGXGXGXGXGXGXGXGXGXGXGXGXMXMXMXMXMXMXMXMXAXLXAXCXCXCXBXLXLXMXVXI.R.T.Y.E.E.Y.Y.Y.G.G.rXeXuXuXdXkXkXhXfXhXhXjXhXhXfXfXfXfXfXfXdXgXfX+ ; 2 2 * D DXfXdXxX&X. L.FX&XF > +   ! xXhXfXdXjXjXdXlXxXl 1 C l S 1 $XnXfXfXlXjXzXlXuXdXDX@X< Z C C C >  XNXyXuXyXhX7XhXhX+ ; * 2 2 O C zXqX6X7XyXqX<XdXfX1 . 3 O >   > :XfX4X2X4X1X4X4XdX>   + 3 O O + 8X3X8X1X=X:X2X=X<XqXA X O + O + . #X2X=X&X-X&X$X7XZ . + + >   , :X&X$X@X&X@X=X2 . +  X&X/ @X#XE     O >   1 *X/ ^ @XA   . F  X! S ^ S . O + + O 2 ! S T T J S W , O E P P * ; + , T D T C + * > + < Z O 2 / P ! C l ^ / C > l / @XL. X#X%X=X-X-XVXBXBXMXMXMXAXMXMXMXMXMXMXMXMXMXMXMXMXMXMXMXMXMXMXMXMXDXKXGXGXGXGXGXGXGXGXGXGXGXGXGXGXGXGXGXGXGXGXGXGXGXGXGXGXGXLXMXDXMXMXMXMXMXMXMXMXMXMXMXMXMX",
"MXMXMXMXMXMXMXMXMXMXMXMXMXMXMXMXMXMXMXMXMXMXMXMXMXMXDXKXGXGXGXGXGXGXGXGXGXGXGXGXGXGXGXGXGXGXGXGXGXGXGXGXGXGXGXMXMXMXMXMXMXMXMXAXLXAXCXCXCXBXLXLXMXVXI.R.T.Y.E.E.Y.Y.Y.G.G.rXeXuXuXdXkXkXhXfXhXhXhXhXfXfXfXfXfXfXjXyXNX(   2 2 > O 6XlXyXxXfX> ; &X< . X > b A =XzXhXfXdXjXjXdXlXdX1 l C l D 1 @XNXqXzXhXfXvXuXzXnX1Xl Z D C C 1 F PXyXyXyXqXiXiXnXC X < 3 2 > + 6XyXyX6X1XiX4XdXhXb . > ; + + O >XgX1X1X5X2XqX>XfXW . + + + > . ! yX9X7X>X>X1X1X&XyX X. + ;   + . S 1X$X>X$X-X%X2X@X. + + 3 +   @X=X$X$X#X&X X=X> . l #X$X@X@X&Xb   + . O + ^ ^ ^ @XS . . C  X! ( E / O   > O O + J E S T E A ! Z X S R D E   + + ; T D R + > * * * * + 1 R E E ! < J ! ! , < Z  X XL.@X#X%X-X-X>XVXBXNXMXMXMXLXMXMXMXMXMXMXMXMXMXMXMXMXMXMXMXMXMXMXMXMXDXKXGXGXGXGXGXGXGXGXGXGXGXGXGXGXGXGXGXGXGXGXGXGXGXGXGXGXGXLXMXDXMXMXMXMXMXMXMXMXMXMXMXMXMX",
"MXMXMXMXMXMXMXMXMXMXMXMXMXMXMXMXMXMXMXMXMXMXMXMXMXMXDXKXGXGXGXGXGXGXGXGXGXGXGXGXGXGXGXGXGXGXGXGXGXGXGXGXGXGXGXMXMXMXMXMXMXMXMXAXLXLXCXCXCXBXLXLXBXVXI.R.T.Y.T.T.Y.Y.Y.G.G.rXeXuXuXdXkXkXhXfXhXhXfXfXhXhXfXfXfXfXfXxXfX+ > 2 2 O S BXdX2XBX@Xo , . X / qXvXNXnXzXjXfXhXdXfXfXdXxX6X2 l C Z C 1 @XnXhXlXhXhXfXuXBXqXb D A C Z C < 3XxX7XcXyXdX4XnX&XX 2 > 2 2 . L.xX5X6X6XwX2X6XxXE . , + ; > .  XgX3X1X5X3X2X<XdX&XX ; + + ; . l 7X8X1X>X1X5X1X%XuX%XX + + O 3 @ > 1X>X&X=X>X#X:X<X> . + + + . F 3X X$X$X$X@X&X/ X + ! &X^ L.#XE . O > > . C #X X@XC .   C  X! R E ^ 1 . + O ; O 2 ! E E J P T R X l R A R A O * + > T P , < , * + 2 2 Z ! T J R D < ! ! P > < S  XL.L.#X#X%X>X-X:XBXBXNXMXMXMXAXMXMXMXMXMXMXMXMXMXMXMXMXMXMXMXMXMXMXMXMXDXKXGXGXGXGXGXGXGXGXGXGXGXGXGXGXGXGXGXGXGXGXGXGXGXGXGXGXGXDXMXDXMXMXMXMXMXMXMXMXMXMXMXMXMX",
"MXMXMXMXMXMXMXMXMXMXMXMXMXMXMXMXMXMXMXMXMXMXMXMXMXMXDXKXGXGXGXGXGXGXGXGXGXGXGXGXGXGXGXGXGXGXGXGXGXGXGXGXGXGXGXMXMXMXMXMXMXMXMXAXLXLXCXCXCXBXLXLXBXVXI.R.T.Y.T.T.Y.Y.Y.G.G.rXeXuXuXdXkXkXhXfXhXhXfXhXhXjXfXfXfXfXdXNX^   1 > > + yXzXdXxXfX> O ; S xXKXxXdXdXlXjXfXdXhXdXfXfXdXvX<X, l b D C 1 @XnXjXfXxXdXxXNX-XD Z D A A C 1 ^ nX7XlXyXqXuXxX5X* < > , > O 1 lX6X6X6X6XqX6XnX/ . > * X , . T gX<XyX1X6X6X1X3XlX> . > + > O . >X6X:X1X:X:X1X=XqX2X> . > @ + +   @X8X&X&X&X<X&X3XC . + * +   3 $X=X@X&X$X@X@X2X< .   C &X$X@X#XX O   +   + #X#X! , . O R L.! R R ^ D O + + +   + S T E E J T E > ; S T D T C * ; + , ! C O S > * + > R ! D J ! E < C ! ^ C < < R L.L.L.#X#X%X>X-X:XZXBXNXMXDXAXAXMXMXMXMXMXMXMXMXMXMXMXMXMXMXMXMXMXMXMXMXDXKXGXGXGXGXGXGXGXGXGXGXGXGXGXGXGXGXGXGXGXGXGXGXGXGXGXGXGXDXMXDXMXMXMXMXMXMXMXMXMXMXMXMXMX",
"MXMXMXMXMXMXMXMXMXMXMXMXMXMXMXMXMXMXMXMXMXMXMXMXMXMXDXKXGXGXGXGXGXGXGXGXGXGXGXGXGXGXGXGXGXGXGXGXGXGXGXGXGXGXGXMXMXMXMXMXMXMXMXAXLXLXCXCXCXBXLXLXBXVXI.R.T.Y.T.T.Y.Y.Y.G.G.rXeXuXhXhXkXkXhXfXhXhXhXhXjXjXjXfXfXfXlXdX, > 2 > + T NX6XfXNXT . > ! NXzX7XfXdXdXlX6XfXfXhXfXfXfXfXnX^ 2 b C A Z l =XnXuXjXzXhXnX6Xb l S S Z D Z C lXfXyXlX6XyXiXxXC X 1 > > , O 6XjX7XqXqX6X3XjX<X  + + + ,   , gX6X3X2X7X4X7X>XvXT . > X + > . S yX<X<X>X5X>X>X>XqXC . > O + > . C 6X&X>X$X&X=X<XW . + O > +   E <X@X%X%X$X@X%X@XX + l . 1 &X>XD . >   > O S @X1 . . < @X/ ! R  XT ! + O + O > . < ^ S P J T E l   J A R T S l + ; O l E + l D + ; * 2 W S T E D W , T W ! < 1 < ^ /  X X#X#X%X-X-X:XZXBXNXMXDXAXAXMXMXMXMXMXMXMXMXMXMXMXMXMXMXMXMXMXMXMXMXDXKXGXGXGXGXGXGXGXGXGXGXGXGXGXGXGXGXGXGXGXGXGXGXGXGXGXGXGXDXMXDXMXMXMXMXMXMXMXMXMXMXMXMXMX",
"MXMXMXMXMXMXMXMXMXMXMXMXMXMXMXMXMXMXMXMXMXMXMXMXMXMXDXKXGXGXGXGXGXGXGXGXGXGXGXGXGXGXGXGXGXGXGXGXGXGXGXGXGXGXGXMXMXMXMXMXMXMXMXAXLXLXCXCXCXBXLXLXLXVXQ.R.T.Y.T.T.Y.Y.Y.G.G.rXeXuXhXhXkXkXhXfXhXhXfXjXjXjXjXfXfXfXNX$X  b + 2 + 4XxXdXxX3XX + P DXdXqXxXyXjXfXdXxXhXfXhXfXfXjXhXnXA 2 C C C Z C 7XvXhXzXqXNXhXl C T b D A C , 1XxXyXlXqXdXzXlX$Xo l ; > 2   W xX6XyX5XyX6XqXjXO O > > > ;   >XdX2X3XqX2X3X:XxX$X. * > O + +   4X3X>X2X2X>X2X1XuXI . * O > + @ + <X&X<X>X<X&X<X$X. O + >   O + &X>X%X%X#X$X$X1Xb . J 1XC . . A * O + ; O O   . . 2 / #X/ / / ! P @X2   +   +   + S ( E T E E E   1 R J P D ! > O >   J 1 X ! C X >   A E J T J ^ < 1 ^ ! J < 2 l @X! @X X@X#X#X-X>X<XZXBXNXMXDXAXAXMXMXMXMXMXMXMXMXMXMXMXMXMXMXMXMXMXMXMXMXDXKXGXGXGXGXGXGXGXGXGXGXGXGXGXGXGXGXGXGXGXGXGXGXGXGXGXGXGXDXMXDXMXMXMXMXMXMXMXMXMXMXMXMXMX",
"MXMXMXMXMXMXMXMXMXMXMXMXMXMXMXMXMXMXMXMXMXMXMXMXMXMXDXKXGXGXGXGXGXGXGXGXGXGXGXGXGXGXGXGXGXGXGXGXGXGXGXGXGXGXGXMXMXMXMXMXMXMXMXAXLXAXCXCXCXBXLXLXAXVXI.R.T.Y.T.T.T.Y.Y.G.G.rXeXiXhXhXkXkXhXfXhXhXfXfXjXfXfXjXfXgXNXb * 2 , + S NXyXyXZXP . b nXfXfXfXfXfXfXfXfXfXuXzXiXlXyXdXxXjX> l C l S b C xXlXjXhXxXfXb A *XC D Z J 1 P vXdXyXdXfX6XlXdX> > , > 1 O 2 lXdX7X6X6X6X3XxX1   > + + > . D xX3X6X5X3XqX:XdX<XO   > O ; + X ^ yX:X:X3X>X<X1X1X@X. ; + O + + . W 6X&X<X&X&X<X1X>   + + O > . / -X$X#X&X=X@X=X/ . > &X$X&XJ O .   +   2 . O > F ^ @X^ @X( ^ ! R @XD . 2 O O > . 2 ! E S R E E X > R T J D W Z * > + > F   A W 1 O ; O A T J T J R + T T ^ C > < S @X X/ L. X@X%X=X>X:XZXBXNXMXMXMXAXMXMXMXMXMXMXMXMXMXMXMXMXMXMXMXMXMXMXMXMXDXKXGXGXGXGXGXGXGXGXGXGXGXGXGXGXGXGXGXGXGXGXGXGXGXGXGXGXGXMXMXMXMXMXMXMXMXMXMXMXMXMXMXMXMX",
"MXMXMXMXMXMXMXMXMXMXMXMXMXMXMXMXMXMXMXMXMXMXMXMXMXMXDXKXGXGXGXGXGXGXGXGXGXGXGXGXGXGXGXGXGXGXGXGXGXGXGXGXGXGXGXMXMXMXMXMXMXMXMXAXLXAXCXCXCXBXLXLXAXVXI.R.T.Y.T.T.Y.Y.Y.G.G.rXeXiXhXhXkXkXfXfXhXhXfXfXhXhXfXgXyXNX<X. 2 1 ; + 6XxXfXxX3X* O $XnXdXfXfXfXfXfXfXfXfXlXuXxXuXlXyXnX@X> l 1 Z l b R NXjXqXnXuX< A lXJ Z R Z C l dXxXjXlX7XfXjXlXC O 2 1 + > O >XnX4XqX7XqX1XNXT . + O ; * O > iXqX1X1X2XqX>X6XzX+   > O > * X > yX<X1X5X&XyX&X6X&X    O > + + . < wX&X<X$X=X<X3XC + O O O , . 2 <X&X$X&X$X@X&X&XX . L.&X X@X>X#X> O + + O + / @X$X@X^ ^ / / ^ /  XP . F 2 + O + O A R S T T E l + A W A T D S P + ; + , ; 1 E J , + > > D R A T @X> l / R W 1 2 < / <X%XL. X@X#X%X=X-X:XZXBXNXMXMXMXAXMXMXMXMXMXMXMXMXMXMXMXMXMXMXMXMXMXMXMXMXDXKXGXGXGXGXGXGXGXGXGXGXGXGXGXGXGXGXGXGXGXGXGXGXGXGXGXGXGXMXMXDXMXMXMXMXMXMXMXMXMXMXMXMXMX",
"MXMXMXMXMXMXMXMXMXMXMXMXMXMXMXMXMXMXMXMXMXMXMXMXMXMXDXKXGXGXGXGXGXGXGXGXGXGXGXGXGXGXGXGXGXGXGXGXGXGXGXGXGXGXGXMXMXMXMXMXMXMXMXAXLXAXCXCXCXBXLXLXAXVXI.R.T.Y.T.T.Y.Y.Y.G.G.rXeXiXpXhXkXhXfXfXhXhXhXfXfXjXfXfXyXNXD O 1 2 O A NXdXyXnXb O > NXdXfXfXfXfXfXfXfXfXfXhXjXhXuXlXfXNX1 , C b C C 1 1XNXlXlX4X1 Z ZXR b A D D b $XvXyXwXhXuX6XnXS + 1 > 2 2 O S vX3X3XqX6XfXzX^ . > > + + > . L.xX2X1XqX6X>X6XzX<   > O + + +   @XuX-X4X5X1X%XfX&X  . 3 +   + + . &X7X&X&X7X$X2X/ . O O + @ +   L.1X$X&X&X*X%X:X, . A =X$X@X^ &X X. O * > . 2 &X@X@X/ / ^ R @XR  XR . 1 E   O O   > / T R S / A . C R D D R J J C X * ; + * R T D , * * O A W P W 1 + T T R W < 1 < @X<X:X X X#X#X=X%X-X:XZXBXNXMXMXAXLXMXMXMXMXMXMXMXMXMXMXMXMXMXMXMXMXMXMXMXMXDXKXGXGXGXGXGXGXGXGXGXGXGXGXGXGXGXGXGXGXGXGXGXGXGXGXGXGXGXDXMXDXMXMXMXMXMXMXMXMXMXMXMXMXMX",
"MXMXMXMXMXMXMXMXMXMXMXMXMXMXMXMXMXMXMXMXMXMXMXMXMXMXDXKXGXGXGXGXGXGXGXGXGXGXGXGXGXGXGXGXGXGXGXGXGXGXGXGXGXGXGXMXMXMXMXMXMXMXMXAXLXAXCXCXCXBXLXLXLXVXI.R.T.Y.T.E.Y.Y.Y.G.G.rXeXuXpXhXkXhXfXfXfXhXhXfXfXhXdXdXxXwXO < > * + 6XxXyXnX&XX O W nXdXfXfXfXfXfXfXfXfXfXuXlXwXjXyXNX-X* 1 C < C A C lXdXNX<X; K BXyXb A J Z C J xXhXlXjX3XlXDXW + 2 1 > > 2 2 yXfX5XuXqX4XfX&X    , O > > O , yX1X4X4XqX2X3XxXA . + O > + +   1 jX:X2X1X5X&XqX2X  . 2 + >   +   Z dX$X<X:X#X7X#X. +   + + + . C 3X%X$X&X&X X5XS . 2 >X$XL.&X#X%XA . + + +   S $XE / /  X^ ^ R ^ / + O @XC . + +   1 / E E E A . C / J J R J S W * * * O * A R A T , + > + S W R A X D / T W A + > l &X1X:X XL.@X#X=X=X>X:XZXBXNXMXLXAXLXMXMXMXMXMXMXMXMXMXMXMXMXMXMXMXMXMXMXMXMXDXKXGXGXGXGXGXGXGXGXGXGXGXGXGXGXGXGXGXGXGXGXGXGXGXGXGXGXGXDXMXDXMXMXMXMXMXMXMXMXMXMXMXMXMX",
"MXMXMXMXMXMXMXMXMXMXMXMXMXMXMXMXMXMXMXMXMXMXMXMXMXMXDXKXGXGXGXGXGXGXGXGXGXGXGXGXGXGXGXGXGXGXGXGXGXGXGXGXGXGXGXMXMXMXMXMXMXMXMXAXLXLXCXCXCXBXBXLXLXVXI.R.T.Y.T.T.T.Y.Y.G.G.rXeXpXfXhXkXhXhXfXhXhXhXhXhXfXdXdXNX! O 1 2 + F NXyXdXNX, + O =XxXdXfXfXfXfXfXfXfXfXfXjXqXhXjXjXxX1 < 1 C 1 C > %XDXNX X> L.zXFXA A J J A C 1XvXjXdXqXxXvX X. 1 , > 2 1   / xX3XfX4X4XNX#X. + 2 O O > > . $XdX4X7X4X:X<XxX/   , > + + + > X $X6X<X4X>X=XyX7X. + ^   + O >   O 2X<X:X&X%X3X&X. + 2 + + O > . ^ <X@X&X#X@X3XE X X $X&X@X#X@X@X>X1 O ; + O O @X@X^ @X^ ^ ! ! @X^ +   / ^ + O + O O S T E / D . 2 W T J T T Z J J O , + O A E A A R < X < * < 1 , . C P T R W l < b P $X<X=XL.L.@X#X=X=X>X:XZXBXNXMXMXMXAXMXMXMXMXMXMXMXMXMXMXMXMXMXMXMXMXMXMXMXMXDXKXGXGXGXGXGXGXGXGXGXGXGXGXGXGXGXGXGXGXGXGXGXGXGXGXGXGXGXDXMXDXMXMXMXMXMXMXMXMXMXMXMXMXMX",
"MXMXMXMXMXMXMXMXMXMXMXMXMXMXMXMXMXMXMXMXMXMXMXMXMXMXDXKXGXGXGXGXGXGXGXGXGXGXGXGXGXGXGXGXGXGXGXGXGXGXGXGXGXGXGXMXMXMXMXMXMXMXMXAXLXLXCXCXCXBXBXLXLXVXI.R.T.Y.T.T.T.Y.Y.G.G.rXeXpXhXhXkXhXhXfXhXhXfXhXhXfXdXjXxX2 2 1 2 O <XxX6XNX X. S + <XNX6XlXfXfXfXfXfXfXfXfXlXqXfXzXnX! ; l C > A l l KXBXW * *XxXBX4Xb A C D b ^ vXjXdX6XxXnXQ . ! l > 2 2 > , 6XdX7X2XuXzX1X. 2 S + > > > + + jX6XqX4X1XqXzX X  < @X  3 + 3   C fX<X2X1X1XwX4XX . <XF . + O > . ( yX$X<X=X1X2X. . @X* + O 3   1 <X&X$X$X=X<X Xo . @X&X#X@X&XL. X&XO O * + O + @X^ @X^ / ^ @X@X/   . P / ! . 3 O   > ^ W W A X > ! > > E J J P W < O O * C T A J S S D X + > O + + 1 ! T R J E D W ! W L.1X%XL. X@X#X=X=X-X:XZXBXNXMXMXMXAXMXMXMXMXMXMXMXMXMXMXMXMXMXMXMXMXMXMXMXMXDXKXGXGXGXGXGXGXGXGXGXGXGXGXGXGXGXGXGXGXGXGXGXGXGXGXGXGXGXDXMXDXMXMXMXMXMXMXMXMXMXMXMXMXMX",
"MXMXMXMXMXMXMXMXMXMXMXMXMXMXMXMXMXMXMXMXMXMXMXMXMXMXDXKXGXGXGXGXGXGXGXGXGXGXGXGXGXGXGXGXGXGXGXGXGXGXGXGXGXGXGXMXMXMXMXMXMXMXMXAXLXLXCXCXCXBXBXLXLXVXI.R.T.Y.T.T.T.Y.Y.G.G.rXeXpXhXhXkXkXhXfXhXhXfXhXfXhXdXxX3X+ , 2 + b NXfXxXxXo b 7X. yXlXfXfXfXfXfXfXfXfXfXfXfXjXuXxX<X> < l < A < , xXxXC + &XZXfXnXL.A D P S C 7XzXfXfXvXnXW . =XqX> < > 2   @XzXqXfX6XzX2Xo . NXS . > + 3   T jX7X5X1X4XuX4X. + zXC   + 3 > . $XdX2X<X2X2X7X* . &X&X. 3 3 >   2 7X<X>X-X:X2Xo . %X^     3 > . / 1X%X&X&X&X#X+ . ^ 1X$X^ &X@X@X%X=X* O + X > + @X@X^ / ^ @X^ /   . T @X! P   > + O 2 / ( A     ! C + . Z W J T A O + + C R D A R J A R 1 O + + > 1 ! D T R R W W W ! E ! 1X XL.@X@X@X=X=X-X:XZXBXNXMXMXMXAXMXMXMXMXMXMXMXMXMXMXMXMXMXMXMXMXMXMXMXMXDXKXGXGXGXGXGXGXGXGXGXGXGXGXGXGXGXGXGXGXGXGXGXGXGXGXGXGXGXMXMXMXMXMXMXMXMXMXMXMXMXMXMXMXMX",
"MXMXMXMXMXMXMXMXMXMXMXMXMXMXMXMXMXMXMXMXMXMXMXMXMXMXDXKXGXGXGXGXGXGXGXGXGXGXGXGXGXGXGXGXGXGXGXGXGXGXGXGXGXGXGXMXMXMXMXMXMXMXMXAXLXLXCXCXCXBXLXLXLXVXI.R.T.Y.T.T.Y.Y.T.G.G.rXeXpXhXhXkXkXfXfXhXhXfXhXuXhXdXNX@X+ < , X >XNX6XnXP . jXyX. 6XxXjXuXfXfXfXfXfXfXfXfXdXfXxXjX1 2 < b l b , >X6X* 2 yXBXfXlXvXI Z S J Z ! xXjXjXvXdXZ o  XHXT ; 1 1 , > 6XgX7XqXBX X. + 7XxXO + + > > @ $XdX3X6X<XzX-X. o yX6X  O + > @ > yX2X1X5XwX>X+ . @XPXC . + 3 +   ^ 4X=X=X6X%X+ X ^ lX1 . + + O O <X&X#X=X2XL.. . L.<X X$X&X#X$X#X@X&X< X + * O   ^ $X@X*X@X/ 1 . O /  X( ! T   O + O O 1 1 . * E R E . + * A S b   X > Z ! A S P D S S S E C 1 A S W T E T E R R W S / / T / / / @X@X@X=X-X-X:XZXBXNXMXMXMXAXMXMXMXMXMXMXMXMXMXMXMXMXMXMXMXMXMXMXMXMXDXKXGXGXGXGXGXGXGXGXGXGXGXGXGXGXGXGXGXGXGXGXGXGXGXGXGXGXGXMXMXMXMXMXMXMXMXMXMXMXMXMXMXMXMX",
"MXMXMXMXMXMXMXMXMXMXMXMXMXMXMXMXMXMXMXMXMXMXMXMXDXMXDXKXGXGXGXGXGXGXGXGXGXGXGXGXGXGXGXGXGXGXGXGXGXGXGXGXKXGXGXMXMXMXMXMXMXMXMXAXLXAXCXCXCXBXLXLXMXVXQ.T.T.T.E.E.T.T.Y.G.G.rXpXuXhXhXhXhXgXfXhXhXdXhXjXdXdXvX XO < > > fXhXCXL.. R FX1X. 7XxXdXjXfXdXdXhXfXdXfXlXdXxXxXC + 1 2 1 1 , T P * D lXNXzXiXzXxXC J S J l &XDXxXvX2X; < =XKXyXl , 2 < , C nXyXvXfXT X < qXNX>X> + + + + + 1XzX1XdXxX/ . o 3XzX@X  + + +   A dX&XfXqX^ . . @XwX4X;   > O   2 6X<XyX3X! X . / 6X<X>   O +   1 3X<X1X@X< . . ^ <X#X#X&X#X#X$X#X X>XA . > + O X > A E A >   . 1 /  X/ W ! ! *   O > O . X > T T R T b O . X . X * l J R J A J K S S S S J J T I P P P P P T T R R W W W ! / ^ L. X@X#X%X=X-X<XZXBXCXNXMXMXAXMXMXMXMXMXMXMXMXMXMXMXMXMXMXMXMXMXDXLXMXMXKXGXGXGXGXGXGXGXGXGXGXGXGXGXGXGXGXGXGXGXGXGXGXGXGXGXGXGXLXMXDXMXMXMXLXMXMXMXMXMXMXMXMXMX",
"MXMXMXMXMXMXMXMXMXMXMXMXMXMXMXMXMXMXMXMXMXMXMXMXMXMXMXKXGXGXGXGXGXGXGXGXGXGXGXGXGXGXGXGXGXGXGXGXGXGXGXGXGXGXGXDXMXMXMXMXMXMXMXAXLXAXCXCXCXBXLXLXLXVXQ.R.T.T.E.E.T.T.Y.G.G.rXwXuXfXhXhXhXgXfXfXhXlXdXjXjXyXnXR > l * Z nXNX>X. < jXxXNXO W FX7XfXfXjXjXdXdXlXfX7XxXxXb + Z > 1 < Z C + , =XNXxXdXdXdXxXlXP D J D D J &X$XC ; C 7XvX7XjX1 l 2 1 > , dXdX$X+ . D lXdX6X6X. > > + > + #XjXfX=XC   > dX3X6X$X. > + + . F lXfX$X<   . >XgX4X<X    + > + + &X7X@X1   . $X4X&X<X> + > >     P T A O . O  X=X&X@X$X&X@X$X^ &X X$X@X> . + > + O   . . . + J ! ^ / W ! / / C + . . X > Z ! E P P E P Z l l l Z J P K D S J K K S S S S J J P P P J P P T T T R R W W W ! / ^ L. X@X#X%X=X-X:XZXBXNXMXMXMXMXMXMXMXMXMXMXMXMXMXMXMXMXMXMXMXMXMXDXLXMXLXKXGXGXGXGXGXGXGXGXGXGXGXGXGXGXGXGXGXGXGXGXGXGXGXGXGXGXGXMXMXDXMXMXMXMXMXMXMXMXMXMXMXMXMX",
"MXMXMXMXMXMXMXMXMXMXMXMXMXMXMXMXMXMXMXMXMXMXMXMXMXMXMXKXGXGXGXGXGXGXGXGXGXGXGXGXGXGXGXGXGXGXGXGXGXGXGXGXHXGXGXLXMXMXMXMXMXMXMXAXLXAXCXCXCXBXLXLXLXVXQ.R.T.T.E.E.T.T.Y.G.G.rXwXuXfXhXhXjXgXfXfXhXjXfXlXfXyXBX@XX 1 + C NX<XO . 1XnXqXvXQ . zXNX7XyXyXdXhXdXwXxXDX6X> < > ; b 2 b > + J dXnXgXdXjXfXhXxXvX$Xl A T D Z C < , @XnXxXdXfXnXC o l 1 , > > O . X &XNX6XqX3XvXC . > > + O O , > . . P yXyX2XdX<X. > > X O O < < . . C dXwX%X=XdX> X >   * + ; + . . < <X7X=X&XqXA . + O < O O . . . C &X<X=X#X#X$X#X@X&X&X#X@X@X$X X,   . . . . X > Z W @X X/ ! ! / ! W ^ S C Z S P E R E P J T R R T J T R R T J S S J S S K K S S J J J J J J P T T R T R R W W W ! / ^ L. X@X#X%X=X-X>XBXBXNXMXMXMXMXMXMXMXMXMXMXMXMXMXMXMXMXMXMXMXMXMXDXDXMXMXKXGXGXGXGXGXGXGXGXGXGXGXGXGXGXGXGXGXGXGXGXGXGXGXGXGXGXGXMXMXDXMXMXMXMXMXMXMXMXMXMXMXMXMX",
"MXMXMXMXMXMXMXMXMXMXMXMXMXMXMXMXMXMXMXMXMXMXMXMXDXMXMXKXGXGXGXGXGXGXGXGXGXGXGXGXGXGXGXGXGXGXGXGXGXGXGXGXGXGXHXMXMXMXMXMXMXMXMXAXLXAXCXCXCXBXLXLXMXVXQ.R.T.T.E.E.T.T.Y.G.G.rXwXuXfXhXhXjXgXfXfXhXdXfXlXuXdXxXzX; ; C O , X . @XBXwXfXfXvX. b vXDXxXxXfXdXnXBXwXL.+ + , 1 < l C O b -XnXxXdXgXlXlXxXfXdXvXlX^ C l C l b @XqXjXzXyXgXdXjX3X* + , > >   + ! jXjX3XdXqXqXdX$X. O * O ; O   . > &XxX3X1X7X3XqXl . . > ; O . . + @X3X3X<X3X6X3X^ X . O . X . . O  XyX1X$X1X&X=X1X< . . . . .   l P &X<X@X#X$X$X#X@X#X$X#X/ &X#X/ &X#XP C C Z S W  X@X@X/ / / / / ! W R ^ ! ! ^ ! W R P P T T P J J P P T J A D J P J S S S K S J J K K J J J J P T T T T R R W W W ! / ^ L. X@X#X%X=X-X>XZXBXBXMXMXMXAXMXMXMXMXMXMXMXMXMXMXMXMXMXMXMXMXMXDXMXMXMXKXGXGXGXGXGXGXGXGXGXGXGXGXGXGXGXGXGXGXGXGXGXGXGXGXGXGXGXMXMXMXMXMXLXMXMXMXMXMXMXMXMXMXMX",
"MXMXMXMXMXMXMXMXMXMXMXMXMXMXMXMXMXMXMXMXMXMXMXMXDXMXDXKXGXGXGXGXGXGXGXGXGXGXGXGXGXGXGXGXGXGXGXGXGXGXGXGXGXGXKXMXMXMXMXMXMXMXMXMXLXAXCXCXCXBXLXLXMXVXQ.R.T.T.E.E.T.T.T.G.G.rXpXpXfXhXhXjXgXfXfXhXhXfXfXfXjX7XNX>X+ . > O X @XvXdXfXuXhXNX&X. > #XhXfXlXhX-XS > O > b , , > . < #XxXNXjXqXzXlXdXxXdXjXjXjXNXBXwX2X&X6XlXvXNXxXuXfXwXfXdXvX3XC < l b ! wXjXwX6XqXyX7X6XqXfX=X1 O   X + <  XjXfX3XyX7X6X:XfX4Xl . O   . 1 L.6XdX6X1X1X1X&X=XlX^ > o + > < / iX1X&X<X=X<X=X=X&X<X! F A A E $X3X<X>X#X&X$X$X$X#X%X$X@X#X@X@X@X@X@X@X&X$X$X$X#X@X@XL./ ^ / / ^ / ! ! / R R R E J P R R J T T J S S J P J J J J J J J J S S K K J J K K J J J P P I T T T R R W W W ! / ^ L. X@X#X%X=X-X-XBXBXNXMXMXMXAXMXMXMXMXMXMXMXMXMXMXMXMXMXMXMXMXMXMXMXMXMXKXGXGXGXGXGXGXGXGXGXGXGXGXGXGXGXGXGXGXGXGXGXGXGXGXGXGXGXDXMXMXMXMXLXMXMXMXMXMXMXMXMXMXMX",
"MXMXMXMXMXMXMXMXMXMXMXMXMXMXMXMXMXMXMXMXMXMXMXMXDXDXDXKXGXGXGXGXGXGXGXGXGXGXGXGXGXGXGXGXGXGXGXGXGXKXGXGXGXGXKXDXMXMXMXMXMXMXMXLXLXLXCXCXMXBXLXLXLXVXQ.R.T.T.E.E.T.T.T.G.G.rXpXpXfXjXhXjXgXfXfXhXjXlXdXdXxXdXyXNX2XP A D 2XKXfXjXjXuXyXyXBX#XO . . O * o O * > ; * ; O > D =XzXNXxXyXjXzXyXgXxXqXfXxXxXyX7XxXfXnXNXxXvXjXqXuXdXjXjXyXfXwXlXxXNXxXvXvXlX7XyXfXqX7XdX3XqXyXxXyX7XyX1XlXxXgXyX2X<X6X4X6X3X>XfXfX3X1X<X6XxXdX6X<X1X<X7X<X2X7X1X5X6X5X3X2XyX6X2X&X<X&X&X=X<X%X&X5X<X3X7X1X>X>X&X#X$X%X&X$X#X$X$X$X$X$X$X&X X X&X@X/ ^  X XL.^ ^ L. X XL.^ / / / ! ! ! W W W W T E R J T T P J P T P J J P I P J S S K S S J K K K J J J J J P P P I I T R R W W W ! / ^ L. X@X#X%X%X=X=XBXBXBXMXMXAXDXMXMXMXMXMXMXMXMXMXMXMXMXMXMXMXMXLXMXMXMXDXKXGXGXGXGXGXGXGXGXGXGXGXGXGXGXGXGXGXGXGXGXGXGXGXGXGXGXKXDXDXDXMXMXDXMXMXMXMXMXMXMXMXMXMX",
"KXKXKXKXKXKXKXKXKXKXKXKXKXKXKXKXKXKXKXKXKXKXKXKXKXKXKXKXKXKXKXKXKXKXKXKXKXKXKXKXKXKXKXKXKXKXKXKXKXKXKXKXDXKXKXKXKXKXKXKXKXKXKXKXKXKXDXDXKXKXKXKXKXZXQ.R.T.T.E.E.T.Y.T.G.U.rXpXpXfXjXhXjXgXfXfXhXdXzXfXyXlXxX6XjXxXnXnXNXjXdXfXdXyXxXjXyXfXKXqX^ l > + * + X O > < P @X7XxXNXfXjXyXdXgXjXjXlXxXxXjXdXfXxXxXxXfXjXfXwXlXjXyXlXzXwXyXjXdXqXjXjX2XqXqX2X7XfX3X7XdXqXyX3XyX7X<XfXfXqXdX3X7X4X1X7XyX1X4X4X6X3X3X4X7X4XyX2X<X1X2X<X3X3X&X3X1X:X<X<X>X1X1X:X&X#X<X:X:X:X3X X>X>X&X*X=X$X*X&X>X%X#X$X%X%X@X#X$X$X$X@X#X&X^ @X&X#X X@X#X X@X XL.L. X XL.^ / / / ! / / ! R ! R T E T R W E R T J P T P J S J J S K J K S D K K S S S K J J J J J P P I I I T R R W W W ! / ^ L. X@X#X%X%X=X&XBXDXKXKXKXKXKXKXKXKXKXKXKXKXKXKXKXKXKXKXKXKXKXKXKXKXKXKXKXKXKXKXKXKXKXKXKXKXKXKXKXKXKXKXKXKXKXKXKXKXKXKXKXKXKXKXKXKXKXKXKXKXKXKXKXKXKXKXKXKXKXKX",
"GXGXGXGXGXGXGXGXGXGXGXGXGXGXGXGXGXGXGXGXGXGXGXGXGXGXGXKXMXMXMXMXMXMXMXMXMXMXMXMXMXMXMXMXMXMXMXMXDXMXMXMXMXMXKXKXGXGXGXGXGXGXGXGXHXGXHXFXHXHXHXHXGXKXQ.R.T.Y.E.E.T.Y.E.G.U.rXpXhXfXhXhXjXgXfXfXhXfXdXlXjXdXqXvXwXdXhX6XjXfXyXjXdXjXdXjXjXqXdXxXnXlXdXqX3X1X<X3XyXzXLXxXvXfXqXfXdXjXzXfXdXlXjXdXfXlXlXfXlXhXdXxXdXlXjXhXlXlXfXfXdXdXjXhXyXdXqXdXdXyXjX7XwXdXyX7XqXqXqXyX6XdX7X3X3X7X6X6X7X6X7X7X7X3XqX>X6X3X<X6X2X<X2X2X3X<X1X3X1X4X:X5X:X5X:X1X>X:X=X<X<X=X:X>X>X$X5X%X:X&X>X$X=X&X%X&X&X%X=X$X%X$X&X&X#X$X$X$X#X&X@X@X@X@X@XL.@X X X X XL./ ^  X^ L.L./ ! / ! ! W R W W T T E P T T T T P S J T J J P J S S J P J K S S S S J J S J J P P I T T T R R W W W ! / ^ L. X@X#X%X=X=X%XBXFXHXGXGXGXGXGXGXGXGXGXGXGXGXGXGXGXGXGXGXGXGXGXGXGXGXGXKXLXMXMXMXMXMXMXMXMXMXMXMXMXMXMXMXMXMXMXMXMXMXMXMXMXMXKXKXGXGXGXGXGXGXGXGXGXGXGXGXGXGXGX",
"GXGXGXGXGXGXGXGXGXGXGXGXGXGXGXGXGXGXGXGXGXGXGXGXGXGXGXKXMXMXMXMXMXMXMXMXMXMXMXMXMXMXMXMXMXMXMXMXMXMXMXMXDXMXMXGXGXGXGXGXGXGXGXGXGXGXHXKXHXHXGXGXGXFXQ.R.Y.T.E.E.T.Y.Y.G.G.rXpXpXhXjXjXjXgXfXfXfXjXjXhXfXfXfXfXhXfXfXfXfXfXfXfXfXfXfXfXfXfXfXfXfXhXjXlXxXxXxXxXxXdXdXdXdXfXfXfXfXfXfXfXhXhXhXhXjXjXjXjXjXjXjXjXjXjXjXjXjXjXjXfXfXfXfXdXuXuXuXuXyXyXyXyXiXiXqXqXqXqXqXqXqXqX6X6X6X6X6X7X7X4X4X7X7X3X4X4X4X4X3X3X3X5X5X2X2X2X1X1X1X1X<X<X<X<X<X<X<X<X:X:X:X>X>X>X>X>X>X>X=X=X=X=X&X&X&X&X&X%X%X%X%X%X%X$X$X$X$X#X#X@X@X@X@X@X@X@X@X X X XL.L.L.^ ^ ^ ^ / / / ! ! ! R R R R R R T T P T T T T T P J J Q S J P D P K D J J S D K J S J J J P P I T T T R R Q W W ~ / ^ L. X@X#X%X%X=X%XnXHXFXGXGXGXGXGXGXGXGXGXGXGXGXGXGXGXGXGXGXGXGXGXGXGXGXGXKXMXMXMXMXMXMXMXMXMXMXMXMXMXMXMXMXMXMXMXMXMXMXMXMXMXMXMXGXGXGXGXGXGXGXGXGXGXGXGXGXGXGXGX",
"GXGXGXGXGXGXGXGXGXGXGXGXGXGXGXGXGXGXGXGXGXGXGXGXGXGXGXKXMXMXMXMXMXMXMXMXMXMXMXMXMXMXMXMXMXMXMXMXMXMXMXMXDXMXMXGXGXGXGXGXGXGXGXGXGXGXHXKXHXHXGXGXGXFXQ.R.Y.T.E.E.T.Y.T.G.G.rXpXpXhXjXkXjXgXfXfXfXhXjXhXfXfXfXfXhXfXfXfXfXfXfXfXfXfXfXfXfXfXfXfXfXyXuXdXdXdXdXuXuXdXdXfXfXfXfXfXfXfXfXfXhXhXhXhXlXjXjXjXjXjXjXjXjXjXjXjXjXjXjXfXfXfXfXdXuXuXuXuXuXyXyXyXiXiXqXqXqXqXqXqXqXqX6X6X6X6X6X7X7X7X4X7X7X3X4X4X4X4X3X3X3X5X5X2X2X2X1X1X1X1X1X<X<X<X<X<X<X:X:X:X:X>X>X>X>X>X>X>X=X=X=X=X&X&X&X&X&X%X%X%X%X$X%X$X$X$X$X#X#X@X@X@X@X@X@X@X@X X X X X X XL.^ ^ ^ / / / ! ! ! ! W R T T T T E T P J P P S J J P A P S J J A J J J J K S K K S J J J P P I T T T R R R W W ~ / ^ L. X@X#X%X%X=X%XnXHXHXGXGXGXGXGXGXGXGXGXGXGXGXGXGXGXGXGXGXGXGXGXGXGXGXGXKXMXMXMXMXMXMXMXMXMXMXMXMXMXMXMXMXMXMXMXMXMXMXMXMXMXMXMXGXGXGXGXGXGXGXGXGXGXGXGXGXGXGXGX",
"GXGXGXGXGXGXGXGXGXGXGXGXGXGXGXGXGXGXGXGXGXGXGXGXGXGXGXKXMXMXMXMXMXMXMXMXMXMXMXMXMXMXMXMXMXMXMXMXMXMXMXMXDXMXMXGXGXGXGXGXGXGXGXGXGXGXHXKXHXHXHXGXGXFXQ.R.Y.Y.E.E.T.T.T.G.G.rXpXhXfXhXkXjXgXfXfXfXhXjXhXfXfXfXfXhXfXfXfXfXfXfXfXfXfXfXfXfXfXfXfXfXjXjXhXfXfXfXfXfXfXfXfXfXfXfXfXfXfXfXfXhXhXhXhXlXjXjXjXjXjXjXjXjXjXjXjXjXjXjXfXdXfXfXdXuXuXuXyXuXyXyXyXiXiXqXqXqXqXqX6X6X6X6X6X6X7X7X6X7X6X7X4X4X3X4X4X4X4X3X3X3X5X5X2X2X2X1X1X1X1X1X<X<X<X<X<X<X:X:X:X>X>X>X>X>X>X>X>X=X=X=X=X&X=X&X&X&X%X%X%X%X$X$X$X$X$X$X#X#X#X#X@X@X@X@X@X@X X X XL.L.L.^ ^ ^ ^ / / / ! ! ! W W W W R R T T T P P T T J J T I D Q D J T P P S S D S K K J J J J J P P I T T T R R Q W W ~ / ^ L. X@X#X%X%X=X%XnXHXHXGXGXGXGXGXGXGXGXGXGXGXGXGXGXGXGXGXGXGXGXGXGXGXGXGXKXMXMXMXMXMXMXMXMXMXMXMXMXMXMXMXMXMXMXMXMXMXMXMXMXMXMXMXGXGXGXGXGXGXGXGXGXGXGXGXGXGXGXGX",
"GXGXGXGXGXGXGXGXGXGXGXGXGXGXGXGXGXGXGXGXGXGXGXGXGXGXGXKXMXMXMXMXMXMXMXMXMXMXMXMXMXMXMXMXMXMXMXMXMXMXMXMXDXMXMXGXGXGXGXGXGXGXGXGXGXGXHXKXHXHXHXGXGXFXQ.R.Y.Y.E.T.T.T.T.G.G.rXpXfXfXhXkXjXgXfXfXfXhXjXhXfXfXfXfXhXfXfXfXfXfXfXfXfXfXfXfXfXfXfXfXfXhXhXfXfXfXfXhXjXfXfXfXfXfXfXfXfXfXfXfXhXhXhXhXlXjXjXjXjXjXjXjXjXjXjXjXjXjXjXfXdXfXfXdXuXuXuXuXuXyXyXyXiXiXqXqXqXqXqX6X6X6X6X6X7X7X7X6X6X6X7X4X4X4X4X4X4X4X3X3X3X5X5X2X2X2X1X1X1X1X1X<X<X<X<X<X<X:X:X:X>X>X>X>X>X>X>X>X=X=X=X=X&X=X&X&X&X%X%X%X%X$X$X$X$X$X$X#X#X#X#X@X@X@X@X X X@X X XL.L.^ ^ ^ ^ ^ / / / ! ! ! R R R R E T T P J J P T T P J J J S S J P Z T D K D D S J J J J J J J P P I T T T R R W W W ~ / ^ L. X@X#X%X%X%X%XnXHXHXGXGXGXGXGXGXGXGXGXGXGXGXGXGXGXGXGXGXGXGXGXGXGXGXGXKXMXMXMXMXMXMXMXMXMXMXMXMXMXMXMXMXMXMXMXMXMXMXMXMXMXMXMXGXGXGXGXGXGXGXGXGXGXGXGXGXGXGXGX",
"GXGXGXGXGXGXGXGXGXGXGXGXGXGXGXGXGXGXGXGXGXGXGXGXGXGXGXKXMXMXMXMXMXMXMXMXMXMXMXMXMXMXMXMXMXMXMXMXMXMXMXMXDXMXDXGXGXGXGXGXGXGXGXGXGXGXHXKXHXGXHXHXGXKXQ.R.Y.Y.E.T.T.T.Y.G.G.rXpXuXfXhXkXjXgXfXfXfXjXjXhXfXfXfXfXhXfXfXfXfXfXfXfXfXfXfXfXfXfXfXfXfXdXdXdXdXfXfXdXdXfXfXfXfXfXfXfXfXfXfXfXhXhXhXhXlXjXjXjXjXjXjXjXjXjXjXjXhXjXjXfXfXdXuXuXuXuXuXiXiXiXiXiXiXyXqXqXqXqXqXqXqXqXqX7X7X4X4XqXqX4X4X4X4X3X4X4X4X3X3X3X3X2X2X2X2X2X2X1X1X2X1X1X1X1X1X1X1X:X:X:X:X:X:X:X:X>X-X-X-X=X=X=X=X=X=X&X&X&X%X%X%X$X$X$X$X$X$X$X#X#X#X@X@X@X@X X X@X@X X X X XL.^ ^ ^ / / / ! ! ! ! ! W T T E R E T R R P J T T J J T J A A Z T D P J J J J J K J J J J P P I T T T R R Q W W ~ / ^ L. X@X#X%X=X%X%XnXHXHXGXGXGXGXGXGXGXGXGXGXGXGXGXGXGXGXGXGXGXGXGXGXGXGXGXKXMXMXMXMXMXMXMXMXMXMXMXMXMXMXMXMXMXMXMXMXMXMXMXMXMXMXMXGXGXGXGXGXGXGXGXGXGXGXGXGXGXGXGX",
"GXGXGXGXGXGXGXGXGXGXGXGXGXGXGXGXGXGXGXGXGXGXGXGXGXGXGXKXMXMXMXMXMXMXMXMXMXMXMXMXMXMXMXMXMXMXMXMXMXMXMXMXDXMXDXGXGXGXGXGXGXGXGXGXGXGXHXFXHXGXHXHXGXKXQ.R.Y.Y.E.T.T.T.Y.G.G.rXpXuXfXhXkXjXgXfXfXfXjXjXhXfXfXfXfXhXfXfXfXfXfXfXfXfXfXfXfXfXfXfXfXfXfXhXjXjXjXhXfXfXfXfXfXfXfXfXfXfXfXfXfXhXhXhXhXjXjXjXjXjXjXjXjXjXjXjXjXjXjXjXfXfXdXuXuXuXuXuXiXiXiXiXiXiXyXqXqXqXqXqXqXqXqXqX7X7X4X4XqX4X4X4X4X4X3X4X4X4X3X3X3X3X2X2X2X2X2X2X1X1X1X1X1X1X1X1X1X1X<X:X:X:X:X>X>X>X>X-X-X-X=X=X=X=X=X=X=X&X&X%X%X%X%X$X$X$X$X$X$X#X#X@X@X@X@X@X@X X XL.L.L.L.L.L.^ ^ ^ / / / ! ! ! R W W R R R T J P P P S S P P P J Z W #X%X/ C P D S K S S J J J J J J J P I T T T R R Q W W ~ / ^ L. X@X#X%X=X=X%XnXHXHXGXGXGXGXGXGXGXGXGXGXGXGXGXGXGXGXGXGXGXGXGXGXGXGXGXKXMXMXMXMXMXMXMXMXMXMXMXMXMXMXMXMXMXMXMXMXMXMXMXMXMXMXMXGXGXGXGXGXGXGXGXGXGXGXGXGXGXGXGX",
"GXGXGXGXGXGXGXGXGXGXGXGXGXGXGXGXGXGXGXGXGXGXGXGXGXGXGXKXMXMXMXMXMXMXMXMXMXMXMXMXMXMXMXMXMXMXMXMXMXMXMXMXDXMXDXGXGXGXGXGXGXGXGXGXGXGXHXFXHXHXHXHXGXKXQ.R.Y.Y.E.T.T.T.Y.G.G.rXwXuXfXgXkXjXgXfXfXfXjXjXhXfXfXfXfXhXfXfXfXfXfXfXfXfXfXfXfXfXfXfXfXfXfXfXfXfXdXdXdXdXfXfXfXfXfXfXfXfXfXfXfXhXhXhXhXjXlXlXjXjXjXjXjXjXjXjXhXjXhXhXfXfXdXuXuXuXuXuXiXiXiXiXiXiXyXqXqXqXqXqXqXqXqXqX7X7X6X6X4X4X4X4X4X4X3X4X4X4X3X3X3X3X2X2X2X2X2X2X1X1X1X1X1X1X<X<X1X1X<X<X<X:X:X:X:X-X-X-X-X-X=X=X=X=X=X=X=X&X&X%X%X&X&X$X$X$X$X$X#X#X@X@X@X@X@X@X@X@X X X XL.L.L.^ ^ ^ ^ / / / ! ! W T R R T T R E P W E E W R S D D P 2XqX=X<XxX@XC A J P S D J P J J J J J P I T T T R R Q W W ~ / ^ L. X@X#X%X=X%X%XnXHXHXGXGXGXGXGXGXGXGXGXGXGXGXGXGXGXGXGXGXGXGXGXGXGXGXGXKXMXMXMXMXMXMXMXMXMXMXMXMXMXMXMXMXMXMXMXMXMXMXMXMXMXMXMXGXGXGXGXGXGXGXGXGXGXGXGXGXGXGXGX",
"GXGXGXGXGXGXGXGXGXGXGXGXGXGXGXGXGXGXGXGXGXGXGXGXGXGXGXKXMXMXMXMXMXMXMXMXMXMXMXMXMXMXMXMXMXMXMXMXMXMXMXMXDXMXDXGXGXGXGXGXGXGXGXGXGXGXHXFXHXHXHXHXGXKXQ.R.G.Y.E.T.Y.T.Y.G.G.rXeXuXhXhXkXjXgXfXfXfXhXjXhXfXfXfXfXhXfXfXfXfXfXfXfXfXfXfXfXfXfXfXfXfXjXfXfXdXdXfXhXhXfXfXfXfXfXfXfXfXfXfXfXhXhXhXhXlXlXjXjXjXjXjXjXjXjXjXhXhXhXhXfXfXdXuXuXuXuXuXiXiXiXiXiXiXyXqXqXqXqXqXqXqXqXqX7X7XqX6X4X4X4X4X4X4X3X4X4X4X3X3X3X3X5X5X2X2X2X2X1X1X1X1X1X<X<X<X<X1X<X<X<X<X:X:X-X-X-X-X-X-X=X=X=X=X=X=X=X&X&X%X&X&X&X%X$X$X$X$X#X#X@X@X@X@X@X@X@X@X#X#X@X@X X XL.^ ^ ^ / / / ! ! W @X@X/ T E ^ #X%X<X&X&X1X&X/ J J 3XwXS < 1 P J J P W ! P D J J S J J J P P I T T T R R Q W W ~ / / L. X@X#X%X%X%X%XnXHXHXGXGXGXGXGXGXGXGXGXGXGXGXGXGXGXGXGXGXGXGXGXGXGXGXGXKXMXMXMXMXMXMXMXMXMXMXMXMXMXMXMXMXMXMXMXMXMXMXMXMXMXMXMXGXGXGXGXGXGXGXGXGXGXGXGXGXGXGXGX",
"GXGXGXGXGXGXGXGXGXGXGXGXGXGXGXGXGXGXGXGXGXGXGXGXGXGXGXKXMXMXMXMXMXMXMXMXMXMXMXMXMXMXMXMXMXMXMXMXMXMXMXMXDXMXDXGXGXGXGXGXGXGXGXGXHXGXHXHXHXGXHXHXGXKXQ.R.Y.Y.T.T.T.Y.Y.G.G.rXpXiXhXhXkXjXfXfXfXhXhXjXgXfXfXfXfXjXfXfXfXfXfXfXfXfXfXfXfXfXfXfXfXfXfXfXfXfXfXfXfXfXfXfXfXfXfXfXfXfXfXfXfXfXhXhXlXlXjXlXjXfXzXfXxXjXfXyXlXfXdXxXlXyXdXuXfXhXuXwXuXuXzX7XwXhXqXqXdXiXqXiX1XuXqXqXqX4X7XiX4XqXwX6XwX2X4X2X5X5X6X6X1X2X5X4X1X<X4X5X=X1X2XwX2XqX4X=X<X2X1X:X2X-X>X:X1X1X<X1X1X<X<X>X=X=X=X&X&X&X&X&X%X%X%X&X%X$X&X#X@X&X&X X$X$X@X X$X/ R R T D D  X&X XL./ ^ @XL.^ ! / #X#X^ J T L.%X%X! J E &X2X$XA R 4XqX=X%X~ S I b #XL.Q W K K K J J J J P P I T T T R R W W W ! / ^ L. X@X#X%X=X=X&XvXHXHXGXGXGXGXGXGXGXGXGXGXGXGXGXGXGXGXGXGXGXGXGXGXGXGXGXKXMXMXMXMXMXMXMXMXMXMXMXMXMXMXMXMXMXMXMXMXMXMXMXMXMXMXMXGXGXGXGXGXGXGXGXGXGXGXGXGXGXGXGX",
"GXGXGXGXGXGXGXGXGXGXGXGXGXGXGXGXGXGXGXGXGXGXGXGXGXGXGXKXMXMXMXMXMXMXMXMXMXMXMXMXMXMXMXMXMXMXMXMXMXMXMXMXDXMXDXGXGXGXGXGXGXGXGXGXHXGXHXKXHXGXHXGXGXKXQ.R.Y.Y.T.T.T.Y.Y.G.G.rXpXuXhXhXkXjXfXfXfXhXhXjXfXfXfXfXfXjXfXfXfXfXfXfXfXfXfXfXfXfXfXfXfXfXfXfXfXfXfXfXfXfXfXfXfXfXfXfXfXfXfXfXfXfXfXhXlXlXlXNXFXHXKXlXjXdXxXHXFXlXfXfXyXxXxXhXdXdXuXuXuXiX4XzXuX3XdXdX4XqXwXqXqXuX7X5X6XwXuXqX7X<X-X2XwXdXwXqX7X1X1X5X3X7X3X<X4X7X:X2XqXqX<X$X X@X1XiX1X<X-X=X:X<X7X:X=X=X&X#X X*XL.@X5X%X=X&X&X&X&X&X%X%X%X XW Q ^ / W ! W ! #X@X@X@X@Xb ; < D W W ^ @XL.^ / ^ #X X^ W R T T R R W L.#X@XD l W <X3XJ D P <X1XdXhXzXuXL.A =X XQ ~ J K D J J J J P P I T T T R R W W W ! / ^ L. X@X#X%X=X-X&XvXHXHXGXGXGXGXGXGXGXGXGXGXGXGXGXGXGXGXGXGXGXGXGXGXGXGXGXKXMXMXMXMXMXMXMXMXMXMXMXMXMXMXMXMXMXMXMXMXMXMXMXMXMXMXMXGXGXGXGXGXGXGXGXGXGXGXGXGXGXGXGX",
"GXGXGXGXGXGXGXGXGXGXGXGXGXGXGXGXGXGXGXGXGXGXGXGXGXGXGXKXMXMXMXMXMXMXMXMXMXMXMXMXMXMXMXMXMXMXMXMXMXMXMXMXDXMXMXGXGXGXGXGXGXGXGXGXHXGXHXHXHXGXHXHXGXKXQ.R.Y.Y.T.T.T.Y.Y.G.G.rXpXiXhXhXkXjXfXfXfXhXhXjXfXfXfXfXfXgXfXfXfXfXfXfXfXfXfXfXfXfXfXfXfXfXfXfXfXfXfXfXfXfXfXfXfXfXfXfXfXfXfXfXfXfXfXhXjXlXjXBXHXHXKXfXlXxXDXHXCXjXlXlXyXxXVXzXuXiXuXdXdXqX>X%X&X4XuXqXqXhX%X&XqX6X4XiXqX7X#XK I W Q T I  X1X5X7X4X1X5X7X5X2X1X4X5X1X2X=XQ b K I b l Z L.4X2X1X>X=X:XP < , > b < C l A -X$X=X&X&X&X&X&X%X%X%X~ J Q  X*X@X^ A D / @X#X#X#XA 1 Z / $X@XL. X^ ^ / L.%X@X@X/ ~ L.W W W E L.&X=X$X$X&X3X^ D R D T :X<X1XuXfX:XD -XL.R ~ J K D I J J J P P I T T T R R W W W ! / ^ L. X@X#X%X=X-X=XvXHXHXGXGXGXGXGXGXGXGXGXGXGXGXGXGXGXGXGXGXGXGXGXGXGXGXGXKXMXMXMXMXMXMXMXMXMXMXMXMXMXMXMXMXMXMXMXMXMXMXMXMXMXMXMXGXGXGXGXGXGXGXGXGXGXGXGXGXGXGXGX",
"GXGXGXGXGXGXGXGXGXGXGXGXGXGXGXGXGXGXGXGXGXGXGXGXGXGXGXKXMXMXMXMXMXMXMXMXMXMXMXMXMXMXMXMXMXMXMXMXMXMXMXMXMXMXMXGXGXGXGXGXGXGXGXGXHXGXHXHXHXGXHXHXGXKXQ.R.Y.Y.T.T.T.Y.Y.G.G.rXpXiXhXhXkXhXfXfXfXhXhXjXfXfXfXfXfXgXfXfXfXfXfXfXfXfXfXfXfXfXfXfXfXfXfXfXfXfXfXfXfXfXfXfXfXfXfXfXfXfXfXfXfXfXfXhXjXlXfXCXHXZXBXzXNXFXHXjXyXfXjXlXjXxXZXvXuXiXuXdXdXqX%X=X#X*X1XqXwXdX@X@XfX5X7XdX=X~ Z L.7XdXdXiX#XI :X<X5X6X3X3X7X1X2X4X1X1XqX#XD , I 2XqX7X@X< l Z =X2X:X:X3XI < l ! 6X1X<X1X=X:X=X=X&X&X&X&X&X%X%X&X~ Q L.#X=X%X XT R  X#X@XL.#XP < C P R P !  X/ L./ ^ #X@X@X^ ^ @XW W T D / -X>X@X-X<X>XD D R S Z Z C 1 #XvX&XD %XL.Q W K K K J J J J P P I T T T R R W W W ! / ^ L.L.@X#X%X=X-X=XnXHXHXGXGXGXGXGXGXGXGXGXGXGXGXGXGXGXGXGXGXGXGXGXGXGXGXGXKXMXMXMXMXMXMXMXMXMXMXMXMXMXMXMXMXMXMXMXMXMXMXMXMXMXMXMXGXGXGXGXGXGXGXGXGXGXGXGXGXGXGXGX",
"GXGXGXGXGXGXGXGXGXGXGXGXGXGXGXGXGXGXGXGXGXGXGXGXGXGXGXKXMXMXMXMXMXMXMXMXMXMXMXMXMXMXMXMXMXMXMXMXMXMXMXMXDXMXDXGXGXGXGXGXGXGXGXGXHXGXHXFXHXGXHXHXGXKXQ.R.Y.Y.T.T.T.Y.Y.G.G.rXpXiXhXhXkXhXfXcXfXhXhXjXfXfXfXfXfXgXfXfXfXfXfXfXfXfXfXfXfXfXfXfXfXfXfXfXfXfXfXfXfXfXfXfXfXfXfXfXfXfXfXfXfXfXfXhXhXlXfXDXHXKXHXBXFXHXHXlXfXjXdXdXfXxXZXvXdXuXuXuXuXqX1X=X-X%X X:XhXhX&X#XjX7XqXwX~ A K <XiX4X2XqXhXqXqX6X2X4X4X1X7X5X4X1X<X4X2XA l A >XqX<X6X4XD Z l L.2X<X-X1XK , 1 J >X-X@X=X=X%X=X=X&X&X&X&X&X%X$X=XL.~ L.L.L.^ R P / @X@X X@X$XC < C T W Q L.#X XL./ / @X^ ^ W W R T ! W T @X1X-XD T 2X7X&XJ S W :X^ W / 7XdXW C L.^ W W D J J S J J J P P I T T T R R W W W ! / ^ L.L.@X#X%X=X-X-XnXHXHXGXGXGXGXGXGXGXGXGXGXGXGXGXGXGXGXGXGXGXGXGXGXGXGXGXKXMXMXMXMXMXMXMXMXMXMXMXMXMXMXMXMXMXMXMXMXMXMXMXMXMXMXMXGXGXGXGXGXGXGXGXGXGXGXGXGXGXGXGX",
"GXGXGXGXGXGXGXGXGXGXGXGXGXGXGXGXGXGXGXGXGXGXGXGXGXGXGXKXMXMXMXMXMXMXMXMXMXMXMXMXMXMXMXMXMXMXMXMXMXMXMXMXDXMXDXGXGXGXGXGXGXGXGXGXHXGXHXHXHXGXHXHXGXKXQ.R.Y.Y.E.T.T.Y.Y.G.G.rXpXiXhXhXkXhXfXcXfXhXhXjXfXfXfXfXfXgXfXfXfXfXfXfXfXfXfXfXfXfXfXfXfXfXfXfXfXfXfXfXfXfXfXfXfXfXfXfXfXfXfXfXfXfXfXhXjXlXdXMXHXFXHXKXFXHXKXKXnXdXjXjXyXxXBXxXhXdXuXuXuXwX=XiX:X@X&XL. XvX%X XuXqXqX4XQ Q ~ 2X4XqXwX1X7XuX2XwX1X4X7X1X4X3X5X<X7X3X@X1 A A 2X1X:X<X7XI l l I <X:X>X3XI l b l b 1 l / <X:X*X=X&X&X&X&X&X%X$X%XL.~ ^ L. X X XS J T L.@X@X&XA < C ^ $X X^ / ! ^ / ^ #X XL.W ! W R W P J @X1X>XT J $X7X7X@XD W =X7X1X3X=XT D A J T T P A P P K J J J P P I T T T R R W W W ! / ^ L.L.@X#X%X=X-X>XnXHXHXGXGXGXHXGXGXGXGXGXGXGXGXGXGXGXGXGXGXGXGXGXGXGXGXGXKXMXMXMXMXMXMXMXMXMXMXMXMXMXMXMXMXMXMXMXMXMXMXMXMXMXMXMXGXGXGXGXGXGXGXGXGXGXGXGXGXGXGXGX",
"GXGXGXGXGXGXGXGXGXGXGXGXGXGXGXGXGXGXGXGXGXGXGXGXGXGXGXKXMXMXMXMXMXMXMXMXMXMXMXMXMXMXMXMXMXMXMXMXMXMXMXMXDXMXDXGXGXGXGXGXGXGXGXGXHXGXHXHXHXGXHXHXGXFXQ.R.Y.Y.E.T.T.Y.Y.G.G.rXpXiXhXhXkXhXfXcXfXhXhXjXgXfXfXfXfXgXfXfXfXfXfXfXfXfXfXfXfXfXfXfXfXfXfXfXfXfXfXfXfXfXfXfXfXfXfXfXfXfXhXhXfXfXfXhXlXlXdXCXKXZXHXxXnXHXKXHXNXdXjXzXdXxXVXxXhXdXuXuXuXwX=XzXkX=X@X^ ^ %X@X#XiXqXqX2XJ Q S 2XqX1XiX4XL.T ^ 4X5X4XqX1X5X2X2X2X6X1X@Xb A < 3X2X:X>XqXT b l W 1X:X-X2XK < < I <X4X<X>X&X-X>X=X&X&X&X&X&X%X%X%XL.Q ~ *X&X&X&XW S S  X$X^ #XA < C ! @X X X@XL./ / L.%X@X XL. X=X$X@XW W @X>X>XT J D / / L.J J C A W D Z D A T A D D J A P P J J J J P P I T T T R R W W W ! / ^ L. X@X#X%X-X-X:XnXHXHXGXGXGXHXGXGXGXGXGXGXGXGXGXGXGXGXGXGXGXGXGXGXGXGXGXKXMXMXMXMXMXMXMXMXMXMXMXMXMXMXMXMXMXMXMXMXMXMXMXMXMXMXMXGXGXGXGXGXGXGXGXGXGXGXGXGXGXGXGX",
"GXGXGXGXGXGXGXGXGXGXGXGXGXGXGXGXGXGXGXGXGXGXGXGXGXGXGXKXMXMXMXMXMXMXMXMXMXMXMXMXMXMXMXMXMXMXMXMXMXMXMXMXDXMXDXGXGXGXGXGXGXGXGXGXHXGXHXHXHXGXHXHXGXKXQ.R.Y.Y.E.T.T.Y.Y.G.G.rXpXiXhXhXkXhXfXcXfXhXhXjXfXfXfXfXfXgXfXfXfXfXfXfXfXfXfXfXfXfXfXfXfXfXfXfXfXfXfXfXfXfXfXfXfXfXfXfXfXfXfXfXfXfXfXhXlXlXjXZXHXHXFXyXfXKXHXKXKXnXyXdXlXxXBXxXhXdXuXuXuXwX-XqXhXwX1X@X^  XQ %XwX7XwXdXQ I J 1XuX1XiX<XD A A 4X6X5X7X1X5X2X5X5X1X4X2XC b C =XuX<X3XqXZ b ,  X4X:X:X4XI l l J 6X&X$X3X&X$X=X=X&X&X&X&X&X%X%X=XL.K I @X#XL./ S P R @X#XL.$XC < b Z C A L.&X@X^ / ^ @X^ ^ /  XL./ W E P J S D P P P J S Z R S T I Z J P A R S P J S P D J J K J J J P P I T T T R R W W W ! / ^ L. X@X#X%X-X-X:XnXHXHXGXGXGXHXGXGXGXGXGXGXGXGXGXGXGXGXGXGXGXGXGXGXGXGXGXKXMXMXMXMXMXMXMXMXMXMXMXMXMXMXMXMXMXMXMXMXMXMXMXMXMXMXMXGXGXGXGXGXGXGXGXGXGXGXGXGXGXGXGX",
"GXGXGXGXGXGXGXGXGXGXGXGXGXGXGXGXGXGXGXGXGXGXGXGXGXGXGXKXMXMXMXMXMXMXMXMXMXMXMXMXMXMXMXMXMXMXMXMXMXMXMXMXDXMXMXGXGXGXGXGXGXGXGXGXHXGXHXKXHXGXHXHXGXZXOXT.T.Y.T.T.T.Y.Y.Y.G.rXeXuXhXhXkXhXfXfXhXhXfXfXfXfXfXfXfXfXfXfXfXfXfXfXfXfXfXfXfXfXfXfXfXfXfXfXfXfXfXfXfXfXfXfXfXfXfXfXfXfXfXfXfXhXhXhXjXlXjXnXFXHXMXvXlXjXKXHXHXFXvXdXdXxXBXvXhXuXuXdXuXqX=XuXuX7XdX2XL.Q J %XdXwX2XuX2XI D ~ :XzXhX&XI Z K <XqX<X3X7X1X6X2X2X2X4X5X$XS > A &XhX1XK , C ^ 2X1X:X>X1XK ; > S <X>X&X:X&X&X%X=X&X&X&X&X%X%X%X%X^ I I ! / W Q ^  X@X@X@X@X@X X/ ^ L.L.L.^ ^ / ^ / / ~ ! W W W R R R R R R R R T T P P P P J J J J J J S S J J S S S S S S J J J J J P P I T T T R R W W W ! / L.L. X@X#X%X=X>X>XnXHXHXGXGXGXGXGXGXGXGXGXGXGXGXGXGXGXGXGXGXGXGXGXGXGXGXGXKXMXMXMXMXMXMXMXMXMXMXMXMXMXMXMXMXMXMXMXMXMXMXMXMXMXMXMXGXGXGXGXGXGXGXGXGXGXGXGXGXGXGXGX",
"GXGXGXGXGXGXGXGXGXGXGXGXGXGXGXGXGXGXGXGXGXGXGXGXGXGXGXKXMXMXMXMXMXMXMXMXMXMXMXMXMXMXMXMXMXMXMXMXMXMXMXMXDXMXMXGXGXGXGXGXGXGXGXGXHXGXHXKXHXGXHXGXGXFXOXT.Y.Y.T.T.T.Y.Y.G.G.rXeXuXhXhXkXhXfXfXhXhXfXfXfXfXfXfXfXfXfXfXfXfXfXfXfXfXfXfXfXfXfXfXfXfXfXfXfXfXfXfXfXfXfXfXfXfXfXfXfXfXfXfXfXhXhXhXjXlXfXjXzXlXfXdXfXjXxXxXvXvXlXdXfXxXxXzXfXuXuXuXuXuX1XdXiXqXhXuX1X<X%X-X4XqX3XiXhX4X X~ Q Q Q Q ~  X=XqX6X1X6X7X1X5X7X5X1X1X3X2X=X@XC Z Z Z D ~ =XqX:X<X:X-X4X#X~ L. X1X=X&X>X%X=X=X&X&X&X&X&X%X%X%X=X%X#X%X%X#X#X$X#X#X#X#X#X@X@X@X X X@X@X XL.^ ^ ^ ^ / / ! ! W W R R R R R R R R T T P P P P J J J J J J J S J J S S S S S S J J J J J P P I T T T R R W W W ! / ^ L. X@X#X%X=X>X-XnXHXHXGXGXGXGXGXGXGXGXGXGXGXGXGXGXGXGXGXGXGXGXGXGXGXGXGXKXMXMXMXMXMXMXMXMXMXMXMXMXMXMXMXMXMXMXMXMXMXMXMXMXMXMXMXGXGXGXGXGXGXGXGXGXGXGXGXGXGXGXGX",
"GXGXGXGXGXGXGXGXGXGXGXGXGXGXGXGXGXGXGXGXGXGXGXGXGXGXGXKXMXMXMXMXMXMXMXMXMXMXMXMXMXMXMXMXMXMXMXMXMXMXMXMXDXMXMXGXGXGXGXGXGXGXGXGXHXGXHXHXHXGXHXGXGXZX0XT.Y.Y.T.T.Y.Y.Y.G.G.rXeXpXhXhXhXhXfXfXhXhXfXfXfXfXfXfXfXfXfXfXfXfXfXfXfXfXfXfXfXfXfXfXfXfXfXfXfXfXfXfXfXfXfXfXfXfXfXfXfXfXfXfXfXhXhXjXjXlXjXjXjXjXjXlXlXzXfXdXfXjXjXfXfXjXdXdXhXdXuXuXuXuXuXdXwXqXuXuXiXuXfX7XqXuX4X3XqXqXuX6X1X:X1X5XqXuXqXqX5X2X7X3X1X3X5X2X1X1X5X7X6X7X4X<X-X>X2X4X2X<X:X<X<X=X1X1X1X1X>X1X&X=X>X%X=X=X&X&X&X&X&X&X%X%X#X#X%X%X%X#X*X%X$X$X#X@X@X@X@X@X@X@X X XL.L.L.^ ^ ^ ^ / ~ ! ! W W W R R R R E T T T P P P P J J J J J J S S J J S S S S S S J J J J J P P I T T T R R W W W ! / ^ L. X@X#X%X=X-X-XnXHXHXGXGXGXGXGXGXGXGXGXGXGXGXGXGXGXGXGXGXGXGXGXGXGXGXGXKXMXMXMXMXMXMXMXMXMXMXMXMXMXMXMXMXMXMXMXMXMXMXMXMXMXMXMXGXGXGXGXGXGXGXGXGXGXGXGXGXGXGXGX",
"GXGXGXGXGXGXGXGXGXGXGXGXGXGXGXGXGXGXGXGXGXGXGXGXGXGXGXKXMXMXMXMXMXMXMXMXMXMXMXMXMXMXMXMXMXMXMXMXMXMXMXMXDXMXMXGXGXGXGXGXGXGXGXGXHXGXHXHXHXGXHXHXGXKX0XT.Y.Y.T.T.Y.Y.Y.Y.G.rXeXuXhXhXkXhXfXfXhXhXfXfXfXfXfXfXfXfXfXfXfXfXfXfXfXfXfXfXfXfXfXfXfXfXfXfXfXfXfXfXfXfXfXfXfXfXfXfXfXfXfXfXfXhXhXhXjXlXgXjXlXzXxXzXjXfXzXjXfXjXlXjXfXfXuXdXhXhXuXuXuXuXhXiXwXwXqXqXqXqXqX6XwXuX6X7XqX4XqXqXqXqXwXwXqX4X4X2X5X7X3X2X5X4X1X2X2X1X1X1X1X1X<X1X3X4X5X1X<X<X<X<X1X>X-X:X<X>X:X>X%X>X>X&X-X&X&X&X&X&X&X&X&X%X%X#X@X#X#X#X#X#X#X@X@X@X@X@X@X@X X XL.L.L.^ L.L.^ ^ ^ / ~ ! ! W W W W R R E T T T T P P P P J J J J J S S S J J S S S S S S J J J J J P P I T T T R R W W W ! / ^ L. X@X#X%X=X-X-XnXHXHXGXGXGXGXGXGXGXGXGXGXGXGXGXGXGXGXGXGXGXGXGXGXGXGXGXKXMXMXMXMXMXMXMXMXMXMXMXMXMXMXMXMXMXMXMXMXMXMXMXMXMXMXMXGXGXGXGXGXGXGXGXGXGXGXGXGXGXGXGX",
"GXGXGXGXGXGXGXGXGXGXGXGXGXGXGXGXGXGXGXGXGXGXGXGXGXGXGXKXMXMXMXMXMXMXMXMXMXMXMXMXMXMXMXMXMXMXMXMXMXMXMXMXDXMXDXGXGXGXGXGXGXGXGXGXHXGXHXHXHXGXHXHXHXFX0XR.Y.Y.E.T.T.Y.T.Y.G.rXeXpXhXhXkXhXfXfXhXhXfXfXfXfXfXfXfXfXfXfXfXfXfXfXfXfXfXfXfXfXfXfXfXfXfXfXfXfXfXfXfXfXfXfXfXfXfXfXfXfXfXfXfXhXhXhXhXjXjXjXjXfXfXfXjXlXlXjXfXjXlXjXgXfXhXhXfXdXuXuXiXiXuXqXwXuXwXqXwXqXqXqXqX6X7XqXwXqX4X6XqX4X5X4X4X5X4X5X6X6X5X5X3X2X7X3X2X1X1X1X1X1X4X2X1X:X-X:X<X1X:X:X<X1X-X-X>X=X=X&X&X>X=X=X>X%X&X&X&X&X&X&X%X%X-X%X#X#X%X%X$X*X@X@X@X@X@X@X@X@X@X X XL.L.L.L.L./ ^ / / ! ! W W W W W R R T T T T T P P P T P J J J J J J S J J S S S S S S J J J J J P P I T T T R R W W W ! / ^ L. X@X#X%X=X-X-XnXHXHXGXGXGXGXGXGXGXGXGXGXGXGXGXGXGXGXGXGXGXGXGXGXGXGXGXKXMXMXMXMXMXMXMXMXMXMXMXMXMXMXMXMXMXMXMXMXMXMXMXMXMXMXMXGXGXGXGXGXGXGXGXGXGXGXGXGXGXGXGX",
"GXGXGXGXGXGXGXGXGXGXGXGXGXGXGXGXGXGXGXGXGXGXGXGXGXGXGXKXMXMXMXMXMXMXMXMXMXMXMXMXMXMXMXMXMXMXMXMXMXMXMXMXDXMXDXGXGXGXGXGXGXGXGXGXHXGXHXHXHXGXHXHXHXFX0XR.Y.Y.E.T.T.T.T.Y.G.rXeXpXhXhXkXhXfXfXhXhXfXfXfXfXfXfXfXfXfXfXfXfXfXfXfXfXfXfXfXfXfXfXfXfXfXfXfXfXfXfXfXfXfXfXfXfXfXfXfXfXfXfXfXhXhXhXhXjXlXlXlXlXlXlXlXxXjXfXgXgXgXfXfXgXhXdXuXuXuXuXuXiXuXqXiXuXwXwXiXwXuXwXqXqXqX4X4XqX4X7XqXqX4X4X4X4X6X7X4X4X3X6X7X1X5X2X1X5X3X5X2X1X1X1X1X1X2X1X1X<X:X>X>X1X>X:X:X:X=X=X>X=X&X=X-X&X&X&X&X&X&X&X%X%X#X#X%X%X#X*X#X*X@X@X@X@X@X@X@X@X@X@X X XL.L.L.^ / ^ / / ! ! W W W W W R R T T T T T P P P T P J J J J J J S J J S S S S S S J J J J J P P I T T T R R W W W ! / ^ L. X@X#X%X-X>X>XnXHXHXGXGXGXGXGXGXGXGXGXGXGXGXGXGXGXGXGXGXGXGXGXGXGXGXGXKXMXMXMXMXMXMXMXMXMXMXMXMXMXMXMXMXMXMXMXMXMXMXMXMXMXMXMXGXGXGXGXGXGXGXGXGXGXGXGXGXGXGXGX",
"GXGXGXGXGXGXGXGXGXGXGXGXGXGXGXGXGXGXGXGXGXGXGXGXGXGXGXKXMXMXMXMXMXMXMXMXMXMXMXMXMXMXMXMXMXMXMXMXMXMXMXMXDXMXDXGXGXGXGXGXGXGXGXGXHXGXHXHXHXGXHXHXHXKX0XT.Y.T.E.T.T.Y.T.Y.G.rXeXuXhXhXkXjXfXcXhXhXfXfXfXfXfXfXfXfXfXfXfXfXfXfXfXfXfXfXfXfXfXfXfXfXfXfXfXfXfXfXfXfXfXfXfXfXfXfXfXfXfXfXfXhXhXhXhXjXfXfXjXlXlXlXjXjXlXlXjXjXfXfXfXfXdXdXuXuXuXuXuXuXuXuXuXqXqXqXwXqX7X4X4XqXiXqX7XwXqX6X4X4X4X4X6XqX6X3X2X2X3X7X4X3X1X1X1X3X4X2X<X<X1X1X1X<X:X:X:X:X:X<X>X<X-X<X>X:X>X-X>X=X=X=X&X=X&X&X&X&X&X%X%X%X#X%X%X%X$X#X#X$X@X@X@X@X@X@X X X X X XL.L.L.^ ^ ^ ^ ^ / ~ ! W W W W W R R T T T T T P P P P J J J J S S S S S S S S S S S S S J J J J P P I T T T R R W W W ~ / ^ L. X@X#X%X-X:X>XnXHXHXGXGXGXGXGXGXGXGXGXGXGXGXGXGXGXGXGXGXGXGXGXGXGXGXGXKXMXMXMXMXMXMXMXMXMXMXMXMXMXMXMXMXMXMXMXMXMXMXMXMXMXMXMXGXGXGXGXGXGXGXGXGXGXGXGXGXGXGXGX",
"GXGXGXGXGXGXGXGXGXGXGXGXGXGXGXGXGXGXGXGXGXGXGXGXGXGXGXKXMXMXMXMXMXMXMXMXMXMXMXMXMXMXMXMXMXMXMXMXMXMXMXMXDXMXDXGXGXGXGXGXGXGXGXGXHXGXHXHXGXGXHXHXFXKX0XT.Y.T.E.Y.T.Y.Y.G.G.rXeXuXhXhXkXjXfXcXhXhXfXfXfXfXfXfXfXfXfXfXfXfXfXfXfXfXfXfXfXfXfXfXfXfXfXfXfXfXfXfXfXfXfXfXfXfXfXfXfXfXfXfXfXhXhXhXhXjXxXlXjXfXjXlXlXlXlXjXgXfXfXjXfXfXdXdXdXdXuXuXuXuXqXuXuXqXwXiXwXwXqXuXqX4X6XqX7X4XqX4X4XqXqX7X4X4X4X4X4X4X7X1X1X7X4X2X1X2X2X1X1X5X2X1X<X<X1X1X1X<X:X5X:X<X>X1X-X-X-X=X=X=X>X=X%X-X=X&X&X&X&X%X%X%X%X%X#X#X$X$X$X#X#X@X@X@X@X@X@X@XL. X X X XL.L.L.^ ^ ^ / / ~ ! ! W W W R R T T T T T P P P P J J J J S S S S S S S S S S S S S J J J J P P I T T T R R W W W ~ / ^ L. X@X#X%X-X:X:XnXHXHXGXGXGXHXGXGXGXGXGXGXGXGXGXGXGXGXGXGXGXGXGXGXGXGXGXKXMXMXMXMXMXMXMXMXMXMXMXMXMXMXMXMXMXMXMXMXMXMXMXMXMXMXMXGXGXGXGXGXGXGXGXGXGXGXGXGXGXGXGX",
"GXGXGXGXGXGXGXGXGXGXGXGXGXGXGXGXGXGXGXGXGXGXGXGXGXGXGXKXDXMXMXMXMXMXMXMXMXMXMXMXMXMXMXMXMXMXMXMXMXMXMXMXMXMXKXGXGXGXGXGXGXGXGXGXGXGXHXHXGXGXHXGXHXFX0XR.Y.T.Y.T.T.T.Y.Y.G.rXpXiXhXhXkXkXfXfXfXhXhXhXhXfXfXfXfXhXhXhXfXfXfXfXfXfXfXfXfXfXfXfXfXfXfXfXfXfXfXfXfXfXfXfXfXfXfXfXgXgXfXfXjXjXjXjXjXjXlXlXlXlXlXjXhXhXjXlXjXhXhXfXfXfXfXfXfXdXuXuXyXyXyXyXiXiXwXqXqXqXqXqXqXqXqXqX7X7X7X7X7X7X7X7X4X4X4X4X4X4X4X3X5X5X5X3X2X2X2X2X1X1X1X1X1X1X1X1X<X<X<X:X:X:X:X:X:X>X>X-X-X-X=X=X=X=X=X=X=X&X&X&X%X%X%X%X$X$X$X#X*X*X#X#X@X@X@X@X@X@X X XL.L.L.L.L.L.^ ^ / / / ~ ! W W W R R R T T T T T P P J P P P J J J J J J S S S S S S S J J J J J J P T T T T T R R W Q W ~ / ^ L. X@X#X%X-X:X=XZXKXHXGXGXGXGXGXGXGXGXGXGXGXGXGXGXGXGXGXGXGXGXGXGXGXGXGXKXMXMXMXMXMXMXMXMXMXMXMXMXMXMXMXMXMXMXMXMXMXMXMXMXMXMXMXKXGXGXGXGXGXGXGXGXGXGXGXGXGXGXGX",
"GXGXGXGXGXGXGXGXGXGXGXGXGXGXGXGXGXGXGXGXGXGXGXGXGXGXGXKXDXAXMXMXMXMXMXMXMXMXMXMXMXMXMXMXMXMXMXMXMXDXDXDXDXDXDXKXGXGXGXGXGXGXGXGXGXGXHXHXGXGXHXHXFXZX0XR.T.T.Y.E.T.T.Y.Y.G.rXpXiXhXhXkXhXfXfXfXhXhXhXhXfXfXfXfXhXhXhXfXfXfXfXfXfXfXfXfXfXfXfXfXfXfXfXfXfXfXfXfXfXfXfXfXfXfXfXgXgXfXfXhXjXjXjXjXjXjXlXlXlXlXlXhXhXjXjXjXjXhXfXfXfXfXfXdXdXuXuXyXyXyXyXiXiXwXqXqXqXqXqXqXqXqXqX7X7X7X7X7X7X7X7X4X4X4X4X4X4X4X3X5X5X5X2X2X2X2X2X1X1X1X1X1X1X1X1X<X<X:X:X:X:X:X:X>X>X>X-X-X-X=X=X=X=X=X=X=X&X&X&X%X%X%X%X$X$X$X#X*X*X#X#X@X@X@X@X@X@X X XL.L.L.L.L.L.^ ^ / / / ~ ! W W W R R R T T T T T P P J J P P J J J J J J S S S S S S S J J J J J J P T T T T T R R W Q W ~ / ^ L. X@X#X%X-X:X-XZXKXFXFXGXKXHXGXGXGXGXGXGXGXGXGXGXGXGXGXGXGXGXGXGXGXGXKXDXMXMXMXMXMXMXMXMXMXMXMXMXMXMXMXMXMXMXMXMXMXMXMXMXMXMXKXKXGXGXKXKXGXGXGXGXGXGXGXGXGXGXGX",
"MXMXMXMXMXMXMXMXMXMXMXMXMXMXMXMXMXMXMXMXMXMXMXMXDXDXDXKXKXGXGXKXGXGXGXGXGXGXGXGXGXGXGXGXGXGXGXGXKXKXGXGXGXKXKXDXMXMXMXMXMXMXMXMXBXMXCXCXAXBXBXBXCXVX0XR.T.T.Y.E.T.T.Y.Y.G.rXpXiXhXhXkXkXfXfXfXhXhXhXhXfXfXfXfXhXhXhXfXfXfXfXfXfXfXfXfXfXfXfXfXfXfXfXfXfXfXfXfXfXfXfXfXfXfXfXgXgXfXfXhXhXjXjXjXjXhXjXlXlXlXlXlXhXhXjXhXhXhXfXfXfXfXfXdXdXuXuXuXyXyXyXyXiXwXqXqXqXqXqXqXqXqXqX6X6XqXqX7X7X7X7X7X7X4X4X4X4X4X3X5X5X5X2X2X2X2X1X1X1X1X1X1X1X1X1X<X<X:X:X:X:X:X:X>X>X>X-X-X-X=X=X=X=X=X=X=X&X&X&X%X%X%X%X$X$X$X#X#X*X#X#X@X@X@X@X@X@X X XL.L.L.L.L.L.^ ^ / / / ~ ! W W W R R R T T T T T P P P P P P J J J J J J S S S S S S S S J J J J J P P T T T T R R Q Q W ~ / ^ L. X@X#X%X-X:X>XZXDXLXLXDXAXDXMXMXMXMXMXMXMXMXMXMXMXMXMXMXMXMXDXDXDXDXDXKXKXGXGXGXGXGXGXGXGXGXGXGXGXGXGXGXGXGXGXGXGXGXGXGXGXGXKXKXDXMXDXLXDXDXMXMXMXMXMXMXMXMXMX",
"MXMXMXMXMXMXMXMXMXMXMXMXMXMXMXMXMXMXMXMXMXMXMXMXMXMXMXKXGXGXGXGXGXGXGXGXGXGXGXGXGXGXGXGXGXGXGXGXGXGXGXGXGXGXKXDXMXMXMXMXMXMXMXMXBXNXCXCXMXBXBXBXNXVX0XR.T.T.T.E.T.T.Y.Y.F.rXpXiXhXhXkXkXfXcXfXhXhXhXhXfXfXfXfXhXhXhXfXfXfXfXfXfXfXfXfXfXfXfXfXfXfXfXfXfXfXfXfXfXfXfXfXfXfXfXgXgXfXfXhXhXjXgXjXjXhXhXjXlXlXlXlXlXhXhXhXhXhXfXfXfXfXfXdXdXuXuXuXuXyXyXyXiXwXqXqXqXqXqXqXqXqXqX6X6XqXqX7X7X7X7X4X7X4X4X4X4X4X3X3X3X5X2X2X2X2X2X1X1X1X1X1X1X1X1X<X<X:X:X:X:X:X:X>X>X>X-X-X-X=X=X=X=X=X=X=X&X&X&X%X%X%X%X$X$X$X#X*X*X#X#X@X@X@X@X@X@X X XL.L.L.L.L.L.^ ^ / / / ~ ! W W W R R R T T T T T P P P P P P J P J J J J S S S S S S S J J J J J J P P T T T T R R Q Q W ~ / ^ L. X@X#X%X-X:X:XZXBXNXMXMXMXMXMXMXMXMXMXMXMXMXMXMXMXMXMXMXMXMXMXMXMXMXDXKXGXGXGXGXGXGXGXGXGXGXGXGXGXGXGXGXGXGXGXGXGXGXGXGXGXGXHXDXMXMXMXMXMXMXMXMXMXMXMXMXMXMXMX",
"MXMXMXMXDXDXDXDXMXMXMXDXDXDXDXDXDXDXMXMXMXMXDXDXDXMXDXKXGXGXGXGXGXGXGXGXGXGXGXGXGXGXGXGXGXGXGXGXGXGXGXGXGXGXKXMXLXDXDXDXDXDXDXLXBXLXAXSXLXDXDXBXNXVX0XR.T.T.Y.T.T.Y.Y.Y.G.rXpXiXhXhXkXhXfXfXfXhXhXhXhXfXfXfXfXhXhXhXfXfXfXfXfXfXfXfXfXfXfXfXfXfXfXfXfXfXfXfXfXfXfXfXfXfXfXfXgXgXfXfXgXgXjXjXjXjXhXhXjXlXlXlXlXlXlXlXhXhXhXfXfXfXfXfXdXuXuXuXuXuXyXyXyXiXiXqXqXqXqXqXqXqXqXqX6X6XqXqX7X7X4X4X4X4X4X4X4X4X3X3X3X3X5X2X2X2X2X2X1X1X1X1X1X1X1X1X<X<X<X:X:X:X:X:X>X-X>X-X-X-X=X=X=X=X=X=X&X&X&X%X%X%X%X%X%X$X#X#X#X*X#X#X@X@X@X@X@X@X X X XL.L.L.^ ^ ^ ^ / / / ~ ! W W W R R R T T T T T P P P J J J J J J J J J S S S S S S S J J J J J J J P T T T T R R R Q W ~ / ^ L. X@X#X%X-X:X1XZXDXNXMXMXAXDXMXMXMXDXDXDXDXDXDXDXMXMXMXMXDXDXMXDXMXMXMXKXGXGXGXGXGXGXGXGXGXGXGXGXGXGXGXGXGXGXGXGXGXGXGXGXGXGXGXKXMXMXDXDXMXMXDXDXMXMXMXMXDXDXDX",
"MXMXMXMXMXMXMXMXMXMXMXMXMXMXMXMXMXMXMXMXMXMXMXMXDXMXMXKXGXGXGXGXGXGXGXGXGXGXGXGXGXGXGXGXGXGXGXGXGXGXGXKXGXGXKXLXMXMXMXMXMXMXMXMXNXNXSXCXMXMXBXBXNXVX0XR.T.T.T.T.T.Y.Y.Y.G.rXpXiXhXhXkXhXfXfXfXhXhXhXhXfXfXfXfXhXhXhXfXfXfXfXfXfXfXfXfXfXfXfXfXfXfXfXfXfXfXfXfXfXfXfXfXfXfXfXgXgXfXfXgXgXjXjXjXjXhXjXlXlXlXlXlXjXlXlXhXhXhXfXfXfXfXfXdXuXuXuXuXuXyXyXyXiXiXqXqXqXqXqXqXqXqXqX6X7XqXqX7X7X4X4X4X4X4X4X4X4X4X3X3X3X5X2X2X2X2X1X1X1X1X1X1X1X1X1X<X<X<X:X:X:X:X:X>X-X>X-X-X-X=X=X=X=X=X=X&X&X&X%X%X%X%X%X%X$X$X#X#X*X#X#X@X@X@X@X@X@X X X XL.L.L.^ ^ ^ ^ / / / ~ ! W W W R R R T T T T T P P P P P J J J J J J J S S S S S S S J J J J J J J P T T T T R R Q Q W ~ / ^ L. X@X#X%X-X:X<XZXBXNXMXDXAXLXMXMXMXMXMXMXMXMXMXMXMXMXMXMXMXMXMXDXDXMXDXKXGXGXGXGXGXGXGXGXGXGXGXGXGXGXGXGXGXGXGXGXGXGXGXGXGXGXGXDXMXMXDXDXMXMXMXMXMXMXMXMXMXMXMX",
"DXDXMXMXMXDXDXDXMXMXMXMXDXDXDXDXDXDXDXDXMXMXMXDXMXMXMXKXGXGXGXGXGXGXGXGXGXGXGXGXGXGXGXGXGXGXGXGXGXGXGXGXGXGXGXDXAXAXBXBXDXDXDXLXBXLXAXSXLXLXBXZXNXVX0XR.R.T.T.T.T.Y.Y.Y.G.rXpXiXhXhXkXhXfXfXfXhXhXhXhXfXfXfXfXhXhXhXfXfXfXfXfXfXfXfXfXfXfXfXfXfXfXfXfXfXfXfXfXfXfXfXfXfXfXfXgXgXfXfXgXgXjXjXjXjXhXlXlXlXlXlXhXhXlXlXhXhXhXfXfXfXfXfXdXuXuXuXuXuXyXyXyXiXwXqXqXqXqXqXqXqXqXqX7X7XqX6X7X7X4X7X4X4X4X4X4X4X4X3X3X5X5X2X2X2X2X2X1X1X1X1X1X1X1X1X<X<X<X:X:X:X:X:X>X-X>X-X-X-X=X=X=X=X=X=X=X&X&X&X%X%X%X%X%X$X$X#X#X*X#X#X@X@X@X@X@X@X X X XL.L.L.^ ^ ^ ^ / / / ~ ! W W W R R R E T T T T T P P P P P J J J J J J S S S S S S S J J J J J J J P T T T T R R Q Q W ~ / ^ L. X@X#X%X-X:X:XZXBXNXMXMXMXMXMXMXMXMXDXDXDXDXDXDXDXDXMXMXMXDXMXMXMXMXDXHXGXGXGXGXGXGXGXGXGXGXGXGXGXGXGXGXGXGXGXGXGXGXGXGXGXGXGXMXMXMXDXMXMXMXDXDXDXDXMXMXMXDXDX",
"MXMXMXMXMXMXMXMXMXMXMXMXMXMXMXMXMXMXMXMXMXMXMXMXDXMXMXKXGXKXGXGXGXGXGXGXGXGXGXGXGXGXGXGXGXGXGXGXGXGXGXGXGXGXKXMXMXMXNXNXNXMXMXMXNXNXSXCXMXMXBXBXCXVX0XR.R.T.T.R.T.Y.Y.Y.G.rXpXiXhXhXkXhXfXfXfXhXhXhXhXfXfXfXfXhXhXhXfXfXfXfXfXfXfXfXfXfXfXfXfXfXfXfXfXfXfXfXfXfXfXfXfXfXfXfXgXgXfXfXgXgXjXjXjXjXlXlXlXlXlXhXhXhXlXlXhXhXhXfXfXfXfXfXdXuXuXuXuXuXyXyXyXiXwXqXqXqXqXqXqXqXqXqX7X7XqXqX7X7X4X7X4X4X3X4X4X4X4X3X5X5X5X2X2X2X2X2X1X1X1X1X1X1X1X1X<X<X<X:X:X:X:X:X>X>X>X-X-X-X=X=X=X=X=X=X=X&X&X%X%X%X%X%X%X$X$X#X#X*X#X@X@X@X@X@X@X@X X X XL.L.L.^ ^ ^ ^ / / / ~ ! W W W R R R E T T T T T P P P P P J J J J J J S S S S S S S J J J J J J J P T T T T R R Q Q W ~ / ^ L. X@X#X%X-X:X<XDXBXNXLXDXMXMXMXMXMXMXMXMXMXMXMXMXMXMXMXMXMXMXMXDXMXMXMXKXGXGXGXGXGXGXGXGXGXGXGXGXGXGXGXGXGXGXGXGXGXGXGXGXGXGXGXDXMXMXDXMXMXMXMXMXMXMXMXMXMXMXMX",
"MXMXMXMXMXMXMXMXMXMXMXMXMXMXMXMXMXMXMXMXMXMXMXMXMXMXLXKXGXGXGXGXGXGXGXGXGXGXGXGXGXGXGXGXGXGXGXGXGXGXGXGXGXGXGXMXMXMXMXMXMXMXMXMXBXMXCXCXAXBXBXBXNXVX0XR.R.T.E.T.T.T.Y.Y.G.rXpXiXhXhXkXjXfXfXfXhXfXuXhXiXhXdXxXdXzXuXfXjXjXfXqXhXdXdXdXdXdXfXhXjXfXfXfXfXfXfXfXfXfXfXfXfXfXfXfXfXfXfXhXfXgXgXjXjXfXhXjXjXlXlXlXjXjXhXhXhXhXfXfXfXfXfXdXdXuXdXuXyXiXiXwXqXqXqXqXqXqXqXqXqXqXqX7X7XqXqXqX7X7X4X4X4X4X4X4X3X3X3X3X5X5X5X2X2X2X2X1X1X1X1X1X1X1X1X<X<X<X<X:X:X:X:X:X:X-X-X-X-X-X=X=X=X=X=X=X&X&X%X%X%X%X$X$X#X#X#X#X*X#X#X@X@X@X@X@X@X X XL.L.L.^ ^ ^ L.^ / / / ! ! W W W W R R R E T T P P P J J J P S J J J S S J J J S S S S J S J P S R J J R T T R Q T R W Q Q / ^ L.@X#X#X%X-X:X<XZXBXBXMXMXMXDXMXMXMXMXMXMXMXMXMXMXMXMXMXMXMXMXMXMXMXMXDXKXGXGXGXGXGXGXGXGXGXGXGXGXGXGXGXGXGXGXGXGXGXGXGXGXGXGXGXMXMXDXMXMXMXMXMXMXMXMXMXMXMXMXMX",
"MXMXMXMXMXMXMXMXMXMXMXMXMXMXMXMXMXMXMXMXMXMXMXMXMXMXMXKXGXGXGXGXGXGXGXGXGXGXGXGXGXGXGXGXGXGXGXGXGXGXGXGXGXGXGXMXMXMXMXMXMXMXMXMXBXMXCXCXAXBXBXBXNXVX0XR.R.T.E.T.T.T.Y.Y.G.rXpXiXhXhXjXhXfXfXfXhXhXuXzXlXhXuXyXuXfXiXhXlXdXfXlXlXlXlXjXjXhXfXdXdXdXdXfXfXfXfXfXfXfXfXfXfXfXfXfXfXfXfXhXfXgXgXjXjXfXhXjXjXlXlXlXlXhXhXhXhXhXfXfXfXfXfXdXdXuXdXuXyXyXyXwXwXqXqXqXqXqXqXqXqXqXqX7X7XqXqXqX7X7X4X4X4X4X4X4X3X3X3X3X5X5X5X2X2X2X2X1X1X1X1X1X1X1X1X<X<X<X<X:X:X:X:X:X:X-X-X-X-X-X=X=X=X=X=X=X&X&X%X%X%X%X$X$X#X#X#X#X*X#X#X@X@X@X@X@X@X X XL.L.L.L.^ ^ L.^ / / / ~ ! W W R R R E T T T T T P P J J P P J J J J J S S S J S S S S J S J T S T T J R T R T R T Q / / ~ ^ L. X@X#X#X%X-X:X1XDXBXNXMXMXMXDXMXMXMXMXMXMXMXMXMXMXMXMXMXMXMXMXMXMXMXMXDXKXGXGXGXGXGXGXGXGXGXGXGXGXGXGXGXGXGXGXGXGXGXGXGXGXGXGXGXDXMXDXMXMXMXMXMXMXMXMXMXMXMXMXMX",
"MXMXMXMXMXMXMXMXMXMXMXMXMXMXMXMXMXMXMXMXMXMXMXMXMXMXDXKXGXGXGXGXGXGXGXGXGXGXGXGXGXGXGXGXGXGXGXGXGXGXGXGXGXGXGXMXMXMXMXMXMXMXMXMXBXMXCXCXAXBXBXBXCXVX0XR.R.T.E.T.T.T.Y.Y.G.rXpXiXhXhXkXhXfXfXfXhXlXwXuXfXfXxXhXfXdXxXhXuXhXfXuXdXyXdXdXfXhXjXjXhXdXdXdXdXdXdXdXdXfXfXfXfXfXfXfXfXfXfXfXfXgXgXjXjXhXhXlXlXlXlXjXjXlXhXhXhXhXfXfXfXfXfXdXdXuXuXuXyXiXiXiXwXqXqXqXqXqXqXqXqXqXqX6X6XqX6XqX7X7X7X4X4X4X4X4X3X3X3X3X3X2X2X2X2X2X2X1X1X1X1X1X1X1X1X<X<X<X<X:X:X:X:X:X:X>X-X-X-X=X=X=X=X=X=X=X&X&X&X%X%X%X$X$X#X#X#X#X*X#X#X@X@X@X@X@X@X X X XL.L.L.^ ^ ^ ^ / / / ~ ! W W W R R R E E T T T P P P J J J J J J J J J S S J J S S S J J J T D P P J T P T T R R W ^ ^ / L.L. X@X#X#X%X-X:X1XDXBXNXMXMXMXDXMXMXMXMXMXMXMXMXMXMXMXMXMXMXMXMXMXMXMXMXDXKXGXGXGXGXGXGXGXGXGXGXGXGXGXGXGXGXGXGXGXGXGXGXGXGXGXGXGXMXMXMXMXMXMXMXMXMXMXMXMXMXMXMXMX",
"MXMXMXMXMXMXMXMXMXMXMXMXMXMXMXMXMXMXMXMXMXMXMXMXMXMXDXKXGXGXGXGXGXGXGXGXGXGXGXGXGXGXGXGXGXGXGXGXGXGXGXGXGXGXGXMXMXMXMXMXMXMXMXMXBXMXCXCXAXBXBXBXCXVXtXR.R.T.E.E.T.T.Y.Y.G.rXpXiXhXhXkXhXfXfXfXhXuXhXlXdXqXuXhXuXuXjXiXuXjXhXhXuXhXhXjXjXjXhXhXhXfXfXfXfXfXfXfXfXfXfXfXfXfXfXfXfXfXfXfXfXjXgXjXjXhXhXjXjXlXlXjXhXlXhXhXhXhXfXfXfXfXfXdXdXuXuXuXyXiXiXiXwXqXqXqXqXqXqXqXqXqXqX6X6XqX6XqX7X7X7X4X4X4X4X4X3X3X3X3X3X2X5X2X2X2X1X1X1X1X1X1X1X1X1X<X<X<X<X:X:X:X:X:X:X>X-X-X=X=X=X=X=X=X=X=X=X&X&X%X%X%X$X$X#X#X#X#X*X#X#X@X@X@X@X@X@X X X X XL.L.L.^ ^ / / / / ~ ! W R R R R R E T T T T T P P J J J P J J J J J S S S J D S J S P J J J T T J T R P W W Q W ^ ^ / L.L. X@X#X#X%X-X<X1XZXBXNXMXMXMXLXMXMXMXMXMXMXMXMXMXMXMXMXMXMXMXMXMXMXMXMXDXKXGXGXGXGXGXGXGXGXGXGXGXGXGXGXGXGXGXGXGXGXGXGXGXGXGXGXGXDXMXMXMXMXMXMXMXMXMXMXMXMXMXMXMX",
"MXMXMXMXMXMXMXMXMXMXMXMXMXMXMXMXMXMXMXMXMXMXMXMXMXMXDXKXGXGXGXGXGXGXGXGXGXGXGXGXGXGXGXGXGXGXGXGXGXGXGXGXGXGXGXMXMXMXMXMXMXMXMXMXBXMXCXCXAXBXBXBXNXVX0XR.R.T.R.T.T.T.Y.Y.G.rXpXuXhXhXkXhXfXfXfXhXdXlXjXlXlXfXvXfXlXyXfXzXdXuXlXiXfXfXdXdXdXfXfXfXfXfXfXfXfXfXfXfXfXfXfXfXfXfXfXfXfXfXgXgXjXjXjXjXhXhXlXlXlXlXhXhXlXhXhXhXfXfXfXfXfXfXdXdXuXuXuXiXyXyXiXiXqXqXqXqXqXqXqXqXqXqXqXqXqX6X7X7X7X4X4X4X4X4X4X4X3X3X3X3X2X5X2X2X2X2X1X1X1X1X1X1X1X1X<X<X<X<X:X:X:X:X:X:X>X-X-X=X=X=X=X=X=X=X=X&X&X&X&X%X%X$X$X$X$X$X*X*X#X#X@X@X@X@X@X@X X X XL.L.L.L.L.^ ^ / / / ~ ! W R R R E T T T T T T T P P J J J P J J J J J J S S P D J P S P J J E W R E W / T / ! Q W / / / L.L. X@X#X#X%X-X1X2XZXBXNXMXMXMXAXMXMXMXMXMXMXMXMXMXMXMXMXMXMXMXMXMXMXMXMXDXKXGXGXGXGXGXGXGXGXGXGXGXGXGXGXGXGXGXGXGXGXGXGXGXGXGXGXGXDXMXDXMXMXMXMXMXMXMXMXMXMXMXMXMX",
"MXMXMXMXMXMXMXMXMXMXMXMXMXMXMXMXMXMXMXMXMXMXMXMXMXMXDXKXGXGXGXGXGXGXGXGXGXGXGXGXGXGXGXGXGXGXGXGXGXGXGXGXGXGXGXMXMXMXMXMXMXMXMXMXBXMXCXCXAXBXBXBXNXVX0XR.R.T.R.T.T.T.Y.Y.G.rXpXuXhXhXkXhXfXfXfXhXlXfXiXhXqX6XfXlXlXlXlXfXlXhXiXxXhXhXfXfXfXfXfXhXfXfXfXdXfXfXfXfXfXfXfXfXfXfXfXfXfXfXgXgXjXjXjXjXfXhXlXlXlXlXhXhXlXhXhXhXfXfXfXfXfXfXdXdXuXuXuXiXyXyXiXiXqXqXqXqXqXqXqXqXqXqXqXqXqX7X7X7X7X4X4X4X4X4X4X4X3X3X3X5X5X5X2X2X2X2X1X1X1X1X1X1X1X1X<X<X<X<X:X:X:X:X:X:X>X-X-X-X=X=X=X=X=X=X=X&X&X&X%X%X%X$X$X#X$X$X*X*X#X#X@X@X@X@X@X@X@X XL.L.L.L.L.L.^ ^ / / / ~ ! W W W W R R E T T T T T P P J J J P P J J S S J P S T S T T J R J P R R R R W / E / ! R R / / / L.L. X X@X#X%X>X1X2XZXBXNXMXDXMXAXMXMXMXMXMXMXMXMXMXMXMXMXMXMXMXMXMXMXMXMXDXKXGXGXGXGXGXGXGXGXGXGXGXGXGXGXGXGXGXGXGXGXGXGXGXGXGXGXGXDXMXDXMXMXMXMXMXMXMXMXMXMXMXMXMX",
"MXMXMXMXMXMXMXMXMXMXMXMXMXMXMXMXMXMXMXMXMXMXMXMXMXMXDXKXGXGXGXGXGXGXGXGXGXGXGXGXGXGXGXGXGXGXGXGXGXGXGXGXGXGXGXMXMXMXMXMXMXMXMXMXBXMXCXCXLXBXLXBXNXVXtXR.R.T.R.E.T.T.Y.Y.G.rXpXuXhXhXkXhXfXfXfXhXuXlXlXuX X-X*X3XfX1X4X<X6XxXuXhXjXjXjXjXjXfXdXdXfXfXfXfXfXfXfXfXfXfXfXfXfXfXfXfXfXfXgXgXjXjXjXjXfXhXjXlXlXhXhXhXlXhXhXhXfXfXfXfXfXfXdXdXuXuXyXyXyXyXiXiXqXqXqXqXqXqXqXqXqXqXqXqXqX7X7X7X7X4X4X4X4X4X4X3X3X3X3X3X5X5X2X2X2X2X1X1X1X1X1X1X1X1X<X<X<X<X:X:X:X:X:X:X-X-X-X-X-X=X=X=X=X=X=X&X&X%X%X%X%X$X$X#X$X$X*X*X#X#X@X@X@X@X@X@X@X@XL.L.L.L.L.L.L.^ / / / ~ ! W ! W W W R E T T T T T P P P P P P P P J S S P E S T S T R J R S E T J R R T ! W ! W T R / ^ / L.^ L. X#X#X%X>X1X5XKXBXNXBXDXMXAXMXMXMXMXMXMXMXMXMXMXMXMXMXMXMXMXMXMXMXMXDXKXGXGXGXGXGXGXGXGXGXGXGXGXGXGXGXGXGXGXGXGXGXGXGXGXGXGXGXDXMXDXMXMXMXMXMXMXMXMXMXMXMXMXMX",
"MXMXMXMXMXMXMXMXMXMXMXMXMXMXMXMXMXMXMXMXMXMXMXMXMXMXDXKXGXGXGXGXGXGXGXGXGXGXGXGXGXGXGXGXGXGXGXGXGXGXGXGXGXGXGXMXMXMXMXMXMXMXMXMXBXMXCXCXLXLXDXBXNXVXtXW.R.T.E.E.T.T.Y.Y.G.rXpXiXhXhXkXhXfXcXfXhXfXhXfXyX%XFX&X#XZX~ :X:X~ iXhX~ $X&X<X4XwXdXhXhXhXhXhXhXhXhXhXjXfXfXfXfXfXfXfXfXfXfXgXgXjXjXjXjXfXhXlXlXlXhXhXhXlXhXhXhXfXfXfXfXfXfXdXdXuXuXyXyXyXyXiXiXqXqXqXqXqXqXqXqXqX6XqX6XqX7X7X7X7X4X4X4X4X4X4X4X3X3X3X3X5X5X2X2X2X2X1X1X1X1X1X1X1X1X<X<X<X<X:X:X:X:X:X:X-X-X-X-X-X=X=X=X=X=X=X&X&X%X%X%X%X$X$X$X$X$X*X*X#X#X@X@X@X@X@X@X@X@XL.L.^ L.L.L.L.^ ^ / / ! ! W R R R E T P J J T P P P P P P P P P P J S S P R D P D T E S E S W P D W R J ! / ! W T R / / ~ ^ ^ L. X@X#X%X>X1X4XKXBXNXBXDXAXAXMXMXMXMXMXMXMXMXMXMXMXMXMXMXMXMXMXMXMXMXDXKXGXGXGXGXGXGXGXGXGXGXGXGXGXGXGXGXGXGXGXGXGXGXGXGXGXGXGXDXMXDXMXMXMXMXMXMXMXMXMXMXMXMXMX",
"MXMXMXMXMXMXMXMXMXMXMXMXMXMXMXMXMXMXMXMXMXMXMXMXMXMXDXKXGXGXGXGXGXGXGXGXGXGXGXGXGXGXGXGXGXGXGXGXGXGXGXGXGXGXGXMXMXMXMXMXMXMXMXMXMXMXMXMXAXMXBXBXNXVXtXR.R.E.E.R.T.T.T.G.G.rXpXpXhXhXkXhXfXfXfXhXzXuXhXdX^ :XP wXVXL.wXZXW 1XnX~ vXkXjXhXI kXzXL.qXvX2XqXwX-XqX4XuXfXdXdXhXhXfXhXdXhXjXjXuXlXuXjXfXuXhXzXdXzXjXjXfXfXdXlXhXzXdXdXhXuXdXhXuXwXuXuXdXwXqXuXuXqXqXuXiX5XqX7X7XwX5XqX4XqX4XqX3X4X1XqX2X3XqX2X4X<X1X5X1XqX4X-X7X:X2X3X1X:X<X1X=X3X:X1X1X>X:X5X%X:X-X>X<X=X&X=X=X&X=X&X$X&X&X&X&X=X=X&X&X$X$X#X$X$X&X&X%X&X$X&X@X$X@X@X@XL.#X X X@XJ P P Q  X/ ! R C T S J T S S T T T T P P J P T E R J P S D S S P ! T J S T R T R D R R T T T T T T T W R T ! W R / ^ L. X@X#X%X>X1X5XKXBXNXMXMXAXAXMXMXMXMXMXMXMXMXMXMXMXMXMXMXMXMXMXMXMXMXDXKXGXGXGXGXGXGXGXGXGXGXGXGXGXGXGXGXGXGXGXGXGXGXGXGXGXGXGXMXMXDXMXMXMXMXMXMXMXMXMXMXMXMXMX",
"MXMXMXMXMXMXMXMXMXMXMXMXMXMXMXMXMXMXMXMXMXMXMXMXMXMXDXKXGXGXGXGXGXGXGXGXGXGXGXGXGXGXGXGXGXGXGXGXGXGXGXGXGXGXGXMXMXMXMXMXMXMXMXMXMXMXMXMXAXMXBXBXNXVXtXU.R.E.E.R.T.T.T.G.G.rXpXpXhXhXkXhXfXfXfXhXhXuXvXuXL.BX1X~ vX XL.-X~ zXuXW @X<XkXvXL.wXdX X-XzX2XvXqX1XuXzXuXfXuXyXfXfXhXlXlXhXuXdXhXBXnXnXBXBXqXvXNXlXjXhXnXlXlXjXfXdXlXlXhXhXwXqXuXhXuXwXuXwXqXiXuXwXqXqX4XjXdXdXwX4XwX4X7X2XwXwXqXwXqXqXqXqX7X4X4XhXuX7XwX<X2XqX7X6X:X1X2XqX4XqXdX4X:X-X1XwX>X-XqX1X1X1X=X<X<X$X-X1X<X<X<X>X#X&X-X^ &X@X$X#X#X#X%X%X! W I D W @X#XT S D A b D @XL.D S W R A J L.! S T / W R W J J R T T T T T P P P P P R R P J J S J R K K S I I P R J T T T T T T T T I W R R ! ! W ^ ^ L. X@X#X%X>X1X5XKXBXNXMXMXAXAXMXMXMXMXMXMXMXMXMXMXMXMXMXMXMXMXMXMXMXMXDXKXGXGXGXGXGXGXGXGXGXGXGXGXGXGXGXGXGXGXGXGXGXGXGXGXGXGXGXMXMXDXMXMXMXMXMXMXMXMXMXMXMXMXMX",
"MXMXMXMXMXMXMXMXMXMXMXMXMXMXMXMXMXMXMXMXMXMXMXMXMXMXDXKXGXGXGXGXGXGXGXGXGXGXGXGXGXGXGXGXGXGXGXGXGXGXGXGXGXGXGXMXMXMXMXMXMXMXMXMXMXMXMXMXAXMXBXBXNXVXtXW.R.E.E.R.T.T.T.G.G.rXpXpXhXhXkXhXfXfXfXhXzXyXxXdX XzX4XR HX~ qX=XL.VXjXL.wXuXwXkX%X:XqX2X-XuX1XvX2X<X4XqXhXhXuXiXdXfXjXxXfXfXhXlXxXBXzXuXlXDXjXBXHXjXwXxXNXfXxXhXfXdXNXvXvXVXnXhXdXhXhXkXwXuXiXwXwXwX6X5X:X2X-X1XqX7XiX7X4XwXuX=X=X&X<X2XqX1X3X>X#X@X@X#X1X2X4X1XL.4X:XqX4X#X^ K L.%X4X3X@XT :X1X#XA $X5X>X@X@X<X&X1X/ 2 #X&X$X<X/ C 1X#X$X$X$X$X$X&XA A $X^ D C %XD A %X&XP C @X! C ^  X^ J A L.T A @X! ! W W J S T P T T T T T T P J S T T P J J J J R D S S P K S T J J J P P I T T T T Q R R ! ! ! ^ ^ L. X@X#X=X:X1X5XZXBXNXMXBXMXAXMXMXMXMXMXMXMXMXMXMXMXMXMXMXMXMXMXMXMXMXDXKXGXGXGXGXGXGXGXGXGXGXGXGXGXGXGXGXGXGXGXGXGXGXGXGXGXGXGXMXMXMXMXMXMXMXMXMXMXMXMXMXMXMXMX",
"MXMXMXMXMXMXMXMXMXMXMXMXMXMXMXMXMXMXMXMXMXMXMXMXMXMXDXKXGXGXGXGXGXGXGXGXGXGXGXGXGXGXGXGXGXGXGXGXGXGXGXGXGXGXGXMXMXMXMXMXMXMXMXMXMXMXMXMXAXMXBXBXNXVXtXW.R.E.E.R.T.T.T.G.G.rXpXpXhXhXkXhXfXfXfXhXhXdXdXdX>X>X&X<XzX#X2XvXI 2XzXI zXxXzXnX2X~ -XxX=X>X7XkXdX:XkXuXjXjXdXyXfXhXjXxXdXhXhXfXhXBXvXzXNXNXhXjXBXKXxXKXxXyXjXjXjXxXBXxXuXzXnXvXuXdXxXxXwXuXuXwXqXqX4X:XuX3X<X%X1XuX5X4X4XhX#X^ <X=X XK 1XiXwXA / %X%XD Z 4XwXL.l 1X4X4XQ b >X2XQ J <XqXI < 4X2XL., b #XqX$XZ 1X&X<XW C Z &X-X<XJ 1 >X&X$X&X&X$X#X=XZ J 2X>XT C >XS l @X/ J K @XJ C @X/ @XR D / J Z  XW ! W W T J R T R P P T T T P P P J P J K J J J T D S S J D D P J J J J P P T T T R Q Q Q W W ! / ^ L. X@X#X=X:X1X2XKXBXNXMXMXMXAXMXMXMXMXMXMXMXMXMXMXMXMXMXMXMXMXMXMXMXMXDXKXGXGXGXGXGXGXGXGXGXGXGXGXGXGXGXGXGXGXGXGXGXGXGXGXGXGXGXDXMXMXMXMXMXMXMXMXMXMXMXMXMXMXMX",
"MXMXMXMXMXMXMXMXMXMXMXMXMXMXMXMXMXMXMXMXMXMXMXMXMXMXDXKXGXGXGXGXGXGXGXGXGXGXGXGXGXGXGXGXGXGXGXGXGXGXGXGXGXGXGXMXMXMXMXMXMXMXMXMXMXMXBXMXAXMXBXBXNXVXtXW.R.E.E.E.T.Y.Y.Y.G.rXpXiXhXhXkXhXfXcXfXhXfXxXlXzXvXhXdXvXhXqXhXvX6X1XnX%X@X%X-XjXfX X<XnX=X=XhXfXuX&XjXjXfXhXdXuXfXhXhXzXdXhXhXfXhXBXvXlXNXNXzXuXjXFXNXnXjXdXjXzXfXBXNXwXhX6XxXnXuXfXvXiXqXuXuXqXqXwX4X:XqXuXqX%X:XiX3X4X4XqXI =XjXdXiXL.Q qXdXC #XjXkX-X1 <XiXL.l 2XuX~ < 4XiX:XhXhX4X1XQ < qX5X^ Q D , $X4XD >X3XL.R 1X> L.<X=X^ C $X&X$X&X$X#X#X>XA P J Z J / &XJ Z W Z Z L.-XI Z L.@X^ S A ^ W Z I / T P R P J T P T P P P P P P T T J I J S J S D S S S D J S D P K J J P P P T T T R R Q W Q W ! ! L.L. X@X#X=X:X1X5XKXBXNXMXMXMXAXMXMXMXMXMXMXMXMXMXMXMXMXMXMXMXMXMXMXMXMXDXKXGXGXGXGXGXGXGXGXGXGXGXGXGXGXGXGXGXGXGXGXGXGXGXGXGXGXGXDXMXDXMXMXMXMXMXMXMXMXMXMXMXMXMX",
"MXMXMXMXMXMXMXMXMXMXMXMXMXMXMXMXMXMXMXMXMXMXMXMXMXMXDXKXGXGXGXGXGXGXGXGXGXGXGXGXGXGXGXGXGXGXGXGXGXGXGXGXGXGXGXMXMXMXMXMXMXMXMXMXMXMXBXMXAXMXBXBXNXVXtXW.R.T.E.E.T.Y.Y.G.G.tXpXiXhXhXkXjXfXcXfXhXyXuXiXdXfXlXlXuXzXdXjXzXwXvXqXjXvXhXqXdXvX6XiXhXwX4XjXhXqX:XqX7XiXuXuXuXhXhXhXlXfXhXhXjXzXNXjXqXjXDXvXxXdXnXKXuXjXjXfXlXdXBXNXuXzXqXnXZXuXuXvXuXqXiXiXqXwXiX7X<X<X2X%X>XiX7XqXqXhX1XI 4X4X:XuXL.A 3XwXP R #XI D :XqXqX$Xb 1XhXZ l wX>X:X=XS -XuXW 1 2XqXI  X2X1 1 / R 1X<XZ P @XC l &X<X/ 1 >X=X&X&X$X#X$X&XA Z &X@X@X-X#XD D #XL.C S  XW A J W T J R ^ ^ T K W P P E T P T J P T T P J J J P P S P J S J J S J S S D J K S T J J P P P I T T T T I R W Q ! ^ / L.L. X@X#X=X:X1X5XKXBXNXMXMXMXAXMXMXMXMXMXMXMXMXMXMXMXMXMXMXMXMXMXMXMXMXDXKXGXGXGXGXGXGXGXGXGXGXGXGXGXGXGXGXGXGXGXGXGXGXGXGXGXGXGXDXMXDXMXMXMXMXMXMXMXMXMXMXMXMXMX",
"MXMXMXMXMXMXMXMXMXMXMXMXMXMXMXMXMXMXMXMXMXMXMXMXMXMXDXKXGXGXGXGXGXGXGXGXGXGXGXGXGXGXGXGXGXGXGXGXGXGXGXGXGXGXGXMXMXMXMXMXMXMXMXMXMXMXBXMXAXMXBXBXNXVXtXW.T.T.T.E.T.Y.Y.G.F.tXpXiXhXhXkXhXfXfXfXhXxXfXlXzXyXdXlXfXfXhXdXuXjX6XlXfXfXlXlXfXhXdXjXlXzXyXfXlXdXhXfXuXyXdXuXuXhXfXfXhXlXhXuXdXhXNXnXnXNXZXhXjXjXBXHXhXjXjXjXfXfXvXNXxXwXuXvXvXqXwXvXvXuXiXwXqXwXiX7X1XwXqX$X:XhXqX4XqXqX:XQ <XhXdXhX^ W qXwXJ Q uX X1 3XiXwX@Xl :XwX~ b 1XiXqX X; #XqXD Z 1X2XL.^ qX:XA < S 2X/ P &XL.@X< W 1XT 1 =X@X@X#X%X$X$X#XT D $X&X X X@XJ D %X$XK A L.#XL.Q T R / L.^ ! / ! I ! W / W W W T R T T T P J J J J D J J S J P J J S S S J K S I K J J J P P T T T R T W ! W ! L.^ L. X X@X#X%X>X<X5XKXBXNXMXMXMXAXMXMXMXMXMXMXMXMXMXMXMXMXMXMXMXMXMXMXMXMXDXKXGXGXGXGXGXGXGXGXGXGXGXGXGXGXGXGXGXGXGXGXGXGXGXGXGXGXGXDXMXDXMXMXMXMXMXMXMXMXMXMXMXMXMX",
"MXMXMXMXMXMXMXMXMXMXMXMXMXMXMXMXMXMXMXMXMXMXMXMXMXMXDXKXGXGXGXGXGXGXGXGXGXGXGXGXGXGXGXGXGXGXGXGXGXGXGXGXGXGXGXMXMXMXMXMXMXMXMXMXMXMXMXMXAXMXBXBXNXVXtXW.R.T.T.E.T.Y.Y.G.F.tXpXiXhXhXkXhXfXfXfXfXuXdXdXfXdXlXuXfXdXlXfXuXzXzXiXhXfXuXhXuXdXhXfXyXfXiXlXfXuXhXfXhXhXjXfXfXhXfXdXfXdXhXjXlXuXzXfXlXjXxXxXjXfXnXxXjXjXjXxXfXjXfXvXNXvXNXvXhXiXuXhXkXhXuXwXwXwXqX4X1X7XdX4X X=XuX4X6X4XkX#XT <X<X#XJ 1XqXqXD ~ zXqXW , -XiXL.b 3X4X1XZ b &X-XR 1 :XiXJ , 4X4XL.~ 2X>X3XZ D 7XJ $X3X<X2X! b -X XJ T T I L.&X&X$X#X@X X#X@X@X@X%X@X@X@X^ #X@XL.^ ^  X X X^ / L.! W L.! W E W R T E P T T T T P P J J J J I J S J J D D K J J P S D J D K J J P P T T T W T ! / W ! L./ L. X X@X#X%X-X<X5XKXBXNXMXMXMXAXMXMXMXMXMXMXMXMXMXMXMXMXMXMXMXMXMXMXMXMXDXKXGXGXGXGXGXGXGXGXGXGXGXGXGXGXGXGXGXGXGXGXGXGXGXGXGXGXGXDXMXDXMXMXMXMXMXMXMXMXMXMXMXMXMX",
"MXMXMXMXMXMXMXMXMXMXMXMXMXMXMXMXMXMXMXMXMXMXMXMXMXMXLXKXGXGXGXGXGXGXGXGXGXGXGXGXGXGXGXGXGXGXGXGXGXGXGXGXGXGXKXMXMXMXMXMXMXMXMXMXMXMXMXMXAXMXBXBXNXVXrXG.R.T.Y.E.T.Y.Y.Y.G.tXkXiXhXhXhXhXfXfXhXhXfXxXyXzXqXzXxXuXfXuXlXfXfXlXuXhXyXhXfXfXfXxX6XfXjXyXhXuXlXfXyXjXfXfXhXhXhXfXfXfXfXdXjXfXfXlXhXdXfXlXjXfXlXlXdXjXlXlXlXyXlXfXfXdXdXdXuXuXuXdXuXwXuXuXwXqXqXqXqX6XqXwXwXqX7X4X6XqX3XqXqX1X&X#X=XqXiX7X4X%X<X3X7XqX*X=X7X&X%X4X2X4XqXL. XL.%XqX2X1X:X-X:X1X>X-X>X>X1X1X=X<X=X%X-X&X&X-X>X<X&X<X<X-X=X=X#X#X#X#X&X#X#X#X@X@X@X@X@X@X@X XL.L.L.^ ^ L.L./ / ^ ^ W Q ! W R R E T T T E T P J J P P P P J J P S S J S D D J S K K S T P T R Q J Q I T I L.! W ! ! ^ L.^ L. X X@X#X%X>X,X2XFXNXDXBXMXDXMXMXMXMXMXMXMXMXMXMXMXMXMXMXMXMXMXMXMXMXMXMXKXGXGXGXGXGXGXGXGXGXGXGXGXGXGXGXGXGXGXGXGXGXGXGXGXGXGXGXDXMXMXLXMXMXDXMXMXMXMXMXMXMXMXMX",
"MXMXMXMXMXMXMXMXMXMXMXMXMXMXMXMXMXMXMXMXMXMXMXMXMXMXDXKXGXGXGXGXGXGXGXGXGXGXGXGXGXGXGXGXGXGXGXGXGXGXGXGXGXGXKXMXMXMXMXMXMXMXMXMXMXMXMXMXAXMXBXBXNXVXrXG.R.T.T.T.T.Y.Y.Y.G.tXkXuXhXhXhXhXfXfXhXhXhXfXfXdXxXyX7XxXhXxXuXhXjXqXfXjXzXyXlXqXuXhXuXxXhXfXhXuXfXfXfXlXuXdXdXfXfXfXhXhXhXhXjXhXhXlXjXhXjXlXjXdXjXjXfXlXfXfXjXfXxXfXfXfXzXhXuXuXuXiXiXuXuXuXiXwXwXwXwXwXqXqXqXqXqXqXqXqXqXqXqXqXwXuXqX3X2X2XqXuXiX4X1X3XhX2X4X6XqX4X>X2X4X4XiXqX2X:X-X1X1X1X<X:X:X:X:X-X&X>X=X=X<X=X&X&X&X=X&X&X$X$X#X&X#X#X$X&X&X#X#X#X$X@X@X$X#X XL.#XL.L.@X@XL.^ ^ ^ L.L./ W ! ^ / W ! W R R R R E E R T P P J J J J J K J J J P P I D P K K S J R P P P Q R R P T T ^ ! ~ / ! ^ L.L.L. X X@X#X=X>X1X2XZXNXLXMXNXDXMXMXMXMXMXMXMXMXMXMXMXMXMXMXMXMXMXMXDXMXMXDXKXGXGXGXGXGXGXGXGXGXGXGXGXGXGXGXGXGXGXGXGXGXGXGXGXGXGXGXDXMXMXMXMXMXMXMXMXMXMXMXMXMXMXMX",
"MXMXMXMXMXMXMXMXMXMXMXMXMXMXMXMXMXMXMXMXMXMXMXMXMXMXDXKXGXGXGXGXGXGXGXGXGXGXGXGXGXGXGXGXGXGXGXGXGXGXGXGXGXGXKXMXMXMXMXMXMXMXMXMXMXMXBXMXAXBXBXBXNXVXrXG.R.E.T.E.T.Y.Y.Y.G.tXpXiXhXhXhXhXfXcXhXhXuXdXzXuX X:X&XqXhX-XhXzXiXzXlXlXxXiXlXxXdXuXhXqXyXfXfXfXuXdXfXyXhXhXhXfXfXfXfXhXfXhXfXfXhXhXhXzXjXlXfXfXlXlXjXlXlXfXjXlXxXfXfXfXdXiXwXuXdXuXuXhXiXiXiXiXwXqXwXiXuXwXqXqXqXqX4X3X4X4XqX4X1X2XqXwX4X4X3X4X<X1X4X4X:X4X7X<X:X3X4X1X-X1X>X<X4X<X<X1X:X1X<X-X<X1X:X-X=X<X>X&X<X>X$X>X&X&X&X&X-X&X$X&X=X$X$X$X#X#X@X%X@X#X#X@X@X@X@X X#X@XL.L.L.@X@XL.! L.L./ ! ~ ! R W W R R R R T P T P P P J P P T J S J T T P I R S R P K S P W P J K R / P P T R ! ! ^ ^ ! ~ L.L.L. X X@X#X=X:X1X2XZXBXLXMXMXDXMXMXMXMXMXMXMXMXMXMXMXMXMXMXMXMXMXMXMXMXMXDXKXGXGXGXGXGXGXGXGXGXGXGXGXGXGXGXGXGXGXGXGXGXGXGXGXGXGXGXDXMXMXDXMXMXMXMXMXMXMXMXMXMXMXMX",
"MXMXMXMXMXMXMXMXMXMXMXMXMXMXMXMXMXMXMXMXMXMXMXMXMXMXMXKXGXGXGXGXGXGXGXGXGXGXGXGXGXGXGXGXGXGXGXGXGXGXGXGXGXGXKXMXMXMXMXMXMXMXMXMXMXMXMXMXAXMXBXBXNXVXrXG.R.T.Y.R.T.Y.Y.Y.G.tXpXiXhXhXkXhXfXcXhXhXnXfXhXqX XMXiXqXhX! vXxX^ 5XkX4X X1X$XuXlXzXdXjXzXfXuXlXdXfXzXfXfXhXjXhXfXfXfXfXhXlXfXhXlXfXfXlXfXjXfXjXzXlXjXfXxXjXjXjXjXfXjXhXjXkXkXhXhXdXuXiXiXiXiXwXqXqXqXqX7X4X4X7XqXqXqXqXqX2X3XwXqX3X2X1XqX4X3X4X4X2XqX1X3X4X1X2X2X1X3X2X4X7X1X<X<X>X:X<X-X<X:X>X:X:X-X-X>X<X<X&X=X=X&X>X=X&X=X&X&X%X&X@X#X@X#X#X%X&X@X#X$X@X@X@X@XL.L.@X@XL. X@XL.L.L.! L.^ ^ L.L.~ ! ~ T E E R R R T J J P P P P P T E T J S T R J P T S R I S D J R J J S T L.J P T R R Q ! / W W ^ ^ L.L. X@X#X=X>X<X1XZXBXLXMXMXLXAXMXMXMXMXMXMXMXMXMXMXMXMXMXMXMXMXMXMXMXMXDXKXGXGXGXGXGXGXGXGXGXGXGXGXGXGXGXGXGXGXGXGXGXGXGXGXGXGXGXDXMXMXLXMXMXMXMXMXMXMXMXMXMXMXMX",
"MXMXMXMXMXMXMXMXMXMXMXMXMXMXMXMXMXMXMXMXMXMXMXMXLXLXDXKXGXGXGXGXGXGXGXGXGXGXGXGXGXGXGXGXGXGXGXGXGXGXGXGXGXGXGXKXMXMXMXMXMXMXMXMXMXMXMXMXAXMXBXBXNXVXrXG.T.T.Y.T.T.Y.Y.Y.G.tXpXiXhXhXkXhXfXfXhXhXqXyXxX<X&XxXqXzXzX~ qXvXL.2XnX~ 1XnX=X@XhXdX^ dXjX<X:X7X1X2XuXwX7XiXdXdXfXhXhXhXdXjXuXhXhXyXdXdXjXjXdXjXjXfXjXdXjXfXhXjXdXjXlXfXuXhXhXuXiXuXuXwXiXwXwXwXqXqXqXqXqXqXqXqXqX7X7X7XwX4X4XqXqX6X4X3XqX1X7X4XiX<X4X5X2X1X1X4X2X:X1X2X<X:X2X1X<X2X:X:X<X<X<X:X:X-X>X<X>X&X-X>X=X=X=X&X>X&X=X&X#X=X<X$X&X&X&X$X$X$X#X@X@X&X&X%X$X&X#XL.@XL. XL.W ! @X@XW P S J T T J S J T E E R R T J T T T T P J P P Q P D R W J I I D T P D D J R K T S J / J P T T R T W W W W / ! L.L. X@X#X%X-X:X<XBXBXMXNXMXAXAXMXMXMXMXMXMXMXMXMXMXMXMXMXMXMXMXLXMXMXLXDXKXGXGXGXGXGXGXGXGXGXGXGXGXGXGXGXGXGXGXGXGXGXGXGXGXGXGXKXDXMXMXDXDXMXMXMXMXMXMXMXMXMXMXMX",
"KXKXKXKXKXKXKXKXKXKXKXKXKXKXKXKXKXKXKXKXKXKXKXKXKXKXKXKXKXKXKXDXKXKXKXKXKXKXKXKXKXKXKXKXKXKXKXKXKXKXKXKXKXKXKXKXKXKXKXKXKXKXKXKXKXKXKXKXKXKXFXKXDXZXrXG.R.E.T.R.T.Y.Y.Y.G.tXpXiXhXhXkXhXfXfXhXhXzXlXlX1X$XnXzXfXvXQ %X=XI 4XvXQ vXzXhX~ iXzXL.lXlX&X7XfXfXyXlXfX4XwXdXfXfXhXjXhXzXxXzXnXvXvXZXnXvXvXjXlXhXdXvXxXhXfXlXvXdXfXfXuXhXhXdXiXwXuXdXdXuXwXwXwXwXiXwXwXiXwXwXqX7X4X4X4X4XiXqX1X2X4X6XwX7XqXuX:X2X4X7XwXqX4X2X4XwXdXqX5X1X1X3X2X4XqX2X3X2X:X:X<X:X<X1X:X<X-X&X>X=X&X:X<X&X%X$X=X&X=X#X@X@X$X#X%X$X@X$X#X$X^ P D D J ! @X@XJ D J P W ^ W S W ^ ~ ! / ! T S T R R R R E J P T T T T P P T W T D R W J R T D T P J J I W I R J J R J I T T Q T R W W ! / ! ^ L. X@X#X%X-X:X<XBXKXKXDXKXKXKXKXKXKXKXKXKXKXKXKXKXKXKXKXKXKXKXKXKXKXKXKXKXKXKXKXKXKXKXKXKXKXKXKXKXKXKXKXKXKXKXKXKXKXKXKXKXKXKXKXKXKXKXKXKXKXKXKXKXKXKXKXKXKXKXKX",
"GXGXGXGXGXGXGXGXGXGXGXGXGXGXGXGXGXGXGXGXGXGXGXGXGXGXGXKXDXDXDXMXMXMXMXMXMXMXMXMXMXMXMXMXMXMXMXMXMXMXLXMXMXMXDXKXGXGXGXGXGXGXGXGXGXGXGXGXGXGXHXHXKXFXrXG.R.T.T.R.T.Y.Y.Y.G.tXpXiXhXhXkXhXfXfXhXhXuXhXzXzXL.qXzXhXhXL.vXVX#XwXhXR zXqXvX^ qXlX#XuXiX XhXzXzXfXkXwX6XuXhXfXfXhXlXjXfXfXyXlXfXzXZXzXxXvXhXxXjXhXBXNXjXfXxXBXjXdXfXxXVXnXvXvXzXuXiXdXhXuXwXwXiXiXqX6X1X1X1X5X6XwXuXuX7XwX4X7XhX7X=X-X-X<X4X4XqXuX#X1X1X1XiX1X X~ L.<X2XuX-X X#XL.^ %X2X-X:X<X>X2X-XQ @X2X&X>X&XT ^ =X=X=X/ &X=X/ l ! S J S @X>X#X%X X=XZ C $X&XZ Z $X#XD D / @X#X XT C I ^ / ! / ! T S E W R R R E P J J P P T T T T T Q S R R S Q T S T P P P P Q T I J P J T I T T Q T R W W ! / ! ^ L. X@X#X%X-X:X<XBXHXHXFXGXGXGXGXGXGXGXGXGXGXGXGXGXGXGXGXGXGXGXGXGXGXGXGXKXDXDXMXMXMXMXMXMXMXMXMXMXMXMXMXMXMXMXMXMXMXMXMXMXMXMXKXKXGXGXGXGXGXGXGXGXGXGXGXGXGXGXGX",
"GXGXGXGXGXGXGXGXGXGXGXGXGXGXGXGXGXGXGXGXGXGXGXGXGXGXGXKXMXMXMXMXMXMXMXMXMXMXMXMXMXMXMXMXMXMXMXMXMXMXLXMXMXMXKXGXGXGXGXGXGXGXGXGXHXHXGXGXGXGXHXFXFXFXrXG.T.T.T.T.T.Y.Y.G.G.tXpXuXhXhXhXhXhXfXfXhXlXdXhXxXqX$X>X<XxX^ qXnXL.:XZXW 2XNXuX^ zXjX XjXdX@XxXuXuXuXlXuX4XwXdXuXuXhXzXzXvXzXfXzXyXlXZXdXdXjXyXlXhXjXKXBXjXyXxXFXzXdXxXFXhXiXfXvXvXuXwXkXjXdXwXwXwXqX4X2X4X2X<X1X4X7X4X3X4XqX4XqX4X^ I -X$XI I 3XqX:Xl #XdX5X%XA I -XL.Z =X4XZ b %X%X X%X4X:X1X<X-X<XL.* C 1X>X<X#X, < / 1X<XS $X2X/ < <X1X Xb ! &X@X&X#X&XI D L. XJ P #X%XS Z P P R L.L.J Z C D W ^ ! I S R ! W E E T J T T P T T T P J T W J T P A R T D P J J J D J S J P T S R P E T R T R Q R W / ! ^ L. X@X#X=X-X:X>XNXFXHXHXGXHXGXGXGXGXGXGXGXGXGXGXGXGXGXGXGXGXGXGXGXGXGXGXKXMXMXMXMXMXMXMXMXMXMXMXMXMXMXMXMXMXMXMXMXMXMXMXMXMXMXMXKXGXGXGXGXGXGXGXGXGXGXGXGXGXGXGX",
"GXGXGXGXGXGXGXGXGXGXGXGXGXGXGXGXGXGXGXGXGXGXGXGXGXGXGXKXMXMXMXMXMXMXMXMXMXMXMXMXMXMXMXMXMXMXMXMXMXMXMXMXDXMXDXGXGXGXGXGXGXGXGXGXGXGXGXGXGXGXGXGXHXFXaXG.R.Y.T.R.T.Y.G.G.G.tXaXpXhXhXhXhXhXfXgXgXlXjXhXjXlXlXlXjXfXfXdXyXqXwXdXhX%X<X&X7XjXuX@XuXzX>X2XzXkXdXkXwX6XdXjXjXfXfXfXdXlXnXxXjXiXzXZXdXdXxXhXxXjXfXBXBXNXBXnXHXdXdXNXNXwXzXuXuXvXjX7XkXzXqXwXiX4X7XqX1X<X7XqXuXuXqXqX1XqX4X7XqXuX~ #XzXzX4Xl -XwX1XZ %XqX4X< L.dXuXiX4X5XuXA K :X%X1X4X3X:X<X<X>X=XQ :X< L.1X=X$XT R , R 7XT #X7XW b $X#X<XD J &X#X#X#X&XT l W T J A ^ &XD D @X@XL.@X^  X@X/ S J / / J S E W R R R T J P P P T T T T T J J J J J J S S J J J J J J J J S ) P P P P P E E R R R W ! ~ / ^ L. X@X#X=X-X:X:XnXHXHXGXGXGXHXGXGXGXGXGXGXGXGXGXGXGXGXGXGXGXGXGXGXGXGXGXKXMXMXMXMXMXMXMXMXMXMXMXMXMXMXMXMXMXMXMXMXMXMXMXMXMXMXMXGXGXGXGXGXGXGXGXGXGXGXGXGXGXGXGX",
"GXGXGXGXGXGXGXGXGXGXGXGXGXGXGXGXGXGXGXGXGXGXGXGXGXGXGXKXMXMXMXMXMXMXMXMXMXMXMXMXMXMXMXMXMXMXMXMXMXMXMXMXDXMXDXGXGXGXGXGXGXGXGXGXGXGXHXHXGXGXGXGXHXFXbXG.R.Y.Y.R.T.Y.G.G.G.tXaXwXhXfXhXhXkXhXgXgXfXfXfXfXjXjXjXfXgXjXjXgXdXdXgXjXuXdXqXhXkXjX2XhXvX3X1X3X<X4XhXhX5XqXuXuXuXfXhXjXhXvXzXjXuXzXZXjXfXxXfXxXjXjXDXDXjXzXlXHXhXdXNXDXqXuXiXjXnXhXqXlXjXwXiXuX6XqXuX4X<X-X=X>X4X7XqXhXqXqX7X2XqXL.^ *X XK #X6XwXqXb #XhX#Xl <XqX&X:X1X<X7XA D  XW %X:X&X1X-X=XqX^ K -Xl C <X3X#XR 1XW , J / #X=XL.b -X2X@XC T &X#X$X@X&XP S 3X<X! C ~ @XD S L. X/ / R P T T P R ^ / R P R W R E R E P T P T T T P P P J J J J J J S S J J J J J J J J S ) P P P P T E E R R Q Q W ~ / ^ ^  X@X#X=X-X:X:XnXHXHXGXGXGXHXGXGXGXGXGXGXGXGXGXGXGXGXGXGXGXGXGXGXGXGXGXKXMXMXMXMXMXMXMXMXMXMXMXMXMXMXMXMXMXMXMXMXMXMXMXMXMXMXMXGXGXGXGXGXGXGXGXGXGXGXGXGXGXGXGX",
"GXGXGXGXGXGXGXGXGXGXGXGXGXGXGXGXGXGXGXGXGXGXGXGXGXGXGXKXMXMXMXMXMXMXMXMXMXMXMXMXMXMXMXMXMXMXMXMXMXMXMXMXDXMXDXGXGXGXGXGXGXGXGXGXGXGXHXHXGXGXGXGXHXFXaXG.R.Y.Y.R.T.Y.Y.G.G.tXaXwXhXfXhXkXkXhXfXgXfXfXfXfXfXfXfXfXfXfXjXjXfXfXfXgXzXhXlXkXuXzXjXfXhXdXhXhXuXhXkXuXwXuXuXuXdXhXjXjXfXzXhXjXfXlXNXjXjXzXfXlXjXjXBXBXdXfXlXHXlXdXvXNXzXhXhXvXvXdXqXjXkXwXiXuXqXiXuX7XwXwX2X%X<XiX4XqXqX4X4XqXwX~  X7X^ Z 2XqX2X6Xl =XuX&Xl L.qXuX4XqX2XdXA P lXiX2XqX2X1X:X1X%XK L.@XL., Q 1X#XT 7X=X^ , C <X1X~ , @X$XR J @X&X@X$X#X$XR C T J J J @X$XT A D D J W L.T T R ~ ^ / ! W R W W R E R R T T T T P P P P P J J J J J J J J J J J J J J J J J P P P P T T E R R Q Q W ~ ~ / ^ ^  X@X#X=X-X:X:XNXHXHXGXGXGXGXGXGXGXGXGXGXGXGXGXGXGXGXGXGXGXGXGXGXGXGXGXKXMXMXMXMXMXMXMXMXMXMXMXMXMXMXMXMXMXMXMXMXMXMXMXMXMXMXMXGXGXGXGXGXGXGXGXGXGXGXGXGXGXGXGX",
"GXGXGXGXGXGXGXGXGXGXGXGXGXGXGXGXGXGXGXGXGXGXGXGXGXGXGXKXMXMXMXMXMXMXMXMXMXMXMXMXMXMXMXMXMXMXMXMXMXMXMXMXDXMXDXGXGXGXGXGXGXGXGXGXGXGXHXHXGXGXGXGXHXFXbXG.T.Y.T.E.T.Y.Y.G.G.tXkXpXhXfXkXkXkXkXfXfXfXfXfXfXfXfXfXfXdXfXgXgXfXdXdXfXfXwXjXuXuXhXzXuXuXkXjXhXhXjXkXhXjXhXhXfXhXhXhXfXfXjXfXjXfXfXxXfXlXlXfXlXjXjXvXxXhXjXzXBXjXyXjXxXnXzXzXxXjXiXuXkXhXiXiXuXqXqXwX7X3XqX7X%X1XiX-X<XuX2X2XuX7XT  XzXdXW D >XwX<X< =XiXwXQ A  X<X#X^ %X3XC l &X@X^ &X4X=X>XqXQ L.wX&X4XI A -X$XL.$X:X2XW D %X-XL.I J ! ! #X&X$X#X$X#X@X#XL. X^ #X@X@X@X@X@X#X$X@XL.L.L.^ / L.^ ! W ! W W W R E R R E T T T P P P J J J J J J J J J J J J J J J J J J J J P T T T T R T Q Q Q W ~ ~ / ^ ^  X@X#X=X-X:X:XnXHXHXGXGXGXGXGXGXGXGXGXGXGXGXGXGXGXGXGXGXGXGXGXGXGXGXGXKXMXMXMXMXMXMXMXMXMXMXMXMXMXMXMXMXMXMXMXMXMXMXMXMXMXMXMXGXGXGXGXGXGXGXGXGXGXGXGXGXGXGXGX",
"GXGXGXGXGXGXGXGXGXGXGXGXGXGXGXGXGXGXGXGXGXGXGXGXGXGXGXKXMXMXMXMXMXMXMXMXMXMXMXMXMXMXMXMXMXMXMXMXMXMXMXMXDXMXDXGXGXGXGXGXGXGXGXGXGXGXHXHXGXGXGXGXFXFXbXG.R.E.T.R.E.T.Y.G.G.tXaXpXhXfXkXkXkXkXhXfXhXjXjXjXfXfXfXfXgXfXfXfXfXfXfXgXfXfXjXuXlXuXhXdXuXfXyXwXdXfXdXhXfXdXdXfXhXhXfXfXhXhXfXhXfXfXjXfXjXjXjXlXjXhXzXjXfXjXjXxXdXdXjXdXlXhXhXhXwXwXhXdXdXiXwXwXwXqXqX6X3X<X3X2XuX4X*X5XqXqX4XqXqX&X-X4X7XqX X&X1XqX*X&X:XqXiX:XW W L.%X5X4X#X@X XL.#X%X>X<X:X1X%X<X2X:X<X-X$X1X=X-X&X=X=X7X&X-X%X=X2X%X$X%X&X#X#X&X$X$X%X$X@X#X@X@X X@X X@XL.^ L.^ / L.L.L.^ / ! ! ! ~ W W W R R R T T T T T P P J J J J J J J J J J J J J J J J J J J J J P T T T T R R R Q Q Q ~ / / / ^  X@X#X%X-X>X>XnXHXHXGXGXGXGXGXGXGXGXGXGXGXGXGXGXGXGXGXGXGXGXGXGXGXGXGXKXMXMXMXMXMXMXMXMXMXMXMXMXMXMXMXMXMXMXMXMXMXMXMXMXMXMXMXGXGXGXGXGXGXGXGXGXGXGXGXGXGXGXGX",
"GXGXGXGXGXGXGXGXGXGXGXGXGXGXGXGXGXGXGXGXGXGXGXGXGXGXGXKXMXMXMXMXMXMXMXMXMXMXMXMXMXMXMXMXMXMXMXMXMXMXMXMXDXMXDXGXGXGXGXGXGXGXGXGXGXGXHXHXGXGXGXGXFXFXbXG.T.E.T.T.E.Y.Y.G.G.tXaXpXfXfXkXkXkXkXhXhXfXfXjXgXfXfXfXfXjXgXfXfXfXfXfXgXhXlXfXiXzXyXfXlXdXfXfXjXzXjXuXdXfXdXdXhXhXfXdXdXfXhXfXhXhXhXhXhXjXfXjXlXjXjXlXhXjXjXjXfXdXjXjXdXiXuXhXuXwXuXdXqXwXwXwXwXiXiXwXwXuXwXiXqXuX7X-XqX3XqX4X4XiXwXiX4X4X3XuXdX7X:XqXwXqX<X:X4XiXwX4XqX4X3X5XqXqX4X7X<X1X1X1X&X4X:X#X-X-X=X2X:X=X=X1X&X#X$X$X%X%X#X#X-X=X=X$X@X%X&X@X&X@X@X@X$X#X@XL. XL.@X XL.L.L.^ ^ / ^ ^ ~ ! / / ! W R R R R R T P T T T P P J J J J J J J J J J J J J J J J J J J J P P P T T R R R Q Q W Q W / / / ^  X@X#X%X=X>X=XnXHXHXGXGXGXGXGXGXGXGXGXGXGXGXGXGXGXGXGXGXGXGXGXGXGXGXGXKXMXMXMXMXMXMXMXMXMXMXMXMXMXMXMXMXMXMXMXMXMXMXMXMXMXMXMXGXGXGXGXGXGXGXGXGXGXGXGXGXGXGXGX",
"GXGXGXGXGXGXGXGXGXGXGXGXGXGXGXGXGXGXGXGXGXGXGXGXGXGXGXKXMXMXMXMXMXMXMXMXMXMXMXMXMXMXMXMXMXMXMXMXMXMXMXMXDXMXMXGXGXGXGXGXGXGXGXGXGXGXHXHXGXGXGXGXFXFXbXG.T.E.T.T.E.T.Y.G.G.tXaXuXfXfXhXkXkXkXhXhXfXfXjXgXfXfXfXgXfXfXfXfXfXfXfXfXuXhXuXuXhXyXjXhXhXfXdXuXuXdXfXfXhXfXhXjXhXfXdXfXfXhXhXfXhXjXhXjXjXfXlXlXjXjXlXjXlXjXlXhXhXjXhXdXdXhXhXdXdXuXuXqXwXiXwXwXiXiXqXwX4XwXqX3X7XwXqXwXqXqX4X7X4X1X4X7XqX1XqX2X2X7XiX:X5XqX1X:X7X1X-X4X:X5X<X-X<X:X:X2X1X&X:X=X<X>X:X<X<X#X-X&X=X$X-X&X<X=X-X%X=X<X$X#X#X$X#X%X&X@X#X%X@X#X@X X X@X#X#X X X XL.L.L.L.^ ^ ^ ^ / / / ! W W R R R R R T T T T T P P P P J J J J J J J J J J J J J J J J J J P T T T T E R R R W W W W ~ / ^ L. X@X#X%X=X>X&XnXHXHXGXGXGXGXGXGXGXGXGXGXGXGXGXGXGXGXGXGXGXGXGXGXGXGXGXKXMXMXMXMXMXMXMXMXMXMXMXMXMXMXMXMXMXMXMXMXMXMXMXMXMXMXMXGXGXGXGXGXGXGXGXGXGXGXGXGXGXGXGX",
"GXGXGXGXGXGXGXGXGXGXGXGXGXGXGXGXGXGXGXGXGXGXGXGXGXGXGXKXMXMXMXMXMXMXMXMXMXMXMXMXMXMXMXMXMXMXMXMXMXMXMXMXDXMXMXGXGXGXGXGXGXGXGXGXGXGXHXHXGXGXGXGXFXFXbXG.R.E.T.T.E.T.Y.G.F.tXaXuXfXgXjXkXkXkXhXfXfXfXjXjXfXfXfXjXfXfXfXfXjXfXfXfXdXjXhXlXfXuXzXwXuXfXjXfXuXfXhXdXfXdXdXhXfXdXfXjXfXhXhXuXfXjXdXhXlXfXlXjXfXjXjXjXhXdXjXjXlXhXdXfXkXhXuXuXfXuXiXdXiXuXiXqXiXqX7XqXiXwX6XwXwX4XqX6X4XqX4XqX7X4X7X4X3XwX3X3X2X4X1X4X2X1X5X5X1X1X7X:X4X:X2X2X<X2X2X-X:X1X1X2X&X<X:X=X=X<X<X-X<X<X%X=X=X%X=X=X$X#X=X%X&X$X$X&X#X#X&X@X#X@X#X#X#X@X@X@X@XL.L.L.L.L.L./  X^ ~ / / ! W ! ! W R E R R R E T T T P P P P P J J J J J J J J J J J J J J J J J T T T T T E R R R W W W W ~ / ^  X X@X#X%X=X-X%XvXHXHXGXGXGXGXGXGXGXGXGXGXGXGXGXGXGXGXGXGXGXGXGXGXGXGXGXKXMXMXMXMXMXMXMXMXMXMXMXMXMXMXMXMXMXMXMXMXMXMXMXMXMXMXMXGXGXGXGXGXGXGXGXGXGXGXGXGXGXGXGX",
"GXGXGXGXGXGXGXGXGXGXGXGXGXGXGXGXGXGXGXGXGXGXGXGXGXGXGXKXMXMXMXMXMXMXMXMXMXMXMXMXMXMXMXMXMXMXMXMXMXMXMXMXDXMXDXGXGXGXGXGXGXGXGXGXGXGXHXHXGXGXGXGXFXFXbXG.T.E.T.E.Y.T.G.G.G.tXaXpXuXfXjXkXkXhXjXgXjXjXfXfXfXfXgXjXfXfXfXfXfXfXfXfXfXfXfXfXfXfXfXfXfXfXfXfXfXfXfXfXfXfXfXfXfXfXfXfXfXfXfXhXhXfXfXfXjXjXjXjXjXjXjXjXjXjXjXjXjXjXhXhXdXdXuXuXuXuXuXiXiXiXiXiXwXwXqXqXqXqXqXqXqXqXqXqX7X7X7X7X4X4X4X4X4X4X4X4X4X4X4X3X2X5X2X2X2X2X1X1X1X1X1X1X1X<X<X<X<X:X:X:X:X:X:X>X-X-X-X-X=X=X=X=X=X=X=X&X&X%X%X%X%X%X$X$X$X$X#X#X#X#X@X@X@X@X@X@X X X X XL.L.L.L.^ ^ / / / ~ ! W W W W R R R E E T T T T P J J J J J J J J J J J J J J J J J J J J P J T T E E R R R R R W ~ ^ ^ ^ L.L..X#X;X=X%X XvXHXFXGXGXGXGXGXGXGXGXGXGXGXGXGXGXGXGXGXGXGXGXGXGXGXGXGXKXMXMXMXMXMXMXMXMXMXMXMXMXMXMXMXMXMXMXMXMXMXMXMXMXMXMXMXGXGXGXGXGXGXGXGXGXGXGXGXGXGXGXGX",
"GXGXGXGXGXGXGXGXGXGXGXGXGXGXGXGXGXGXGXGXGXGXGXGXGXGXGXKXMXMXMXMXMXMXMXMXMXMXMXMXMXMXMXMXMXMXMXMXMXMXMXMXDXMXDXGXGXGXGXGXGXGXGXGXGXGXHXHXGXGXGXGXFXFXbXU.T.E.Y.E.E.E.R.G.F.0XaXiXyXuXhXzXlXjXfXgXgXjXfXfXdXdXfXfXfXfXfXfXfXfXfXfXfXfXfXfXfXfXfXfXfXfXfXfXfXfXfXfXfXfXfXfXfXfXfXfXfXfXfXhXhXfXfXhXjXjXjXjXjXjXjXjXjXjXjXjXjXhXhXhXdXdXuXuXuXuXuXiXiXwXiXiXwXwXwXqXqXqXqXqXqXqXqXqX7X7X7X7X4X4X4X4X4X4X4X4X4X4X4X3X5X5X2X2X2X2X1X1X1X1X1X1X1X<X<X<X<X:X:X:X:X:X:X>X-X-X-X-X=X=X=X=X=X=X=X&X&X%X%X%X%X%X$X$X$X$X#X#X#X#X@X@X@X@X@X@X X X X XL.L.L.L.^ ^ / / / ~ ! W W W W R R R E E T T T T P J J J J J J J J J J J J J J J J J J J T T T T T P P J E R W ! ~ ^ ^ ^ ~ L. X#X%X;X#X.X XvXHXFXGXGXGXGXGXGXGXGXGXGXGXGXGXGXGXGXGXGXGXGXGXGXGXGXGXKXMXMXMXMXMXMXMXMXMXMXMXMXMXMXMXMXMXMXMXMXMXMXMXMXMXMXMXGXGXGXGXGXGXGXGXGXGXGXGXGXGXGXGX",
"GXGXGXGXGXGXGXGXGXGXGXGXGXGXGXGXGXGXGXGXGXGXGXGXGXGXGXKXMXMXMXMXMXMXMXMXMXMXMXMXMXMXMXMXMXMXMXMXMXMXMXMXDXMXDXGXGXGXGXGXGXGXGXGXGXGXHXHXGXGXGXGXFXFXbXG.T.E.Y.E.Y.Y.Y.G.&.0XaXwXkXkXkXkXhXhXfXlXgXjXjXjXgXjXjXlXfXfXfXfXfXfXfXfXfXfXfXfXfXfXfXfXfXfXfXfXfXfXfXfXfXfXfXfXfXfXfXfXfXfXfXhXhXhXhXhXjXjXjXjXjXjXjXjXjXjXjXjXjXhXhXhXdXdXuXuXdXuXuXuXwXwXwXwXwXwXwXqXqXqXqXqXqXqXqXqX7X7X7X7X4X4X4X4X4X4X4X4X4X4X4X3X5X5X2X2X2X2X1X1X1X1X1X1X1X<X<X<X<X:X:X:X:X:X:X>X-X-X-X-X=X=X=X=X=X=X=X&X&X%X%X%X%X%X$X$X$X$X#X#X#X#X@X@X@X@X@X@X X X X XL.L.L.L.^ ^ / / / ~ ! W W W ( R R R E E T T T T P J J J J J J J J J J J J J S J J J J P J J P T T R R R W Q Q Q Q ~ / L. X.XL.P.P.P.L.L.L.vXHXKXGXGXGXGXGXGXGXGXGXGXGXGXGXGXGXGXGXGXGXGXGXGXGXGXGXKXMXMXMXMXMXMXMXMXMXMXMXMXMXMXMXMXMXMXMXMXMXMXMXMXMXMXMXGXGXGXGXGXGXGXGXGXGXGXGXGXGXGXGX",
"GXGXGXGXGXGXGXGXGXGXGXGXGXGXGXGXGXGXGXGXGXGXGXGXGXGXGXKXMXMXMXMXMXMXMXMXMXMXMXMXMXMXMXMXMXMXMXMXMXMXMXMXDXMXDXGXGXGXGXGXGXGXGXGXGXGXHXHXGXGXGXGXFXFXbXG.Y.E.Y.E.E.T.Y.Y.G.tXaXeXwXpXkXkXkXhXdXdXfXfXfXfXfXfXfXfXfXfXfXfXfXfXfXfXfXfXfXfXfXfXfXfXfXfXfXfXfXfXfXfXfXfXfXfXfXfXfXfXfXfXfXhXhXhXhXhXjXjXjXjXjXjXjXjXjXjXjXjXhXhXhXfXdXdXuXuXdXuXuXuXwXwXwXwXwXwXwXqXqXqXqXqX6XqXqXqX7X7X7X7X4X4X4X4X4X4X4X4X4X4X4X3X2X2X2X2X2X2X1X1X1X1X1X1X1X<X<X<X<X:X:X:X:X:X:X>X-X-X-X-X=X=X=X=X=X=X=X&X&X%X%X%X%X%X$X$X$X$X#X#X#X#X@X@X@X@X@X@X X X X XL.L.L.L.^ ^ / / / ~ ! W W W W R R R E E T T T T P J J J J J J J J J J J J J J J J J J J T P P J J P I I T T Q Q ~ P.L.L.P.P.U U U H.P.P.P.xXHXKXGXGXGXGXGXGXGXGXGXGXGXGXGXGXGXGXGXGXGXGXGXGXGXGXGXKXMXMXMXMXMXMXMXMXMXMXMXMXMXMXMXMXMXMXMXMXMXMXMXMXMXMXMXGXGXGXGXGXGXGXGXGXGXGXGXGXGXGXGX",
"GXGXGXGXGXGXGXGXGXGXGXGXGXGXGXGXGXGXGXGXGXGXGXGXGXGXGXKXMXMXMXMXMXMXMXMXMXMXMXMXMXMXMXMXMXMXMXMXMXMXMXMXDXMXDXGXGXGXGXGXGXGXGXGXGXGXHXHXGXGXGXGXHXFXbXG.Y.E.Y.E.E.Y.Y.G.S.0XrXrXpXpXpXkXkXkXjXlXlXlXlXjXjXfXfXfXfXfXfXfXfXfXfXfXfXfXfXfXfXfXfXfXfXfXfXfXfXfXfXfXfXfXfXfXfXfXfXfXfXfXfXhXhXhXhXhXjXjXjXjXjXjXjXjXjXjXjXjXfXfXfXfXfXdXuXdXdXuXuXiXiXiXwXwXwXwXqXqXqXqXqXqX6X6X6XqX7X7X7X7X4X4X4X4X4X4X4X4X4X4X4X3X5X5X2X2X2X2X1X1X1X1X1X<X1X<X<X<X<X:X:X:X:X:X:X:X-X-X-X-X=X=X=X=X=X=X=X&X&X%X%X%X%X%X$X$X$X$X#X#X#X#X@X@X@X@X@X@X X X X XL.L.L.L.^ / / / / ~ ! W W W W R R R E E T T T P P J J J J J J J J J J J J J J J J J J J K K K K I I T T Q Q P.P.Q Q K G Z G L L H.P.P.P.P.vXHXKXGXGXGXGXGXGXGXGXGXGXGXGXGXGXGXGXGXGXGXGXGXGXGXGXGXKXMXMXMXMXMXMXMXMXMXMXMXMXMXMXMXMXMXMXMXMXMXMXMXMXMXMXMXGXGXGXGXGXGXGXGXGXGXGXGXGXGXGXGX",
"GXGXGXGXGXGXGXGXGXGXGXGXGXGXGXGXGXGXGXGXGXGXGXGXGXGXGXKXMXMXMXMXMXMXMXMXMXMXMXMXMXMXMXMXMXMXMXMXMXMXMXMXDXMXDXGXGXGXGXGXGXGXGXGXGXGXHXHXGXGXGXGXHXFXbXG.Y.E.Y.T.T.T.E.T.G.0XrXbXbXbXbXkXpXpXuXuXfXfXfXjXjXfXfXfXgXgXgXgXfXfXgXjXfXfXfXfXfXfXfXfXfXfXfXfXfXfXfXfXfXfXfXfXfXfXfXfXfXfXfXhXhXhXhXhXjXjXjXjXjXjXjXjXjXjXjXhXfXfXfXfXfXdXuXuXuXuXuXiXiXiXwXwXwXwXqXqXqXqXqXqX6X6X6XqX7X7X7X7X4X4X4X4X4X4X4X4X4X4X4X3X5X5X2X2X2X2X1X1X1X1X1X1X1X<X<X<X<X:X:X:X:X:X:X>X-X-X-X-X=X=X=X=X=X=X=X=X&X%X%X%X%X%X$X$X$X$X#X#X#X#X@X@X@X@X@X@X X X X XL.L.L.L.^ / / / / / ! W W W W R R R E E T T T P P J J J J J J J J J J J D D K J J P P I J J T Q Q Q Q U U L L G Z z z z z Z L H H.P.P.P.P.vXHXKXGXGXGXGXGXGXGXGXGXGXGXGXGXGXGXGXGXGXGXGXGXGXGXGXGXKXMXMXMXMXMXMXMXMXMXMXMXMXMXMXMXMXMXMXMXMXMXMXMXMXMXMXMXGXGXGXGXGXGXGXGXGXGXGXGXGXGXGXGX",
"GXGXGXGXGXGXGXGXGXGXGXGXGXGXGXGXGXGXGXGXGXGXGXGXGXGXGXKXMXMXMXMXMXMXMXMXMXMXMXMXMXMXMXMXMXMXMXMXMXMXMXMXDXMXDXGXGXGXGXGXGXGXGXGXGXGXHXHXGXGXGXGXHXFXbXG.Y.T.Y.T.Y.Y.Y.;.=.G.I.I.tXrXbXbXmXvXzXjXuXdXdXdXdXdXdXdXfXfXfXfXfXfXfXfXdXdXdXdXdXdXgXgXgXgXdXdXdXdXdXfXfXfXfXfXfXfXfXfXfXfXfXhXhXhXfXhXjXjXjXjXjXjXjXjXjXjXjXhXfXfXfXfXfXdXuXuXuXuXuXiXiXiXiXiXwXwXqXqXqXqXqXqXqXqXqXqX7X7X7X7X4X4X4X4X4X4X4X4X4X4X4X4X5X5X2X2X2X2X1X1X1X1X1X1X1X<X<X<X<X:X:X:X:X:X:X>X-X-X-X-X=X=X=X=X=X=X=X=X&X%X%X%X%X%X$X$X$X$X#X#X#X#X@X@X@X@X@X@X X X X XL.L.L.L.^ / / / / ~ ! W W W W R R R E E T T T P P J J J J J J J J J J J D S J J J J J J T I U K G Z z z h h h h h z _ L L L H H H.P.P.P.P.vXHXFXGXGXGXGXGXGXGXGXGXGXGXGXGXGXGXGXGXGXGXGXGXGXGXGXGXKXMXMXMXMXMXMXMXMXMXMXMXMXMXMXMXMXMXMXMXMXMXMXMXMXMXMXMXGXGXGXGXGXGXGXGXGXGXGXGXGXGXGXGX",
"GXGXGXGXGXGXGXGXGXGXGXGXGXGXGXGXGXGXGXGXGXGXGXGXGXGXGXKXMXMXMXMXMXMXMXMXMXMXMXMXMXMXMXMXMXMXMXMXMXMXMXMXDXMXDXGXGXGXGXGXGXGXGXGXGXGXGXGXGXGXGXGXFXFXbXG.Y.T.Y.T.E.E.Y.Y.Y.G.-.&.&.r.F.U.I.0XrXaXmXmXmXbXbXbXkXkXpXpXuXuXuXuXuXuXdXdXdXfXfXfXfXgXgXgXdXdXfXfXfXfXhXhXhXhXhXhXhXfXfXfXfXhXhXfXfXfXjXjXjXjXjXjXjXjXjXjXhXhXfXfXfXfXhXdXdXuXuXuXuXiXiXiXiXiXwXwXqXqXqXqXqXqXqXqXqXqXqXqXqX7X7X4X7X4X4X4X4X4X3X3X3X3X5X5X2X2X2X1X1X1X1X1X1X<X1X<X<X<X<X:X:X>X:X:X:X>X-X-X-X-X=X=X=X=X=X=X=X=X&X%X%X%X%X$X$X$X$X$X#X#X#X#X@X@X@X@X@X@X X X X XL.L.L.L.L./ ^ ^ / ~ ~ W W W W R R R E T T P T P J P J J K K K K K K K K T T T J K K A Z z z h h , h h h j j z k c c c c c L H F.H.P.P.P.P.vXHXFXGXGXGXGXGXGXGXGXGXGXGXGXGXGXGXGXGXGXGXGXGXGXGXGXGXKXMXMXMXMXMXMXMXMXMXMXMXMXMXMXMXMXMXMXMXMXMXMXMXMXMXMXMXGXGXGXGXGXGXGXGXGXGXGXGXGXGXGXGX",
"GXGXGXGXGXGXGXGXGXGXGXGXGXGXGXGXGXGXGXGXGXGXGXGXGXGXGXKXMXMXMXMXMXMXMXMXMXMXMXMXMXMXMXMXMXMXMXMXMXMXMXMXDXMXDXGXGXGXGXGXGXGXGXGXGXGXGXGXGXGXGXGXFXFXbXG.T.Y.Y.T.T.T.Y.Y.Y.G.=.=.=.=.-.#.@.@.@.&.&.G.Q.0XrXrXaXbXbXbXmXbXbXpXpXuXyXyXiXiXuXuXuXuXyXuXdXfXdXdXhXkXhXhXhXhXhXhXhXhXhXgXgXgXgXgXgXjXjXjXhXhXjXjXjXjXjXjXjXjXhXhXgXfXhXdXuXuXuXuXuXyXyXyXyXqXqX6XqXqXqXqXqXqXeXeXqXqXqXqXqXqXqX4X4X4X3X3X3X3X3X3X3X3X5X3X3X3X1X1X1X1X<X<X<X<X<X<X<X<X<X<X<X<X<X<X<X>X<X:X>X-X=X=X&X&X=X=X&X&X&X&X&X&X&X$X$X$X#X#X$X$X#X#X#X@X@X@X@X X X XL.L.L.L.L.L.L.L.L./ ~ ~ Q Q W R ( R R T T P P P P P P P T I Q U U L L L G G z z h h 8 8 = = u u h h h j j j j k k k k k c c c L L D.H.H.P.P.Q vXFXFXGXHXGXGXGXGXGXGXGXGXGXGXGXGXGXGXGXGXGXGXGXGXGXGXGXKXMXMXMXMXMXMXMXMXMXMXMXMXMXMXMXMXMXMXMXMXMXMXMXMXMXMXMXGXGXGXGXGXGXGXGXGXGXGXGXGXGXGXGX",
"GXGXGXGXGXGXGXGXGXGXGXGXGXGXGXGXGXGXGXGXGXGXGXGXGXGXGXKXMXMXMXMXMXMXMXMXMXMXMXMXMXMXMXMXMXMXMXMXMXMXMXMXDXMXDXGXGXGXGXGXGXGXGXGXGXGXGXGXGXGXGXHXFXFXbXG.T.Y.Y.T.T.Y.Y.Y.Y.;.;.;.=.:.:.*.*.$.$.*.] ] ] ` ` @.&.&.G.K.XX0XrXaXbXbXmXmXmXbXbXbXbXbXpXpXpXpXuXwXwXwXpXpXpXpXpXpXdXdXhXjXjXfXfXgXfXgXhXfXfXhXjXgXjXjXlXjXfXfXfXfXdXuXhXhXuXuXuXiXiXqXuXiXyXyXqXqXqXwXqXqXqXqXeXqXqXqXqXqXqX7XqXqX7X7X4X3X3X3X3X5X5X5X5X2X2X1X1X1X1X1X2X1X1X<X<X<X<X<X<X<X<X:X>X>X=X=X=X=X=X=X=X=X-X>X-X-X=X&X%X%X$X#X%X%X$X#X#X#X#X#X@X@X@X@X#X#X@X@X@X XL.L.L.L.L.L.L.~ ~ ~ L.P.P.Q ~ ~ ~ ~ ~ ~ Q Q ~ ~ Q T K K K A z z h h h 8 = - 8 8 8 8 8 8 8 8 8 8 u j j j j j j j k k k x c c c L L H H.H.P.H.Q vXFXFXGXHXGXGXGXGXGXGXGXGXGXGXGXGXGXGXGXGXGXGXGXGXGXGXGXKXMXMXMXMXMXMXMXMXMXMXMXMXMXMXMXMXMXMXMXMXMXMXMXMXMXMXMXGXGXGXGXGXGXGXGXGXGXGXGXGXGXGXGX",
"GXGXGXGXGXGXGXGXGXGXGXGXGXGXGXGXGXGXGXGXGXGXGXGXGXGXGXKXMXMXMXMXMXMXMXMXMXMXMXMXMXMXMXMXMXMXMXMXMXMXMXMXDXMXDXGXGXGXGXGXGXGXGXGXGXGXGXGXGXGXGXGXFXFXbXG.R.Y.Y.T.T.Y.Y.Y.Y.;.;.;.*.=.:.:.*.*.$.$.$.$.$.$.#.[ ] ] ] ' ' ' ' @.@.-.G.G.W.Q.0XtXrXrXbXbXbXbXbXbXmXmXzXzXzXzXkXpXpXuXiXiXyXiXiXgXgXcXlXlXlXjXhXfXfXfXgXgXgXcXjXlXcXjXuXiXuXuXiXpXpXuXiXiXiXqXwXqXqXqXyXyXyXqXqXqXqXqX4X4X4X4X4X3X3X4X3X4X4X4X4X4X4X5X2X2X2X2X2X1X1X1X2X2X1X1X<X<X<X<X<X,X,X,X,X-X-X-X:X:X>X-X=X&X%X%X=X=X=X%X%X%X%X%X#X#X#X*X*X*X$X$X#X*X#X@X X XL.L.L.L.L.L. X X X X XL.L.L.L.L.L.L.P.P.H.U L G G Z h h h h = = = - = = = = = 8 8 8 8 8 8 8 8 8 h h 8 u j j j j j j j j k k k k c c M L L H H.H.P.H.Q vXFXHXGXHXGXGXGXGXGXGXGXGXGXGXGXGXGXGXGXGXGXGXGXGXGXGXGXKXMXMXMXMXMXMXMXMXMXMXMXMXMXMXMXMXMXMXMXMXMXMXMXMXMXMXMXGXGXGXGXGXGXGXGXGXGXGXGXGXGXGXGX",
"GXGXGXGXGXGXGXGXGXGXGXGXGXGXGXGXGXGXGXGXGXGXGXGXGXGXGXKXMXMXMXMXMXMXMXMXMXMXMXMXMXMXMXMXMXMXMXMXMXMXMXMXDXMXDXGXGXGXGXGXGXGXGXGXGXGXGXGXGXGXGXGXFXFXbXG.R.Y.Y.T.T.Y.Y.Y.Y.;.;.;.=.=.*.*.*.$.$.$.[ $.$.$.$.$.$.%.*.$.$.$.%.%.[ [ ' ] ] ] ] ' @.@.&.&.F.F.U.I.Q.0XtXeXeXrXrXaXbXbXbXbXbXbXbXbXbXbXkXzXzXbXzXkXkXkXzXzXkXpXpXpXiXiXpXpXpXwXwXqXqXqXqXwXqXqXqX4XqX4X4X5X5X5X3X5X5X5X3X5X5X3X3X3X3X3X5X5X2X2X2X2X2X2X2X5X2X2X2X2X1X,X,X,X,X,X,X,X,X,X-X-X-X-X-X=X=X;X;X=X=X=X=X=X=X=X%X%X;X;X;X%X%X%X;X;X;X;X%X%X%X#X;X%X%X%X;X;X;X%X#X#X#XL.P.P.P.P.Q U L G n z h h u 8 8 8 8 - - $ 8 8 8 8 8 8 8 8 = = = 8 u u 8 8 h h h 8 8 8 8 8 u u j j j j j j j j k k k x c c M M L H H.H.P.H.Q vXFXHXGXHXGXGXGXGXGXGXGXGXGXGXGXGXGXGXGXGXGXGXGXGXGXGXGXKXMXMXMXMXMXMXMXMXMXMXMXMXMXMXMXMXMXMXMXMXMXMXMXMXMXMXMXGXGXGXGXGXGXGXGXGXGXGXGXGXGXGXGX",
"GXGXGXGXGXGXGXGXGXGXGXGXGXGXGXGXGXGXGXGXGXGXGXGXGXGXGXKXMXMXMXMXMXMXMXMXMXMXMXMXMXMXMXMXMXMXMXMXMXMXMXMXMXMXDXGXGXGXGXGXGXGXGXGXGXGXGXGXGXGXGXGXFXFXbXG.R.Y.Y.T.Y.Y.Y.Y.Y.;.;.;.=.=.*.*.$.$.$.$.$.$.#.[ [ [ [ $.[ [ %.%.%.%.%.%.%.#.#.#.#.#.#.[ ] ] ] ] ' ] ] ] ' ' @.@.&.&.&.-.G.G.U.W.Q.Q.0XtXtXrXrXrXrXrXrXbXbXbXbXbXbXbXbXbXbXbXkXkXbXbXbXbXzXzXkXkXkXkXkXkXuXiXiXiXiXiXiXiXiXiX6X6X6X6XqX6X7XqXqXqXqX4X4X4X4X4X5X5X5X5X5X5XqXqXqX5X5X5X5X2XqXqXqXeX5X5X2X2XeXeXeXeX,X,X,X,X,X,X,X0X,X;X;X;X;X;X;XI.I.I.I.P.P.P.H.D.H L c c j j j 9 8 8 4 $ $ $ $ $ & 8 8 8 4 0 0 9 9 9 9 9 0 8 8 8 8 8 8 8 u 8 8 8 8 8 8 8 8 8 8 8 8 8 8 8 8 u u h j j j j j k k k k k c c M M L H H.H.P.H.Q vXHXHXGXHXGXGXGXGXGXGXGXGXGXGXGXGXGXGXGXGXGXGXGXGXGXGXGXKXMXMXMXMXMXMXMXMXMXMXMXMXMXMXMXMXMXMXMXMXMXMXMXMXMXMXMXGXGXGXGXGXGXGXGXGXGXGXGXGXGXGXGX",
"GXGXGXGXGXGXGXGXGXGXGXGXGXGXGXGXGXGXGXGXGXGXGXGXGXGXGXKXMXMXMXMXMXMXMXMXMXMXMXMXMXMXMXMXMXMXMXMXMXMXMXMXMXMXMXGXGXGXGXGXGXGXGXGXGXGXGXGXGXGXGXGXFXFXbXG.R.Y.T.Y.Y.T.Y.Y.Y.;.=.;.=.=.*.*.*.$.$.$.#.#.#.$.$.[ [ [ $.$.%.[ [ [ [ [ [ [ [ [ [ [ [ [ %.$.$.$.$.$.>.>.*.*.*.#.#.#.#.#.#.#.-.-.-.-.-.-.&.&.F.G.G.G.G.G.G.G.G.U.K.I.I.I.I.I.I.I.I.I.XXXX;X;X;X;X;X0X0X0X0X0X0X0X0X,X,X,XeXeXeXeXeXeXeXeXeXeXeXeXeXeXeXeX,X,X,X,X,X,X,X,X;X;X;X;X;X;X;X;XXXXXI.P.P.P.P.P.J.U.J.F.F.D.D.H c c c c x k j j 9 9 0 0 0 0 4 4 4 4 4 4 4 4 4 4 5 5 0 0 0 9 9 9 9 9 9 9 9 0 0 0 9 9 9 9 9 0 0 0 9 9 8 8 8 8 8 8 8 8 8 8 8 8 h h 8 8 8 8 8 8 8 8 8 u u h h j j j j k k k k k c c c M L H H.H.P.H.Q vXHXHXGXHXGXGXGXGXGXGXGXGXGXGXGXGXGXGXGXGXGXGXGXGXGXGXGXKXMXMXMXMXMXMXMXMXMXMXMXMXMXMXMXMXMXMXMXMXMXMXMXMXMXMXMXGXGXGXGXGXGXGXGXGXGXGXGXGXGXGXGX",
"GXGXGXGXGXGXGXGXGXGXGXGXGXGXGXGXGXGXGXGXGXGXGXGXGXGXGXKXMXMXMXMXMXMXMXMXMXMXMXMXMXMXMXMXMXMXMXMXMXMXMXMXDXMXDXGXGXGXGXGXGXGXGXGXGXGXGXGXGXGXGXHXFXFXbXG.R.Y.Y.Y.Y.Y.Y.Y.Y.;.;.;.=.*.*.*.*.*.$.$.$.$.[ [ [ %.%.%.[ [ %.%.$.%.[ [ [ [ [ [ [ [ [ [ [ [ [ [ [ [ [ %.$.#.#.#.#.#.#.#.-.=.=.=.=.=.=.=.;.Y.Y.Y.Y.Y.Y.Y.G.G.G.S.=.=.-.-.-.&.&.@.@.@.@.] ' ' ' ' ' ' ' ' r r r r r r r r r r r r r r r e e t t t e e e e e e e e e e e e e e e e q q q 5 e e e q 5 5 5 5 5 5 5 5 5 5 5 5 5 5 5 5 5 5 5 5 e e e e e t e e t e e e e e e e e e e e e e 0 0 e 0 0 0 9 9 9 9 0 8 0 0 0 0 9 8 9 8 8 8 8 8 8 8 8 8 8 8 8 8 8 8 8 8 8 8 8 8 8 8 8 8 u u j j j j j j j z k k c c c M L H H.H.P.H.Q vXHXHXGXHXGXGXGXGXGXGXGXGXGXGXGXGXGXGXGXGXGXGXGXGXGXGXGXKXMXMXMXMXMXMXMXMXMXMXMXMXMXMXMXMXMXMXMXMXMXMXMXMXMXMXMXGXGXGXGXGXGXGXGXGXGXGXGXGXGXGXGX",
"GXGXGXGXGXGXGXGXGXGXGXGXGXGXGXGXGXGXGXGXGXGXGXGXGXGXGXKXMXMXMXMXMXMXMXMXMXMXMXMXMXMXMXMXMXMXMXMXMXMXMXMXDXMXMXGXGXGXGXGXGXGXGXGXGXGXGXGXGXGXGXHXFXFXbXG.R.Y.Y.Y.Y.Y.Y.Y.Y.;.=.=.=.=.*.*.*.*.*.$.$.%.%.%.%.[ [ [ %.%.[ [ [ [ [ [ [ [ [ [ [ [ [ [ [ [ [ [ [ %.$.$.$.[ $.$.$.*.*.*.-.-.-.-.-.=.=.=.~.~.Y.Y.Y.~.Y.Y.Y.Y.Y.Y.Y.Y.;.;.;.;.=.*.*.*.-.-.-.-.#.#.#.#.#.#.#.[ [ [ [ ] ] ] ] ] ] ' ] ' ' ' ' ' ' ' ' ' ' ' ' ' ' ' ' r r r r r r r r r r r r r r r r r r r r r r r r r r r e e e e e e e e t e e e e t e q e e e e e e e q e 0 e e e e e e e 5 5 5 5 0 5 0 0 0 0 8 8 8 8 8 8 8 8 8 8 8 8 8 8 8 8 8 8 8 8 8 8 8 8 8 8 8 8 8 8 8 u u j j j j j j j k z k c c c L L H H.H.P.H.U vXHXHXGXHXGXGXGXGXGXGXGXGXGXGXGXGXGXGXGXGXGXGXGXGXGXGXGXKXMXMXMXMXMXMXMXMXMXMXMXMXMXMXMXMXMXMXMXMXMXMXMXMXMXMXMXGXGXGXGXGXGXGXGXGXGXGXGXGXGXGXGX",
"GXGXGXGXGXGXGXGXGXGXGXGXGXGXGXGXGXGXGXGXGXGXGXGXGXGXKXKXKXMXMXMXDXDXDXDXDXDXDXDXDXDXDXMXDXDXDXDXMXMXMXDXMXMXKXKXGXGXGXGXGXGXGXGXGXGXGXHXGXGXGXHXHXFXbXG.T.Y.Y.Y.Y.Y.Y.Y.Y.;.;.;.=.*.*.*.*.*.$.$.$.>.>.%.%.%.%.[ [ [ [ [ [ [ [ [ [ [ %.%.[ [ [ [ %.[ [ %.[ [ *.] $.[ $.$.$.$.#.*.*.*.*.#.;.;.;.;.Y.~.Y.Y.;.Y.Y.;.Y.Y.;.y.G.y.=.=.=.=.-.-.-.-.#.#.#.#.#.@.@.@.] #.] ] ] ] ] ] ] ] ] ] ] ' ] ] ' ] ' ' ' ' ' ' ' ' ' ' ' ' ' ' ' ' ' ` ' w r w r w r w r w w w w w w w w w w w w r w w w w w w w e e e e e t e e e e e 5 0 e 0 5 0 0 0 0 9 0 5 0 9 9 5 9 9 4 0 v 4 9 8 8 4 4 8 8 8 8 8 8 8 8 8 8 8 8 8 8 8 8 8 8 8 8 j $ j j 8 8 h 8 j 8 8 j j j 8 L ;XeXF.j c k L c L L H H.H.H.H.U mXKXFXGXGXGXGXGXGXGXGXGXGXGXGXGXGXGXGXGXGXGXGXGXGXGXKXKXKXDXMXDXDXDXDXDXDXMXMXDXDXMXMXDXDXDXDXDXDXDXDXMXDXDXDXKXKXGXGXGXGXGXGXGXGXGXGXGXGXGXGXGX",
"DXDXDXDXDXDXDXDXDXDXDXDXDXDXDXDXDXDXDXDXDXDXDXDXMXMXDXKXKXKXGXGXGXGXGXGXGXGXGXGXGXGXKXKXGXGXGXGXGXKXGXGXKXKXGXKXDXDXDXDXDXDXDXDXDXDXDXLXDXDXDXDXDXVXbXG.R.Y.Y.Y.Y.Y.Y.Y.Y.;.;.;.=.*.*.*.*.*.$.$.$.$.$.%.[ [ [ [ [ [ [ [ [ [ [ [ [ %.[ [ [ [ %.[ %.%.[ [ %.[ [ #.[ %.$.$.$.:.$.$.#.*.=.*.*.=.;.;.=.=.;.Y.Y.;.;.Y.Y.Y.Y.Y.y.y.=.=.=.=.-.-.-.-.-.#.#.#.#.@.] ] ] ] ] ] ] ] ] ] ] ] ] ] ] ] ] ' ' ' ' ' ' ' ' ' ' ' ' ' ' ' ' ' ' ' ` ` ` ` ` ` w w w w w w w w w w w w w w w w w w r r r w w w w w e e e e e e e e 0 9 9 5 5 5 5 0 0 0 0 0 0 9 9 9 0 v 0 4 9 9 4 9 6 4 8 9 9 8 8 8 4 9 4 $ 8 8 8 8 8 8 8 8 8 8 8 8 8 8 8 8 8 8 h 8 8 8 j F.k k 8 c rX;X0XI.c k c j c L L H H.H.H.H.K nXBXBXDXDXDXDXDXDXDXDXDXDXDXDXDXDXDXDXDXDXDXDXMXDXDXDXKXKXGXGXGXGXGXGXGXGXKXKXGXHXKXKXGXGXGXGXGXGXGXGXGXGXGXGXKXDXDXDXMXDXKXMXDXDXDXDXDXDXDXDXDX",
"MXMXMXMXMXMXMXMXMXMXMXMXMXMXMXMXMXMXMXMXMXMXMXMXMXMXMXKXGXGXGXGXGXGXGXGXGXGXGXGXGXGXGXGXGXGXGXGXGXGXGXGXGXGXGXDXMXMXMXMXMXMXMXMXBXMXMXMXAXMXMXMXNXVXbXG.R.Y.T.Y.Y.Y.Y.Y.Y.;.;.;.=.*.*.*.*.*.$.$.$.$.$.[ %.%.%.%.[ [ [ [ [ [ [ [ %.[ [ %.%.[ ] %.%.$.%.%.%.%.[ %.[ $.$.$.[ *.#.*.*.#.*.=.=.=.;.;.Y.Y.y.Y.T.Y.y.Y.Y.Y.Y.Y.G.y.=.=.=.=.-.-.-.-.#.#.#.#.#.#.] ] ] ] ] ] ] ] ] ] ] ] ] ' ' ' ' ' ' ' ' ' ' ' ' ' ' ' ` ` ` ` ` ` ` ` ` ` ` ` ` w ` ` w w w w w w w w r r w w w w w w e w e w w w q q e e e e e e e e 5 e e 5 5 5 e 5 9 9 9 0 0 9 9 0 4 9 9 9 9 8 4 9 9 9 0 0 4 4 9 9 4 j 0 4 j 8 0 8 8 8 8 8 8 8 8 8 8 j j 8 8 j H 8 j 8 u ;Xc j $ ;XH.& j c j k L M c L L H H.H.H.H.U nXBXNXNXMXAXAXMXMXMXMXMXMXMXMXMXMXMXMXMXMXMXMXMXMXMXMXMXKXGXGXGXGXGXGXGXGXGXGXGXGXGXGXGXGXGXGXGXGXGXGXGXGXGXGXGXDXMXMXNXMXMXMXMXMXMXMXMXMXMXMXMX",
"MXMXMXMXMXMXMXMXMXMXMXMXMXMXMXMXMXMXMXMXMXMXMXMXDXMXDXKXGXGXGXGXGXGXGXGXGXGXGXGXGXGXGXGXGXGXGXGXGXKXGXGXGXGXKXMXMXMXMXMXMXMXMXBXBXBXAXLXAXAXAXMXNXVXbXU.R.E.T.Y.Y.Y.Y.Y.Y.;.;.;.=.*.*.*.*.*.$.$.#.#.#.[ [ [ [ [ [ [ [ [ [ [ [ [ %.] #.] ] #.] $.[ %.%.[ %.>.[ %.$.$.#.%.#.$.#.*.*.#.$.=.-.*.;.=.=.=.=.=.;.Y.Y.Y.;.;.Y.;.y.=.=.=.=.=.-.-.-.-.#.#.#.[ #.[ [ ] ] ] ] ] ] ] ] ] ] ] ' ] ' ' ' ` ' ' ' ' ' ' ' ' ' ` ` ` ` ` ` ` ` ` ` ` ' ` ` ` ` ` r w w w w w w w w w r w w q q q q q q q q q q e q e e e e e e e e e e e e e e e 9 0 9 0 0 0 5 0 e 4 0 9 4 4 9 0 0 0 0 4 4 9 9 4 4 4 4 9 9 $ 0 8 8 8 8 8 8 8 8 8 8 P.8 8 8 k ;XM 8 k $ ;XL $ j eXc j j k k c k c c L L H H.H.H.H.U nXVXNXMXAXLXDXAXMXMXMXMXMXMXMXMXMXMXMXMXMXMXMXDXDXMXMXMXKXGXGXGXGXGXGXGXGXGXGXGXGXGXGXGXGXGXGXGXGXGXGXGXGXGXGXGXDXMXMXMXDXDXMXMXMXMXMXMXMXMXMXMX",
"MXMXMXMXMXMXMXMXMXMXMXMXMXMXMXMXMXMXMXMXMXMXMXMXMXMXMXKXGXGXGXGXGXGXGXGXGXGXGXGXGXGXGXGXGXGXGXGXGXGXGXGXGXGXGXMXMXMXMXMXMXMXMXMXBXMXAXAXAXAXMXCXMXVXbXG.R.Y.T.Y.Y.Y.Y.Y.Y.;.;.;.=.*.*.*.*.$.$.$.$.$.[ [ %.%.[ [ [ [ [ [ [ [ [ [ %.%.] ` r @.[ [ %.%.%.] ] %.$.[ %.#.#.#.*.$.$.#.*.*.;.=.#.*.;.;.Y.=.Y.T.=.;.T.Y.Y.Y.Y.;.;.=.=.=.*.*.*.*.*.*.*.#.#.#.#.[ [ [ [ [ ] ] ] ] ] ] ] ] ] ' ' ' ' ' ' ' ' ' ' ' ' ' ' ' ` ` ` ` ` ` ` ` ' ' r w r w r w r w r w w w w r w q r e r e e e e q e q e e e e e e r r e e e e t e e e r e e e 9 9 0 e e 5 9 v 0 0 0 9 v 9 0 0 4 4 0 0 9 9 4 0 v 4 0 9 4 v F.v 8 8 8 8 8 8 8 8 j ;X8 8 8 k 0XI.8 u 8 I.c $ F.;X4 k k j c c k L c L L H H.H.H.H.U nXBXNXMXMXAXAXAXMXMXMXMXMXMXMXMXMXMXMXMXMXMXMXMXMXMXMXDXKXGXGXGXGXGXGXGXGXGXGXGXGXGXGXGXGXGXGXGXGXGXGXGXGXGXGXGXMXMXMXMXDXDXMXMXMXMXMXMXMXMXMXMX",
"MXMXMXMXMXMXMXMXMXMXMXMXMXMXMXMXMXMXMXMXMXMXMXMXMXMXMXKXGXGXGXGXGXGXGXGXGXGXGXGXGXGXGXGXGXGXGXGXGXGXGXGXGXGXGXMXMXMXMXMXMXMXMXMXMXMXMXMXAXMXMXMXNXVXbXG.R.Y.T.T.Y.Y.Y.Y.Y.;.;.;.=.*.*.*.*.$.$.$.$.$.$.%.%.[ [ [ [ [ [ [ [ [ [ [ %.%.' S.G.r #.[ %.%.#.@.&.` #.$.#.#.#.[ [ #.*.#.*.#.*.*.;.=.;.;.Y.-.=.Y.Y.Y.Y.;.Y.Y.Y.Y.Y.Y.Y.;.=.*.-.*.*.*.*.#.#.#.#.#.[ [ [ [ ] ] ] ] ] ] ] ] ] ] ' ' ' ' ' ' ' ' ' ' ' ' ' ` ` ` ` ` ` ` ` ' ' ' ' r r r r r r r r w w w w w r r r r r r r r e e e e e e e e q e e e e e e e e q q e e e e e 0 4 4 0 0 0 0 v e 9 v 0 $ 4 9 j c 9 9 4 0 0 0 U.N 0 9 9 4 F.tXj 8 8 8 8 8 8 8 8 j ;X8 8 $ j I.;XJ.$ j ;Xc $ J.I.8 j c k k k c c M L L H H.H.H.U U nXBXNXMXMXAXMXMXMXMXMXMXMXMXMXMXMXMXMXMXMXMXMXMXMXMXMXLXKXGXGXGXGXGXGXGXGXGXGXGXGXGXGXGXGXGXGXGXGXGXGXGXGXGXGXGXMXMXDXDXMXMXMXMXMXMXMXMXMXMXMXMX",
"MXMXMXMXMXMXMXMXMXMXMXMXMXMXMXMXMXMXMXMXMXMXMXMXDXMXMXKXGXGXGXGXGXGXGXGXGXGXGXGXGXGXGXGXGXGXGXGXGXGXGXGXKXGXGXMXMXMXMXMXMXMXMXBXLXBXAXLXLXLXAXMXCXVXbXG.R.Y.Y.Y.Y.Y.Y.Y.Y.;.;.;.=.*.*.*.*.$.$.$.$.%.%.%.%.[ %.%.[ [ [ [ [ [ [ [ %.[ @.Q.I.&.] %.%.%.] -.Q.@.[ $.#.#.#.Y.] #.#.#.#.#.=.#.;.-.=.-.=.T.Y.=.Y.Y.Y.T.Y.=.=.=.=.=.-.#.=.=.-.-.-.-.-.#.#.#.#.#.] ] ] #.] ] ] ] ] ] ] ] ] ] ' ' ' ' ' ' ' ' ' ' ` ` ` ` ` ` ` ` ` ` w r ' ' ' r r r r r r r r r r r r r r r r r r r r r r r r r r e e e e e e e e e e e 5 e t e 0 e e 0 4 8 9 v j j 9 4 0 0 0 0 j H.;XeXeX0X;Xc 8 8 $ ;XL 8 8 8 $ H eX8 8 8 8 8 8 8 8 = h ;Xh 8 $ k P.L eXj 8 0Xc $ H.;Xj j k c k k c c M M L H H.H.H.U U mXZXMXLXMXAXAXAXMXMXMXMXMXMXMXMXMXMXMXMXMXMXMXMXLXMXMXMXKXGXGXGXGXGXGXGXGXGXGXGXGXGXGXGXGXGXGXGXGXGXGXGXGXGXGXGXDXMXDXDXMXMXMXMXMXMXMXMXMXMXMXMX",
"MXMXMXMXMXMXMXMXMXMXMXMXMXMXMXMXMXMXMXMXMXMXMXMXLXMXMXKXGXGXGXHXGXGXGXGXGXGXGXGXGXGXGXGXGXGXGXGXGXGXGXGXGXGXGXMXMXMXMXMXMXMXMXMXBXBXAXAXAXAXAXMXMXVXbXU.R.Y.Y.Y.Y.Y.Y.Y.Y.;.;.;.:.:.*.*.*.$.$.$.$.%.%.%.[ [ %.%.[ [ [ %.[ [ %.[ %.] G.U.K.G.] %.%.$.r G.aX&.] #.#.] @.tX=.-.] -.@.!.tX-.=.-.Y.-.!.bXrXE.Y.Y.Y.!.rXrXtXtXtX!.!.W.=.-.-.-.&.&.-.-.#.#.@.] @.@.] ] ] ] ' ' ' r r w ' ' ' ' ' ' ' ' r r r r w w w w r r w w e e r r e e r r r r r r r r r w r w w r r r r q q 5 5 5 5 5 5 q e r r e e e v e e e e e 9 c c v 0 9 9 4 c F.J.J.U.U.N 9 4 v $ 4 I.;Xc j 8 L I.j 8 8 $ ;XL $ 8 j & M 0X8 8 8 8 8 8 8 8 = 8 ;Xh 8 8 c ;X$ 0XP.4 ;XL & H.I.8 k k k c c c c M L L H H.H.H.U U nXBXNXMXAXDXDXMXMXMXMXMXMXMXMXMXMXMXMXMXMXMXMXMXMXMXMXMXKXGXGXGXGXGXGXGXGXGXGXGXGXGXGXGXGXGXGXGXGXGXGXGXGXGXGXGXMXMXMXMXMXMXDXMXMXMXMXMXMXMXMXMX",
"MXMXMXMXMXMXMXMXMXMXMXMXMXMXMXMXMXMXMXMXMXMXMXMXMXMXDXKXGXGXGXGXGXGXGXGXGXGXGXGXGXGXGXGXGXGXGXGXGXGXGXGXGXGXGXMXMXMXMXMXMXMXMXMXBXBXAXAXAXMXAXCXCXVXbXU.T.Y.Y.T.Y.T.Y.Y.Y.~.;.;.:.:.*.*.*.$.$.$.$.$.%.%.[ [ [ [ %.%.[ [ [ [ [ [ %.' K.N c Q.` %.[ $.' G.tX0X@.@.#.*.@.0X-.` *.*.@.Q.tX&.=.:.;.=.0XVXbXE.Y.E.=.tXVXFXKXKXVXZXVXrXS.=.#.-.tX&.@.-.#.#.#.' U.c e @.] @.r e c F.c v 9 e r @.` ' ' e v v v 9 v v v t e r r q 9 j 9 v j j v 4 e r r r w r r w r r w w w ' ' e x n L c c L M 8 5 r r e 5 D.I.9 e e e e 4 F.I.4 9 9 4 c J.j 8 8 9 F.N 4 9 9 4 F.0X0 $ 8 0 4 4 8 8 8 4 0XL # $ - # L 0X8 8 j 8 8 8 8 8 & 8 ;Xj 8 8 c ;X$ c eXk XXc 8 L 0X8 j k j c k c c c L L H D.H.H.H.Q VXBXNXBXBXBXMXMXMXMXMXMXMXMXMXMXMXMXMXMXMXMXMXMXMXMXMXDXKXGXGXGXGXGXGXGXGXGXGXGXGXGXGXGXGXGXGXGXGXGXGXGXGXGXGXGXMXMXDXMXMXMXMXMXMXMXMXMXMXMXMXMX",
"MXMXMXMXMXMXMXMXMXMXMXMXMXMXMXMXMXMXMXMXMXMXMXMXMXMXDXKXGXGXGXGXGXGXGXGXGXGXGXGXGXGXGXGXGXGXGXGXGXGXGXGXGXGXGXMXMXMXMXMXMXMXMXMXBXBXAXAXAXAXAXCXCXVXbXU.T.Y.Y.Y.Y.T.Y.Y.Y.~.;.;.;.:.*.*.*.$.$.$.$.$.%.%.%.[ [ [ %.[ [ [ [ [ %.[ %.@.I.i d 0X-.[ %.[ ] G.Q.K.0Xw #.#.&.tX&.#.$.$.] Q.tX&.=.~.~.=.0XVXaXE.G.T.Y.tXZXmXrXbXbXbXaXtX=.=.*.;.rXr.@.-.$.#.#.@.I.D.t @.@.' @.U.U.F.P.I.I.F.r r ' ] r c P.L H.F.F.F.F.F.e q r e c H.F.F.L H.J.F.e 5 e r r r r w r ' ' ' w ' r e L Z z L k M Z L c q e e 0 D.I.9 e e e e 0 F.P.4 9 9 4 H c $ 8 9 4 4 4 9 9 0 9 I.F.9 9 9 4 4 9 9 4 6 $ ;XH.H.P.I.XX;X0X8 9 8 4 8 j - 8 8 u ;Xu 8 8 c ;X8 & P.;XXXx 8 x eXc 8 L P.j ;XH k c L L H F.H.H.H.Q NXBXMXBXBXBXMXMXMXMXMXMXMXMXMXMXMXMXMXMXMXMXMXMXMXMXMXDXKXGXGXGXGXGXGXGXGXGXGXGXGXGXGXGXGXGXGXGXGXGXGXGXGXGXGXGXDXMXDXMXMXMXMXMXMXMXMXMXMXMXMXMX",
"MXMXMXMXMXMXMXMXMXMXMXMXMXMXMXMXMXMXMXMXMXMXMXMXMXMXDXKXGXGXGXGXGXGXGXGXGXGXGXGXGXGXGXGXGXGXGXGXGXGXGXGXGXGXGXMXMXMXMXMXMXMXMXMXBXBXAXAXAXAXAXMXCXVXbXU.T.E.Y.Y.Y.Y.Y.Y.Y.~.;.;.=.=.*.*.*.*.$.$.%.$.$.%.[ %.[ [ %.[ [ [ [ %.[ [ ] -.I.9 7 K.G.w %.%.] G.0Xg 0XK.` @.&.0X-.] >.$.@.Q.tX&.&.#.-.@.Q.VXaX!.G.y.Y.tXVXrXG.;.Y.=.y.=.*.:.:.~.rXF.@.$.$.%.#.@.0XF.r ] #.w U.U.9 t e e c &.v r ] ' w &.J.8 9 9 e q t e t r r e v F.0 5 v 5 0 F.F.0 5 r w ` ` ` ` w w r r ' q e D.j $ 0 4 4 8 J.&.q e v 0 r.I.9 e e e e 0 F.U.4 9 9 0 c H 8 8 4 0 9 4 9 9 0 c 0Xv 0 9 4 9 9 0 9 0 9 6 ;XeX0X;XI.I.I.0Xj $ 8 8 8 8 8 h 8 j ;X8 8 8 k I.8 $ j 0X0Xx 8 u I.eXI.rXI.M 0Xj c _ L L H F.H.H.H.Q NXBXMXLXMXMXMXMXMXMXMXMXMXMXMXMXMXMXMXMXMXMXMXMXMXMXMXDXKXGXGXGXGXGXGXGXGXGXGXGXGXGXGXGXGXGXGXGXGXGXGXGXGXGXGXGXMXMXMXMXMXMXMXMXMXMXMXMXMXMXMXMX",
"MXMXMXMXMXMXMXMXMXMXMXMXMXMXMXMXMXMXMXMXMXMXMXMXMXMXDXKXGXGXGXGXGXGXGXGXGXGXGXGXGXGXGXGXGXGXGXGXGXGXGXGXGXGXGXMXMXMXMXMXMXMXMXMXBXMXAXAXAXAXAXMXCXVXbXU.T.E.Y.Y.Y.Y.Y.Y.Y.Y.;.=.=.=.*.*.*.*.$.$.$.$.$.%.[ %.[ [ [ [ [ [ %.%.[ [ ' G.I.&.c J.I.t #.$.] Y.tX4 t.rXS.t c OX&.` :.$.#.Q.tXQ.OX!.tXtXrXZXbX!.G.Y.Y.tXVXbX0XE.!.E.;.:.;.:.$.=.tXt.@.*.#.#.#.' Q.r.w @.@.q I.D.4 v r ' r @.r r ' ' r v P.8 8 v v t r w w r ' r c U.v r e r e v U.9 0 e ' ' ' ' ' w r r q r q v F.x 4 9 v 9 8 J.v q e v 5 r.I.9 e e e e 4 F.I.4 0 e 5 9 J.H M 8 4 0 4 v 9 0 c I.9 4 9 4 8 0 4 0 4 9 $ ;Xc $ 8 8 $ c 0X8 8 9 9 8 8 8 8 $ 8 ;X8 8 8 k ;X8 j $ H.eXc u j j ;XeXI.j x j j H _ L L H D.F.H.H.Q NXBXMXLXMXMXMXMXMXMXMXMXMXMXMXMXMXMXMXMXMXMXMXMXMXMXMXDXKXGXGXGXGXGXGXGXGXGXGXGXGXGXGXGXGXGXGXGXGXGXGXGXGXGXGXGXDXMXMXMXMXMXMXMXMXMXMXMXMXMXMXMX",
"MXMXMXMXMXMXMXMXMXMXMXMXMXMXMXMXMXMXMXMXMXMXMXMXMXMXDXKXGXGXGXGXGXGXGXGXGXGXGXGXGXGXGXGXGXGXGXGXGXGXGXGXGXGXGXMXMXMXMXMXMXMXMXMXBXMXAXAXAXAXAXMXNXVXbXG.T.E.Y.Y.Y.Y.Y.Y.Y.;.=.=.=.=.*.*.*.*.$.$.$.%.%.%.[ [ [ [ [ [ [ [ %.[ [ ] t I.G.W.Q.I.0Xc @.#.] Y.OXt t G.rXt i 0Xt.@.*.$.] Q.aXrXmXmXmXVXVXZXbXR.Y.E.~.tXmXZXZXVXVXbX!.;.;.=.-.S.tXr.@.-.@.-.&.v I.H e @.' r F.I.N $ 5 r ' ] ] ] ' ' ' v H., # # 4 5 q r r ' ' r v U.0 e r @.e v U.9 e r ' ' r r w w r r r e e e z h 8 4 0 8 z Y v v 0 0 0 r.I.9 e e e e 4 F.I.5 0 e 5 0 j k J.I.U.F.j 0 9 4 c UXj 4 9 9 9 0 0 9 0 4 $ ;XH $ 9 j $ L eX8 9 $ $ 8 8 8 8 8 8 ;X8 8 8 k ;X8 j 8 9 ;Xc 8 j 9 8 x j j x c x x c L L H D.F.H.H.Q VXBXNXLXMXMXMXMXMXMXMXMXMXMXMXMXMXMXMXMXMXMXMXMXMXMXMXDXKXGXGXGXGXGXGXGXGXGXGXGXGXGXGXGXGXGXGXGXGXGXGXGXGXGXGXGXDXMXDXMXMXMXMXMXMXMXMXMXMXMXMXMX",
"MXMXMXMXMXMXMXMXMXMXMXMXMXMXMXMXMXMXMXMXMXMXMXMXMXMXDXKXGXGXGXGXGXGXGXGXGXGXGXGXGXGXGXGXGXGXGXGXGXGXGXGXGXGXGXMXMXMXMXMXMXMXMXMXMXMXAXAXAXLXAXMXNXVXbXG.T.E.Y.Y.Y.T.Y.Y.Y.;.=.=.=.=.*.*.*.*.$.$.$.%.%.%.[ [ [ [ %.%.[ [ [ [ [ ] t.U.w w r t I.J.r #.[ ;.0Xg @.' 0XXXi XXF.@.$.$.@.Q.0X&.G.W.0XtXbXZXbXQ.Y.E.;.tXZXVXVXVXVXbX!.;.;.=.-.S.tXr.@.&.&.&.&.v XXF.t @.@.' e D.P.P.D.v r w ' %.' ' ' v H.G Y D.F.c t r ' ' ' ' c J.v 0 e 4 4 F.F.e e r r q e e 5 0 e q e q e v G G H H F.F.U L 4 5 e v 5 r.I.0 e e e e 5 F.U.0 e 0 0 9 4 $ 4 j c U.J.9 9 4 v 0Xj 4 8 8 8 4 4 8 8 9 $ XXL $ 8 8 $ L 0Xj $ j L 8 8 8 8 8 j ;Xj 8 8 k P.8 8 j 8 k k j j j j x 8 c c j D.x c M L H D.H.H.H.Q VXBXNXBXMXMXMXMXMXMXMXMXMXMXMXMXMXMXMXMXMXMXMXMXMXMXMXDXKXGXGXGXGXGXGXGXGXGXGXGXGXGXGXGXGXGXGXGXGXGXGXGXGXGXGXGXDXMXDXMXMXMXMXMXMXMXMXMXMXMXMXMX",
"MXMXMXMXMXMXMXMXMXMXMXMXMXMXMXMXMXMXMXMXMXMXMXMXMXMXDXKXGXGXGXGXGXGXGXGXGXGXGXGXGXGXGXGXGXGXGXGXGXGXGXGXGXGXGXMXMXMXMXMXMXMXMXMXMXMXAXAXAXLXAXMXNXVXbXU.Y.E.Y.T.T.Y.Y.Y.Y.;.;.;.=.=.*.*.*.$.$.$.%.%.%.%.[ [ [ [ %.%.%.[ [ [ [ ] G.F.] ] ] ' t.I.w #.] ;.tXt #.] @.tXF.I.G.] *.*.] !.tX&.&.-.=.&.I.VXbXQ.Y.T.;.tXVXaXQ.W.!.!.Y.;.=.=.-.S.tXt.@.#.&.@.@.@.I.F.r @.' ] @.q v F.F.P.F.c q r r ' r v F.c c c c t q w ' ' ' r c Y h = j L H.U 8 0 e e r e j z k x c e e e e e M c v v v v c F.c e 5 5 5 r.I.0 9 e e e 0 F.U.0 e e 9 9 8 j 8 $ $ F.UX9 9 0 9 I.F.8 8 6 4 8 8 8 4 8 $ I.L 8 8 9 8 H 0X9 4 I.0Xj 4 8 8 8 j H.j 8 8 h k 8 8 j j $ j j 9 j j j c j c k j c c M L H D.H.H.H.Q VXBXNXBXMXMXMXMXMXMXMXMXMXMXMXMXMXMXMXMXMXMXMXMXMXMXMXLXKXGXGXGXGXGXGXGXGXGXGXGXGXGXGXGXGXGXGXGXGXGXGXGXGXGXGXGXDXMXDXMXMXMXMXMXMXMXMXMXMXMXMXMX",
"MXMXMXMXMXMXMXMXMXMXMXMXMXMXMXMXMXMXMXMXMXMXMXMXMXMXDXKXGXGXGXGXGXGXGXGXGXGXGXGXGXGXGXGXGXGXGXGXGXGXGXGXGXGXGXMXMXMXMXMXMXMXMXMXMXMXAXAXLXLXLXBXBXZXbXU.G.Y.T.T.T.Y.Y.Y.Y.;.;.;.;.:.*.*.*.$.$.$.$.%.%.%.[ [ [ [ %.%.[ [ [ [ [ ] Q.&.` [ $.#.@.OX&.] ] Y.Q.@.#.#.] G.tXQ.S.@.#.*.#.!.tX=.=.=.;.=.I.VXbXR.Y.E.Y.OXmXbXW.Y.;.:.E.:.;.=.-.S.tX&.@.-.-.@.&.@.I.&.t @.#.] ' ' ' q 9 x H.J.c e w r w &.U.0 5 e e r ' ' ' ' ' q c U Y U L U L = 8 9 r r r v c G M L c 0 q r q 0 D.k 4 0 9 4 4 D.F.e e t 5 r.I.0 9 9 e 9 4 F.U.0 0 e 9 4 4 8 4 9 $ c UXj 0 9 $ F.0Xc 8 8 6 L F.c 4 4 4 ;XL $ 8 9 $ L 0Xv $ U.0X8 8 8 j 8 - 8 8 8 8 h $ j j 8 j j h j k j j k j k z c x c c M L H D.H.H.H.Q VXBXNXBXMXMXMXMXMXMXMXMXMXMXMXMXMXMXMXMXMXMXMXMXMXMXMXLXKXGXGXGXGXGXGXGXGXGXGXGXGXGXGXGXGXGXGXGXGXGXGXGXGXGXGXGXDXMXDXMXMXMXMXMXMXMXMXMXMXMXMXMX",
"MXMXMXMXMXMXMXMXMXMXMXMXMXMXMXMXMXMXMXMXMXMXMXMXMXMXLXKXGXGXGXGXGXGXGXGXGXGXGXGXGXGXGXGXGXGXGXGXGXGXGXGXGXGXGXMXMXMXMXMXMXMXMXMXMXMXAXAXLXLXLXBXBXVXbXU.R.T.G.G.T.T.Y.Y.Y.~.;.;.:.:.:.:.:.$.$.$.$.$.%.%.%.%.[ [ [ [ [ [ [ [ [ ] @.] ] %.%.[ #.R.Y.] ] Y.tX] [ %.@.r K.rXS.] #.#.#.!.tX&.=.=.=.=.Q.mXbX!.~.E.~.tXVXaXQ.G.G.;.;.=.=.-.-.-.tXG.w =.#.-.' @.0Xc t @.] ] ] ] ] ] ' e 0 J.F.5 ' ] q @.U.e e @.' ' ` ] ' ' ' w v J.9 9 0 v F.c 0 e r ' ' r q 0 4 5 5 e r w e 0 F.x 9 9 v 9 $ F.F.e t 5 5 v I.c 4 0 5 4 9 XXF.5 v e 5 c v 9 8 4 c I.U.0 9 0 4 9 F.XX;XI.I.XXF.x 8 $ 9 F.j j 8 8 8 9 9 9 4 I.I.4 4 j 8 u 8 8 8 8 8 8 8 8 8 h h h j j j j j j k z k z z M M M N H D.J.H.H.K VXNXBXLXDXMXMXMXMXMXMXMXMXMXMXMXMXMXMXMXMXMXMXMXMXMXMXDXKXGXGXGXGXGXGXGXGXGXGXGXGXGXGXGXGXGXGXGXGXGXGXGXGXGXGXGXMXMXDXMXMXMXMXMXMXMXMXMXMXMXMXMX",
"MXMXMXMXMXMXMXMXMXMXMXMXMXMXMXMXMXMXMXMXMXMXMXMXMXMXDXKXGXGXGXGXGXGXGXGXGXGXGXGXGXGXGXGXGXGXGXGXGXGXGXGXGXGXGXMXMXMXMXMXMXMXMXMXMXMXAXAXLXLXLXMXNXVXaXU.G.G.G.G.G.Y.Y.Y.Y.;.;.=.:.:.:.:.:.$.$.$.$.$.$.%.%.[ [ [ [ [ [ [ [ [ [ [ ] ] [ %.%.[ ] #.#.#.] #.Y.] [ %.-.' &.Q.=.@.#.=.] !.rX-.-.;.~.-.OXmXbXE.~.!.Y.tXmXbXtX0XtX0X!.!.-.=.;.&.OXOX&.q @.q v U.Q.c r @.@.' e e r r r e 4 F.D.5 r ' w &.U.9 0 e r ' ` ' ' ' ' r v F.9 0 e e N U.v 4 r w ' ' r e e e e r ' r e 5 N h 4 $ 4 6 8 F.F.5 e r e e U.I.N c v F.0XI.v 4 t 5 9 F.U.F.U.U.F.F.c 4 0 9 9 0 0 j c N c j 4 $ 9 9 4 6 9 8 4 4 8 8 8 8 4 L c $ 8 8 - u 8 8 8 8 8 8 8 8 j j j j j j j j j k z k k k z z M M L H H.J.H.H.L VXBXBXAXDXMXMXMXMXMXMXMXMXMXMXMXMXMXMXMXMXMXMXMXMXMXMXDXKXGXGXGXGXGXGXGXGXGXGXGXGXGXGXGXGXGXGXGXGXGXGXGXGXGXGXGXDXMXDXMXMXMXMXMXMXMXMXMXMXMXMXMX",
"MXMXMXMXMXMXMXMXMXMXMXMXMXMXMXMXMXMXMXMXMXMXMXMXMXMXLXKXGXGXGXGXGXGXGXGXGXGXGXGXGXGXGXGXGXGXGXGXGXGXGXGXGXGXGXMXMXMXMXMXMXMXMXMXMXMXAXAXLXLXAXMXNXVXrXF.G.G.G.G.G.G.T.Y.Y.;.=.=.=.*.*.*.*.*.$.$.$.$.$.$.%.[ %.%.[ [ [ [ [ [ [ [ [ %.[ [ %.%.[ ] ` $.[ [ ] ] %.%.%.[ ] #.#.#.#.#.#.~.!.*.:.~.:.:.!.mXbX!.~.~.S.tXVXZXFXKXKXKXKXVX!.:.#.' G.XX0XP.D.F.I.0XG.r ] #.` &.U.H.x u u j D.J.&.e ' ' ` v Y : = 8 8 v 9 e v r r e c H.9 0 r e e F.F.v e r ' ' r r r r r r w w e 9 D.G G G M H L L v 5 e q e 5 9 F.I.0XQ.0XF.v 0 e e 5 4 9 v 9 c c v 4 4 4 4 9 9 0 4 4 4 0 $ 0 8 4 8 0 4 9 8 8 8 8 8 8 8 8 8 9 4 4 j 8 $ 8 8 8 8 9 8 9 9 9 8 8 8 u j j j j j j k k k k x c M L H D.J.J.H.H.K VXNXBXAXLXMXMXMXMXMXMXMXMXMXMXMXMXMXMXMXMXMXMXMXMXMXMXDXKXGXGXGXGXGXGXGXGXGXGXGXGXGXGXGXGXGXGXGXGXGXGXGXGXGXGXGXMXMXMXMXMXMXMXMXMXMXMXMXMXMXMXMX",
"MXMXMXMXMXMXMXMXMXMXMXMXMXMXMXMXMXMXMXMXMXMXMXMXMXMXDXKXGXGXGXGXGXGXGXGXGXGXGXGXGXGXGXGXGXGXGXGXGXGXGXGXGXGXGXMXMXMXMXMXMXMXMXMXMXMXAXAXLXLXAXMXNXVXrXF.G.G.G.K.G.G.G.G.G.y.y.y.=.=.*.*.*.*.$.$.$.$.%.%.[ [ [ %.%.[ [ [ [ [ [ [ %.>.[ [ [ %.%.[ [ >.[ [ [ #.%.[ [ >.$.[ [ $.$.#.*.[ #.*.:.:.:.~.;.!.OXT.Y.Y.G.Q.rXbXbXbXmXmXVXbX!.:.=.=.t f J.;X0X0XU.&.r ] %.%.%.@.&.F.P..XP.P.F.c e w ' ' ` @.I.U H.H.H.J.J.U.v e w e c F.v e ' r 5 9 F.F.e r r r r r r r r r ` w e e c c c M c c c 9 4 e r w e t 4 4 9 v v e 0 4 v e 5 e 0 4 0 4 0 0 4 4 9 9 9 0 0 9 9 9 0 4 0 9 9 0 0 4 4 9 0 8 8 8 8 8 8 8 8 8 8 8 8 8 8 8 8 8 8 8 8 9 9 9 9 i u j j j j j j j k k k x M M M L H D.J.J.H.Y L VXBXBXMXLXMXMXMXMXMXMXMXMXMXMXMXMXMXMXMXMXMXMXMXMXMXMXDXKXGXGXGXGXGXGXGXGXGXGXGXGXGXGXGXGXGXGXGXGXGXGXGXGXGXGXGXDXMXMXMXMXMXMXMXMXMXMXMXMXMXMXMX",
"MXMXMXMXMXMXMXMXMXMXMXMXMXMXMXMXMXMXMXMXMXMXMXMXMXMXDXKXGXGXGXGXGXGXGXGXGXGXGXGXGXGXGXGXGXGXGXGXGXGXGXGXGXGXGXMXMXMXMXMXMXMXMXMXMXMXAXAXLXBXMXCXCXNXpXD.F.F.F.J.K.G.G.y.y.y.y.y.=.-.-.-.-.#.#.#.[ $.[ [ [ [ %.%.%.[ [ [ [ [ [ [ [ %.[ [ %.[ [ [ %.%.%.%.$.[ [ [ $.[ $.*.#.#.#.-.-.#.*.*.*.*.;.;.=.-.=.=.Y.E.Y.y.y.R.Y.~.Y.Y.T.Y.Y.*.-.-.#.@.@.@.q r w ' #.#.] ] ] ] ' e e e t v r r r ' ' ` ` ] e 9 v v 9 v 9 v q r ' ' e v 5 e ' w ' q e v e q r w r r r ' ` ` ' ' r 5 e 5 5 q e 5 5 q e e q r q e e 9 9 4 5 e v 5 e e q t 9 9 9 0 0 0 5 0 9 5 9 9 0 0 0 0 9 9 0 0 4 0 9 9 4 4 0 0 8 8 8 8 8 8 8 8 j 8 8 8 8 8 8 8 8 8 8 9 9 9 9 7 9 i i i i i j x x x c x M N L H H D.J.J.H.Y G VXBXBXMXDXMXMXMXMXMXMXMXMXMXMXMXMXMXMXMXMXMXMXMXMXMXMXDXKXGXGXGXGXGXGXGXGXGXGXGXGXGXGXGXGXGXGXGXGXGXGXGXGXGXGXGXDXMXDXMXMXMXMXMXMXMXMXMXMXMXMXMX",
"MXMXMXMXMXMXMXMXMXMXMXMXMXMXMXMXMXMXMXMXMXMXMXMXMXMXDXKXGXGXGXGXGXGXGXGXGXGXGXGXGXGXGXGXGXGXGXGXGXGXGXGXGXGXGXMXMXMXMXMXMXMXMXMXBXMXAXAXLXBXMXCXCXCXpXD.F.F.r.r.F.F.r.t.t.t.t.y.&.-.-.-.-.+.#.#.#.#.#.[ [ [ %.%.%.[ [ [ [ [ [ %.[ [ [ [ [ [ [ [ [ [ >.[ %.] #.[ [ [ [ $.#.#.#.#.#.-.=.:.-.=.;.;.Y.=.Y.E.~.;.T.Y.Y.T.;.:.:.:.;.=.-.=.=.-.#.*.#.#.-.#.#.#.#.] ] #.[ [ ] ] ' ' ' ' ' ] ] ' ' ] ' ` r r r r e e e r r ' ] ' q e q r w ] ' r r q r r r r r r r ' ' ` ` ' r q e q e r r r r r r e q r r r q 5 v t t e 0 e e q e e 5 0 0 0 e v v 9 0 9 9 9 0 0 0 4 0 9 4 0 9 9 0 0 9 9 0 0 8 8 8 8 8 8 8 8 8 8 8 8 8 8 8 8 6 6 0 6 9 7 7 7 7 y g g d d c c c m c m B N L H H D.H.J.H.H G VXBXMXMXDXDXMXMXMXMXMXMXMXMXMXMXMXMXMXMXMXMXMXMXMXMXMXDXKXGXGXGXGXGXGXGXGXGXGXGXGXGXGXGXGXGXGXGXGXGXGXGXGXGXGXGXDXMXDXMXMXMXMXMXMXMXMXMXMXMXMXMX",
"MXMXMXMXMXMXMXMXMXMXMXMXMXMXMXMXMXMXMXMXMXMXMXMXMXMXDXKXGXGXGXGXGXGXGXGXGXGXGXGXGXGXGXGXGXGXGXGXGXGXGXGXGXGXGXMXMXMXMXMXMXMXMXMXBXMXAXAXLXBXMXCXCXNXpXH F.r.r.r.D.D.D.r.r.r.t.t.e.t.&.&.&.+.+.-.#.$.$.$.%.[ %.%.%.[ %.[ [ [ [ [ %.[ [ [ [ [ [ %.[ [ >.[ [ [ $.[ [ $.$.[ $.*.-.#.$.$.*.*.;.=.=.=.;.;.Y.;.Y.Y.E.T.Y.T.~.;.;.;.y.y.=.=.-.-.*.*.*.#.-.#.#.#.#.#.@.' @.@.' ' ] ] [ ] ' ' w w ` ] ] ` ' ' ` ' ' ' ' ' ' ` ' ' r ' ' ' w @.w w @.w w r w w w w w w w w ' ' r e e r r r q r r q q e r w r r e 5 q e t e 5 v t q q q e e 0 e e e 0 0 0 9 0 9 9 9 9 9 0 4 9 0 0 4 4 9 9 0 9 9 8 8 8 8 8 8 8 8 8 8 8 8 8 u 6 6 6 6 7 9 9 9 f g f f f m e.e.f m m m m m m N N H H D.H.H.H L G VXBXMXMXDXDXMXMXMXMXMXMXMXMXMXMXMXMXMXMXMXMXMXMXMXMXMXDXKXGXGXGXGXGXGXGXGXGXGXGXGXGXGXGXGXGXGXGXGXGXGXGXGXGXGXGXDXMXDXMXMXMXMXMXMXMXMXMXMXMXMXMX",
"MXMXMXMXMXMXMXMXMXMXMXMXMXMXMXMXMXMXMXMXMXMXMXMXMXMXDXKXGXGXGXGXGXGXGXGXGXGXGXGXGXGXGXGXGXGXGXGXGXGXGXGXGXGXGXMXMXMXMXMXMXMXMXMXMXMXAXAXAXMXMXCXCXNXeXH D.r.r.N D.H N N r.r.t.e.e.e.e.X.X.o.X.+.+.#.#.#.#.[ [ [ [ [ [ [ [ [ [ [ [ [ [ [ [ %.[ [ [ [ [ %.[ $.[ [ [ $.$.[ *.[ [ *.$.*.*.$.=.=.=.=.:.Y.Y.=.E.Y.Y.Y.Y.Y.;.;.~.=.y.y.=.-.=.-.#.#.*.#.#.#.#.#.] #.` @.' ] ] ] [ [ [ ] ] ' ' ] ] ` w ] ` ' ' ' ' ' ' ' ' ` ] ] ' ` ' ` ] w ' ` w ' w w w w w w w w w w r w q e r r r e r r q e e q e w w w e t 5 t q e e e 5 t r q e 5 5 e e 5 0 v e 0 0 9 9 0 5 0 9 9 4 0 9 9 0 0 9 0 9 9 9 9 9 6 6 6 4 4 4 6 7 6 7 7 g g d f e.e.e.e.e.e.e.<.X.f f f f f c m c m m N N H H D.H.H.H L Z VXBXMXMXDXDXMXMXMXMXMXMXMXMXMXMXMXMXMXMXMXMXMXMXMXMXMXDXKXGXGXGXGXGXGXGXGXGXGXGXGXGXGXGXGXGXGXGXGXGXGXGXGXGXGXGXDXMXDXMXMXMXMXMXMXMXMXMXMXMXMXMX",
"MXMXMXMXMXMXMXMXMXMXMXMXMXMXMXMXMXMXMXMXMXMXMXMXDXMXMXKXGXGXGXGXGXGXGXGXGXGXGXGXGXGXGXGXGXGXGXGXGXKXGXGXKXGXGXMXMXMXMXMXMXMXMXMXMXMXMXMXMXMXMXNXCXVXeXH H N N r.r.r.r.N N r.r.e.e.e.<.X.X.o.o.} .... .O.+.+.+.+.+.+.+.+.o.] ] ] ] ] ] ] [ [ [ [ [ [ $.%.$.%.$.[ [ [ [ [ [ $.$.$.*.*.*.*.=.=.=.=.~.;.;.;.Y.Y.Y.Y.Y.Y.Y.;.;.Y.Y.;.=.=.-.-.*.#.#.#.#.#.[ #.#.] ] ] ] ] ] ] ] ] ] ] ] ] ] ] ] ' ' ' ' ' ' ' ' ' ' ` ` ` ' ' ` ` ' ' ` ` ` ` ` ` r r w w w w w w w w w w w q w w w w w w q e e q q q q e e e e e e e e e q q e q q e 0 0 0 e e e 9 9 e 0 v 5 e 5 v 9 9 9 0 8 4 4 6 7 4 4 4 4 4 7 7 7 a a { ..,.1.w.w.1.1.1.1.1.X.X.X.X.X.X.X.X.X.f f f f m m m m B N N H H D.H.H.Y L Z ZXVXNXDXMXDXDXMXMXMXMXMXMXMXMXMXMXMXMXMXMXMXMXMXMXMXMXDXKXGXGXGXGXGXGXGXGXGXGXGXGXGXGXGXGXGXGXGXGXGXGXGXGXGXGXGXMXMXDXMXMXDXMXMXMXMXMXMXMXMXMXMX",
"MXMXMXMXMXMXMXAXMXMXMXMXMXMXMXMXAXMXMXMXMXMXMXMXDXMXMXKXGXGXGXGXGXGXGXGXGXGXGXGXGXGXGXGXGXGXGXGXGXKXGXGXGXGXGXMXMXMXMXMXMXMXMXAXLXLXAXAXAXMXBXBXNXVXeXH H N r.r.r.r.r.r.r.r.r.e.e.e.<.<.X.s { { } } | ,.,.,.,.3.w.w.w.w.w.w.w.w.*.*.+.+.+.[ ] ] ` ` ] ] [ [ [ [ [ [ [ [ [ [ $.$.$.$.$.*.*.=.;.;.Y.Y.Y.Y.Y.Y.T.Y.Y.Y.Y.Y.;.;.;.=.;.=.=.-.-.-.#.#.#.#.#.#.#.] ] ] ] ] ] ] ] ] ] ] ] ] ] ' ' ` ` ' ' ' ' ' ' ' ' ' ' ' ' ' ` ` ` ' ' ' ' ' ` ` w w w w w w w w w w r r r r r r r r w q q q q q e e e e e e e q e q t t t t e e t t e e e e t t t q 7 7 q 5 5 5 5 4 5 4 4 5 5 7 p p { } } 1.1.w.u.u.w.q.q.q.q.9.4.4.4.3.6. . .| ..} X.X.X.X.X.X.f f f f m m m m B N N H H D.F.H.Y L Z VXVXNXDXNXAXMXLXBXMXMXMXMXMXMXAXMXMXMXMXMXMXMXMXMXMXMXMXKXGXGXGXGXGXGXGXGXGXGXGXGXGXGXGXGXGXGXGXGXGXGXGXGXGXGXGXDXMXDXMXMXDXMXMXMXMXMXMXMXMXAXMX",
"MXMXMXMXMXMXMXMXMXMXMXMXMXMXMXMXMXMXMXMXMXMXMXMXMXMXDXKXGXGXGXGXGXGXGXGXGXGXGXGXGXGXGXGXGXGXGXGXGXGXGXGXGXGXKXMXMXMXMXMXMXMXMXMXMXMXMXMXMXMXMXBXNXVXeXH H H r.r.r.r.r.r.r.r.r.e.e.e.<.<.X.s { { { } ,.,.,.| ,.3.4.6.9.6.w.w.w.w.h.h.h.h.h.h.h.A.h.h.h.i.9.+.+.+.+.+.[ [ [ [ [ [ +.+.+.+.+.*.*.=.=.=.;.Y.Y.Y.Y.Y.Y.T.T.Y.Y.Y.Y.~.=.=.-.-.-.*.#.#.#.[ [ #.[ ] ] ] ] ] ] ] ] ] ] ] ] ] ] ] ] ] ] ] ' ' ' ' ' ' ' ' ` ` ` ` ` ` ` ` ' ' ' ' ' ' ' r ' ' ' ' ' ' ' ' r r r r r r r r r r r r r r r r r e r r e e e r q q q q q q q q q 5 q q 5 5 5 5 5 q p o.a { | 6.4.5.w.h.A.A.A.A.A.A.z.z.d.p.0.0.7.7.q.q.9.9.5.5.3.O. . . . .....X.X.X.X.X.X.f f f c m m m m N N N H H D.F.H.Y L Z VXZXNXLXNXMXMXMXMXMXMXMXMXMXMXMXMXMXMXMXMXMXMXMXMXMXMXMXKXGXGXGXGXGXGXGXGXGXGXGXGXGXGXGXGXGXGXGXGXGXGXGXGXGXGXGXDXMXMXMXMXAXMXMXMXMXMXMXMXMXMXMX",
"MXMXMXMXMXMXMXMXMXMXMXMXMXMXMXMXMXMXMXMXMXMXMXMXMXDXDXKXGXGXGXGXGXGXGXGXGXGXGXGXGXGXGXGXGXGXGXGXGXGXGXGXGXGXKXKXMXMXMXMXMXMXMXMXLXLXAXAXAXMXBXBXBXVXeXH H H r.r.r.r.r.r.r.r.r.e.e.e.<.<.X.s { } } } ,.,.,.,.,.6. .O.4.4.9.w.w.9.9.9.8.8.i.a.a.f.a.a.f.g.b.b.Z.Z.A.A.A.A.A.A.A.A.h.h.h.i.h.h.h.h.y.y.Y.Y.Y.Y.;.y.y.y.y.-.-.-.-.+.*.+.+.+.+.+.+.[ [ ] [ [ ] ] ] ] ] ] ] ] ` ` ` ` ] ` ` ` ` ` ` ` ` ` ` ` ` ` ` ` ` ` ` ` ` ` ` ` ` ` ` ` ` ` ` ` w w ` w w w w w w w w w w w w w q q q q w w w w q q q q q q w w w w ` o.o.o.o...O.4.q.w.h.A.A.A.}.z.q.Z.}.}.z.Z.Z.Z.Z.b.l.f.f.a.i.i.i.a.a.a.a.a.8.7.9.9.5.4.4.4.O.O. . . .......X.X.X.X.X.X.f f f c m m m m N N N H H D.F.H.Y L G mXZXNXDXLXLXDXAXMXMXMXMXMXMXMXMXMXMXMXMXMXMXMXDXDXMXMXDXKXGXGXGXGXGXGXGXGXGXGXGXGXGXGXGXGXGXGXGXGXGXGXGXGXGXGXKXDXMXMXMXMXMXMXMXMXMXMXMXMXMXMXMX",
"KXKXKXKXKXKXKXKXKXKXKXKXKXKXKXKXKXKXKXKXKXKXKXKXKXKXKXKXKXKXKXKXKXKXKXKXKXKXKXKXKXKXKXKXKXKXKXKXKXKXKXKXKXKXKXKXKXKXKXKXKXKXKXKXKXKXKXKXKXKXKXFXZXZXeXH H H r.r.r.r.r.r.r.r.r.e.e.e.<.<.X.{ { } | } } | ,.,.,.3.3.4.4.9.7.7.7.7.p.p.d.p.p.p.d.s.f.f.f.f.f.g.g.g.b.b.b.b.b.b.Z.Z.Z.Z.Z.Z.Z.Z.}.}.}.}.}.}.}.}.OX}.}.}.}.Z.Z.A.A.A.h.h.h.h.i.+.+.O.+.+.+.+.+.] ] ] ] ] ] ` ` ` ` ` ` ` ` ` ` ` ` ` ` ` ` ` ` ` ` ` ` ` ` ` ` ` ` ` ` ` ` ` ` ` ` ` ` ` ` ` ` ` ` ` ` o.o.o.o.o.....O.O.O.4.9.9.8.8.z.z.z.z.l.Z.Z.Z.Z.}.}.}.}.}.}.}.}.}.'.'.'.Z.Z.Z.Z.a.9.l.Z.Z.f.l.j.g.g.g.g.g.g.g.g.g.a.a.a.i.i.i.i.q.q.q.9.9.4.4.3.3. . . .....} X.X.X.X.X.X.X.f f c m B m m N N N N H D.F.H.Y L G nXFXDXKXKXKXKXKXKXKXKXKXKXKXKXKXKXKXKXKXKXKXKXKXKXKXKXKXKXKXKXKXKXKXKXKXKXKXKXKXKXKXKXKXKXKXKXKXKXKXKXKXKXKXKXKXKXKXKXKXKXKXKXKXKXKXKXKXKXKXKXKX",
"GXGXGXGXGXGXGXGXGXGXGXGXGXGXGXGXGXGXGXGXGXGXGXGXGXGXGXKXDXDXDXMXDXDXDXDXDXDXLXLXDXDXDXLXDXDXDXDXMXDXMXMXDXMXLXKXGXGXGXGXGXGXGXGXGXGXGXGXGXGXGXHXFXZXeXH H H N N r.r.r.r.r.r.r.e.e.e.<.<.X.s { } | } } } ,.,.,.,.3.3.5.5.9.9.9.9.9.7.0.0.0.p.d.s.s.s.s.f.j.k.k.k.k.k.k.k.k.x.c.v.x.c.v.v.m.B.'.'.}.}.}.}.|.|.|.}.|.|.|.|.|.|.|.}.}.}.}.}.}.}.}.}.}.}.}.}.}.Z.Z.Z.Z.Z.Z.Z.Z.Z.Z.Z.Z.Z.Z.Z.Z.Z.Z.Z.Z.Z.Z.Z.Z.Z.A.A.A.A.A.A.A.A.Z.Z.Z.Z.Z.Z.Z.Z.Z.Z.Z.Z.}.}.}.}.}.}.}.}.}.}.}.}.}.}.}.}.}.}.}.}.}.}.'./.'.'.'.'.'.'.(.(.(.B.m.M.c.c.m.m.m.m.m.m.N.m.N.Z.C.B.x.x.x.b.b.c.k.k.g.f.a.a.a.a.a.a.a.h.h.h.9.9.9.9.9.9.9.6.4.3.,.,.......} X.X.X.X.X.X.X.f f c m B m m B N N N H D.H.H.H L G vXFXFXHXGXHXGXGXGXGXGXGXGXGXGXGXGXGXGXGXGXGXGXGXGXGXGXGXKXMXMXDXDXDXDXDXDXDXDXDXDXDXDXDXDXLXLXDXDXDXLXDXDXDXDXDXGXGXGXGXGXGXGXGXGXGXGXGXGXGXGXGX",
"GXGXGXGXGXGXGXGXGXGXGXGXGXGXGXGXGXGXGXGXGXGXGXGXGXGXGXKXMXMXMXMXMXMXMXMXMXMXMXMXMXMXMXMXMXMXMXMXMXDXMXMXMXMXMXGXGXGXGXGXGXGXGXGXGXGXGXGXGXGXGXGXFXFXeXH H H D.r.r.r.r.N N r.N e.e.e.<.<.X.s { } } } } | | ,.,.,.3.3.5.7.7.7.7.7.7.0.0.0.0.0.d.d.d.s.s.j.j.j.k.k.l.l.k.k.k.k.c.c.v.v.v.m.m.B.B.(.'.'.'.}.}.}.}.}.}.}.}.}.}.|.{.'./.(.(.^./././././.(.(././././.'.'.'.'.'.'.'.'.'.'.'.'.'.'.'.'.'.'.'.'.'.'.'.'.}.'.'.'.'.}.}.}.}.'.'.'.'.'.'.'.'.'.'.'.'.'.'.'./././.(.(.(.B.B.B.^.(.(.^.B.B.B.B.B.V.V.V.B.B.B.B.B.B.B.V.V.^.^.^.V.V.C.B.B.N.N.N.N.v.v.g.c.v.v.f.j.j.j.j.j.j.j.f.s.s.d.p.d.d.8.8.q.q.q.q.7.9.4.4.4.3.6.,.......} X.X.X.<.X.X.f f f f m B m m B N N N H D.H.H.H L G vXFXHXHXGXGXGXGXGXGXGXGXGXGXGXGXGXGXGXGXGXGXGXGXGXGXGXGXKXMXMXMXMXMXMXMXMXMXMXMXMXMXMXMXMXMXMXMXMXMXMXMXMXMXMXMXGXGXGXGXGXKXGXGXGXGXGXGXGXGXGXGX",
"GXGXGXGXGXGXGXGXGXGXGXGXGXGXGXGXGXGXGXGXGXGXGXGXKXGXGXKXMXMXMXLXMXMXMXMXMXMXMXMXMXMXMXMXMXMXMXMXMXDXMXMXDXMXMXGXGXGXGXGXGXGXGXGXGXGXGXGXGXGXGXGXFXFXeXL H H D.r.r.r.r.N N N r.e.e.e.<.<.X.s { } { 2.2.,.,.,.,.,.3.3.4.5.5.7.7.7.9.7.0.0.0.p.d.z.d.d.s.j.j.j.k.j.k.j.j.j.k.k.c.c.c.v.v.v.m.B.B.(.'.'.'.'.}.}.}.}.}.}.}.}.'.{.'./.).)./././././././.^.^.^.^.^.^.^.^.^.^.^.^.^.^.^.^.V.V.^.^.^.^.^.^.^.^.^.^.^.^.^.^.(.(.(.(.(.(.(././././.^./.^./././././././.(.(.(.(.^.^.^.^.^.^.^.^.^.^.^.^.^.^.V.V.^.^.^.V.V.V.V.V.V.C.C.C.C.C.B.B.B.B.N.N.N.N.N.n.N.x.v.x.v.x.l.l.l.l.j.j.s.p.s.d.d.d.d.d.d.q.4.4.7.7.9.7.4.4.3.3. . .........X.X.X.<.X.X.f f f f m m m m B N N N H D.H.H.H L G bXFXHXHXGXHXGXGXGXGXGXGXGXGXGXGXGXGXGXGXGXGXGXGXKXGXGXGXKXLXLXMXMXMXMXMXMXMXMXMXMXMXMXMXMXMXMXMXMXMXMXMXMXMXMXMXGXGXHXGXGXKXGXGXGXGXGXGXGXGXGXGX",
"GXGXGXGXGXGXGXGXGXGXGXGXGXGXGXGXGXGXGXGXGXGXGXGXGXGXGXKXMXMXMXMXMXMXMXMXMXMXMXMXMXMXMXMXMXMXMXMXMXMXMXMXDXMXDXGXGXGXGXGXGXGXGXGXGXGXGXGXGXGXGXGXKXFX,XY H H D.N N r.r.r.r.r.r.e.e.e.<.<.X.s s { } } 2.2.| ,.,.,.,.3.5.5.5.7.7.7.8.0.0.0.0.p.d.d.s.s.s.s.j.k.k.j.k.l.k.k.l.l.c.c.c.c.m.m.N.B.B.(.(.'.'.'.'.}.}.}.}.}.}.}.'.'.'./././.^.^././././././.^.^.^.^.^.^.^.^.^.^.^.^.^.^.^.^.^.^.^.^.^.^.^.^.^.^.^.^.^.^.^.^.^.(././././././././././.^./././././.^.(.^.^./.^.^.^.^.^.^.^.^.^.^.^.^.^.^.^.V.V.V.V.C.C.C.C.V.B.V.V.n.N.V.B.N.N.N.N.v.v.v.v.N.v.v.v.v.x.x.x.g.g.g.g.f.f.f.s.s.s.s.p.p.p.p.p.7.8.8.7.9.4.4.4.4.O. . .........X.X.X.X.X.X.f f f c m m m m N N N H H D.H.H.H L Z vXFXFXGXGXGXGXGXGXGXGXGXGXGXGXGXGXGXGXGXGXGXGXGXGXGXGXGXKXMXMXMXMXMXMXMXMXMXMXMXMXMXMXMXMXMXMXMXMXMXMXMXMXMXMXMXGXGXGXGXGXGXGXGXGXGXGXGXGXGXGXGX",
"GXGXGXGXGXGXGXGXGXGXGXGXGXGXGXGXGXGXGXGXGXGXGXGXGXGXGXKXMXMXMXMXMXMXMXMXMXMXMXMXMXMXMXMXMXMXMXMXMXMXMXMXDXMXDXGXGXGXGXGXGXGXGXGXGXGXGXGXGXGXGXGXKXFX,XY H H D.N N r.r.r.r.N r.e.e.e.<.<.X.s s { } } 2.} | ,.,.,.,.3.5.5.5.7.7.7.8.8.0.0.p.p.p.s.s.s.f.f.f.j.k.j.k.l.k.k.l.l.c.c.c.c.v.m.m.m.B.B.(.(.(.'.'.'.}.}.}.}.}.'.'.'./././././.^././././././.^.^.^.^.^.^.^.^.^.^.^.^.^.^.^.^.^.^.^.^.^.^.^.^.^.^.^.^.^.^.^.^.^.^.^./././.^.^././././.^.^./.^.^.^.^.^.^.^.^.^.^.^.V.V.V.^.^.^.V.V.V.V.V.V.V.V.V.C.C.C.C.C.C.B.V.^.N.N.C.N.N.m.m.m.m.m.m.v.m.v.v.n.v.x.x.x.g.g.g.g.g.f.f.a.a.a.a.a.a.p.p.p.8.7.7.7.7.7.4.4.3.O. .........X.X.X.X.X.X.X.f f f c m m m m N N N H H D.H.H.H L Z vXFXFXGXGXGXGXGXGXGXGXGXGXGXGXGXGXGXGXGXGXGXGXGXGXGXGXGXKXMXMXMXMXMXMXMXMXMXMXMXMXMXMXMXMXMXMXMXMXMXMXMXMXMXMXMXGXGXGXGXGXGXGXGXGXGXGXGXGXGXGXGX",
"GXGXGXGXGXGXGXGXGXGXGXGXGXGXGXGXGXGXGXGXGXGXGXGXGXGXGXKXMXMXMXMXMXMXMXMXMXMXMXMXMXMXMXMXMXMXMXMXMXMXMXMXDXMXDXGXGXGXGXGXGXGXGXGXGXGXGXGXGXGXGXGXFXFX,XY H H D.D.D.r.N N r.r.N e.m m <.<.X.s s { | | | ,.| ,.,.,.3.3.5.5.5.7.7.7.8.8.8.0.p.p.p.a.s.f.f.f.f.f.g.k.k.j.k.k.k.l.c.c.c.c.m.m.m.m.m.B.^.^.^.^.^.(./././.`./././././././.^.^.^.^./.^.^./.^.^.^.^.^.^.^.^.^.^.^.^.^.^.^.^.^.^.^.^.^.^.^.^.^.^.^.^.^.^.^.^.^.^.^.^.^././.^.^.^.^.^.^.^.^.^.^.^.^.^.^.^.^.^.^.^.^.^.^.V.V.^.V.V.V.V.V.V.V.C.C.V.C.C.C.C.C.V.N.n.N.N.B.V.N.N.m.m.m.m.m.m.m.m.M.v.b.b.b.b.b.b.b.b.g.g.g.g.a.i.a.a.a.a.d.p.i.0.7.9.9.7.7.4.3.3. . .........X.X.X.X.X.X.X.f f f c m m m m B N N H H D.F.H.H L Z nXFXFXGXGXGXGXGXGXGXGXGXGXGXGXGXGXGXGXGXGXGXGXGXGXGXGXGXKXMXMXMXMXMXMXMXMXMXMXMXMXMXMXMXMXMXMXMXMXMXMXMXMXMXMXMXGXGXGXGXGXGXGXGXGXGXGXGXGXGXGXGX",
"GXGXGXGXGXGXGXGXGXGXGXGXGXGXGXGXGXGXGXGXGXGXGXGXGXGXGXKXMXMXMXMXMXMXMXMXMXMXMXMXMXMXMXMXMXMXMXMXMXMXMXMXDXMXDXGXGXGXGXGXGXGXGXGXGXGXGXGXGXGXGXGXFXFX,XU H H D.D.D.r.r.r.r.N N m m m <.<.X.s s { | | ,.,.| ,.,.,.3.5.5.5.7.7.8.7.8.8.8.8.i.p.p.a.a.s.f.f.f.f.g.k.j.k.j.k.k.k.c.c.c.c.m.m.m.m.m.B.B.^.^.^.^.^.^././././././././././.^.^.^.^.^.^.^.^.^.^.V.B.B.V.V.^.^.^.^.^.^.^.^.^.^.^.^.^.^.^.^.^.^.^.^.^.^.^.^.^.^.^.^.^.^.^./.^.^.^.^.^.^.^.^.^.^.^.^.^.^.^.^.^.^.^.^.^.^.V.V.V.V.V.V.V.V.V.V.C.C.C.V.V.V.V.V.C.B.B.B.B.B.C.B.m.m.m.m.m.M.m.m.m.M.v.v.b.b.x.b.b.b.b.g.g.g.g.a.a.a.a.d.d.p.p.8.0.7.9.9.7.7.4.3.3. . ...,.....X.X.X.X.X.X.X.f f f c m m m m B N N H H D.H.H.H L Z nXFXFXGXGXGXGXGXGXGXGXGXGXGXGXGXGXGXGXGXGXGXGXGXGXGXGXGXKXMXMXMXMXMXMXMXMXMXMXMXMXMXMXMXMXMXMXMXMXMXMXMXMXMXMXMXGXGXGXGXGXGXGXGXGXGXGXGXGXGXGXGX",
"GXGXGXGXGXGXGXGXGXGXGXGXGXGXGXGXGXGXGXGXGXGXGXGXGXGXGXKXMXMXMXMXMXMXMXMXMXMXMXMXMXMXMXMXMXMXMXMXMXMXMXMXDXMXDXGXGXGXGXGXGXGXGXGXGXGXGXGXGXGXGXGXFXFX,XU Y H D.D.D.D.r.r.r.N N r.m m e.<.X.s s { ..| | | ,.,.,.3.3.5.5.5.5.7.8.8.8.8.q.q.p.p.p.a.p.a.f.f.f.f.g.j.g.g.j.j.k.b.b.b.b.b.b.v.v.M.M.m.B.B.^.^.^.^.(.(.(.(.(././././././.^.^.^././.^.^./.^.^.^.^.^.^.^.^.^.^.^.^.^.^.^.^.^.^.^.^.^.^.^.^.^.^.^.^.^.^.^.^.^.^.^.^.^.^./././.^.^.^.^.^.^.^.^.^.^.^.^.^.^.^.^.^.^.^.^.^.V.V.V.V.V.V.V.V.V.V.V.V.^.V.V.V.V.N.^.(.^.C.N.N.B.N.N.N.m.m.m.m.m.m.m.m.c.v.c.c.x.k.j.j.j.f.s.s.a.a.p.p.p.p.0.0.0.8.8.7.7.7.7.4.4.3. . .,.2...} } X.X.X.X.X.X.f f f f m m m m B N N N H D.H.H.H L Z nXFXFXHXGXGXGXGXGXGXGXGXGXGXGXGXGXGXGXGXGXGXGXGXGXGXGXGXKXMXMXMXMXMXMXMXMXMXMXMXMXMXMXMXMXMXMXMXMXMXMXMXMXMXMXMXGXGXGXGXGXGXGXGXGXGXGXGXGXGXGXGX",
"GXGXGXGXGXGXGXGXGXGXGXGXGXGXGXGXGXGXGXGXGXGXGXGXGXGXGXKXMXMXMXMXMXMXMXMXMXMXMXMXMXMXMXMXMXMXMXMXMXMXMXMXDXMXDXGXGXGXGXGXGXGXGXGXGXGXGXGXGXGXGXGXHXFX;XL Y H D.D.D.D.r.r.r.N N N m m e.<.X.s s { 2.,.,.| | ,.,.3.4.5.7.7.7.7.8.8.8.q.q.q.0.p.d.a.p.a.a.f.g.g.g.j.f.g.j.k.b.b.b.b.x.x.b.b.v.M.M.m.B.B.B.^.^.(.(.(.(.(.(././.^.^././.^.^.^././.^.^.^.^.^.^.^./././.^.^.^.^.^.^.^.^.^.^.^.^.^.^.^.^.^.^.^.^.^.^.^.^.^.^.^.^.^.^.^././././.^.^.^.^.^.^.^.^.^.^.^.^.^.^.^.^.^.^.^.^.^.V.V.V.V.V.V.V.V.V.V.^.^.^.^.V.V.V.V.v.v.B.B.B.V.C.C.N.N.N.N.m.m.v.m.v.v.v.v.c.x.k.k.j.f.f.s.a.s.s.d.p.p.0.0.0.0.8.8.8.7.7.4.4.4.3. . ...,...} } X.X.X.X.X.X.f f f f m m m m B N N N H D.F.H.H L Z nXFXFXHXGXGXGXGXGXGXGXGXGXGXGXGXGXGXGXGXGXGXGXGXGXGXGXGXKXMXMXMXMXMXMXMXMXMXMXMXMXMXMXMXMXMXMXMXMXMXMXMXMXMXMXMXGXGXGXGXGXGXGXGXGXGXGXGXGXGXGXGX",
"GXGXGXGXGXGXGXGXGXGXGXGXGXGXGXGXGXGXGXGXGXGXGXGXGXGXGXKXMXMXMXMXMXMXMXMXMXMXMXMXMXMXMXMXMXMXMXMXMXMXMXMXDXMXDXGXGXGXGXGXGXGXGXGXGXGXGXGXGXGXGXGXHXFX-XL Y H D.D.D.H r.r.r.N r.N m m e.<.X.s s { 2.,.,.,.| ,.,.3.4.5.7.7.7.8.8.8.8.0.0.0.0.p.p.p.p.p.s.f.f.j.j.f.f.k.k.x.c.c.c.c.x.c.c.v.v.m.M.m.B.B.B.(.(.(.(.(.(.(./././.^.^.^.^.^.^.^.^.^.^.^.^.^.^.^.^.^.^.^.^.^.^.^.^.^.^.^.^.^.^.^.^.^.^.^.^.^.^.^.^.^.^.^.^.^.^.^.^.^.^.^././.^.(.(.(.^.^.^.^.^.^.^.^.^.^.^.^.^.^.^.^.^.^.^.^.V.V.^.^.^.^.V.V.V.^.^.V.V.V.^.B.g.g.B.V.V.V.C.C.B.N.N.N.N.n.n.n.n.c.c.b.b.x.k.k.g.f.f.s.a.a.a.a.p.p.i.i.i.8.8.8.8.7.7.4.4.4.3. . .,.....} X.X.X.X.X.X.X.f f f f m m c m B N N N H D.F.H.H L Z nXFXFXHXGXGXGXGXGXGXGXGXGXGXGXGXGXGXGXGXGXGXGXGXGXGXGXGXKXMXMXMXMXMXMXMXMXMXMXMXMXMXMXMXMXMXMXMXMXMXMXMXMXMXMXMXGXGXGXGXGXGXGXGXGXGXGXGXGXGXGXGX",
"GXGXGXGXGXGXGXGXGXGXGXGXGXGXGXGXGXGXGXGXGXGXGXGXGXGXGXKXMXMXMXMXMXMXMXMXMXMXMXMXMXMXMXMXMXMXMXMXMXMXMXMXDXMXDXGXGXGXGXGXGXGXGXGXGXGXGXGXGXGXGXGXFXFX-XL Y H D.D.D.H r.N r.r.r.r.e.m e.<.X.s s { 2.,.,.,.| ,.,.3.4.5.7.7.7.7.8.8.8.0.0.0.0.0.p.p.p.a.s.s.f.j.j.f.f.k.k.x.c.c.c.c.c.c.v.m.m.M.m.m.B.B.B.(.(.(.(.(.(.(././././.(.^.^.^.^.^.^.^.^.^.^.^.^.^.^.^.^.^.^.^.^.^.^.^.V.^.^.^.^.^.^.^.^.^.^.^.^.^.^.^.^.^.^.^.^.^.^.^.^./././.^.(.(.(.^.^.^.^.^.^.^.^.^.^.^.^.^.^.^.^.^.^.^.^.V.V.^.^.^.^.V.V.V.V.V.V.V.C.N.^.^.V.V.B.v.B.B.C.B.B.N.N.N.n.v.n.n.b.b.b.b.x.k.k.g.f.f.f.s.a.p.a.p.p.p.p.i.i.8.8.7.7.7.7.4.4.3. . .......} X.X.X.X.X.X.X.f f f c m m c m B N N N H D.F.D.H G Z nXFXFXHXGXGXGXGXGXGXGXGXGXGXGXGXGXGXGXGXGXGXGXGXGXGXGXGXKXMXMXMXMXMXMXMXMXMXMXMXMXMXMXMXMXMXMXMXMXMXMXMXMXMXMXMXGXGXGXGXGXGXGXGXGXGXGXGXGXGXGXGX",
"GXGXGXGXGXGXGXGXGXGXGXGXGXGXGXGXGXGXGXGXGXGXGXGXGXGXGXKXMXMXMXMXMXMXMXMXMXMXMXMXMXMXMXMXMXMXMXMXMXMXMXMXDXMXDXGXGXGXGXGXGXGXGXGXGXGXGXGXGXGXGXGXFXFX;XY H H D.N r.r.r.r.r.N r.e.e.e.<.<.X.s s { | 2.2.,.,.,.3.3.4.4.5.7.7.7.7.7.8.8.0.0.p.p.d.d.p.a.s.s.f.f.f.j.j.k.k.k.c.c.k.c.c.c.c.c.m.m.B.B.B.B.(.(.(.(.(.(.(././././././.^.^.^.^.^.^.^.^.^./././.^.^.^.^.^.^.^.^.^.^.^.^.^.^.^.^.^.^.^.^.^.^.^.^./.^.^.^.^.^.^.^.^.^.^.^.^.^.^.^.^.^.^.^.^.^.^.^.^.^.^.^.^.^.^.^.^.^.^.^.^.^.^.V.V.V.V.V.V.V.^.V.B.B.V.V.C.V.V.C.C.C.B.B.B.N.N.N.N.N.m.v.v.v.v.v.v.b.c.x.x.k.f.f.f.f.f.s.a.s.a.p.p.0.8.8.8.7.8.8.7.9.4.4.3.3. . ...,.....X.X.X.X.X.X.X.f f f c m m m B B N N N H D.D.D.H L Z vXFXHXGXGXGXGXGXGXGXGXGXGXGXGXGXGXGXGXGXGXGXGXGXGXGXGXGXKXMXMXMXMXMXMXMXMXMXMXMXMXMXMXMXMXMXMXMXMXMXMXMXMXMXMXMXGXGXGXGXGXGXGXGXGXGXGXGXGXGXGXGX",
"GXGXGXGXGXGXGXGXGXGXGXGXGXGXGXGXGXGXGXGXGXGXGXGXGXGXGXKXMXMXMXMXMXMXMXMXMXMXMXMXMXMXMXMXMXMXMXMXMXMXMXMXDXMXDXGXGXGXGXGXGXGXGXGXGXGXGXGXGXGXGXGXFXFX;XY H H H N r.r.r.r.r.N r.e.e.e.<.<.X.{ { } 2.2.2.,.,.,.,.3.3.5.5.7.7.7.7.7.7.8.0.0.0.p.d.s.a.s.s.s.f.f.f.j.k.k.k.k.b.c.k.c.x.c.c.v.M.M.m.m.B.B.B.(.(.(.(.(.(././././.^.(.(.^.^.^.^.^.^.^.^.^.^.^.^.^.^.^.^.^.^.^.^.^.^.^.^.^.^.^.^.^.^.^.^.^.^.^././.^.^.^.^.^.^.^.^.^.^.^.^.^.^.^.^.^.^.^.^.^.^.^.^.^.^.^.V.^.^.^.^.V.^.^.^.V.V.V.V.V.V.V.V.V.^.^.V.^.V.C.V.V.V.C.C.B.B.B.B.N.N.N.N.N.m.v.m.v.c.c.c.c.c.k.j.f.f.f.s.s.s.a.a.p.p.p.p.p.8.8.8.8.7.7.9.4.4.3.3. .| ..,.....X.X.X.X.X.X.X.f f f m m m B B B N M N H D.D.H.H L Z vXFXHXGXGXGXGXGXGXGXGXGXGXGXGXGXGXGXGXGXGXGXGXGXGXGXGXGXKXMXMXMXMXMXMXMXMXMXMXMXMXMXMXMXMXMXMXMXMXMXMXMXMXMXMXMXGXGXGXGXGXGXGXGXGXGXGXGXGXGXGXGX",
"GXGXGXGXGXGXGXGXGXGXGXGXGXGXGXGXGXGXGXGXGXGXGXGXGXGXGXKXMXMXMXMXMXMXMXMXMXMXMXMXMXMXMXMXMXMXMXMXMXMXMXMXDXMXDXGXGXGXGXGXGXGXGXGXGXGXGXGXGXGXGXGXFXFX%XY H H D.r.r.r.r.r.r.N r.e.e.e.<.<.X.{ } } 2.2.2.,.,.,.,.3.3.4.5.5.7.7.7.7.7.7.8.0.0.p.d.s.s.s.s.s.f.f.f.f.k.k.k.k.c.c.k.c.c.c.c.c.v.v.c.c.B.m.B.B.B.(.(.(.(.(.^./.^.^.(.^.^.^.^.^.^.^.^.^.^.^.^.^.^.^.^.^.^.^.^.^.^.^.^.^.^.^.^.^.^.^.^.^.^.^././././.^.^.^.^.^.^.^././.^.^.^.^.^.^.^.^.^.^.^.^.^.^.^.^.^.^.^.^.^.^.^.^.^.^.^.^.V.V.V.V.V.V.V.V.^.^.V.V.V.V.V.V.V.V.C.B.B.B.B.N.N.N.N.m.m.m.v.v.c.c.c.x.x.k.f.f.f.f.s.s.a.p.p.p.d.d.p.8.8.8.8.7.7.9.4.4.3.3. .| ..2...} X.X.X.X.X.X.X.f f f c m m B B B B M N H D.F.H.H L Z vXFXHXGXGXGXGXGXGXGXGXGXGXGXGXGXGXGXGXGXGXGXGXGXGXGXGXGXKXMXMXMXMXMXMXMXMXMXMXMXMXMXMXMXMXMXMXMXMXMXMXMXMXMXMXMXGXGXGXGXGXGXGXGXGXGXGXGXGXGXGXGX",
"GXGXGXGXGXGXGXGXGXGXGXGXGXGXGXGXGXGXGXGXGXGXGXGXGXGXGXKXMXMXMXMXMXMXMXMXMXMXMXMXMXMXMXMXMXMXMXMXMXMXMXMXDXMXDXGXGXGXGXGXGXGXGXGXGXGXGXGXGXGXGXGXFXFX#XY H H D.r.N r.r.r.r.N r.e.m m <.<.X.s { } 2.2.,.| ,.,.,.3.3.4.5.5.7.7.7.7.7.8.0.0.0.p.d.s.s.s.s.f.f.f.f.f.k.k.k.k.c.x.k.c.c.c.c.x.c.c.m.m.m.m.m.B.B.(.(.(.(.(.^.(.^.^././.^.^.^.^.^.^.^.^.^.^.^.^.^.^.^.^.^.^.^.^.^.^.^.^.^.^.^.^.^.^.^.^./././././.^.^.^.^.^.^.^././././.^.^.^.^.^.^.^.^.^.^.^.^.^.^.^.^.^.^.^.^.^.^.^.^.^.^.^.^.^.^.V.V.^.V.C.V.V.B.C.^.V.V.V.V.V.C.B.B.B.B.N.N.N.m.m.v.m.v.v.v.c.c.x.k.k.f.f.f.f.s.a.a.p.p.p.d.d.p.8.8.8.8.7.7.7.4.4.3.3. .| ........X.X.X.X.X.X.X.f f f f m m B B B B N N H D.D.H.H L Z vXFXHXGXGXGXGXGXGXGXGXGXGXGXGXGXGXGXGXGXGXGXGXGXGXGXGXGXKXMXMXMXMXMXMXMXMXMXMXMXMXMXMXMXMXMXMXMXMXMXMXMXMXMXMXMXGXGXGXGXGXGXGXGXGXGXGXGXGXGXGXGX",
"GXGXGXGXGXGXGXGXGXGXGXGXGXGXGXGXGXGXGXGXGXGXGXGXGXGXGXKXMXMXMXMXMXMXMXMXMXMXMXMXMXMXMXMXMXMXMXMXMXMXMXMXMXMXDXGXGXGXGXGXGXGXGXGXGXGXGXGXGXGXGXGXHXFX#XY H H D.r.r.r.r.r.r.r.r.e.e.m V V X.{ { } 2.2.,.,.,.,.3.3.3.4.5.5.5.7.7.7.7.8.0.0.0.p.d.s.s.s.s.f.f.j.f.f.j.k.k.k.k.k.k.c.c.c.c.c.c.c.m.m.m.M.m.m.B.(.(.^.B.(.^.(.(.^././././.^.^.^.^.^.^.^.^.^.^.^.^.^.^.^.^.^.V.^.^.^.^.^.^.^.^.^.^.^.^./././././.^.^.^.^./././././././././././.^.^.^.^.^.^.^.^.^.^.^.^.^.^.^.^.^.^.^.^.^.^.^.^.V.V.V.V.^.V.V.V.V.V.V.V.C.C.C.C.C.B.B.B.B.B.N.N.N.N.m.v.m.v.v.v.c.c.x.x.k.j.f.f.f.s.a.a.a.p.p.d.d.p.p.8.8.7.7.7.7.5.4.3.3. .| ......} X.X.X.X.X.X.f f f x c m m m m B M M N H D.D.D.H L Z vXFXHXGXGXGXGXGXGXGXGXGXGXGXGXGXGXGXGXGXGXGXGXGXGXGXGXGXKXMXMXMXMXMXMXMXMXMXMXMXMXMXMXMXMXMXMXMXMXMXMXMXMXMXMXMXGXGXGXGXGXGXGXGXGXGXGXGXGXGXGXGX",
"GXGXGXGXGXGXGXGXGXGXGXGXGXGXGXGXGXGXGXGXGXGXGXGXGXGXGXKXMXMXMXMXMXMXMXMXMXMXMXMXMXMXMXMXMXMXMXMXMXMXMXMXMXMXMXGXGXGXGXGXGXGXGXGXGXGXGXGXGXGXGXGXHXFX.XH H H D.r.r.r.r.r.r.N r.e.e.e.<.<.X.X.X.} 2.2.2.| ,.,.,.3.3.3.4.5.5.7.7.7.8.0.0.0.0.p.d.s.s.s.s.f.j.j.j.j.j.l.k.k.k.k.k.c.c.c.v.v.v.v.c.c.m.M.m.m.B.(.(.(.^.^.(.(.^.(.(.(./.^.^.^.^.^.^.^.^.^.^.^.^.^.^.^.^.^.V.V.V.^.^.^.^.^.^.^.^.^.^.^.^./././.^.^.^.^.^.^././././././././././.^.^.^.^.^.^.^.^.^.^.^.^.^.^.^.^.^.^.^.^.^.^.V.V.V.V.V.V.V.^.^.^.^.^.V.C.C.C.C.B.B.B.B.B.B.B.B.B.B.N.m.v.m.v.v.v.c.c.x.k.k.f.f.f.f.f.a.a.a.a.p.p.p.p.p.p.8.7.7.7.7.5.4.6.3. .| ......} X.X.X.X.X.X.f f f x c m m m m B B M N H D.D.D.H L Z vXFXHXGXGXGXGXGXGXGXGXGXGXGXGXGXGXGXGXGXGXGXGXGXGXGXGXGXKXMXMXMXMXMXMXMXMXMXMXMXMXMXMXMXMXMXMXMXMXMXMXMXMXMXMXMXGXGXGXGXGXGXGXGXGXGXGXGXGXGXGXGX",
"GXGXGXGXGXGXGXGXGXGXGXGXGXGXGXGXGXGXGXGXGXGXGXGXGXGXGXKXMXMXMXMXMXMXMXMXMXMXMXMXMXMXMXMXMXMXMXMXMXMXMXMXDXMXDXGXGXGXGXGXGXGXGXGXGXGXGXGXGXGXGXGXHXFX.XH H H H r.N r.r.r.r.N r.e.e.e.<.<.X.X.X.2.2.2.,.,.,.,.,.3.3.3.4.5.5.7.7.7.8.0.0.0.0.p.p.d.s.s.s.f.j.j.j.j.k.l.l.k.k.k.k.c.c.c.c.m.m.v.c.c.m.m.m.B.B.(.(.(.(.(.(.(.^.^.(.(././.^.^.^.^.^.^.^.^.^.^.^.^.^.^.^.^.^.^.^.^.^.^.^.^.^.^.^.^.^.^.^.^.^.^.^.^.^.^.^.^.^.^.^.^.^.^././././.^.^.^.^.^.^.^.^.^.^.^.^.^.^.^.^.^.^.^.^.V.V.V.V.V.V.V.V.V.^.^.B.B.V.^.B.C.C.B.B.N.B.B.B.C.B.B.B.N.N.m.v.N.v.v.v.v.x.x.x.k.k.f.f.f.f.a.a.a.a.p.p.p.p.p.i.8.7.9.7.9.5.4.3.3. .| ......} X.X.X.X.X.X.f f f x c c m m m M B M N H D.D.H.H L G vXFXHXGXGXGXGXGXGXGXGXGXGXGXGXGXGXGXGXGXGXGXGXGXGXGXGXGXKXMXMXMXMXMXMXMXMXMXMXMXMXMXMXMXMXMXMXMXMXMXMXMXMXMXMXMXGXGXGXGXGXGXGXGXGXGXGXGXGXGXGXGX",
"GXGXGXGXGXGXGXGXGXGXGXGXGXGXGXGXGXGXGXGXGXGXGXGXGXGXGXKXMXMXMXMXMXMXMXMXMXMXMXMXMXMXMXMXMXMXMXMXMXMXMXMXDXMXMXGXGXGXGXGXGXGXGXGXGXGXGXGXGXGXGXGXHXFX.XH H H H D.N r.r.r.r.N N m m m V f X.s X.2.2.2.2.2.,.,.,.,.3.3.5.5.5.7.7.7.q.0.0.0.0.0.p.p.s.s.s.s.j.j.j.j.k.c.l.k.k.k.l.M.c.c.c.c.c.v.m.M.B.B.m.B.B.(.(.(.(.(.^.^.(.^.^./.^.^.^.^.^.^.^.^.^.^./.^.^.^.^.^.^.^.^.^.^.^.^.^.^.^.^.^.^.^.^.^.^.^.^.^.^.^.^.^.^.^.^.^.^.^.^.^./././.^.^.^.^.^.^.^.^.^.^.^.^.^.^.^.^.^.^.^.^.^.V.V.V.V.V.V.V.V.V.^.C.c.c.B.^.V.C.B.B.N.N.N.B.B.B.N.N.N.N.N.v.v.N.v.v.v.v.x.x.x.k.k.f.f.f.f.a.a.a.p.p.p.a.p.p.8.8.7.9.5.9.5.4.3.6. .| ....} } X.X.X.X.X.X.f f f c c c m m m M B M N H D.D.H.H L G vXFXFXGXGXGXGXGXGXGXGXGXGXGXGXGXGXGXGXGXGXGXGXGXGXGXGXGXKXMXMXMXMXMXMXMXMXMXMXMXMXMXMXMXMXMXMXMXMXMXMXMXMXMXMXMXGXGXGXGXGXGXGXGXGXGXGXGXGXGXGXGX",
"GXGXGXGXGXGXGXGXGXGXGXGXGXGXGXGXGXGXGXGXGXGXGXGXGXGXGXKXMXMXMXMXMXMXMXMXMXMXMXMXMXMXMXMXMXMXMXMXMXMXMXMXDXMXDXGXGXGXGXGXGXGXGXGXGXGXGXGXGXGXGXGXHXFXL.U H H N r.N N r.r.r.N N r.t.e.e.V f s X.<.} } } | ,.,.,.3. .3.3.5.5.7.7.7.7.0.q.7.d.d.z.p.p.d.s.f.s.s.j.k.k.k.l.l.l.k.l.c.c.c.c.c.c.c.m.M.M.M.m.B.B.B.B.B.(.(.^.(.(.(.(.(.^.^.^.^.^.^.^.^.^.^.^.^.^.^.^.^.^.^.^.^.^.^.V.V.^.^.^.^.^.^.^.^.^.^.^.^.^.^.^.^.^.^.^.^.^.^.^.^.^.^.^.^.^.^.^.^.^.^.^.^.^.^.^.^.^.V.V.V.V.V.V.^.V.V.V.V.V.V.V.V.V.V.^.^.^.V.V.V.B.B.B.B.B.N.B.N.N.N.N.N.N.v.v.v.v.v.v.c.x.x.x.k.f.f.f.f.f.f.a.a.a.a.p.p.p.p.8.8.8.8.7.7.4.4.4.3.,.| | | ....} X.X.X.X.X.f f f f c c m m m m B N N N H H D.D.H L G vXFXHXHXGXGXGXGXGXGXGXGXGXGXGXGXGXGXGXGXGXGXGXGXGXGXGXGXKXMXMXMXMXMXMXMXMXMXMXMXMXMXMXMXMXMXMXMXMXMXMXMXMXMXMXMXGXGXGXGXGXGXGXGXGXGXGXGXGXGXGXGX",
"GXGXGXGXGXGXGXGXGXGXGXGXGXGXGXGXGXGXGXGXGXGXGXGXGXGXGXKXMXMXMXMXMXMXMXMXMXMXMXMXMXMXMXMXMXMXMXMXMXMXMXMXDXMXDXGXGXGXGXGXGXGXGXGXGXGXGXGXGXGXGXGXHXFXL.U H H N r.N N r.r.r.N N N e.e.m V f s X.<.} } } | ,.,.,.,. .3.3.5.5.5.7.7.7.7.7.7.0.o.0.d.p.d.s.s.s.s.f.k.k.k.k.l.k.k.k.k.c.c.c.c.c.c.c.c.M.M.M.m.m.B.B.B.B.(.(.(.^.^.(.(.^.^.^.^.^.^.^.^.^.^.^.^.^.^.^.^.^.^.V.^.^.^.V.V.^.^.^.^.^.^.^.^.^.^.^.^.^.^.^.^.^.^.^.^.^.^.^.^.^.V.V.V.^.^.^.^.^.^.^.^.^.V.^.^.V.V.V.V.V.V.V.V.V.V.V.V.V.V.V.C.B.C.V.V.V.C.C.B.B.B.B.B.N.N.N.N.N.N.N.v.v.v.v.v.v.v.v.c.x.x.x.k.f.f.f.f.f.s.a.a.a.p.p.p.p.p.8.8.8.7.7.5.4.4.3.3.,.| | | ....X.X.X.X.X.f f f f f c c m m m m B M M N H H D.H.H L G vXFXHXHXGXGXGXGXGXGXGXGXGXGXGXGXGXGXGXGXGXGXGXGXGXGXGXGXKXMXMXMXMXMXMXMXMXMXMXMXMXMXMXMXMXMXMXMXMXMXMXMXMXMXMXMXGXGXGXGXGXGXGXGXGXGXGXGXGXGXGXGX",
"GXGXGXGXGXGXGXGXGXGXGXGXGXGXGXGXGXGXGXGXGXGXGXGXGXGXGXKXMXMXMXMXMXMXMXMXMXMXMXMXMXMXMXMXMXMXMXMXMXMXMXMXDXMXMXGXGXGXGXGXGXGXGXGXGXGXGXGXGXGXGXGXHXFXP.Y H H N r.N r.r.r.r.N N N e.e.m V f s f <.<.} } } | ,.,.,.,.3.3.5.5.5.5.7.7.q.7.7.0.w 0.d.p.p.s.s.s.s.f.j.k.k.k.k.k.k.k.k.k.k.l.c.c.c.c.c.c.M.M.M.m.m.B.B.B.B.(.(.(.(.(.(.^.^.^.^.^.^.^.^.^.^.^.^.^.^.^.^.V.V.C.V.V.^.^.^.^.^.^.^.^.^.^.^.^.^.^.^.^.^.^.^.^.^.^.^.V.V.V.V.V.V.V.V.^.^.^.V.V.^.^.^.V.V.V.V.V.V.V.V.V.V.V.V.V.V.V.V.V.V.V.V.C.V.V.V.C.B.B.B.B.B.C.N.N.N.m.v.v.v.v.v.v.v.v.v.v.b.c.x.x.k.k.g.f.f.f.s.a.a.a.p.p.p.p.p.p.i.8.8.8.7.9.4.4.4.3.6.,.,.| | ....X.X.X.X.X.f f f f f f c m m m m B B N N H H D.D.H L G bXFXHXHXGXGXGXGXGXGXGXGXGXGXGXGXGXGXGXGXGXGXGXGXGXGXGXGXKXMXMXMXMXMXMXMXMXMXMXMXMXMXMXMXMXMXMXMXMXMXMXMXMXMXMXMXGXGXGXGXGXGXGXGXGXGXGXGXGXGXGXGX",
"GXGXGXGXGXGXGXGXGXGXGXGXGXGXGXGXGXGXGXGXGXGXGXGXGXGXGXKXMXMXMXMXMXMXMXMXMXMXMXMXMXMXMXMXMXMXMXMXMXMXMXMXMXMXMXGXGXGXGXGXGXGXGXGXGXGXGXGXGXGXGXGXHXFXP.Y H H N r.N r.r.r.r.N N r.e.e.m V f f f <.<.} } } | ,.,.,.,.3.4.5.5.5.5.5.7.q.q.7.d.O.d.8.p.p.d.s.s.s.s.f.k.j.j.j.k.k.k.k.k.k.k.k.c.c.c.c.c.c.c.c.M.M.B.B.B.B.B.(.(.(.B.B.^.^.^.^.^.^.^.^.V.^.V.^.V.V.V.V.V.C.C.C.V.V.^.^.^.^.^.V.V.V.^.^.^.^.^.^.^.^.V.V.^.^.^.^.V.V.V.V.^.V.V.V.V.^.V.^.V.V.V.V.V.V.V.V.V.V.V.V.V.V.V.V.V.V.V.V.V.V.V.V.V.V.C.C.B.B.B.B.B.B.N.N.N.m.v.v.v.v.v.c.v.c.c.c.c.b.x.k.x.k.k.g.j.g.f.s.a.p.p.p.p.p.p.p.p.8.8.8.7.7.9.4.4.4.3.3.,.,.| | ....X.X.X.X.X.f f f f f c c m m M M B B M N H H D.D.H L G bXFXHXFXGXGXGXGXGXGXGXGXGXGXGXGXGXGXGXGXGXGXGXGXGXGXGXGXKXMXMXMXMXMXMXMXMXMXMXMXMXMXMXMXMXMXMXMXMXMXMXMXMXMXMXMXGXGXGXGXGXGXGXGXGXGXGXGXGXGXGXGX",
"GXGXGXGXGXGXGXGXGXGXGXGXGXGXGXGXGXGXGXGXGXGXGXGXGXGXGXKXMXMXMXMXMXMXMXMXMXMXMXMXMXMXMXMXMXMXMXMXMXMXMXMXDXMXDXGXGXGXGXGXGXGXGXGXGXGXGXGXGXGXGXGXHXFXP.U H H H r.r.r.r.r.r.r.r.e.e.e.m f f f <.<.X.X.} } | ,.,.,.3.3.4.5.5.5.5.5.7.q.q.7.8.h.d.8.0.p.p.p.a.s.s.s.j.f.f.f.k.l.l.k.k.k.k.k.k.k.l.c.c.c.c.c.c.M.m.m.m.B.B.B.B.B.B.B.V.V.V.^.^.^.^.V.V.V.V.V.V.V.C.B.V.C.B.C.C.V.V.V.V.V.V.V.C.V.V.V.^.^.V.V.V.V.V.V.^.^.V.V.V.V.V.V.V.V.V.V.V.V.V.V.V.V.V.V.V.V.C.C.V.V.V.V.V.V.V.V.C.C.C.C.B.B.B.B.B.B.N.N.N.N.N.N.N.N.N.N.v.m.v.v.v.c.c.c.x.x.c.c.x.k.k.k.k.k.g.f.g.f.s.s.a.p.p.p.i.0.8.0.8.8.8.7.7.9.9.4.4.4.3.3. .| ....} } } X.X.X.f f f f f f x c c m M M B N M N H H D.D.H L Z zXFXHXHXGXGXGXGXGXGXGXGXGXGXGXGXGXGXGXGXGXGXGXGXGXGXGXGXKXMXMXMXMXMXMXMXMXMXMXMXMXMXMXMXMXMXMXMXMXMXMXMXMXMXMXMXGXGXGXGXGXGXGXGXGXGXGXGXGXGXGXGX",
"GXGXGXGXGXGXGXGXGXGXGXGXGXGXGXGXGXGXGXGXGXGXGXGXGXGXGXKXMXMXMXMXMXMXMXMXMXMXMXMXMXMXMXMXMXMXMXMXMXMXMXMXDXMXDXGXGXGXGXGXGXGXGXGXGXGXGXGXGXGXGXGXHXFXP.H H H H r.r.r.r.r.r.r.r.r.e.e.m f f f <.X.X.X.} } | | ,.,.3.3.3.5.4.4.4.5.7.4.7.7.4.d.9.q.8.p.p.p.a.a.a.s.f.f.f.f.j.k.k.k.k.k.j.j.k.k.l.c.c.c.c.c.c.c.M.M.m.m.B.B.B.B.B.B.B.B.B.B.^.^.V.B.B.B.V.V.V.V.V.V.C.B.B.B.C.C.C.B.C.C.C.C.C.V.V.V.V.^.V.V.V.V.V.V.V.V.V.V.V.V.V.V.C.C.C.C.C.V.C.C.V.C.C.C.C.V.C.C.V.V.V.V.V.V.C.C.B.B.B.B.N.N.N.N.N.N.N.N.N.N.N.N.N.v.v.v.v.v.v.v.c.c.c.x.x.k.k.k.k.k.f.f.f.f.f.f.s.s.s.a.p.p.p.p.8.8.8.8.8.7.7.7.9.9.4.4.4.3.3.,. .| ..} } } X.X.X.X.f f f f f f c c c m M M B M M N H H D.D.H L Z zXFXHXHXGXGXGXGXGXGXGXGXGXGXGXGXGXGXGXGXGXGXGXGXGXGXGXGXKXMXMXMXMXMXMXMXMXMXMXMXMXMXMXMXMXMXMXMXMXMXMXMXMXMXMXMXGXGXGXGXGXGXGXGXGXGXGXGXGXGXGXGX",
"GXGXGXGXGXGXGXGXGXGXGXGXGXGXGXGXGXGXGXGXGXGXGXGXGXGXGXKXMXMXMXMXMXMXMXMXMXMXMXMXMXMXMXMXMXMXMXMXMXMXMXMXDXMXDXGXGXGXGXGXGXGXGXGXGXGXGXGXGXGXGXGXHXFXP.H H H H r.r.r.r.r.N N r.r.m e.m f f V <.X.X.X.} } } ..,.,. .3.3.3.3.3.3.4.7.4.7.7.9.9.4.0.8.0.p.p.p.a.a.a.s.f.f.f.f.f.f.j.j.j.j.j.k.k.k.k.c.c.c.c.c.c.c.c.m.M.m.m.B.B.B.m.B.B.B.B.B.B.B.B.N.N.B.B.C.C.V.V.B.B.B.B.B.B.B.B.B.B.B.B.B.C.C.C.V.V.V.V.V.V.V.V.B.B.B.B.C.C.C.C.C.C.C.C.C.V.C.C.C.C.C.C.C.C.C.B.C.C.C.B.B.C.C.C.C.C.B.B.N.N.N.N.N.N.B.B.B.B.N.N.N.N.v.v.v.v.v.v.x.x.x.x.k.k.k.k.k.k.f.f.f.f.f.a.p.p.p.p.p.8.8.8.8.8.8.7.7.7.7.9.4.4.4.4.4.3.3. . .| | } } } } X.X.X.f f f f f f c x x M M M B B M N H H D.D.H G Z zXFXHXHXGXGXGXGXGXGXGXGXGXGXGXGXGXGXGXGXGXGXGXGXGXGXGXGXKXMXMXMXMXMXMXMXMXMXMXMXMXMXMXMXMXMXMXMXMXMXMXMXMXMXMXMXGXGXGXGXGXGXGXGXGXGXGXGXGXGXGXGX",
"GXGXGXGXGXGXGXGXGXGXGXGXGXGXGXGXGXGXGXGXGXGXGXGXGXGXGXKXMXMXMXMXMXMXMXMXMXMXMXMXMXMXMXMXMXMXMXMXMXMXMXMXDXMXDXGXGXGXGXGXGXGXGXGXGXGXGXGXGXGXGXGXHXFXP.H H H H r.N r.r.r.N N N N m m m f f f <.X.X.X.} } | | ,.,. .,.3.3.3.3.3.3.4.7.7.7.q.9.0.9.8.0.p.p.p.p.a.a.a.s.f.f.s.s.f.f.f.f.f.k.k.k.k.k.c.c.c.c.c.c.c.c.c.m.m.m.m.m.m.m.N.N.B.B.B.V.B.B.N.N.N.N.B.B.B.B.N.N.N.B.B.B.B.B.B.B.B.B.B.B.B.B.C.C.C.C.V.V.V.V.N.B.N.B.B.B.B.B.C.C.C.C.C.V.C.C.C.B.B.B.C.C.B.B.B.B.B.N.N.N.B.B.N.N.N.N.N.N.N.N.v.m.N.N.N.N.N.v.N.N.v.v.v.v.v.v.x.k.x.x.k.k.k.k.j.k.f.f.f.a.a.a.p.p.p.p.8.8.8.7.7.7.7.7.7.9.9.4.4.4.4.3.3.3. . .| | } } } } } X.X.f f f f f f f c x x M M M B M B N H H H H H G G zXFXHXFXGXGXGXGXGXGXGXGXGXGXGXGXGXGXGXGXGXGXGXGXGXGXGXGXKXMXMXMXMXMXMXMXMXMXMXMXMXMXMXMXMXMXMXMXMXMXMXMXMXMXMXMXGXGXGXGXGXGXGXGXGXGXGXGXGXGXGXGX",
"MXMXMXMXMXMXMXMXMXMXMXMXMXMXMXMXMXMXMXMXMXMXMXMXMXMXDXKXGXGXGXGXGXGXGXGXGXGXGXGXGXGXGXGXGXGXGXGXGXGXGXGXGXGXGXMXMXMXMXMXMXMXMXMXMXMXAXAXAXAXMXBXBXZXU Y H H D.N r.N r.N N B N m m m m V f f f <.X.X.} } } 2.,.| ,.,.,.3.3.3.4.4.9.5.7.7.7.7.7.7.8.0.p.p.p.p.p.a.s.s.a.s.j.s.a.f.f.f.j.k.k.k.k.k.l.c.c.c.c.c.m.m.v.m.m.m.m.m.m.m.m.B.B.m.B.B.B.N.N.N.N.N.B.B.B.B.N.N.N.N.N.N.N.B.C.B.B.B.B.B.N.N.n.N.C.V.V.C.N.n.N.N.N.N.B.B.C.C.V.B.V.^.V.C.C.B.C.V.V.V.V.C.B.B.N.N.N.N.N.B.N.N.N.N.N.N.N.N.v.v.v.v.v.m.m.m.v.v.m.m.v.b.b.b.x.x.x.x.k.k.k.g.k.g.f.f.f.f.f.s.a.p.p.p.p.p.8.8.7.9.9.9.9.4.7.5.4.4.4.4.3.6.6. . .,...} } } } } X.X.f f f f f f d x d f c c M M B B M N H H H H.H L M mXmXBXNXBXAXLXAXMXMXMXMXMXMXMXMXMXMXMXMXMXMXMXMXMXMXMXDXKXGXGXGXGXGXGXGXGXGXGXGXGXGXGXGXGXGXGXGXGXGXGXGXGXGXGXGXMXMXDXMXMXMXMXMXMXMXMXMXMXMXMXMX",
"MXMXMXMXMXMXMXMXMXMXMXMXMXMXMXMXMXMXMXMXMXMXMXMXMXMXDXKXGXGXGXGXGXGXGXGXGXGXGXGXGXGXGXGXGXGXGXGXGXGXGXGXGXGXGXMXMXMXMXMXMXMXMXMXMXMXAXAXAXAXMXBXBXVXU Y H H D.N N N N N N B m m m m m V f f f X.X.X.} } } | 2.,.,.,.,.,.3.3.4.4.5.5.7.7.7.7.7.7.8.0.p.p.p.p.a.a.d.s.s.s.j.f.s.j.f.f.k.k.k.k.k.k.k.l.l.c.c.c.c.m.v.m.m.m.m.m.m.m.m.m.B.m.B.B.B.B.N.N.N.N.N.N.N.N.N.N.N.N.N.B.B.B.B.B.B.N.N.N.N.N.N.N.B.C.C.B.N.N.N.N.N.N.B.B.B.C.v.x.v.B.C.B.C.C.B.C.V.V.C.B.B.N.N.N.N.N.N.N.m.m.N.N.N.N.N.N.N.m.v.v.v.v.v.v.v.v.v.v.c.c.b.x.x.x.x.k.k.g.g.g.f.f.f.j.j.g.f.a.a.p.a.p.p.p.p.8.8.7.9.9.7.9.5.5.4.4.4.3.3.6.O. . .....} } } } } X.X.f f f f f d x d d x c m M M B B M N H H H H.H L G bXVXBXNXBXMXAXAXMXMXMXMXMXMXMXMXMXMXMXMXMXMXMXMXMXMXMXDXKXGXGXGXGXGXGXGXGXGXGXGXGXGXGXGXGXGXGXGXGXGXGXGXGXGXGXGXDXMXDXMXMXMXMXMXMXMXMXMXMXMXMXMX",
"MXMXMXMXMXMXMXMXMXMXMXMXMXMXMXMXMXMXMXMXMXMXMXMXMXMXDXKXGXGXGXGXGXGXGXGXGXGXGXGXGXGXGXGXGXGXGXGXGXGXGXGXGXGXGXMXMXMXMXMXMXMXMXMXMXMXAXAXAXAXMXBXBXVXU Y H H D.N r.r.r.r.N N N m m m m V f f f f X.X.X.} } | | | ,. .,.,.3.3.4.4.5.5.5.7.7.7.7.7.8.0.p.p.p.p.a.s.p.s.s.d.s.p.8.p.f.j.k.k.k.k.k.c.l.l.c.c.c.c.m.m.m.m.m.m.m.m.m.m.m.m.m.m.B.B.B.B.B.B.N.N.N.N.m.m.N.N.B.B.B.B.B.N.N.N.N.N.N.N.N.N.N.N.N.N.N.N.B.B.N.N.N.N.N.B.B.B.v.x.v.N.N.N.B.B.N.N.B.B.B.N.N.N.N.N.N.N.N.N.N.N.N.N.N.N.N.N.N.m.N.v.c.c.v.v.v.v.v.c.c.v.v.b.x.x.x.x.k.k.g.g.g.f.g.g.j.g.f.a.a.i.p.p.i.i.8.8.8.7.9.9.7.7.9.9.4.4.4.3.3.6. . . .....} } } } X.X.X.f f f f f d x f d x c m M M M B M B H H D.H.Y L G vXVXBXNXMXMXAXAXMXMXMXMXMXMXMXMXMXMXMXMXMXMXMXMXMXMXMXDXKXGXGXGXGXGXGXGXGXGXGXGXGXGXGXGXGXGXGXGXGXGXGXGXGXGXGXGXMXMXMXMXMXMXMXMXMXMXMXMXMXMXMXMX",
"MXMXMXMXMXMXMXMXMXMXMXMXMXMXMXMXMXMXMXMXMXMXMXMXMXMXDXKXGXGXGXGXGXGXGXGXGXGXGXGXGXGXGXGXGXGXGXGXGXGXGXGXGXGXGXMXMXMXMXMXMXMXMXMXMXMXAXAXAXAXMXBXBXVXU Y H H D.N r.r.r.r.r.N N m m m m V V <.f f X.X.} } } | } | |  .,.,.3.3.4.4.5.5.5.7.7.7.8.0.8.0.p.p.p.p.p.a.p.s.s.p.p.8.8.p.f.j.k.k.k.k.l.l.c.c.c.c.c.m.m.m.m.m.m.m.m.B.m.m.B.B.B.B.B.B.B.N.B.N.N.N.N.m.m.m.N.N.B.C.C.B.B.N.N.N.N.N.N.N.N.N.N.N.N.N.N.N.N.B.N.N.N.N.N.B.B.B.V.B.B.C.N.N.N.n.N.N.B.B.N.N.N.N.B.B.B.N.N.N.N.N.m.m.v.v.v.v.v.v.N.v.c.c.v.m.v.c.v.c.c.v.v.b.x.x.x.x.k.k.k.g.g.f.f.f.f.f.s.a.a.i.i.i.8.8.8.8.8.7.9.9.7.7.9.5.4.4.4.3.3.O. . . ...| } } } } } X.X.f f f f f f x f x x c m M M M B M B H H H.H.Y L G zXVXBXNXMXMXAXAXMXMXMXMXMXMXMXMXMXMXMXMXMXMXMXMXMXMXMXDXKXGXGXGXGXGXGXGXGXGXGXGXGXGXGXGXGXGXGXGXGXGXGXGXGXGXGXGXDXMXMXMXMXMXMXMXMXMXMXMXMXMXMXMX",
"MXMXMXMXMXMXMXMXMXMXMXMXMXMXMXMXMXMXMXMXMXMXMXMXMXMXDXKXGXGXGXGXGXGXGXGXGXGXGXGXGXGXGXGXGXGXGXGXGXGXGXGXGXGXGXMXMXMXMXMXMXMXMXMXMXMXAXAXAXAXMXBXBXVXU Y H H D.r.r.r.r.r.r.N N m m m V V <.<.X.f X.X.X.} | } | |  .,.,.,.3.3.4.5.5.5.7.7.7.7.0.0.8.0.p.p.p.p.a.s.a.f.f.s.f.s.s.j.f.j.k.k.k.k.l.c.c.c.c.c.M.M.m.m.M.M.m.m.B.B.B.B.B.B.B.B.B.m.B.B.N.N.N.N.N.N.N.N.N.N.B.B.B.B.N.N.B.N.B.B.B.B.N.N.N.N.B.B.B.B.N.N.N.N.N.N.B.B.B.B.V.N.B.C.N.N.B.N.N.N.N.N.N.N.N.N.N.N.N.N.N.m.m.m.v.v.v.v.v.v.v.v.m.v.v.v.m.m.v.c.c.c.c.c.c.x.x.g.x.x.k.k.k.g.g.f.f.f.f.f.s.a.a.p.p.p.i.8.8.8.8.8.7.9.7.7.9.4.4.4.4.3.3.6.O. . ...| } } } } } } s f f f f f f f f x x m M M M M B M B H H H.H.H L G pXVXBXBXMXAXAXAXMXMXMXMXMXMXMXMXMXMXMXMXMXMXMXMXMXMXMXDXKXGXGXGXGXGXGXGXGXGXGXGXGXGXGXGXGXGXGXGXGXGXGXGXGXGXGXGXDXMXDXMXMXMXMXMXMXMXMXMXMXMXMXMX",
"MXMXMXMXMXMXMXMXMXMXMXMXMXMXMXMXMXMXMXMXMXMXMXMXMXMXDXKXGXGXGXGXGXGXGXGXGXGXGXGXGXGXGXGXGXGXGXGXGXGXGXGXGXGXGXMXMXMXMXMXMXMXMXMXMXMXAXAXAXAXMXBXBXVXU H H H H r.r.r.r.r.r.N N m m m V V <.<.<.X.X.} } } | ,.,.,.,.,.,.3.3.4.4.5.7.7.7.7.7.7.0.0.p.p.p.s.s.s.s.s.s.j.j.s.f.f.f.j.j.j.k.k.k.k.l.c.l.c.c.c.c.M.M.m.m.m.m.B.B.B.B.B.B.B.B.B.B.B.B.B.N.N.N.N.B.B.B.B.B.B.B.B.B.B.B.N.B.B.B.B.B.B.B.B.N.B.B.C.C.B.B.N.B.B.B.B.C.C.B.C.C.N.B.C.B.C.C.B.B.B.B.B.B.N.B.B.B.B.B.N.N.N.N.N.N.N.N.v.v.v.m.m.m.m.v.m.N.N.m.v.m.v.v.v.v.v.x.k.x.x.k.k.k.g.g.g.f.f.f.f.f.f.s.s.p.p.i.8.8.8.8.8.7.7.7.7.9.5.4.4.4.4.3.3.O. . ...| } } } } } } X.f f f f f f f f x x m M M M M B M B H H D.H.Y L G wXVXBXBXMXAXAXAXMXMXMXMXMXMXMXMXMXMXMXMXMXMXMXMXMXMXMXDXKXGXGXGXGXGXGXGXGXGXGXGXGXGXGXGXGXGXGXGXGXGXGXGXGXGXGXGXDXMXDXMXMXMXMXMXMXMXMXMXMXMXMXMX",
"MXMXMXMXMXMXMXMXMXMXMXMXMXMXMXMXMXMXMXMXMXMXMXMXMXMXDXKXGXGXGXGXGXGXGXGXGXGXGXGXGXGXGXGXGXGXGXGXGXGXGXGXGXGXGXMXMXMXMXMXMXMXMXMXMXMXAXAXAXAXMXBXBXVXK H H H H r.r.r.r.r.r.N N m e.m V V <.<.<.X.X.} } 2.2.,.,.,.,.,.3.3.3.4.5.5.7.7.7.7.7.8.0.0.p.p.s.s.s.s.s.s.s.j.s.a.s.s.s.f.j.j.k.k.k.l.c.c.c.M.c.M.M.M.M.M.m.m.m.B.B.B.B.B.B.B.B.B.B.B.B.B.B.B.B.B.B.B.B.B.B.C.C.C.C.B.B.B.B.B.B.B.B.B.B.B.B.C.C.C.C.C.C.B.C.C.C.C.C.C.C.C.V.C.V.V.C.V.V.B.C.C.C.C.C.B.C.C.C.C.B.B.B.B.B.B.B.B.N.N.N.N.N.N.N.m.m.N.N.N.N.m.B.N.m.m.N.v.v.v.x.x.x.x.k.k.k.k.k.k.f.f.f.f.f.s.p.p.i.i.8.8.8.8.7.7.7.7.7.9.4.4.4.4.4.6.6.,. .,.| } } } } } } X.f f f f f f f f d x m M M M B B M N H H D.H.Y H G eXVXBXBXAXAXLXAXMXMXMXMXMXMXMXMXMXMXMXMXMXMXMXMXMXMXMXDXKXGXGXGXGXGXGXGXGXGXGXGXGXGXGXGXGXGXGXGXGXGXGXGXGXGXGXGXDXMXDXMXMXMXMXMXMXMXMXMXMXMXMXMX",
"MXMXMXMXMXMXMXMXMXMXMXMXMXMXMXMXMXMXMXMXMXMXMXMXMXMXDXKXGXGXGXGXGXGXGXGXGXGXGXGXGXGXGXGXGXGXGXGXGXGXGXGXGXGXGXMXMXMXMXMXMXMXMXMXMXMXAXAXAXAXMXBXBXVXY H H H H r.D.r.r.r.r.r.r.e.e.m V V <.<.<.X.X.} 2.2.2.,.,.,.,.3.3.3.4.4.5.5.7.7.7.7.7.8.8.0.p.p.s.s.s.s.s.s.s.j.f.s.j.k.k.k.j.j.k.k.k.l.c.c.c.c.M.M.M.M.m.m.m.m.m.B.B.B.B.B.^.B.B.(.B.B.B.B.B.B.C.B.B.B.B.B.V.V.V.V.V.C.C.C.B.B.B.B.B.B.B.B.C.C.C.C.C.C.C.C.C.C.C.C.C.C.C.C.V.C.V.V.V.V.V.C.V.V.V.C.C.C.C.C.B.B.B.B.B.B.N.N.B.B.N.N.N.N.N.N.N.N.N.N.N.N.N.B.B.N.m.m.N.m.v.v.b.b.c.x.x.x.x.x.k.k.f.f.f.f.a.a.s.a.d.p.p.p.i.8.8.8.7.8.7.7.5.4.4.4.4.6.6.6. .,.| | } } } } X.X.f f f f f f f f d x m M M M B B M N H H H H.Y H G eXVXBXBXAXAXLXAXMXMXMXMXMXMXMXMXMXMXMXMXMXMXMXMXMXMXMXDXKXGXGXGXGXGXGXGXGXGXGXGXGXGXGXGXGXGXGXGXGXGXGXGXGXGXGXGXDXMXDXMXMXMXMXMXMXMXMXMXMXMXMXMX",
"MXMXMXMXMXMXMXMXMXMXMXMXMXMXMXMXMXMXMXMXMXMXMXMXMXMXDXKXGXGXGXGXGXGXGXGXGXGXGXGXGXGXGXGXGXGXGXGXGXGXGXGXGXGXGXMXMXMXMXMXMXMXMXMXMXMXAXAXAXAXMXBXBXnXL H H H D.N D.D.r.r.r.N r.e.e.m V f f f <.<.<.2.2.2.| ,.,.,.,.3.3.5.5.5.5.7.7.7.7.7.8.0.0.0.p.p.s.s.s.f.j.j.j.j.j.f.f.k.l.k.k.k.k.l.c.M.M.c.c.M.M.M.M.m.B.B.B.B.B.m.B.B.B.(.B.B.B.(.^.^.V.B.B.B.B.B.V.V.B.B.B.V.V.B.B.V.C.B.B.B.B.B.B.B.C.V.C.C.C.C.C.C.C.C.C.C.C.C.C.C.V.V.C.C.V.V.V.V.V.V.V.V.V.C.C.C.C.C.V.V.V.C.B.B.B.B.B.B.B.B.B.B.B.B.B.B.N.N.B.B.N.N.N.N.N.N.m.m.v.v.b.b.v.v.c.x.x.x.k.f.f.k.k.f.a.s.s.a.a.p.p.p.p.0.8.8.8.8.7.7.7.5.5.4.4.4.6.6.6.,...| ..} } } X.X.X.f f f f f f m c x x M M M M B M M M H H.H.H.Y G ;XmXZXDXMXAXAXAXMXMXMXMXMXMXMXMXMXMXMXMXMXMXMXMXMXMXMXDXKXGXGXGXGXGXGXGXGXGXGXGXGXGXGXGXGXGXGXGXGXGXGXGXGXGXGXGXMXMXDXMXMXMXMXMXMXMXMXMXMXMXMXMX",
"MXMXMXMXMXMXMXMXMXMXMXMXMXMXMXMXMXMXMXMXMXMXMXMXMXMXLXKXGXGXGXGXGXGXGXGXGXGXGXGXGXGXGXGXGXGXGXGXGXGXGXGXGXGXGXMXMXMXMXMXMXMXMXMXMXMXAXAXAXAXMXBXBXmXK H H H D.N r.r.r.r.r.N e.e.e.e.V V f f <.<.2.2.2.2...,.,.,.,.3.3.5.5.5.9.7.7.7.7.q.0.0.0.p.p.p.s.s.s.f.f.j.f.j.j.f.j.k.l.l.l.l.l.l.c.c.c.c.M.M.M.M.M.m.m.B.B.B.B.B.B.B.(.(.B.B.(.^.^.^.^.V.V.V.V.V.V.V.V.B.B.V.V.B.B.V.C.B.B.B.C.C.C.C.V.V.C.C.C.C.C.C.C.C.C.C.C.C.V.V.V.V.V.V.V.V.V.V.V.V.V.V.V.V.C.C.C.C.V.C.C.C.B.B.B.C.B.B.B.B.B.B.B.B.B.B.B.B.B.B.B.N.N.N.N.N.m.v.v.v.v.v.v.c.x.x.x.x.x.k.k.l.l.j.f.g.f.a.a.a.p.p.i.8.8.8.8.8.8.7.7.7.5.4.4.4.6.6.6.,.| | | } } } X.X.X.f f f f f f f x x x m M x M B M M M H H.H.H.Y L .XVXZXBXMXLXAXAXMXMXMXMXMXMXMXMXMXMXMXMXMXMXMXMXMXMXMXDXKXGXGXGXGXGXGXGXGXGXGXGXGXGXGXGXGXGXGXGXGXGXGXGXGXGXGXGXDXMXDXMXMXMXMXMXMXMXMXMXMXMXMXMX",
"MXMXMXMXMXMXMXMXMXMXMXMXMXMXMXMXMXMXMXMXMXMXMXMXMXMXDXKXGXGXGXGXGXGXGXGXGXGXGXGXGXGXGXGXGXGXGXGXGXGXGXGXGXGXGXMXMXMXMXMXMXMXMXMXMXMXAXAXAXAXMXBXBXnXK H H H D.N D.r.r.r.r.N e.e.e.e.V V f f <.X.2.2.2.2.| ,.,.,.,.3.3.5.5.5.7.7.7.7.8.0.0.0.p.p.p.p.s.s.s.s.f.j.f.j.j.j.k.l.c.c.c.c.l.l.c.c.M.M.M.M.M.M.m.m.B.B.(.(.(.(.(.(.(.(.^.^.^.(.(.(.^.^.^.^.V.V.V.V.V.V.B.V.C.B.B.C.C.B.B.C.V.V.V.V.V.V.C.C.C.C.C.C.C.C.C.C.V.V.V.V.V.V.V.V.V.V.V.V.V.V.V.V.V.V.V.V.V.V.C.C.C.B.B.C.C.V.C.B.B.B.B.B.B.B.B.B.B.B.B.B.B.N.B.B.N.N.m.v.v.v.v.v.v.c.x.x.x.x.x.k.k.j.j.f.f.f.s.a.a.a.p.p.i.8.0.8.8.8.q.8.7.7.5.4.4.4.6.6.6.,. .| | } } } X.X.X.f f f f f f f d x x x x x M M M M N H D.H.H.Y G H.VXBXBXMXLXAXAXMXMXMXMXMXMXMXMXMXMXMXMXMXMXMXMXMXMXMXDXKXGXGXGXGXGXGXGXGXGXGXGXGXGXGXGXGXGXGXGXGXGXGXGXGXGXGXGXMXMXMXMXMXMXMXMXMXMXMXMXMXMXMXMX",
"MXMXMXMXMXMXMXMXMXMXMXMXMXMXMXMXMXMXMXMXMXMXMXMXMXMXDXKXGXGXGXGXGXGXGXGXGXGXGXGXGXGXGXGXGXGXGXGXGXGXGXGXGXGXGXMXMXMXMXMXMXMXMXMXMXMXAXAXAXAXMXBXBXnXL H H H D.r.D.r.r.r.r.r.r.e.e.e.V V f X.<.2.2.2.| | | | ,.,.,.3.3.5.5.5.7.7.7.7.0.0.0.0.0.p.p.d.s.s.s.f.f.j.j.k.k.k.k.l.c.c.l.l.l.c.c.c.M.M.M.M.m.B.m.B.B.B.(.(.(.(.(.(.(.(.^.(.(.^.^.(.^.^.^.^.^.^.^.V.V.B.C.C.C.B.C.C.C.C.C.C.V.V.V.V.V.V.V.V.V.V.V.V.V.V.C.V.V.V.V.V.V.V.V.V.V.V.V.V.V.V.V.V.V.V.V.V.V.V.V.V.C.B.B.C.C.V.B.B.B.B.B.B.B.B.B.B.N.N.B.B.N.N.B.B.N.N.m.v.v.v.v.v.c.c.x.x.x.x.k.k.g.f.f.f.f.s.s.a.a.p.p.p.p.8.8.8.8.8.q.q.7.7.5.4.4.4.6.6.6.,. .| | | } } X.X.f f f f f f d d d d x x x x M M M B N H H H.H.Y G K VXBXBXMXLXMXAXMXMXMXMXMXMXMXMXMXMXMXMXMXMXMXMXMXMXMXDXKXGXGXGXGXGXGXGXGXGXGXGXGXGXGXGXGXGXGXGXGXGXGXGXGXGXGXGXDXMXMXMXMXMXMXMXMXMXMXMXMXMXMXMX",
"MXMXMXMXMXMXMXMXMXMXMXMXMXMXMXMXMXMXMXMXMXMXMXMXMXMXDXKXGXGXGXGXGXGXGXGXGXGXGXGXGXGXGXGXGXGXGXGXGXGXGXGXGXGXGXMXMXMXMXMXMXMXMXMXMXMXAXAXMXMXBXBXBXvXG H H H D.r.D.r.r.r.r.r.e.e.e.m V V V <.<.X.} } | } } | ,.,.,.3.3.5.5.5.7.7.7.0.0.0.0.0.0.p.d.s.s.f.f.j.j.j.k.k.k.k.l.l.c.c.c.c.c.c.c.M.M.M.M.M.M.M.B.B.B.(.(.(.(.(.(.(.(.(.^.^.^.^.^.(.^.^.^.^.V.V.V.V.V.B.V.C.C.C.C.C.C.C.C.C.V.V.C.C.C.V.V.V.V.V.V.V.V.V.V.V.V.V.V.V.V.V.^.^.^.^.^.V.V.V.V.V.V.V.V.V.V.V.^.V.V.V.C.B.B.C.C.B.B.B.B.B.B.B.N.N.N.N.N.N.N.N.N.N.N.N.v.v.v.v.v.v.c.c.x.x.x.x.x.k.k.g.f.f.f.f.s.a.a.p.p.p.p.8.8.8.8.8.q.8.7.7.4.4.4.4.6.6.6.,. .| | } } } } X.f f f f f d d d d d x x M x M M M B N H H H Y Y L Z VXBXBXMXAXMXAXMXMXMXMXMXMXMXMXMXMXMXMXMXMXMXMXMXMXMXLXKXGXGXGXGXGXGXGXGXGXGXGXGXGXGXGXGXGXGXGXGXGXGXGXGXGXGXGXDXMXDXMXMXMXMXMXMXMXMXMXMXMXMXMX",
"MXMXMXMXMXMXMXMXMXMXMXMXMXMXMXMXMXMXMXMXMXMXMXMXMXMXDXKXGXGXGXGXGXGXGXGXGXGXGXGXGXGXGXGXGXGXGXGXGXGXGXGXGXGXGXMXMXMXMXMXMXMXMXMXMXMXAXAXMXAXBXBXBXvXG H H H D.D.D.r.r.r.r.r.e.t.e.m V V f X.X.} } } } } } | ,.,.,.3.3.5.5.5.7.7.7.7.0.0.0.0.p.p.s.s.s.f.j.j.j.j.l.k.k.k.l.l.l.c.c.c.M.c.c.M.M.M.M.M.B.B.(.(.(.(.(.(.(.(.(.(.(.(.^.^.^.^.(.(.^.^.^.B.V.V.V.V.B.B.V.V.C.V.V.C.C.V.C.V.V.V.C.C.C.V.V.V.V.V.V.V.V.V.V.V.V.V.V.V.V.V.^.^.^.^.^.V.V.V.V.V.V.V.V.V.V.V.^.^.V.V.C.C.B.B.C.C.C.C.C.B.B.B.N.N.N.N.N.N.N.N.v.v.v.v.v.v.v.b.v.v.v.c.c.x.x.x.x.x.k.g.f.f.f.f.a.a.a.p.p.p.p.8.8.8.8.8.8.8.7.7.4.4.4.4.6.6.6.,.,.| | } } } } X.f f f f f f d d d x x m M x M M M B N H H H Y Y L Z vXBXBXMXSXAXAXMXMXMXMXMXMXMXMXMXMXMXMXMXMXMXMXMXMXMXDXKXGXGXGXGXGXGXGXGXGXGXGXGXGXGXGXGXGXGXGXGXGXGXGXGXGXGXGXDXMXDXMXMXMXMXMXMXMXMXMXMXMXMXMX",
"MXMXMXMXMXMXMXMXMXMXMXMXMXMXMXMXMXMXMXMXMXMXMXMXMXMXDXKXGXGXGXGXGXGXGXGXGXGXGXGXGXGXGXGXGXGXGXGXGXGXGXGXGXGXGXMXMXMXMXMXMXMXMXMXMXMXAXAXAXAXMXBXBXvXG H H H D.D.D.D.r.r.r.r.t.t.e.e.V V f f s s } } } } } | ,.,.3.3.3.3.5.5.7.7.7.7.0.0.0.0.p.p.s.s.s.f.f.f.j.j.l.k.k.l.l.k.l.c.c.c.c.c.M.M.M.M.M.M.(.(.(.(.(.(.(.(.(.(.(./././.^.^.(.(.^.^.^.^.^.B.V.V.V.V.V.V.^.V.V.^.V.V.V.V.V.V.V.V.V.V.V.V.V.V.V.V.^.^.^.^.^.^.^.^.V.V.V.V.^.^.^.^.V.V.V.V.V.V.V.V.V.V.V.V.V.V.V.V.V.V.B.B.C.C.C.C.C.C.B.B.N.N.N.N.N.N.N.N.v.v.v.v.v.v.v.v.v.v.v.v.v.x.x.x.x.x.k.f.f.f.f.a.a.a.a.p.p.p.p.8.8.8.8.8.8.7.7.7.4.4.4.4.6.6.6.,. .| | } } } } X.f f f f f f d d d x x x x x x M M M M N H H Y Y G G zXBXBXMXSXLXAXMXMXMXMXMXMXMXMXMXMXMXMXMXMXMXMXMXMXMXLXKXGXGXGXGXGXGXGXGXGXGXGXGXGXGXGXGXGXGXGXGXGXGXGXGXGXGXGXDXMXDXMXMXMXMXMXMXMXMXMXMXMXMXMX",
"MXMXMXMXMXMXMXMXMXMXMXMXMXMXMXMXMXMXMXMXMXMXMXMXMXMXDXKXGXGXGXGXGXGXGXGXGXGXGXGXGXGXGXGXGXGXGXGXGXGXGXGXGXGXGXMXMXMXMXMXMXMXMXMXMXMXAXAXAXMXMXBXBXvXG H H H H D.r.D.r.r.r.r.e.t.e.e.<.V f s s a } } } } } | ,.,.,.3.3.3.4.5.7.7.7.7.0.0.8.8.0.p.s.s.s.f.f.f.f.j.l.k.k.l.c.k.l.c.c.c.c.c.M.M.M.M.M.B.(.(.(.(.(.(././././.(./././.(.(.(.^.^.^.^.^.^.B.B.B.V.V.V.V.V.V.V.V.V.V.V.^.^.^.^.^.V.V.V.V.^.^.^.^.^.^.^.^.^.^.V.V.V.V.V.V.V.^.^.^.V.V.V.V.V.V.V.^.V.V.V.C.B.C.V.V.V.V.C.B.B.B.B.B.B.B.B.B.N.N.N.N.N.N.N.N.N.N.N.m.v.v.v.v.v.v.v.v.v.v.x.x.x.x.k.g.f.g.f.f.a.a.a.a.p.p.p.8.8.8.7.7.7.7.7.7.4.4.4.4.6.6.6.6. .| | } } } } X.f f f f f d d d d x x x x x x x M M M N H H H Y G G kXBXNXMXNXDXAXMXMXMXMXMXMXMXMXMXMXMXMXMXMXMXMXMXMXMXLXKXGXGXGXGXGXGXGXGXGXGXGXGXGXGXGXGXGXGXGXGXGXGXGXGXGXGXGXDXMXDXMXMXMXMXMXMXMXMXMXMXMXMXMX",
"MXMXMXMXMXMXMXMXMXMXMXMXMXMXMXMXMXMXMXMXMXMXMXMXMXMXDXKXGXGXGXGXGXGXGXGXGXGXGXGXGXGXGXGXGXGXGXGXGXGXGXGXGXGXGXMXMXMXMXMXMXMXMXMXMXMXMXMXMXMXMXNXBXbXU L D.D.N D.D.D.r.r.r.r.r.m t.e.<.V f s s a { { { { } | ,.,.,.,.3.3.3.4.5.5.7.7.8.0.p.p.p.p.s.s.s.s.f.f.f.f.k.l.j.k.k.M.f.b.c.c.c.M.M.M.M.M.M.M.M.M.(.(.(.(.(.(./././././././.(.^.(.(.(.^.(.V.B.B.B.B.C.V.V.V.V.V.^.V.V.V.V.^.^.^.V.V.V.V.V.^.V.V.V.V.V.V.V.^.V.V.V.V.V.V.^.^.^.^.^.^.^.V.V.V.V.V.V.V.V.V.^.V.V.V.V.V.V.V.V.C.C.C.C.C.V.V.C.V.v.x.v.B.B.N.N.N.N.N.m.v.v.b.v.c.x.x.x.x.c.c.x.x.x.k.k.f.f.f.f.a.a.a.a.p.p.p.p.8.8.7.7.7.7.4.4.4.4.4.4.3. . . . .| } } } { { s f f f f f f d d d d x x x x x M M M M N H H H H L G pXVXBXMXSXAXAXMXMXMXMXMXMXMXMXMXMXMXMXMXMXMXMXMXMXMXDXKXGXGXGXGXGXGXGXGXGXGXGXGXGXGXGXGXGXGXGXGXGXGXGXGXGXGXGXDXMXDXMXMXMXMXMXMXMXMXMXMXMXMXMX",
"MXMXMXMXMXMXMXMXMXMXMXMXMXMXMXMXMXMXMXMXMXMXMXMXMXMXDXKXGXGXGXGXGXGXGXGXGXGXGXGXGXGXGXGXGXGXGXGXGXGXGXGXGXGXGXMXMXMXMXMXMXMXMXMXBXMXMXCXMXMXMXNXVXzXY L H D.N H D.D.r.r.r.r.r.r.t.e.<.X.f s s a { { { { { } | ,.| ,.,.3.3.3.3.4.7.7.7.8.0.0.p.p.p.a.s.s.f.j.j.j.l.k.k.k.k.l.f.c.c.c.c.M.M.M.M.M.M.(.M.(.(.(.(.(.(.(.(.(.(.(.(.(.(.(.(.(.(.(.^.^.V.B.B.B.C.C.V.V.C.C.V.V.V.C.V.C.V.V.V.V.^.^.^.^.^.^.^.^.V.V.V.V.^.^.V.V.V.V.^.^.^.^.^.^.^.^.^.^.^.V.V.V.V.V.V.V.V.V.V.V.V.V.V.V.C.C.C.C.V.V.V.V.V.N.v.B.V.B.N.B.C.C.N.N.m.v.b.c.x.x.x.x.x.x.x.x.k.k.k.k.f.f.f.f.a.a.p.p.p.p.8.8.0.8.7.7.7.9.4.4.4.4.4.3.6. . . .| } } } } { { s f f f d d d d d d d x x x x x M M M M N H H H H L G wXVXNXMXSXAXAXMXMXMXMXMXMXMXMXMXMXMXMXMXMXMXMXMXMXMXDXKXGXGXGXGXGXGXGXGXGXGXGXGXGXGXGXGXGXGXGXGXGXGXGXGXGXGXGXDXMXDXMXMXMXMXMXMXMXMXMXMXMXMXMX",
"MXMXMXMXMXMXMXMXMXMXMXMXMXMXMXMXMXMXMXMXMXMXMXMXMXMXDXKXGXGXGXGXGXGXGXGXGXGXGXGXGXGXGXGXGXGXGXGXGXGXGXGXGXGXGXMXMXMXMXMXMXMXMXMXBXMXMXCXMXMXNXNXVXzXY L H H N N D.r.N r.r.r.r.r.t.e.V f f s s a s s { { { } } | | | ,.,.,.,.3.3.4.9.7.7.8.8.0.0.p.p.a.s.f.j.j.l.j.s.l.k.k.k.k.l.l.c.c.c.M.M.M.M.(.'.'.(.(.(.(.(.(.(.(.(.(.(.(.(.(.(.(.(.(.(.B.B.B.B.B.B.C.C.C.C.V.V.V.V.V.V.V.V.V.V.V.V.V.^.^.^.V.V.V.V.V.V.V.V.V.V.V.V.C.V.V.V.V.V.V.^.^.^.^.^.V.V.V.V.V.C.C.C.C.V.V.V.V.V.V.V.V.V.C.C.C.C.C.B.C.C.V.B.B.N.N.B.C.N.m.m.m.v.b.x.x.x.x.x.x.x.x.k.k.k.k.k.g.f.f.f.s.a.a.a.p.p.p.8.p.0.8.7.7.7.4.4.4.4.4.3.3.6.,.,.| } { { { { { s f f f f f d d d d d x x x x x M M M M N H H H H L G eXVXNXMXMXAXAXMXMXMXMXMXMXMXMXMXMXMXMXMXMXMXMXMXMXMXDXKXGXGXGXGXGXGXGXGXGXGXGXGXGXGXGXGXGXGXGXGXGXGXGXGXGXGXGXDXMXDXMXMXMXMXMXMXMXMXMXMXMXMXMX",
"MXMXMXMXMXMXMXMXMXMXMXMXMXMXMXMXMXMXMXMXMXMXMXMXMXMXDXKXGXGXGXGXGXGXGXGXGXGXGXGXGXGXGXGXGXGXGXGXGXGXGXGXGXGXGXMXMXMXMXMXMXMXMXMXBXMXMXCXMXMXMXNXVXkXY H H H N N D.r.N r.r.r.r.r.r.e.e.f s s s s s s { { { } } } | |  .,.,.,.3.3.4.4.5.7.7.7.8.8.p.p.p.a.s.f.z.j.p.9.l.l.k.j.k.k.l.c.M.M.M.M.M.M.'.'.'.'.(.(.'.(.'.(.(./.(.(.(.(.(.(.(.(.(.(.B.B.B.B.B.B.C.C.C.C.V.V.V.V.V.V.V.V.V.V.V.V.V.V.V.V.V.V.V.V.V.V.V.V.V.V.V.C.C.C.V.V.C.C.C.V.C.V.V.V.C.C.C.C.C.C.C.B.C.C.C.C.C.C.C.C.V.V.C.C.C.B.N.N.v.C.C.N.m.N.m.m.m.v.c.c.v.v.b.x.x.x.k.g.k.k.k.k.k.j.k.j.j.g.f.s.s.s.a.a.d.d.d.0.0.q.8.7.7.9.4.4.4.6.6.6.6.6.,.,...} { { { s s s s f f f f f d d d d x x x x x M M M M B H H H H L G eXVXNXMXMXAXAXMXMXMXMXMXMXMXMXMXMXMXMXMXMXMXMXMXMXMXDXKXGXGXGXGXGXGXGXGXGXGXGXGXGXGXGXGXGXGXGXGXGXGXGXGXGXGXGXDXMXDXMXMXMXMXMXMXMXMXMXMXMXMXMX",
"MXMXMXMXMXMXMXMXMXMXMXMXMXMXMXMXMXMXMXMXMXMXMXMXMXMXDXKXGXGXGXGXGXGXGXGXGXGXGXGXGXGXGXGXGXGXGXGXGXGXGXGXGXGXGXMXMXMXMXMXMXMXMXMXBXMXMXCXMXCXMXNXVXkXH H H H H H D.r.N N N r.r.r.t.e.e.f s s s s s s { { { } } } | |  . .,.,.,.3.4.4.4.7.7.7.7.8.8.0.p.p.p.s.s.s.p.9.j.f.f.s.k.j.l.l.l.l.M.M.M.Z.Z.Z.Z.'.'.'.'.'.'.(.(.(.(.(.(.(.(.(.(.(.(.B.B.B.B.B.B.B.C.C.C.C.C.V.C.V.V.C.V.C.V.V.V.C.V.V.V.V.V.V.V.C.C.V.C.C.V.V.V.V.V.V.V.V.V.V.V.V.V.V.V.V.B.B.C.C.C.C.B.B.N.B.B.C.C.C.B.B.N.N.N.N.C.V.V.C.N.N.N.N.m.m.v.v.v.c.x.x.b.b.x.k.x.k.g.g.g.g.g.f.f.f.g.g.f.s.a.a.p.i.i.i.i.p.8.8.8.8.7.9.7.7.5.6.6.6.6.6.6.6. .....} { a a s s s s f f f f d d d d d x x x x x M M M M N N H H H L G 2XVXNXMXAXAXAXMXMXMXMXMXMXMXMXMXMXMXMXMXMXMXMXMXMXMXDXKXGXGXGXGXGXGXGXGXGXGXGXGXGXGXGXGXGXGXGXGXGXGXGXGXGXGXGXMXMXDXMXMXMXMXMXMXMXMXMXMXMXMXMX",
"MXMXMXMXMXMXMXMXMXMXMXMXMXMXMXMXMXMXMXMXMXMXMXMXMXMXDXKXGXGXGXGXGXGXGXGXGXGXGXGXGXGXGXGXGXGXGXGXGXGXGXGXGXGXGXMXMXMXMXMXMXMXMXMXBXMXMXCXCXCXNXNXVXpXH H H H H H D.D.N N N r.r.t.t.e.<.f s s s s s s { { { } } } | |  . . .,.,.3.4.4.4.4.7.7.7.7.8.8.p.p.p.p.a.s.z.p.z.d.p.a.f.j.j.l.l.l.l.M.M.Z.Z.Z.'.'.'.'.'.'.'.'.(.(.(.(.(.(.(.(.B.B.B.B.B.m.B.B.B.B.B.C.C.C.C.C.V.V.C.C.C.C.C.C.C.C.V.V.V.V.V.V.V.V.C.C.C.C.V.V.V.V.V.V.V.V.V.V.V.C.C.C.C.C.B.B.C.V.V.V.C.C.N.N.B.B.B.B.N.N.N.N.N.N.C.C.C.C.C.N.N.N.N.N.v.v.v.v.c.c.x.x.k.g.k.g.g.f.f.f.f.f.a.a.a.a.a.p.p.p.8.8.8.8.8.8.7.9.7.9.9.9.7.7.6.6.6.w.w.6.6.6...1...} a a a a s s s f f f d d d d d d x x x x M M M M M M N H H H L L ,XVXNXMXLXMXAXMXMXMXMXMXMXMXMXMXMXMXMXMXMXMXMXMXMXMXDXKXGXGXGXGXGXGXGXGXGXGXGXGXGXGXGXGXGXGXGXGXGXGXGXGXGXGXGXMXMXDXMXMXMXMXMXMXMXMXMXMXMXMXMX",
"MXMXMXMXMXMXMXMXMXMXMXMXMXMXMXMXMXMXMXMXMXMXMXMXMXMXDXKXGXGXGXGXGXGXGXGXGXGXGXGXGXGXGXGXGXGXGXGXGXGXGXGXGXGXGXMXMXMXMXMXMXMXMXMXBXMXMXCXCXCXMXNXVXwXH Y H H D.H D.D.N N N r.r.r.e.e.<.f s s s s s s { { { { } } | | | |  . .,.3.3.4.4.4.4.7.7.7.8.8.0.p.p.d.d.d.z.d.d.p.p.s.p.j.l.l.l.l.l.l.M.Z.Z.Z.Z.}.'.'.'.'.'.(.(.(.(.(.(.(.(.B.B.B.m.m.B.B.B.B.B.N.B.B.B.C.C.C.C.C.C.C.C.C.C.C.C.C.C.C.C.C.C.C.C.C.C.C.C.C.C.C.C.C.C.C.C.C.C.C.B.B.N.N.N.N.B.N.B.C.C.B.N.N.N.N.N.N.N.n.n.n.n.n.n.v.n.n.v.v.N.v.v.N.N.v.v.v.v.c.b.x.x.k.k.g.k.f.f.f.f.f.a.a.a.a.a.p.p.p.i.i.8.8.8.8.9.9.4.4.4.4.4.6.7.w.w.6.w.w.w.w.6.1.1.1.X.} s s s a s s s g g f d d d d d x x x x x M M M M M M N H H H L G ,XZXNXMXLXMXAXMXMXMXMXMXMXMXMXMXMXMXMXMXMXMXMXMXMXMXDXKXGXGXGXGXGXGXGXGXGXGXGXGXGXGXGXGXGXGXGXGXGXGXGXGXGXGXGXMXMXDXMXMXMXMXMXMXMXMXMXMXMXMXMX",
"MXMXMXMXMXMXMXMXMXMXMXMXMXMXMXMXMXMXMXMXMXMXMXMXMXMXDXKXGXGXGXGXGXGXGXGXGXGXGXGXGXGXGXGXGXGXGXGXGXGXGXGXGXGXGXMXMXMXMXMXMXMXMXMXBXMXMXCXCXCXMXNXVXwXH Y H H D.H D.D.N N N r.r.e.e.e.<.f s s s s a s s { { { } } } | | | |  .,.3.6.3.4.4.4.4.7.7.8.8.8.p.d.d.d.d.0.p.0.p.s.j.i.j.z.l.l.l.l.Z.Z.'.Z.Z.Z.}.}.}.'.'.'.'.'.(.(.(.(.(.(.(.B.B.B.B.B.B.B.B.B.N.N.B.B.B.N.N.N.N.N.N.N.N.C.C.B.B.N.N.N.N.B.B.B.B.N.N.N.N.N.N.N.B.B.N.N.N.B.B.N.N.N.N.N.N.N.N.N.N.N.N.n.n.n.n.n.n.n.v.v.c.c.b.x.c.c.v.v.c.v.x.x.v.v.x.x.v.x.x.x.x.k.k.k.k.g.g.f.f.f.a.a.a.a.a.a.p.p.p.p.p.8.8.8.9.4.4.4.O.O.4.4.4.w.w.w.w.w.w.w.w.w.1.1.1.1.} s s s a a s s f f f d d d d d d x x x x M M M M M M N H H H L G -XZXNXMXLXMXAXMXMXMXMXMXMXMXMXMXMXMXMXMXMXMXMXMXMXMXDXKXGXGXGXGXGXGXGXGXGXGXGXGXGXGXGXGXGXGXGXGXGXGXGXGXGXGXGXMXMXDXMXMXMXMXMXMXMXMXMXMXMXMXMX",
"MXMXMXMXMXMXMXMXMXMXMXMXMXMXAXAXMXMXMXMXAXMXMXMXDXMXMXKXGXGXGXGXGXGXGXGXGXGXGXGXGXGXGXGXGXGXGXGXGXKXGXGXKXGXGXMXMXMXMXMXMXMXAXAXBXMXLXAXAXCXMXBXVXeXU H H D.H D.D.D.N N N r.r.e.e.e.<.f s s s a s s { { { { } } } | | | |  . .,.6.3.3.3.4.4.7.7.7.8.8.8.0.p.p.p.p.p.p.p.p.a.s.s.s.j.l.l.l.Z.Z.Z.Z.}.}.}.}.'.'.'.'.'.'.(.(.(.(.(.(.(.B.B.B.B.B.B.B.B.B.N.B.B.N.N.B.N.N.N.B.B.B.N.N.N.N.N.N.N.N.N.N.N.N.N.N.N.N.N.n.N.N.N.n.n.n.n.v.v.n.n.n.n.n.n.v.v.v.n.n.n.n.n.N.n.n.n.v.v.v.v.v.v.v.v.v.v.c.c.x.x.x.x.c.c.x.x.k.k.k.k.g.g.g.f.a.a.f.a.a.a.a.a.p.p.p.p.p.p.8.8.8.8.8.9.4.4.4.4.O.4.O.4.6.9.6.6.w.+.+.+.6.1.1.1.1.X.s s s s a p s g f f f d f d x x x x x x x M M M M M N H H L L G =XVXBXMXAXLXAXMXMXMXMXMXMXMXAXMXMXMXMXMXMXMXMXDXDXMXLXKXGXGXGXGXGXGXGXGXGXGXGXGXGXGXGXGXGXGXGXGXGXGXGXGXGXGXGXMXMXDXMXMXDXMXMXMXMXMXMXMXAXAXMX",
"MXMXMXMXMXMXMXMXMXMXMXMXMXMXMXMXMXMXMXMXMXMXMXMXMXMXMXKXGXGXGXGXGXGXGXGXGXGXGXGXGXGXGXGXGXGXGXGXGXGXGXGXGXGXGXMXMXMXMXMXMXMXMXMXNXNXMXCXCXMXMXNXVXeXU H H D.H D.D.D.N N N r.r.e.e.e.f f s s s s s s { { { } } } | | | |  . .,.3.6.3.3.3.4.4.7.7.8.8.0.0.p.p.d.d.d.d.d.d.s.s.s.f.j.l.l.l.l.Z.Z.Z.Z.}.}.}.}.'.'.'.'.'.(.(.(.(.(.(.(.(.B.B.(.(.B.B.B.B.B.N.B.B.B.B.B.N.N.N.N.B.N.N.N.N.n.N.n.N.N.N.n.N.N.N.N.N.n.n.n.n.N.n.v.n.n.n.v.v.v.v.v.v.v.v.v.v.n.n.n.n.n.n.n.n.n.n.v.v.v.v.v.v.v.v.v.v.v.c.x.x.x.x.c.c.x.x.k.k.k.g.g.g.f.f.a.a.a.a.a.a.a.a.a.p.i.i.8.8.8.8.8.9.9.9.9.4.4.4.4.4.4.4.6.w.w.w.w.w.+.+.6.1.1.1.1.X.o.a a s s a s f f f f d f d x x x x x x x M M M M M N H H H L L ;XVXBXMXMXAXMXMXMXMXMXMXMXMXMXMXMXMXMXMXMXMXMXMXMXMXMXKXGXGXGXGXGXGXGXGXGXGXGXGXGXGXGXGXGXGXGXGXGXGXGXGXGXGXGXMXMXMXMXMXDXMXMXMXMXMXMXMXMXMXMX",
"AXAXMXMXMXMXMXMXMXMXMXMXMXMXMXMXMXMXMXMXMXMXMXMXMXMXDXKXGXGXGXGXGXGXGXGXGXGXGXGXGXGXGXGXGXGXGXGXGXHXGXGXGXGXGXDXMXMXMXMXMXMXMXMXBXBXLXLXLXAXMXBXVXeXU H H D.H D.D.D.N N N r.r.e.m m f f s s s s { { { { { } } } | | |  . .,.3.3.5.4.4.4.4.4.7.7.7.7.8.8.0.p.p.p.p.p.p.p.s.s.f.f.j.z.l.l.l.M.Z.Z.Z.'.'.'.'.Z.'.'.Z.'.(.(.(.(.(.(.B.B.B.B.B.(.(.B.B.B.B.N.B.B.B.C.B.B.n.n.N.N.N.N.v.v.v.n.n.N.N.N.v.n.N.N.N.n.n.v.n.n.n.n.v.v.n.n.v.v.v.v.v.v.n.v.v.v.v.v.v.v.v.v.v.v.v.v.v.v.v.v.v.v.c.c.c.b.b.x.x.x.x.x.x.x.x.x.k.k.g.g.g.f.f.f.a.f.a.a.f.f.a.a.a.a.p.i.i.i.i.8.9.9.9.4.4.4.4.4.O.O.O.4.9.4.4.4.6.6.6.6.6.6.1.1...X.o.s s s s s s f f f f d f d x x x x x x x M M M M M N H H H L L =XVXLXMXAXAXAXMXMXMXMXMXMXMXMXMXMXMXMXMXMXMXMXMXMXMXDXKXGXGXGXGXGXGXGXGXGXGXGXGXGXGXGXGXGXGXGXGXGXGXGXGXGXGXHXLXMXDXMXMXDXMXMXMXMXMXMXMXMXMXMX",
"KXKXKXKXKXKXKXKXKXKXKXKXKXKXKXKXKXKXKXKXKXKXKXKXKXKXKXKXKXKXKXKXKXKXKXKXKXKXKXKXKXKXKXKXKXKXKXKXKXKXKXKXKXKXKXKXKXKXKXKXKXKXKXKXFXKXKXKXKXKXKXKXZXeXU H H D.D.D.D.D.N N N r.r.e.e.e.<.f f X.X.} } { } } } } } | |  . . . . .3.3.5.5.4.4.4.5.7.7.7.7.8.8.8.0.p.p.p.p.p.p.a.s.a.s.f.j.k.l.l.l.Z.Z.Z.Z.Z.'.Z.Z.Z.Z.M.M.(.(.(.(.(.(.B.B.B.B.B.B.B.B.B.B.B.B.B.B.B.B.C.B.n.n.n.n.N.N.v.v.v.v.n.n.N.N.v.n.n.n.n.n.v.v.v.n.n.n.v.v.n.n.n.n.n.n.n.n.n.n.v.v.v.v.v.v.v.v.c.v.v.v.v.v.v.v.c.c.c.b.b.b.x.x.x.x.x.x.x.x.x.x.k.g.g.g.f.f.f.g.a.a.a.a.f.f.a.i.i.i.a.a.a.p.i.8.9.9.9.4.4.O.O.O.O.O.O.O.4.9.4.4.6.6.O.O.O. .....} } } } { s s s f g f f f d f d x x x x x x M M M M M B N H H H L G =XZXKXKXKXKXKXKXKXKXKXKXKXKXKXKXKXKXKXKXKXKXKXKXKXKXKXKXKXKXKXKXKXKXKXKXKXKXKXKXKXKXKXKXKXKXKXKXKXKXKXKXKXKXKXKXKXKXKXKXKXKXKXKXKXKXKXKXKXKXKX",
"GXGXGXGXGXGXGXGXGXGXGXGXGXGXGXGXGXGXGXGXGXGXGXGXGXGXGXKXDXMXMXMXMXMXMXMXMXMXMXMXMXMXMXMXMXMXMXMXLXDXMXMXMXDXKXKXGXGXGXGXGXGXGXGXGXGXGXHXHXHXGXFXFXeXU Y H D.D.D.D.D.N N N r.r.t.r.e.e.<.<.X.X.} } } } } } | | | ,.,.,.,. .O.3.3.4.4.4.4.4.7.7.7.7.8.8.0.p.p.p.p.p.p.a.a.s.s.f.f.s.j.l.l.l.l.l.l.Z.Z.Z.Z.Z.Z.M.M.M.M.M.B.(.(.(.(.(.(.B.B.B.B.B.B.B.B.B.C.V.V.B.B.C.N.n.n.n.n.n.n.v.v.v.v.v.n.n.n.n.v.v.v.v.n.n.n.v.v.n.n.v.v.v.n.n.n.n.n.n.n.n.n.n.n.v.v.v.v.v.v.v.v.v.v.v.v.v.v.v.v.v.v.c.c.b.c.x.x.x.x.x.x.x.x.k.k.g.g.g.f.f.g.g.a.a.a.a.a.a.i.i.i.i.p.p.i.i.8.8.8.9.9.9.9.9.9.9.9.9.9.9.9.9.9.4.6.O.O. . .....} } } } { s s f f f f d f d d d d d x x x x M M M M M M N N H H L G -XFXHXGXHXHXGXGXGXGXGXGXGXGXGXGXGXGXGXGXGXGXGXGXGXGXGXKXDXMXMXMXMXMXMXMXMXMXMXMXMXMXMXMXMXMXMXMXMXMXMXMXMXMXDXKXGXGXGXGXGXGXGXGXGXGXGXGXGXGXGX",
"GXGXGXGXGXGXGXGXGXGXGXGXGXGXGXGXGXGXGXGXGXGXGXGXGXGXGXKXMXMXMXMXMXMXMXMXMXMXMXMXMXMXMXMXMXMXMXMXMXDXMXMXMXMXDXGXGXGXGXGXGXGXGXGXGXGXGXHXHXHXGXFXFXeXU Y H D.D.D.D.D.N N N r.r.r.r.e.e.<.<.X.X.} } | | } | |  .,.,.3.3.3.3.3.3.3.4.4.4.4.5.7.7.7.8.8.8.0.p.p.a.a.a.a.a.a.a.s.f.f.f.j.l.c.M.M.M.l.M.M.M.M.M.M.M.M.M.M.M.M.B.(.(.(.(.(.(.(.B.B.B.B.B.B.C.C.V.V.V.V.C.B.N.n.n.n.n.n.v.v.v.v.v.v.v.v.n.n.v.v.v.v.n.n.v.v.n.v.v.v.v.n.n.n.n.v.v.v.v.v.n.n.v.n.v.v.v.v.v.v.v.v.v.v.v.v.c.c.c.c.c.b.b.c.x.x.x.x.x.x.x.x.k.k.k.g.g.g.f.f.a.a.a.g.a.a.a.i.a.a.a.a.i.i.i.i.8.8.8.8.8.8.8.8.8.8.8.8.q.7.9.9.5.6.3.O.O. .........} o.s s X.f f f f d f d d d d d x x x x M M M M M M N N H H L G -XFXHXGXHXHXGXGXGXGXGXGXGXGXGXGXGXGXGXGXGXGXGXGXGXGXGXKXMXMXMXMXMXMXMXMXMXMXMXMXMXMXMXMXMXMXMXMXMXMXMXMXMXMXMXKXGXGXGXGXGXGXGXGXGXGXGXGXGXGXGX",
"GXGXGXGXGXGXGXGXGXGXGXGXGXGXGXGXGXGXGXGXGXGXGXGXHXGXGXKXMXMXMXDXDXDXDXDXDXLXDXLXDXDXDXDXDXLXDXLXMXDXMXMXDXMXMXGXGXGXGXGXGXGXGXGXGXGXGXHXGXGXGXFXFX2XU Y H D.H.D.D.D.N N N r.r.r.t.e.e.<.<.<.X.} 2.| | | | | ,.,.,.3.3.3.3.3.4.5.4.5.7.7.7.8.8.0.8.0.p.p.p.a.s.s.s.s.a.a.a.a.f.f.f.j.l.c.c.l.l.l.M.M.M.M.M.M.M.M.M.M.M.M.M.M.(.(.B.B.B.B.B.B.B.B.B.B.B.N.B.B.V.V.C.B.N.n.N.n.n.v.v.n.v.v.v.n.n.n.v.v.v.v.n.v.n.v.v.v.v.v.v.v.v.n.n.n.n.n.v.v.v.v.n.n.n.n.v.v.v.v.v.v.v.v.v.v.v.v.b.b.b.b.b.b.c.c.x.x.x.c.c.c.c.x.x.x.k.k.k.g.f.f.g.g.g.f.f.f.f.f.j.f.f.a.a.a.a.p.p.p.p.8.i.i.i.i.8.8.8.8.9.9.9.4.4.4.O.O.O. . .....} } { o.s X.f s f f f f d d d d d x x c x M M M M M M N N H H L G -XFXHXGXHXHXGXGXGXGXGXGXGXGXGXGXGXGXGXGXGXGXGXGXGXGXGXKXMXMXDXAXDXDXDXDXDXDXDXDXMXLXDXLXDXDXDXDXDXDXDXDXDXDXMXGXGXGXGXGXKXGXGXGXGXGXGXGXGXGXGX",
"GXGXGXGXGXGXGXGXGXGXGXGXGXGXGXGXGXGXGXGXGXGXGXGXHXGXGXKXMXMXMXDXMXMXMXMXMXMXMXMXMXMXMXMXMXMXMXMXMXDXMXMXDXMXMXGXGXGXGXGXGXGXGXGXGXGXGXGXHXHXGXGXFX2XY Y H D.H.D.D.D.N B N r.r.t.e.e.e.<.<.<.<.} } | | | | ,.,.,.3.3.3.3.4.5.9.7.7.7.7.q.0.q.d.d.p.p.p.s.s.s.f.j.j.f.f.s.s.f.j.j.k.k.k.k.l.l.l.l.M.M.M.M.M.M.M.M.M.M.M.M.M.M.B.B.M.M.m.m.m.m.m.m.B.N.m.v.v.N.B.V.C.C.N.N.N.n.n.v.v.v.v.n.n.n.n.n.v.v.n.n.n.n.n.v.v.v.v.v.v.v.v.n.N.N.N.n.n.n.n.n.N.n.n.n.v.v.v.v.v.v.v.v.v.v.v.v.c.c.c.v.v.v.v.v.c.c.c.v.v.v.v.c.x.x.x.k.k.g.f.f.g.g.g.g.g.f.g.j.f.f.f.f.f.a.a.p.d.d.d.p.8.8.8.8.8.8.8.8.9.9.4.4.4.3.O.O.O. . .....} } o.o.o.s f s f f d d d d d d x x x x x M M M M M M N N H H G G -XFXHXGXHXGXGXGXGXGXGXGXGXGXGXGXGXGXGXGXGXGXGXGXGXGXGXKXLXDXMXMXMXMXMXMXMXMXMXMXMXMXMXMXMXMXMXMXMXMXMXMXMXMXAXGXGXKXGXGXKXGXGXGXGXGXGXGXGXGXGX",
"GXGXGXGXGXGXGXGXGXGXGXGXGXGXGXGXGXGXGXGXGXGXGXGXGXGXGXKXMXMXMXMXMXMXMXMXMXMXMXMXMXMXMXMXMXMXMXMXMXMXMXMXDXMXDXGXGXGXGXGXGXGXGXGXGXGXGXGXHXGXGXHXFX,XU Y D.H H.D.D.D.N N N N r.e.e.e.e.<.<.X.<.<.1.2.....| ,.,.,.3.3.3.3.4.5.5.5.7.8.8.8.0.p.d.d.p.p.a.a.a.s.s.s.f.f.f.f.f.f.j.j.k.k.l.l.l.c.c.M.l.l.M.M.M.M.M.M.M.M.M.M.M.M.m.m.M.m.M.m.M.M.B.B.B.B.N.N.B.B.B.B.C.C.B.N.N.N.n.n.N.N.N.N.N.N.N.N.n.n.v.n.n.n.n.v.n.n.n.N.n.N.n.n.n.n.n.n.N.N.n.v.N.N.N.n.n.n.N.N.n.n.n.v.v.n.n.n.n.n.v.v.n.n.n.n.v.v.v.v.v.v.v.c.b.c.x.x.x.k.g.g.g.g.g.g.f.f.f.f.g.f.f.a.f.f.a.a.i.i.i.8.8.p.i.8.8.8.8.9.9.9.9.4.4.O.O.O.6.6. .....} } o.o.{ X.s f f f f d d d d x x x x c x M M M M N N N N L L H G -XFXFXGXGXGXGXGXGXGXGXGXGXGXGXGXGXGXGXGXGXGXGXGXGXGXGXKXMXMXMXMXMXMXMXMXMXMXMXMXMXMXMXMXMXMXMXMXMXMXMXMXMXMXMXGXGXGXGXGXGXGXGXGXGXGXGXGXGXGXGX",
"GXGXGXGXGXGXGXGXGXGXGXGXGXGXGXGXGXGXGXGXGXGXGXGXGXGXGXKXMXMXMXMXMXMXMXMXMXMXMXMXMXMXMXMXMXMXMXMXMXMXMXMXDXMXDXGXGXGXGXGXGXGXGXGXGXGXGXGXGXGXGXHXFX,XU Y H D.H.D.D.D.H N N r.r.t.e.e.e.<.<.X.X.<.1.2...2.| ,.,.,.3.3.3.4.5.5.7.7.8.8.8.8.8.8.p.p.p.p.p.a.a.s.s.s.f.f.f.f.f.f.f.f.k.k.k.k.l.l.l.l.l.l.l.M.M.M.M.M.M.M.M.M.c.c.M.M.M.M.M.M.m.m.m.m.m.m.N.N.N.N.N.N.N.N.N.N.N.N.N.n.N.N.N.N.N.N.N.N.N.N.N.N.N.N.N.n.n.N.N.N.N.N.N.n.n.n.n.N.N.N.N.n.N.N.N.n.n.N.N.N.N.n.n.n.n.n.n.n.N.n.v.v.n.N.n.n.v.v.v.v.v.v.c.x.c.x.x.x.x.k.k.g.g.g.g.g.f.f.f.f.g.f.f.f.f.f.a.a.a.a.p.8.8.8.8.9.8.8.8.9.9.9.9.4.4.O.O.O.6.6. .....} } } o.o.X.f f f d d d d d x x x x x c x M M M M N N N N H H H G ,XFXFXGXGXGXGXGXGXGXGXGXGXGXGXGXGXGXGXGXGXGXGXGXGXGXGXKXMXMXMXMXMXMXMXMXMXMXMXMXMXMXMXMXMXMXMXMXMXMXMXMXMXMXMXGXGXGXGXGXGXGXGXGXGXGXGXGXGXGXGX",
"GXGXGXGXGXGXGXGXGXGXGXGXGXGXGXGXGXGXGXGXGXGXGXGXGXGXGXKXMXMXMXMXMXMXMXMXMXMXMXMXMXMXMXMXMXMXMXMXMXMXMXMXMXMXMXGXGXGXGXGXGXGXGXGXGXGXGXGXGXGXHXHXFX,XU Y H D.H.H.H.D.H N N N r.r.e.e.e.<.<.X.X.<.} 2...| | ,.,.,.3.3.3.5.5.5.7.7.8.8.7.7.7.8.8.p.p.p.p.a.s.s.s.s.f.f.f.f.s.s.s.f.j.j.j.k.k.k.k.j.k.l.l.l.l.l.M.M.M.M.M.M.c.c.c.c.c.c.c.c.m.m.m.m.m.m.m.m.m.m.N.N.n.n.N.N.B.B.N.N.N.N.N.N.N.N.N.N.C.B.B.B.C.B.N.N.N.N.N.N.B.N.N.N.N.N.n.N.N.N.N.N.N.N.N.n.n.N.N.N.N.N.N.N.N.N.N.N.N.n.n.n.n.N.N.n.N.v.v.v.v.c.x.x.x.x.x.x.x.x.k.k.g.g.g.g.f.f.f.f.f.f.a.a.f.a.a.a.a.a.p.i.i.i.8.8.8.8.8.9.9.9.9.4.4.O.O.O.O.6. .......} } o.o.X.f f f f d f d x x x x x x x x M M M M M N N N H H H L ,XFXFXGXGXGXGXGXGXGXGXGXGXGXGXGXGXGXGXGXGXGXGXGXGXGXGXKXMXMXMXMXMXMXMXMXMXMXMXMXMXMXMXMXMXMXMXMXMXMXMXMXMXMXMXGXGXGXGXGXGXGXGXGXGXGXGXGXGXGXGX",
"GXGXGXGXGXGXGXGXGXGXGXGXGXGXGXGXGXGXGXGXGXGXGXGXGXGXGXKXMXMXMXMXMXMXMXMXMXMXMXMXMXMXMXMXMXMXMXMXMXMXMXMXMXMXMXGXGXGXGXGXGXGXGXGXGXGXGXGXGXGXHXHXFX,XU H H.D.D.H.H.D.H N N r.r.r.e.e.e.e.<.<.X.X.} } ..| ,.,.,.,.3.3.3.3.5.5.7.7.7.7.7.7.7.7.8.8.p.p.p.a.a.s.s.s.s.s.s.f.f.f.f.f.j.j.j.j.j.j.j.j.j.j.j.j.j.j.l.l.k.l.l.l.l.l.c.c.c.c.c.c.c.c.v.v.m.m.v.v.v.m.m.m.n.n.N.B.C.C.B.N.B.B.B.B.B.B.B.B.C.C.B.B.C.C.B.B.N.B.B.B.B.B.N.N.B.N.N.N.N.C.N.N.N.N.N.N.N.N.N.N.N.N.N.N.C.N.N.N.N.n.n.n.N.N.N.n.N.n.v.v.v.x.x.x.x.x.x.x.x.x.k.k.g.g.g.g.g.f.f.f.a.a.a.a.a.a.a.i.p.p.i.i.i.i.i.i.8.9.9.9.9.9.9.4.4.4.6.6.O.O. .......} o.o.o.X.f f f d d f d d x x x x x x x x M M M M B N N H H H G eXFXFXGXGXGXGXGXGXGXGXGXGXGXGXGXGXGXGXGXGXGXGXGXGXGXGXKXMXMXMXMXMXMXMXMXMXMXMXMXMXMXMXMXMXMXMXMXMXMXMXMXMXMXMXGXGXGXGXGXGXGXGXGXGXGXGXGXGXGXGX",
"GXGXGXGXGXGXGXGXGXGXGXGXGXGXGXGXGXGXGXGXGXGXGXGXGXGXGXKXMXMXMXMXMXMXMXMXMXMXMXMXMXMXMXMXMXMXMXMXMXMXMXMXDXMXDXGXGXGXGXGXGXGXGXGXGXGXGXGXGXGXGXHXFX1XU H H.D.D.H.H.D.H N N r.r.r.m e.e.e.<.<.X.<.} } } | | ,.,.,.3.3.3.3.4.4.4.4.9.9.9.7.8.8.8.8.p.p.p.p.a.s.s.s.a.s.s.s.s.f.f.f.f.j.j.j.j.j.j.j.j.j.j.j.j.j.j.j.j.j.k.k.l.l.l.l.l.l.c.c.c.c.c.c.v.m.v.v.v.v.m.m.N.N.B.V.V.V.C.B.C.C.C.C.C.C.C.C.C.B.B.B.C.C.B.B.B.B.N.N.N.N.B.B.C.B.B.B.B.B.N.N.N.B.N.N.N.N.N.N.N.N.N.N.B.N.N.N.N.N.N.N.N.N.n.n.N.N.v.v.v.v.x.x.v.x.x.x.x.x.x.g.g.g.g.g.g.g.g.g.f.f.f.a.a.a.a.a.p.i.i.i.8.9.9.9.8.8.9.9.9.9.9.4.4.4.4.3.O. . .....} } } o.{ X.s f f f d d d x x x x x x x x x x M M M N N N H H H G eXFXFXGXGXGXGXGXGXGXGXGXGXGXGXGXGXGXGXGXGXGXGXGXGXGXGXKXMXMXMXMXMXMXMXMXMXMXMXMXMXMXMXMXMXMXMXMXMXMXMXMXMXMXMXGXGXGXGXGXGXGXGXGXGXGXGXGXGXGXGX",
"GXGXGXGXGXGXGXGXGXGXGXGXGXGXGXGXGXGXGXGXGXGXGXGXGXGXGXKXMXMXMXMXMXMXMXMXMXMXMXMXMXMXMXMXMXMXMXMXMXMXMXMXDXMXDXGXGXGXGXGXGXGXGXGXGXGXGXHXHXHXGXHXFXeXH.H H.H.D.H.H.D.H H N N r.r.m e.e.e.e.X.X.X.2.} } | | ,.,.,.3.3.3.3.3.4.4.4.4.9.7.7.8.8.8.8.p.p.p.p.p.p.a.a.s.s.s.s.s.s.s.s.s.s.f.f.f.f.f.f.j.j.j.j.j.j.j.j.k.k.k.k.k.k.k.k.l.l.l.c.c.c.c.c.v.v.v.v.v.v.m.m.N.B.C.V.V.V.C.C.C.C.C.C.C.C.C.C.C.B.B.B.B.C.B.B.B.B.B.N.B.B.B.C.C.C.B.B.B.B.N.N.C.B.N.N.N.N.N.B.N.N.N.N.N.N.N.N.N.N.N.N.N.N.n.n.N.N.n.v.v.v.v.v.b.v.c.x.x.x.x.g.g.g.g.g.g.g.g.g.f.f.f.a.a.a.a.a.p.i.i.i.i.8.8.8.8.9.9.9.9.9.9.9.4.4.6.6.O. . .....} } o.o.o.X.s f f f d d d x x x x x x x x x x x M M N N N N L L L pXFXHXGXGXGXGXGXGXGXGXGXGXGXGXGXGXGXGXGXGXGXGXGXGXGXGXKXMXMXMXMXMXMXMXMXMXMXMXMXMXMXMXMXMXMXMXMXMXMXMXMXMXMXMXGXGXGXGXGXGXGXGXGXGXGXGXGXGXGXGX",
"GXGXGXGXGXGXGXGXGXGXGXGXGXGXGXGXGXGXGXGXGXGXGXGXGXGXGXKXMXMXMXMXMXMXMXMXMXMXMXMXMXMXMXMXMXMXMXMXMXMXMXMXDXMXDXGXGXGXGXGXGXGXGXGXGXGXGXHXHXHXGXHXFXeXH.H H.H.D.H.H.D.H H N N N N m e.e.e.e.X.X.X.2.2.....| ,.,.,.3.3.3.3.3.4.4.4.9.7.7.7.8.8.8.8.8.8.8.p.p.p.p.p.a.a.a.a.s.a.a.a.s.s.s.s.s.f.f.f.j.j.j.j.j.j.j.j.k.k.k.k.k.k.k.k.k.l.l.l.c.c.c.c.c.c.v.v.v.v.v.m.N.B.C.C.C.C.C.C.C.C.C.C.C.C.C.C.C.C.C.C.C.C.C.C.C.C.C.B.B.B.C.C.C.B.B.N.B.C.C.C.C.C.N.N.N.N.N.C.C.B.B.N.N.N.N.N.N.N.N.N.N.N.n.n.n.n.v.v.v.v.v.v.b.v.c.x.x.x.x.x.g.g.g.g.g.g.g.g.f.f.f.a.a.a.a.a.i.i.i.p.i.8.8.i.8.9.9.9.9.9.9.9.4.4.6.6.O. . .......} } o.o.{ s f f f d d x x x x x x x x x x x x M M M B M H L G G kXFXHXGXGXGXGXGXGXGXGXGXGXGXGXGXGXGXGXGXGXGXGXGXGXGXGXKXMXMXMXMXMXMXMXMXMXMXMXMXMXMXMXMXMXMXMXMXMXMXMXMXMXMXMXGXGXGXGXGXGXGXGXGXGXGXGXGXGXGXGX",
"GXGXGXGXGXGXGXGXGXGXGXGXGXGXGXGXGXGXGXGXGXGXGXGXGXGXGXKXMXMXMXMXMXMXMXMXMXMXMXMXMXMXMXMXMXMXMXMXMXMXMXMXDXMXDXGXGXGXGXGXGXGXGXGXGXGXGXGXHXHXGXHXFXeXH.Y H.H.H H.H.H H N N N N N m e.e.e.e.X.X.X.<.1...2.| ,.,.,.,.3.3.3.4.4.5.5.7.7.7.7.7.7.8.8.8.8.8.8.i.i.i.i.i.i.p.a.a.a.a.a.p.a.a.s.s.s.f.f.s.s.f.j.j.l.l.j.j.j.j.k.k.l.l.l.k.l.l.c.c.c.c.c.c.c.c.c.v.v.v.v.N.N.B.B.C.C.C.V.C.C.C.C.C.C.C.C.V.C.C.C.C.C.C.C.C.C.C.C.C.C.C.C.N.N.N.N.B.C.V.V.C.C.N.N.N.N.N.C.C.C.B.N.N.N.N.B.C.N.N.N.C.N.n.n.n.n.v.v.v.v.v.v.v.v.c.c.b.x.x.x.x.g.g.g.g.g.g.g.f.f.a.a.i.i.i.a.p.i.i.i.8.O.O.4.8.9.9.9.9.9.9.9.4.4.6.6.O. . .......} X.o.o.X.s f f f d d x x x x x x x x x x x M M M M M M L H L G kXFXHXGXGXGXGXGXGXGXGXGXGXGXGXGXGXGXGXGXGXGXGXGXGXGXGXKXMXMXMXMXMXMXMXMXMXMXMXMXMXMXMXMXMXMXMXMXMXMXMXMXMXMXMXGXGXGXGXGXGXGXGXGXGXGXGXGXGXGXGX",
"GXGXGXGXGXGXGXGXGXGXGXGXGXGXGXGXGXGXGXGXGXGXGXGXGXGXGXKXMXMXMXMXMXMXMXMXMXMXMXMXMXMXMXMXMXMXMXMXMXMXMXMXDXMXMXGXGXGXGXGXGXGXGXGXGXGXGXHXHXHXHXGXFXpXU Y H.H.H.D.D.H H N N N N N m e.e.e.e.X.X.X.X.X.} ....,.,.,.6.3.3.3.4.4.4.4.7.7.7.7.8.8.8.8.p.0.0.8.i.p.p.p.i.i.i.i.i.i.p.p.a.a.s.s.s.s.s.s.s.s.f.f.f.j.j.j.k.k.k.k.k.k.k.k.k.k.l.l.c.c.c.c.c.c.v.v.v.v.m.N.N.B.C.C.C.C.C.C.C.C.C.C.C.C.C.C.V.V.V.V.V.V.V.V.V.V.V.V.C.C.B.B.C.C.C.C.C.C.C.C.C.C.B.N.N.B.C.C.C.C.C.B.B.B.B.C.N.N.n.n.C.C.N.n.N.N.N.v.v.v.v.v.v.v.b.v.x.x.x.x.x.x.x.x.x.g.g.g.g.f.a.a.a.a.a.a.p.a.9.i.d. .o.i.9.9.9.9.9.9.9.9.9.4.6.O.O. . .......} X.X.X.o.X.f f f f d d x x x x x x x x x x x M M M M M L H L G zXFXFXGXGXHXGXGXGXGXGXGXGXGXGXGXGXGXGXGXGXGXGXGXGXGXGXKXMXMXMXMXMXMXMXMXMXMXMXMXMXMXMXMXMXMXMXMXMXMXMXMXMXMXMXGXGXGXGXGXGXGXGXGXGXGXGXGXGXGXGX",
"GXGXGXGXGXGXGXGXGXGXGXGXGXGXGXGXGXGXGXGXGXGXGXGXGXGXGXKXMXMXMXMXMXMXMXMXMXMXMXMXMXMXMXMXMXMXMXMXMXMXMXMXDXMXMXGXGXGXGXGXGXGXGXGXGXGXGXHXHXHXHXGXFXzXU U H.D.H.D.D.H H N N N N N m e.e.e.e.<.X.X.X.X.X.2...,.,.,.,.3.3.3.5.5.5.7.7.7.7.7.7.7.8.8.0.0.0.p.i.i.8.8.i.i.i.i.i.i.p.p.a.a.s.s.s.s.s.s.s.s.f.f.j.j.j.j.j.j.j.k.k.k.k.k.l.c.c.c.c.c.c.c.c.c.v.v.v.v.m.N.B.C.C.C.C.C.C.C.C.C.C.C.C.C.C.C.V.V.V.V.V.V.C.C.V.V.V.C.C.C.C.C.C.C.C.C.C.C.C.C.C.C.B.N.B.B.C.C.C.C.B.C.B.B.N.C.N.N.N.N.N.N.N.n.N.N.N.N.N.n.v.v.v.v.b.v.x.x.x.x.x.x.k.g.g.g.f.f.g.f.a.a.a.a.a.a.8.d.i.9.d.i.9.p.9.9.9.9.9.9.9.9.6.4.6.O.O. . .....} } X.X.X.o.X.f f f d f d d x x x x x x x x x x M M M M M L H L G vXFXFXGXGXHXGXGXGXGXGXGXGXGXGXGXGXGXGXGXGXGXGXGXGXGXGXKXMXMXMXMXMXMXMXMXMXMXMXMXMXMXMXMXMXMXMXMXMXMXMXMXMXMXMXGXGXGXGXGXGXGXGXGXGXGXGXGXGXGXGX",
"GXGXGXGXGXGXGXGXGXGXGXGXGXGXGXGXGXGXGXGXGXGXGXGXGXGXGXKXMXMXMXMXMXMXMXMXMXMXMXMXMXMXMXMXMXMXMXMXMXMXMXMXDXMXMXGXGXGXGXGXGXGXGXGXGXGXGXHXHXHXGXGXFXVXU U H.H.H.H.H H H H N N N N N e.e.e.e.<.X.X.X.X.} } ..2.,.,.,.,.3.3.5.5.5.5.7.7.7.7.7.7.7.7.8.0.p.p.p.8.8.8.i.i.i.i.i.i.p.p.p.a.s.s.s.s.s.s.s.s.s.f.j.j.j.j.j.j.j.k.k.k.k.k.l.c.c.c.c.c.c.c.c.c.v.v.v.v.m.N.C.C.V.V.V.V.C.V.C.V.V.V.V.V.V.C.^.V.V.V.V.V.C.C.C.C.C.C.C.C.C.C.C.C.C.C.C.C.C.C.C.C.B.B.B.B.B.C.C.C.B.B.B.B.B.B.N.N.C.N.N.N.N.N.N.n.v.v.n.v.c.x.v.v.v.v.c.x.x.x.x.x.x.x.g.g.g.g.f.f.a.f.a.a.a.a.i.a.i.9.i.d.i.9.8.8.9.9.9.4.4.9.4.4.O.O.O. . .....} } } X.X.X.s f f f f f d x x x x x x x x x x x M M M M M L L L G VXHXFXGXHXHXGXGXGXGXGXGXGXGXGXGXGXGXGXGXGXGXGXGXGXGXGXKXMXMXMXMXMXMXMXMXMXMXMXMXMXMXMXMXMXMXMXMXMXMXMXMXMXMXMXGXGXGXGXGXGXGXGXGXGXGXGXGXGXGXGX",
"GXGXGXGXGXGXGXGXGXGXGXGXGXGXGXGXGXGXGXGXGXGXGXGXGXGXGXKXMXMXMXMXMXMXMXMXMXMXMXMXMXMXMXMXMXMXMXMXMXMXMXMXDXMXMXGXGXGXGXGXGXGXGXGXGXGXGXHXHXHXHXGXHXKXU U H.H.H.H.H H H H N N N N N e.e.e.e.X.X.X.X.X.X.} } 2.,.,.,.3.3.3.5.5.5.5.7.7.7.8.8.q.0.0.8.0.p.d.p.p.8.8.8.i.i.i.8.i.i.p.p.p.s.s.s.s.s.s.s.s.f.f.j.j.j.j.k.k.k.k.k.l.l.l.k.k.c.c.c.c.c.c.c.c.v.v.v.v.m.N.C.V.V.V.V.V.V.V.V.V.V.V.V.V.V.V.V.V.V.V.V.V.C.C.C.C.C.C.C.C.C.C.C.C.C.C.C.C.V.C.C.C.C.B.B.B.B.B.C.C.C.C.B.B.B.B.N.N.C.C.N.N.N.N.N.v.x.x.c.v.v.c.v.v.v.c.c.c.x.x.x.b.x.x.x.x.g.g.g.g.g.f.g.a.a.i.a.i.8.i.i.i.9.9.8.8.9.9.4.4.4.9.4.4.O.O.O. .......} } } X.o.X.s f f f f f d d x x x x x x x x x x M M M M M L L L G FXHXFXGXHXHXGXGXGXGXGXGXGXGXGXGXGXGXGXGXGXGXGXGXGXGXGXKXMXMXMXMXMXMXMXMXMXMXMXMXMXMXMXMXMXMXMXMXMXMXMXMXMXMXMXGXGXGXGXGXGXGXGXGXGXGXGXGXGXGXGX",
"GXGXGXGXGXGXGXGXGXGXGXGXGXGXGXGXGXGXGXGXGXGXGXGXGXGXGXKXMXMXMXMXMXMXMXMXMXMXMXMXMXMXMXMXMXMXMXMXMXMXMXMXDXMXDXGXGXGXGXGXGXGXGXGXGXGXHXHXHXHXHXGXFXFXH.H.H.H.D.H.H H H L N N N r.m m m e.e.e.X.X.X.X.} ......,.,.6.3.3.5.5.5.5.7.7.7.7.7.8.q.0.0.8.0.p.d.d.p.8.8.8.8.i.i.8.i.i.p.p.p.a.s.s.s.s.s.s.j.j.j.j.j.j.j.k.k.k.l.l.l.l.l.l.l.l.c.c.c.c.c.v.v.v.m.m.m.N.C.C.C.V.V.V.V.V.V.V.V.V.V.V.V.V.V.V.V.V.V.V.V.V.V.V.V.V.C.C.C.C.C.C.C.C.C.C.C.C.C.C.C.C.C.B.B.B.B.C.C.C.C.C.B.N.N.N.B.C.C.N.N.N.N.N.n.c.c.v.n.n.n.v.v.c.c.c.c.x.x.x.x.x.g.g.g.g.g.f.g.a.a.a.a.a.i.a.8.8.p.i.9.8.8.8.8.9.9.4.4.4.4.4.4.O.O.O. .......} } } o.o.o.X.f f f d d d x x x x x x x x x x c M M M M N L G G U FXFXFXGXGXHXGXGXGXGXGXGXGXGXGXGXGXGXGXGXGXGXGXGXGXGXGXKXMXMXMXMXMXMXMXMXMXMXMXMXMXMXMXMXMXMXMXMXMXMXMXMXMXMXMXGXGXGXGXGXGXGXGXGXGXGXGXGXGXGXGX",
"GXGXGXGXGXGXGXGXGXGXGXGXGXGXGXGXGXGXGXGXGXGXGXGXGXGXGXKXMXMXMXMXMXMXMXMXMXMXMXMXMXMXMXMXMXMXMXMXMXMXMXMXDXMXDXGXGXGXGXGXGXGXGXGXGXGXHXHXHXHXHXGXKXFXP.H.U H.D.H.Y H H L N N N r.m m m e.e.e.X.X.X.X.X.......,.,.,.,.3.3.5.5.5.7.7.7.7.7.7.7.7.7.8.0.p.d.d.p.i.8.8.i.i.i.8.i.i.p.p.p.a.s.s.s.s.j.j.j.j.j.j.j.k.l.k.k.l.l.l.l.l.l.c.c.c.b.c.c.v.v.v.v.m.m.m.N.N.B.C.C.V.V.V.V.V.V.V.V.V.C.C.V.C.V.C.C.V.V.V.V.V.V.V.V.V.C.C.C.C.C.V.V.V.C.C.C.C.C.C.C.C.C.C.C.C.C.C.C.C.C.C.B.B.N.N.B.C.N.N.N.N.N.n.n.n.n.N.N.n.n.v.v.x.x.c.c.x.x.b.b.x.x.g.g.g.g.g.g.a.a.a.a.a.a.i.i.i.i.8.8.8.9.9.8.9.9.9.4.4.4.O.O.O.O.O. .......} } } o.o.X.X.f f f d d x x x x x x x x x x x c M M M M N N G G P.FXFXHXGXHXHXGXGXGXGXGXGXGXGXGXGXGXGXGXGXGXGXGXGXGXGXGXKXMXMXMXMXMXMXMXMXMXMXMXMXMXMXMXMXMXMXMXMXMXMXMXMXMXMXMXGXGXGXGXGXGXGXGXGXGXGXGXGXGXGXGX",
"GXGXGXGXGXGXGXGXGXGXGXGXGXGXGXGXGXGXGXGXGXGXGXGXGXGXGXKXMXMXMXMXMXMXMXMXMXMXMXMXMXMXMXMXMXMXMXMXMXMXMXMXDXMXDXGXGXGXGXGXGXGXGXGXGXGXHXHXHXHXHXGXHXFX;XH.U H H H.H.Y H N N N N r.m m m e.e.X.X.X.<.X.X.....2.,.,.| ,.,.3.5.5.5.5.7.7.7.7.7.7.7.7.8.8.8.p.p.p.8.8.8.i.i.i.i.8.i.p.p.p.s.s.s.s.j.j.j.j.j.l.l.l.l.l.l.l.l.l.c.c.c.c.b.b.M.c.c.c.c.c.v.m.m.m.m.N.C.B.B.C.C.V.V.C.V.V.V.V.C.C.C.C.C.C.C.C.C.C.C.C.C.C.C.C.C.C.C.C.C.C.V.V.V.C.C.C.C.C.B.B.C.C.C.C.C.C.C.C.C.C.C.B.N.N.B.N.N.N.N.N.N.n.n.n.N.N.n.n.v.v.v.c.x.x.c.c.x.x.x.x.x.x.g.g.g.g.g.g.a.a.a.a.a.i.i.p.i.8.8.8.8.9.9.9.9.9.4.4.O.O.O.O.O.O.O. .......} } } o.o.o.X.f f f d d x x x x x x x x x x x z M x M M N L G G ;XFXFXGXGXHXGXGXGXGXGXGXGXGXGXGXGXGXGXGXGXGXGXGXGXGXGXGXKXMXMXMXMXMXMXMXMXMXMXMXMXMXMXMXMXMXMXMXMXMXMXMXMXMXMXMXGXGXGXGXGXGXGXGXGXGXGXGXGXGXGXGX",
"GXGXGXGXGXGXGXGXGXGXGXGXGXGXGXGXGXGXGXGXGXGXGXGXGXGXGXKXMXMXMXMXMXMXMXMXMXMXMXMXMXMXMXMXMXMXMXMXMXMXMXMXDXMXDXGXGXGXGXGXGXGXGXGXGXGXHXHXHXHXGXGXHXFX,XP.U D.D.H.H.H H N N N N r.m m m e.e.X.X.X.<.<.1.2.2.,.,.,.,.3.3.5.5.5.5.5.4.5.7.7.7.7.8.8.8.8.8.0.0.0.8.8.8.i.i.i.i.i.p.p.p.a.s.s.f.j.j.j.l.l.l.l.l.l.l.c.M.M.M.M.M.m.m.M.M.M.M.c.c.c.x.x.v.m.m.m.m.N.N.B.B.C.C.V.V.C.C.V.V.C.C.C.C.C.C.C.V.C.V.C.C.C.C.C.C.C.C.C.C.C.V.V.V.V.V.V.C.C.C.C.B.B.C.C.C.C.C.C.C.C.C.C.C.B.N.N.C.N.n.N.N.C.n.n.C.N.C.n.v.v.n.n.v.c.c.x.c.c.x.g.g.g.g.g.g.g.g.g.g.g.a.a.a.a.a.i.a.i.8.i.p.i.8.i.9.9.9.9.9.4.O.O.O.O.O.O.O. .....} } o.o.o.X.o.X.f f f d d x x x x x x x x x x x z z z M M N N G G 2XFXFXGXGXHXGXGXGXGXGXGXGXGXGXGXGXGXGXGXGXGXGXGXGXGXGXGXKXMXMXMXMXMXMXMXMXMXMXMXMXMXMXMXMXMXMXMXMXMXMXMXMXMXMXMXGXGXGXGXGXGXGXGXGXGXGXGXGXGXGXGX",
"GXGXGXGXGXGXGXGXGXGXGXGXGXGXGXGXGXGXGXGXGXGXGXGXHXGXGXKXMXMXMXDXMXMXMXMXMXMXMXMXMXMXMXMXMXMXMXMXDXMXMXMXMXMXMXGXGXGXGXGXGXGXGXGXGXGXGXGXGXGXGXGXKXHXkXU U H.H.H.H.H H L N N N N m m m X.X.X.X.X.<.<.2.2.2.,.,.3.3.3.3.O.O.O.4.4.4.7.8.8.8.7.7.7.7.8.8.8.8.8.8.0.8.p.p.8.p.a.a.a.a.s.s.s.f.j.j.j.k.l.l.l.c.c.b.b.c.n.m.v.m.N.C.m.M.M.c.M.c.c.l.k.c.M.m.v.N.N.N.B.C.V.N.^.C.V.N.C.V.V.V.C.B.C.V.V.V.V.V.V.V.V.C.V.C.C.V.C.C.N.C.V.N.C.V.V.C.C.n.N.C.C.V.V.V.V.C.N.C.C.C.N.n.n.n.n.C.C.C.n.n.n.n.n.n.n.n.n.n.n.v.v.b.v.v.b.x.x.x.x.k.g.g.g.g.g.g.g.g.g.a.a.a.a.a.i.i.i.i.i.i.8.8.8.8.9.9.9.9.O.O.O.O.O.O.O.O. ...} ..} } o.X.X.X.f f f f d d d x x x x x x x x x z z z z M M N N G n vXZXFXGXHXGXGXGXGXGXGXGXGXGXGXGXGXGXGXGXGXGXGXGXGXGXGXGXKXMXMXMXMXMXMXMXMXMXMXMXMXMXMXMXMXMXMXMXMXMXMXMXMXMXMXMXGXGXGXGXGXGXGXGXGXGXGXGXGXGXGXGX",
"GXGXGXGXGXGXGXGXGXGXGXGXGXGXGXGXGXGXGXGXGXGXGXGXHXGXGXKXMXMXMXDXMXMXMXMXMXMXMXMXMXMXMXMXMXMXMXMXMXMXMXDXDXMXDXGXGXGXGXGXGXGXGXGXGXGXGXGXGXGXGXGXFXHXvXI U H.H.F.H.H H N N N N N m m e.m e.e.X.X.<.<.2.2.,.,.,.,.3.3.3.O.O.O.4.4.4.4.9.9.9.9.9.9.9.7.7.7.7.7.8.8.8.p.p.0.p.a.a.a.s.s.f.f.j.k.k.k.l.l.c.c.c.c.b.v.v.m.N.v.N.C.C.N.M.c.M.l.c.l.c.c.x.c.c.c.B.C.B.B.C.N.C.B.C.N.C.V.N.N.C.V.V.V.V.V.C.C.C.V.C.N.n.N.C.C.C.C.V.V.C.n.C.C.V.C.C.C.C.C.n.n.N.N.C.C.C.V.C.C.n.n.n.n.C.C.n.C.C.x.x.C.C.n.n.n.n.n.n.v.c.x.v.c.b.x.g.x.x.x.g.g.g.g.g.g.g.g.a.a.a.a.a.a.a.i.i.i.i.i.i.8.8.8.8.9.9.9.9.4.O.O.O.O.O.O. .....o.} } o.X.X.f X.f f f f d d d x x x x x x k k z z z z z M M N L G G nXFXGXGXHXGXHXGXGXGXGXGXGXGXGXGXGXGXGXGXGXGXGXGXGXGXGXGXKXDXLXMXMXMXMXMXMXMXMXMXMXMXMXMXMXMXMXMXMXMXMXMXMXMXMXMXGXGXKXGXGXGXGXGXGXGXGXGXGXGXGXGX",
"GXGXGXGXGXGXGXGXGXGXGXGXGXGXGXGXGXGXGXGXGXGXGXGXGXGXGXKXMXMXMXMXMXMXMXMXMXMXMXMXMXMXMXMXMXMXMXMXMXMXMXDXDXMXMXGXGXGXGXGXGXGXGXGXGXGXGXGXGXGXGXGXGXHXVXI U H.H.H.H.H H N N N N N N m e.e.e.e.e.X.<.X.X.} } ..,.,.,.,.,. .O.O.O.3.4.4.O.4.4.4.4.9.9.9.9.9.7.7.8.0.0.p.p.p.p.a.a.a.s.f.f.j.k.l.c.c.c.c.c.c.c.c.c.b.v.m.m.m.N.B.B.N.m.M.m.c.c.c.x.x.g.v.v.v.N.N.N.B.^.V.V.C.'.N.C.n.N.v.v.v.n.n.N.C.C.C.N.v.x.x.v.n.v.N.C.N.v.v.v.N.n.n.v.v.v.v.n.n.C.C.C.C.N.N.B.V.n.C.C.C.C.C.n.b.v.n.n.n.n.n.n.v.n.v.v.v.v.v.c.x.x.x.x.x.x.b.x.g.g.g.g.g.g.g.g.a.g.a.a.a.a.i.i.i.8.8.i.8.8.8.9.9.9.9.9.4.9.9.O.O.O.O.O. .....o.} } o.o.X.f f f f f d d d d d x x x x x x x x z z z z M M M N L G U mXHXHXGXHXGXGXGXGXGXGXGXGXGXGXGXGXGXGXGXGXGXGXGXGXGXGXGXKXLXMXMXMXMXMXMXMXMXMXMXMXMXMXMXMXMXMXMXMXMXMXMXMXMXMXMXGXGXGXGXGXGXGXGXGXGXGXGXGXGXGXGX",
"GXGXGXGXGXGXGXGXGXGXGXGXGXGXGXGXGXGXGXGXGXGXGXGXGXGXGXKXMXMXMXMXMXMXMXMXMXMXMXMXMXMXMXMXMXMXMXMXMXDXDXMXMXMXMXGXGXGXGXGXGXGXGXGXGXGXGXGXGXGXGXGXGXFXFX~ H.H.H.H.H.H.H N N N B B N m m e.e.e.X.X.X.X.X.X.X.....| ,. . . . . . . .3.O.O.3.4.4.4.4.9.9.9.7.7.7.8.p.p.p.p.p.p.a.s.s.f.f.j.k.k.c.c.v.M.b.b.c.c.c.c.c.v.v.m.N.N.B.B.B.B.N.m.v.c.x.k.g.k.c.x.c.N.C.C.C.C.v.v.v.C.Z.C.v.b.b.Z.Z.Z.Z.x.x.n.b.x.k.k.k.x.x.v.b.x.g.a.f.x.v.m.v.b.x.x.x.b.x.x.x.x.x.x.v.N.C.C.C.n.v.c.c.v.n.n.c.b.v.b.b.x.b.b.x.x.x.g.x.x.b.g.x.b.b.b.b.k.g.g.g.a.a.a.a.a.a.a.a.a.a.i.i.8.9.9.8.8.8.8.9.9.9.9.4.4.O.O.O.O.O. . .......o.o.o.o.{ X.s f f f f d d d d d x x x x x x x k k z z z z M M M N L L P.VXHXGXHXHXGXGXGXGXGXGXGXGXGXGXGXGXGXGXGXGXGXGXGXGXGXGXGXKXMXMXMXMXMXMXMXMXMXMXMXMXMXMXMXMXMXMXMXMXMXMXMXMXMXMXMXGXGXGXGXGXGXGXGXGXGXGXGXGXGXGXGX",
"GXGXGXGXGXGXGXGXGXGXGXGXGXGXGXGXGXGXGXGXGXGXGXGXHXGXKXKXMXMXDXDXMXMXMXMXMXMXMXMXMXMXMXMXMXMXMXMXMXDXDXMXMXMXDXGXGXGXGXGXGXGXGXGXGXGXGXGXGXGXGXGXGXFXFX#XH.H.H.H.H.H.H L N N N m N N e.e.e.e.e.e.X.X.X.X.X.X.....,.,.,.,.,. .,. .3.O.O.4.6.4.4.4.9.9.9.7.7.8.8.p.p.p.p.d.a.a.s.f.f.f.j.k.c.c.m.m.M.M.b.b.x.x.x.c.x.c.m.N.B.B.V.^.N.N.m.v.x.k.g.f.k.k.f.g.Z.Z.Z.Z.Z.Z.b.k.f.g.j.b.Z.k.a.i.i.a.k.Z.a.a.a.f.j.j.f.a.Z.g.i.i.f.j.g.a.j.k.f.f.f.a.a.a.a.a.a.f.k.c.b.b.b.b.x.x.x.x.b.b.b.b.b.a.a.b.b.g.a.f.f.a.a.a.g.b.g.g.g.g.g.g.g.a.g.a.a.a.a.i.i.i.i.i.i.i.i.i.i.8.9.9.9.9.9.9.9.9.O.O.O.O.O.O. . ...........o.} o.{ s f f f g g g d d d d d d x x x x x k k z z z z z n M M B N G ;XVXHXGXGXGXGXGXGXGXGXGXGXGXGXGXGXGXGXGXGXGXGXGXGXKXGXGXGXKXDXMXMXMXMXMXMXMXMXMXMXMXMXMXMXMXMXMXMXMXMXMXMXMXMXMXMXKXGXGXGXKXKXGXGXGXGXGXGXGXGXGXGX",
"GXGXGXGXGXGXGXGXGXGXGXGXGXGXGXGXGXGXGXGXGXGXGXGXGXGXGXKXDXMXMXMXMXMXMXMXMXMXMXMXMXMXMXMXMXMXMXMXMXMXMXNXMXMXDXGXGXGXGXGXGXGXGXGXGXGXGXGXGXGXGXGXGXHXFX4XH.H.H.H.H.H.H L N M B B m m m m m e.e.e.X.X.X.X.X.X.X...,.,.,.,.,.,.,.,. .O.O.4.4.4.4.O.4.4.9.9.9.8.8.i.p.p.p.p.a.a.s.f.f.f.k.x.v.v.N.N.m.Z.b.c.k.k.k.x.k.c.v.m.B.B.B.^.N.N.v.b.x.k.k.g.a.j.j.f.f.f.j.z.d.z.z.z.4.9.4.8.O.9.9.8.9.4.O.O.7.4.4.9.7.0.d.d.0.7.9.7.d.d.7.4.8.7.7.7.9.9.4.4.h.d.d.d.z.z.z.f.s.f.l.l.b.z.f.a.a.a.a.a.a.a.i.i.8.p.d.d.p.i.a.f.z.z.g.a.a.a.f.f.i.i.a.a.a.a.i.i.i.i.i.i.i.8.8.8.9.9.9.9.9.4.O.O.O.O.O.O. . ...............} o.{ s f f g g g g g d d d d d d x x x x k k k k z z z z n M M N L G eXVXFXGXGXGXGXGXGXGXGXGXGXGXGXGXGXGXGXGXGXGXGXGXGXGXGXGXGXKXMXMXMXMXMXMXMXMXMXMXMXMXMXMXMXMXMXMXMXMXMXMXMXMXMXMXDXGXGXGXGXGXGXGXGXGXGXGXGXGXGXGXGX",
"GXGXGXGXKXKXGXGXGXGXGXGXGXGXGXGXGXGXGXGXHXHXHXHXGXGXGXKXKXDXDXMXDXDXDXDXDXDXDXDXDXDXDXDXDXDXDXDXMXKXDXMXDXDXDXKXKXKXGXGXGXGXGXGXHXHXHXHXHXHXHXGXGXDXFXzXU H.H.H.H.H.H L N N B B m m c f c f e.e.X.X.X.X.X.X.......,.,.6.6.6.6.6.O.O.O.3.O.O.4.4.4.4.9.9.9.9.8.8.i.8.i.p.a.p.a.s.j.k.k.c.v.N.B.C.m.M.b.x.k.g.g.k.k.k.k.c.M.m.m.m.M.v.x.k.f.f.f.f.8.d.h.0.7.4.4.7.o...O.O. . . . .O.4.6.O......... . .| } } .. .3.o.| ,.,. ... .,.3.,.,. . . . . ..... .O.4.5.9.7.q.q.8.7.9.9.7.9.O.O.4.q.q.O. .O.4.4.9.9.4.9.9.8.h.h.8.9.9.i.p.d.i.p.p.a.p.i.i.8.i.i.i.i.9.9.9.9.9.4.4.4.O.O.O.O.O. . ...........} } } } o.{ s s s g g d d g g g g g d d d j k j k k k k z z z z z z z M M N M G zXZXBXFXGXGXKXGXKXKXGXGXGXGXGXGXGXGXGXGXGXGXGXGXGXGXKXKXKXKXDXDXDXDXDXDXDXDXDXDXDXDXDXDXDXDXDXDXDXDXDXDXDXDXDXDXKXGXKXKXGXKXKXGXGXGXGXGXGXGXGXGXGX",
"DXDXDXDXMXDXDXDXDXDXDXDXDXDXDXDXDXDXDXDXLXLXLXLXMXDXKXKXKXGXGXGXGXGXGXGXGXGXGXGXGXGXGXGXGXGXGXGXGXGXGXGXGXGXKXKXMXMXDXDXDXDXDXDXMXMXLXLXLXLXDXDXDXNXBXVXU H.P.H.H.H.H H N N B B m c c f c f e.e.f X.X.X.X.X.} .... . .O.6.O.O.O.4.4.4.O.O.O.4.9.4.4.9.9.9.9.8.8.i.8.8.p.p.p.p.s.k.k.c.c.m.N.C.V.m.M.b.k.k.f.f.f.j.f.s.k.b.Z.b.l.Z.l.s.p.8.8.0.q.4.3. . .6.6.| { ,.| } a } } ..{ { ....{ { { } } a { } { a a a a a s { a a a } 1.} { { s { { a a a a { { o.o.o.{ } } } } ....} } ..,. ...o.{ } { ..| } } .... . . .O.O.O.O.4.7.7.h.h.d.8.8.8.8.8.8.8.8.9.9.9.9.9.O.O.4.O.O.O. ...........o...{ { } { { s a a a a g g g g g d i i j j i j j j j k k k k z z z z z z z z M M G G G FXHXNXDXDXDXNXDXMXMXDXDXDXDXDXDXDXDXDXMXDXDXDXDXDXMXMXDXKXKXKXGXGXGXGXGXGXGXGXGXGXGXGXGXGXGXGXGXGXGXGXGXGXGXGXGXKXKXMXMXDXMXMXMXDXDXDXDXDXDXDXDXDX",
"MXMXMXMXMXMXMXMXMXMXMXMXMXMXMXMXMXMXMXMXMXMXMXMXMXMXLXKXGXGXGXGXGXGXGXGXGXGXGXGXGXGXGXGXGXGXGXGXGXGXGXGXGXGXGXMXMXMXMXMXMXMXMXMXMXMXMXMXAXAXAXAXMXMXNXZXP.P.H.H.H.H.H H L N N B B m m c m f f f e.X.X.X.X.X.} .... .6.O.O.O.O.O.O.4.4.O.O.4.4.O.O.4.9.9.9.8.8.8.i.i.8.8.p.d.d.p.z.l.c.M.m.m.N.m.Z.c.f.f.k.Z.s.9.z.A.z.9.O.8.8.o.O.3.4.3.3. .| } ,.} } } { a p a p a a s s a p a p a a s s s a p p p p p g g p 7 7 7 p p p p p y 7 p p p p p p p p p p p p p p p a a a a a a p p a p p p s s s a a a a { a a a a { { { | ..|  . .3.O. . .O.4.9.w.4.4.O.4.w.w.w.O.4.O.O.O.O.......} | o.} { { { o.{ s { s s a g g g g i i i j j j i j j i j j j k k k k z z z z z z z z n M L L P.FXHXBXMXLXMXMXMXMXMXMXMXMXMXMXMXMXMXMXMXMXMXMXMXMXMXMXMXDXKXGXGXGXGXGXGXGXGXGXGXGXGXGXGXGXGXGXGXGXGXGXGXGXGXGXGXGXDXMXLXMXMXMXMXMXMXMXMXMXMXMXMXMX",
"MXMXMXMXMXMXMXMXMXMXMXMXMXMXMXMXMXMXMXMXMXMXMXMXMXMXLXKXGXGXGXGXGXGXGXGXGXGXGXGXGXGXGXGXGXGXGXGXGXGXGXGXGXGXGXMXMXMXMXMXMXMXMXMXMXMXMXMXAXAXAXAXMXMXNXZX=XP.P.H.H.H.H H H N N B m m m c f f f f f f f X.X.X.} .... . .O.O.O.O.O.O.O.4.4.4.4.9.4.9.9.9.9.9.9.9.9.O.7.q.8.7.7.8.0.0.p.s.z.Z.Z.Z.Z.l.l.s.p.0.d.0.7.7... .w.w.....3.| | } } { { s s s p p p p 7 7 7 p g g p y y y 7 y y y y y y y y 7 6 6 6 i y y 6 6 6 6 6 7 6 7 6 6 y 6 6 i 6 y i y y y y y g g p 7 y y y y y y 7 y y y y y y y p p p g f a a s a s s s { { { { { } } { } .... . .w.6.O.O.O.O.O. . . .............} } } } } { { a s s a p p p y y g i i i i i i j j i j j j j h j j j k z z z z z z z n n G L L ;XFXHXMXMXLXMXMXMXMXMXMXMXMXMXMXMXMXMXMXMXMXMXMXMXMXMXMXMXDXKXGXGXGXGXGXGXGXGXGXGXGXGXGXGXGXGXGXGXGXGXGXGXGXGXGXGXGXDXMXAXMXMXMXMXMXMXMXMXMXMXMXMXMX",
"MXMXMXMXMXMXMXMXMXMXMXMXMXMXMXMXMXMXMXMXMXMXMXMXMXMXDXKXGXGXGXGXGXGXGXGXGXGXGXGXGXGXGXGXGXGXGXGXGXGXGXGXGXGXGXMXMXMXMXMXMXMXMXMXMXMXMXMXAXAXAXAXMXMXNXZXwXP.P.H.H.H.Y H H L N B m m m c c f f f f f f f X.X.} } } .... .O.O.6.4.O.4.9.9.4.O.O.4.4.4.4.4.9.7.4.4.4.6.w.6.3.3.3.3.3.5.5.q.0.8.7.4.7.q.7.3. . .,. .6.} ..1...a a { s s s a a p p g g y 7 y y 6 6 y y 6 6 6 6 6 6 6 6 6 6 6 6 6 & & & & & & & & & & 6 & & & & & & & & u & & 6 & & & $ $ & & & 6 6 6 6 6 6 6 6 6 6 6 6 6 6 6 6 6 6 6 7 7 g g y y p p p p p p p p p p p a a a a a { { X.} o.{ o.o.o.o.{ { { } { { o.{ s s { { { { s s f f g p p y y y i i i 8 8 u i i i j j j u u u u h h z z h z z l z z n M G G G kXFXGXAXAXLXMXBXMXMXMXMXMXMXMXMXMXMXMXMXMXMXMXMXMXMXMXMXMXDXKXGXGXGXGXGXGXGXGXGXGXGXGXGXGXGXGXGXGXGXGXGXGXGXGXGXGXGXDXMXLXMXMXMXMXMXMXMXMXMXMXMXMXMX",
"MXMXMXMXMXMXMXMXMXMXMXMXMXMXMXMXMXMXMXMXMXMXMXMXMXMXDXKXGXGXGXGXGXGXGXGXGXGXGXGXGXGXGXGXGXGXGXGXGXGXGXGXGXGXGXMXMXMXMXMXMXMXMXMXMXMXMXMXAXAXAXAXMXMXNXVXvXP.P.P.H.H.H.H H N N N B B m m m m c f f f f f f X.} } } } } .... . .O.O.O.9.7.7.9.7.w.6.5.w.w.w.w.w.6.6.1...| | | } } } } ,.,.,. . .| | | } } } } { a a p a p 7 7 p 7 p p p y y y y y y 6 6 6 & & & 8 & & & & & = = = & & & & & & & & & & = & & & & = % % & & & % % % : : % % % % = # & & & & & & & & % $ & & & & & & & & & & & & & & & 6 6 6 6 6 6 6 6 6 7 y y y y y 7 7 p p p p p p p p p p p p a a a a a a a p p p p p g a a a s f d d g g g g i i j i i i i u u 8 u u u u u u u u h h h h h h h h z l n M G G G VXFXGXAXAXLXMXBXBXMXMXMXMXMXMXMXMXMXMXMXMXMXMXMXMXMXMXMXMXLXKXGXGXGXGXGXGXGXGXGXGXGXGXGXGXGXGXGXGXGXGXGXGXGXGXGXGXGXDXMXLXMXMXMXMXMXMXMXMXMXMXMXMXMX",
"MXMXMXMXMXMXMXMXMXMXMXMXMXMXMXMXMXMXMXMXMXMXMXMXMXMXDXKXGXGXGXGXGXGXGXGXGXGXGXGXGXGXGXGXGXGXGXGXGXGXGXGXGXGXGXMXMXMXMXMXMXMXMXMXMXMXMXMXAXAXAXAXMXMXNXBXVXL.P.P.H.H.H.Y H L N N B B m c c c c f f f f f f X.X.X.{ } X.X.1.} } } 3.4.4.4.4.4.6.6.6.6.6.1.1.1.} { } { a a s a a p p a s s a s { } { s a a s s g p g y y y i y i d y 7 7 6 6 6 & & & & & & & % % % % & & & % % % % % % % % % % % % - * * * * * * * # % % - - % % % * % % * X = l # * * = % % % % % % % % % % % % % % % % % & = = & % # % & & & = & & & 6 6 6 6 6 i 6 6 6 6 6 6 6 7 7 7 y y y y y p y y p y y 7 7 7 p p p y y y y g i i i i i i i i i j j j j u i u u u u u u u u u h h h h h h h h l l n M G G U FXFXGXAXAXLXMXBXBXMXMXMXMXMXMXMXMXMXMXMXMXMXMXMXMXMXMXMXMXLXKXGXGXGXGXGXGXGXGXGXGXGXGXGXGXGXGXGXGXGXGXGXGXGXGXGXGXGXDXMXDXMXMXMXMXMXMXMXMXMXMXMXMXMX",
"MXMXMXMXMXMXMXMXMXMXMXMXMXMXMXMXMXMXMXMXMXMXMXMXMXMXDXKXGXGXGXGXGXGXGXGXGXGXGXGXGXGXGXGXGXGXGXGXGXGXGXGXGXGXGXMXMXMXMXMXMXMXMXMXMXNXMXMXAXAXAXAXMXMXMXNXVX;XP.P.H.H.H.Y H L N N B N m c c c c c X.X.X.X.X.X.X.X.f X.<.<.<.<.<.1. .O.3.O.3.6.6.,.,.| { a a a a p p p g g p y y y y y y y y y p p p g p p y y i i i 6 & 6 & & & & & & & & & & & & & % % - * * % % % % * * % % % % % % % % % % % % * % % % % % % % % % % % # % % % % X % * X : l % X o # o X X o # % % % % % % % % % % # # % * % % % % % % % & = % & & & = & & & & = = = & & & & & 6 6 u i i y 6 6 8 8 8 8 8 8 6 6 y y y y y y y y y i i i i i i i i i i j j j j u h h u u u h h u h h h h h h h l z z n Z G G %XFXFXGXAXAXLXMXBXBXMXMXMXMXMXMXMXMXMXMXMXMXMXMXMXMXMXMXMXMXDXKXGXGXGXGXGXGXGXGXGXGXGXGXGXGXGXGXGXGXGXGXGXGXGXGXGXGXGXDXMXDXMXMXMXMXMXMXMXMXMXMXMXMXMX",
"MXMXMXMXMXMXMXMXMXMXMXMXMXMXMXMXMXMXMXMXMXMXMXMXMXMXDXKXGXGXGXGXGXGXGXGXGXGXGXGXGXGXGXGXGXGXGXGXGXGXGXGXGXGXGXMXMXMXMXMXMXMXMXMXMXNXMXMXAXAXAXAXAXMXMXBXVXeXP.P.H.H.H.Y H L N N B N m c c c c c X.X.f f f f f f f f f d p p d <.}  .6. .6.w.w.1.} { s a a p a p y y y y i 7 6 i 6 6 6 6 y y i i y y y 6 6 6 6 u & & = & % = : % & & & & = = & % % % # o o o o X % % % % % % % % % % % % % * % % % o o o # # o o % o o o o o % % % o o % X % : X o o o o o o % * % % % % o % % % % o o o % % % X * % % * % % % % % % % % % % % % * * % % % % % % & = = : u : = & = = 8 8 8 8 8 6 6 6 6 6 u u u i 8 8 8 6 6 6 u u 8 u u i u u u u h h h h h h h h h h h h h h l l l n n G G G pXFXFXGXAXAXLXMXMXMXMXMXMXMXMXMXMXMXMXMXMXMXMXMXMXMXMXMXMXMXDXKXGXGXGXGXGXGXGXGXGXGXGXGXGXGXGXGXGXGXGXGXGXGXGXGXGXGXGXDXMXDXMXMXMXMXMXMXMXMXMXMXMXMXMX",
"MXMXMXMXMXMXMXMXMXMXMXMXMXMXMXMXMXMXMXMXMXMXMXMXMXMXDXKXGXGXGXGXGXGXGXGXGXGXGXGXGXGXGXGXGXGXGXGXGXGXGXGXGXGXGXMXMXMXMXMXMXMXMXMXMXMXMXAXAXAXAXAXLXMXMXDXVXzXP.H.H.H.H.Y H L N N B B N c c c c f f X.f f f f f f f f g 6 # # % 6 1.w.1.s p p p 7 g d d g p y y y i 6 6 6 6 6 = = u = & = u u 6 & 6 & & = = = & % = % % * % o % # % % % % % % % % % % % o o % % % * % o o o % % o o o o % % + o o o o % % o o o o o o % % % o o o o o X o % X X o o o o X X X o * o o o o o o o o o o o o o o o o o X o o o o + o o o % % % % % % * + o o % % % % % % % % = = = = = = = = = = = = = = = : u u = & 8 6 & & = 8 u u u u u u u u u u u u h z z z z h h h h < < h l l h n n G G G mXHXHXGXAXAXLXMXMXMXMXMXMXMXMXMXMXMXMXMXMXMXMXMXMXMXMXMXMXMXDXKXGXGXGXGXGXGXGXGXGXGXGXGXGXGXGXGXGXGXGXGXGXGXGXGXGXGXGXDXMXDXMXMXMXMXMXMXMXMXMXMXMXMXMX",
"MXMXMXMXMXMXMXMXMXMXMXMXMXMXMXMXMXMXMXMXMXMXMXMXMXMXDXKXGXGXGXGXGXGXGXGXGXGXGXGXGXGXGXGXGXGXGXGXGXGXGXGXGXGXGXMXMXMXMXMXMXMXMXMXAXAXAXAXAXAXAXMXMXDXNXBXBXVX@XP.H.H.H.H H H L M M B m m m c f X.X.X.X.X.X.X.X.f f f 6 x % . X X $ V m # X X . X X . & y y g 4 i u u : = = = & & & & = = = = = = = = = = = - % % % % % % % % % % % % % % % % % % # o o o o o o o + o o o o o + % o o o o o o o o o o o o o o o o o o o o O O o o o o o o o o o o o o o o o o o o o X + o X % X X X % , l ; X X o # o o o     O O o o o % o o o o % % % o o o o + % * * % % % % % * - - - - * * * = = = = = : : : = = = = = = = = : : : : u u u : , l * , , h h z l l * * Q < l l l n Z K K R FXHXGXGXMXMXDXMXAXMXMXMXMXMXMXMXMXMXMXMXMXMXMXMXMXMXMXMXMXMXDXKXGXGXGXGXGXGXGXGXGXGXGXGXGXGXGXGXGXGXGXGXGXGXGXGXGXGXGXMXMXMXMXMXMXMXMXMXMXMXMXMXMXMXMX",
"MXMXMXMXMXMXMXMXMXMXMXMXMXMXMXMXMXMXMXMXMXMXMXMXMXMXDXKXGXGXGXGXGXGXGXGXGXGXGXGXGXGXGXGXGXGXGXGXGXGXGXGXGXGXGXMXMXMXMXMXMXMXMXMXAXAXAXAXAXAXMXMXMXMXBXBXBXZX-XP.H.U Y U Y L L L N B m m m f f f f f f f f f f f p f c i # % X M 0X6 M h . % . . . iXM # 6 6 u = : = = = = = * = % % * * * * * * % * - - * % % % % % % % % % % % % o o o % % % o o o o o o o o o o o o o o o o o o o o o o o o o O O O O o o o o o O O O O O O O o o o o o o o o o o o o o o o o O X o X X o X o X X % * o X X o % o o O   @ @ O O o o o o o o o % % o o o o o O o * * * * % % % * * * % % % % % * * * * % * = = = = = = = = = = : : : : : : : : : , * ; < , , l l , o * K , l l n n Z G D &XHXFXGXGXMXMXDXMXAXMXMXMXMXMXMXMXMXMXMXMXMXMXMXMXMXMXMXMXMXMXDXKXGXGXGXGXGXGXGXGXGXGXGXGXGXGXGXGXGXGXGXGXGXGXGXGXGXGXGXMXMXDXMXMXMXMXMXMXMXMXMXMXMXMXMX",
"MXMXMXMXMXMXMXMXMXMXMXMXMXMXMXMXMXMXMXMXMXMXMXMXMXMXDXKXGXGXGXGXGXGXGXGXGXGXGXGXGXGXGXGXGXGXGXGXGXGXGXGXGXGXGXMXMXMXMXMXMXMXMXMXAXAXAXAXAXAXMXMXMXMXBXBXBXZXwXQ P.U U U U L L L M B B m m c f f m m m x d f f f f g t.c N U.c = ZXG i B d 6 X X %X4X; , : & % & & = = = * % * * % % % * % % % % % % % % % % % o o o % o % % % o o o o o o o o o o o o o o o o o X X X o o o X o o o o o o o o o O O O O O O O O O O O X X X X O o o o o X X X X X X X X X X X O O X o X o o . o o X X o X o + o o o o O   @ @ O O o o o o o o o o o o o o O o o o o * * * % o o % % % % % % % % % % % % % * * * * * = * = = = * = = = = = : : : : * o * < > , , , * X * Z , < l n Z C D C jXHXKXGXGXMXMXLXMXAXMXMXMXMXMXMXMXMXMXMXMXMXMXMXMXMXMXMXMXMXMXDXKXGXGXGXGXGXGXGXGXGXGXGXGXGXGXGXGXGXGXGXGXGXGXGXGXGXGXGXDXMXDXMXMXMXMXMXMXMXMXMXMXMXMXMX",
"MXMXMXMXMXMXMXMXMXMXMXMXMXMXMXMXMXMXMXMXMXMXMXMXMXMXDXKXGXGXGXGXGXGXGXGXGXGXGXGXGXGXGXGXGXGXGXGXGXGXGXGXGXGXGXMXMXMXMXMXMXMXMXMXAXAXAXAXAXAXMXMXMXMXDXNXNXDXvX~ P.U U Y Y H L G N M B B m m c c m M m m x d d f f 7 g e.D.N c $ n % 6 c m r.m . n # % G X = : % % % % % * * % * % % % % % % % o % % % % % o o o o o o o % o o o o o o o o o o o o o o o o O O O X X o o o o X X X X X X o o o X         X X X X X X X X X X X X X X X X X X X X X X X X X X X O X   X X O o X o o X X X X + + X o o X           O o o o o O     o o o o o O O O O O o o o o o o o o o + * * * * o + * * * * * * * % * * * * * * * * * = = : = ; ; o X * l ; , > > % o , l , , l l Z l Z Z KXFXHXGXGXMXMXDXMXLXMXMXMXMXMXMXMXMXMXMXMXMXMXMXMXMXMXMXMXMXMXDXKXGXGXGXGXGXGXGXGXGXGXGXGXGXGXGXGXGXGXGXGXGXGXGXGXGXGXGXDXMXDXMXMXMXMXMXMXMXMXMXMXMXMXMX",
"MXMXMXMXMXMXMXMXMXMXMXMXMXMXMXMXMXMXMXMXMXMXMXMXMXMXDXKXGXGXGXGXGXGXGXGXGXGXGXGXGXGXGXGXGXGXGXGXGXGXGXGXGXGXGXMXMXMXMXMXMXMXMXMXAXAXAXAXAXAXMXMXMXMXDXNXNXBXBX@X~ U U L L L L G G L M M M M m c c c c c f d f d g g 6 N P.k u = h # j 6 u H u & g r.K.K.# % , o % % % % * % % * % % % % o o o o % % % o % % % % o o % + % + o o o o o o o o o o o o o o O   O O X X O O O O X X X X X X X X X X X X X X X X X X X X X       X X X X X X X X X X X X X X X X X O       X O X X X X X X X X o + X o X X         O X X o o o O O   O   O O O O o O O O O O O o o o o o o + + + * * O + * + + + + * % % * * * * * * * * * * * * ; ; * X X ; l > , > * + * 1 < > < l l Z b 1  XHXKXHXGXGXMXMXLXMXAXMXMXMXMXMXMXMXMXMXMXMXMXMXMXMXMXMXMXMXMXMXDXKXGXGXGXGXGXGXGXGXGXGXGXGXGXGXGXGXGXGXGXGXGXGXGXGXGXGXGXDXMXDXMXMXMXMXMXMXMXMXMXMXMXMXMX",
"MXMXMXMXMXMXMXMXMXMXMXMXMXMXMXMXMXMXMXMXMXMXMXMXMXMXDXKXGXGXGXGXGXGXGXGXGXGXGXGXGXGXGXGXGXGXGXGXGXGXGXGXGXGXGXMXMXMXMXMXMXMXMXMXAXAXAXAXAXAXMXMXMXMXDXNXNXBXKX<XQ ~ U K G L L M G M M M x x x x c c c c d d d d y x k & & % : h u # i 8 u & # $ e.W.X.f & # * 3 * % % % % % % % % % % % o o o o + o + o o o * + o o o + + + o o o o o o o o o o o o O O     X X X X X X X X X X X X X X X X X X X X X X X X X X X X X X     X X X X X X X X X X X X X X X X X       X O     o . X X X X . X O X O X X X X X X X X X X X O O @ @ @   O O O O O O + O O   O o o o o O O O O O O O + O O X X X o * % + * * * * * * * * * * * ; > > + X + , 2 ; , > * + > 1 , , < 1 l l l > jXHXKXHXGXGXMXMXLXMXAXMXMXMXMXMXMXMXMXMXMXMXMXMXMXMXMXMXMXMXMXMXDXKXGXGXGXGXGXGXGXGXGXGXGXGXGXGXGXGXGXGXGXGXGXGXGXGXGXGXGXDXMXDXMXMXMXMXMXMXMXMXMXMXMXMXMX",
"MXMXMXMXMXMXMXMXMXMXMXMXMXMXMXMXMXMXMXMXMXMXMXMXMXMXDXKXGXGXGXGXGXGXGXGXGXGXGXGXGXGXGXGXGXGXGXGXGXGXGXGXGXGXGXMXMXMXMXMXMXMXMXMXMXMXMXMXMXMXMXMXMXMXLXBXBXNXLXzXQ Q U K G G G n n n k z z z k k x x j j j i i i k i k & u k u # N 7 c u # $ c 5 X.X.7 M o * # % % % % + o o o o o o o + + O O O O o + o + o o + o o o O + O + o o o o o o o O O O O O     o X X X X X   X   X   X   X   X   X X X X X X X X X X X X X X       X X   X   X       X   X   X   X       O O . O , X O X X X X X O O @ @       X X X X X X X X @ @ @ @ @ O O O O O O O @     O o % o o o o o o o o o + + X X . X % * + + + * * * * * * * * * * ; > > o O ; < > * > > > * , , , , 1 < l 1 < Z KXHXKXHXGXGXMXMXLXMXMXMXMXMXMXMXMXMXMXMXMXMXMXMXMXMXMXMXMXMXMXMXDXKXGXGXGXGXGXGXGXGXGXGXGXGXGXGXGXGXGXGXGXGXGXGXGXGXGXGXGXMXMXMXMXMXMXMXMXMXMXMXMXMXMXMXMX",
"MXMXMXMXMXMXMXMXMXMXMXMXMXMXMXMXMXMXMXMXMXMXMXMXMXMXDXKXGXGXGXGXGXGXGXGXGXGXGXGXGXGXGXGXGXGXGXGXGXGXGXGXGXGXGXMXMXMXMXMXMXMXMXMXMXMXMXMXMXMXMXMXMXMXMXDXLXMXMXBXQ Q Q I K G Z Z n z z z z z z k j j h h h u u u : u & u M & # N c 4 x # : & 9 t.&.7 X Y o o * % o o + + o o o o o o o o + O O O O O o o o o o o o o o o o o o o o o o o o o o o O O O     o X   O @ @     X @ O                 X X X X X X X X X X X X     X X                                     O + . + l + X . X o X X O X   @       X X X X X X X X @ @ @       @ O @ O O     . . X o o o o o o o o + + o + o X . . o * , + + * + * * * * * * * * * ; > > O * > b ; * > > > ; , ; > < 1 < l l , @XHXHXKXGXGXGXMXMXLXMXMXMXMXMXMXMXMXMXMXMXMXMXMXMXMXMXMXMXMXMXMXMXDXKXGXGXGXGXGXGXGXGXGXGXGXGXGXGXGXGXGXGXGXGXGXGXGXGXGXGXGXMXMXMXMXMXMXMXMXMXMXMXMXMXMXMXMX",
"MXMXMXMXMXMXMXMXMXMXMXMXMXMXMXMXMXMXMXMXMXMXMXMXMXMXDXKXGXGXGXGXGXGXGXGXGXGXGXGXGXGXGXGXGXGXGXGXGXGXGXGXGXGXGXMXMXMXMXMXMXMXMXMXMXMXMXMXMXMXMXMXMXMXMXMXMXMXMXBX-XI Q J K A K l n z l l l h h , , , , : : : : : : : & x i $ N J.4 x z X ; o - k D.k % . + o O + O + o o o o o o O O O o o o O O + + O + o O o O O O O O O O O O O o O O O o o o           X X   X           +   . > .   @ O   @ X X X X X X   X X       X X X X             .   . O   . O   .       . +   X . . X X X O X X X   O     + + X X X X X O X O +   .   .   @ O O X X o . . .   o X * o o o o o o o o o o . o % * , * * + * + + + + + + + + + 3 * 3 ; > > > > > > > > * , > > , , 2 < 2 1 , NXGXKXGXHXGXGXMXMXDXMXMXMXMXMXMXMXMXMXMXMXMXMXMXMXMXMXMXMXMXMXMXMXDXKXGXGXGXGXGXGXGXGXGXGXGXGXGXGXGXGXGXGXGXGXGXGXGXGXGXGXGXDXMXDXMXMXMXMXMXMXMXMXMXMXMXMXMX",
"MXMXMXMXMXMXMXMXMXMXMXMXMXMXMXMXMXMXMXMXMXMXMXMXMXMXDXKXGXGXGXGXGXGXGXGXGXGXGXGXGXGXGXGXGXGXGXGXGXGXGXGXGXGXGXMXMXMXMXMXMXMXMXMXMXMXMXMXMXMXMXMXMXMXMXMXMXMXMXMXzXK R I J A Z A n b l l l < < , , , , ; ; ; ; ; * * : h 6 j D.i 6 i , ; +   X % = : , o o o O   O o o o o o o o O O o O O O O O + O O O O O O O O O O O O O O O o o o o O O O O   O             @ O . @ O . .   > . O   .       X X X X         X       X X X X   O + .     .   + .   O   O + X . . X O     X +     X X X X X X @     O o X X X o X X X X X . . . . + O . X X o . X X . ; < X X o o o o o o o o % % % % X X * * + + + + + + + + + + + + 3 3 > > > ; > ; ; ; ; > > > ; > 2 2 < < l , J GXDXGXGXKXGXGXMXMXDXMXMXMXMXMXMXMXMXMXMXMXMXMXMXMXMXMXMXMXMXMXMXMXDXKXGXGXGXGXGXGXGXGXGXGXGXGXGXGXGXGXGXGXGXGXGXGXGXGXGXGXGXDXMXDXMXMXMXMXMXMXMXMXMXMXMXMXMX",
"MXMXMXMXMXMXMXMXMXMXMXMXMXMXMXMXMXMXMXMXMXMXMXMXMXMXDXKXGXGXGXGXGXGXGXGXGXGXGXGXGXGXGXGXGXGXGXGXGXGXGXGXGXGXGXMXMXMXMXMXMXMXMXMXMXCXMXMXMXMXMXMXMXMXAXAXAXAXAXMXBXL.J K K K A Z Z b l l < < , , , , > > > > > ; , + * l : X # & u % . o ; * . .   ; : % % % % o o o o o o o O O O O O O O O O O O O O O O       o O O O o O O O O O O O o O O O O O O O         . O O   . @ 1 dXDX. . . O X   + X X                               .     . .     .   +       . . . . . . X . . .             X         X X X X X X X o o o X . . X X * * o + o o % . o % o * * O o o o o % o % % * . . % , l , % o O O O O O + + + + + + + 3 3 > + + ; ; ; ; > > , ; > > , 2 2 , < > jXGXDXGXKXGXHXHXMXMXDXMXMXMXMXMXMXMXMXMXMXMXMXMXMXMXMXMXMXMXMXMXMXMXDXKXGXGXGXGXGXGXGXGXGXGXGXGXGXGXGXGXGXGXGXGXGXGXGXGXGXGXGXDXMXDXMXMXMXMXMXMXMXMXMXMXMXMXMX",
"MXMXMXMXMXMXMXMXMXMXMXMXMXMXMXMXMXMXMXMXMXMXMXMXMXMXDXKXGXGXGXGXGXGXGXGXGXGXGXGXGXGXGXGXGXGXGXGXGXGXGXGXGXGXGXMXMXMXMXMXMXMXMXMXCXCXMXMXMXMXMXMXMXMXAXAXAXAXAXMXNXwXK J K K K C C b l l 1 < < , , , > > > > > * + + ; , b b : % . M < X > 1 X X ; o % & 8 # X X o o o o O O O O O O O O     O   O O         X   O O O O X X O X O O o o o o O O O O O         X +   . @ + > . A lX. @ .   O   . X X X X @ @                     O . < ! . .   . . + X .       . . X X . * o O O             X       O     O O     o   X X X # # = # % o . X X % # & # X % * O O O o o o % o % % X % n G A n * X O O O O + + + + + + + + + 3 3 3 + 3 ; ; ; ; > > > ; , > > , 2 , * ^ GXKXGXGXKXGXHXHXMXMXDXMXMXMXMXMXMXMXMXMXMXMXMXMXMXMXMXMXMXMXMXMXMXMXDXKXGXGXGXGXGXGXGXGXGXGXGXGXGXGXGXGXGXGXGXGXGXGXGXGXGXGXGXDXMXDXMXMXMXMXMXMXMXMXMXMXMXMXMX",
"MXMXMXMXMXMXMXMXMXMXMXMXMXMXMXMXMXMXMXMXMXMXMXMXMXMXDXKXGXGXGXGXGXGXGXGXGXGXGXGXGXGXGXGXGXGXGXGXGXGXGXGXGXGXGXMXMXMXMXMXMXMXMXMXCXCXMXMXMXMXMXMXMXMXAXAXAXAXAXAXDXnXL.K K A A K C b l l l 1 < 2 , , > > > > 3 3 > + * X X n G M m g j = @ 3 2 X X # 7 f i - @ @ O o O O O O O O O O                         X X O O X X X X X X o o o o o O O O X X X X X X X   O   O + . O . 1 R . O . . X O + @ @ @ @ X X X X                 X . A $XX .   X + O . X   > C X X # % X o . X X                     O     o O   . O   X o # & # # X # % o * o X # # # = z *   +   O   O O O o o X * Z n , * X % O O O + + + + + + + + + + + 3 + 3 ; ; ; ; ; > > * * , > > < > > C LXLXGXGXDXGXHXHXHXMXMXDXMXBXMXMXMXMXMXMXMXMXMXMXMXMXMXMXMXMXMXMXMXMXMXDXKXGXGXGXGXGXGXGXGXGXGXGXGXGXGXGXGXGXGXGXGXGXGXGXGXGXGXGXMXMXMXMXMXMXMXMXMXMXMXMXMXMXMXMX",
"MXMXMXMXMXMXMXMXMXMXMXMXMXMXMXMXMXMXMXMXMXMXMXMXMXMXDXKXGXGXGXGXGXGXGXGXGXGXGXGXGXGXGXGXGXGXGXGXGXGXGXGXGXGXGXMXMXMXMXMXMXMXMXMXCXCXCXMXMXMXMXMXMXMXAXAXAXAXAXAXLXNXdXS A A Z K C b l l l 1 < 2 , , > > > > 3 3 * * > ; % # % u i D.L # O 3 1 n 6 d u.K.x = + 3 O o o O O O O O O O         o o o         X X X O X X X X X X X X X o o o o X X X X X X X X X   . . X + . O . X l O . + * X .   @ @ @ @ X X X X                   . > > X X X O . X . X   O < X % # # X X o + X X             X   O O X O O O @   3 X X . X # # $ j M , . . o = XXJ.D.D.u . @ @ O         O O O + X X . . o * * O O O O O + + + + + + + + + + + * * ; ; * * * ; ; * > > > , + < wXGXHXGXKXHXHXHXHXHXMXMXDXMXBXMXMXMXMXMXMXMXMXMXMXMXMXMXMXMXMXMXMXMXMXMXDXKXGXGXGXGXGXGXGXGXGXGXGXGXGXGXGXGXGXGXGXGXGXGXGXGXGXGXGXMXMXDXMXMXMXMXMXMXMXMXMXMXMXMXMX",
"MXMXMXMXMXMXMXMXMXMXMXMXMXMXMXMXMXMXMXMXMXMXMXMXMXMXDXKXGXGXGXGXGXGXGXGXGXGXGXGXGXGXGXGXGXGXGXGXGXGXGXGXGXGXGXMXMXMXMXMXMXMXMXMXCXCXCXNXMXMXMXMXMXMXAXAXAXAXAXAXMXNXKX#XZ K Z Z C C l l 1 1 2 2 , , > > > > 3 3 3 < * X : : % % X X # * > o X & m t.K.F.6 # X @ O O o o o o O O O O   o o o o   O O         O O O O O O X o o o o o o o o o o o O O O O O O   X O X X O . O + X X + . . . .   O @ @                             O X X . + O . .   X X X X . . o . . # % . X o . X X             X X X X O O @ @ @ O . X # u J.XXoXN u . . o o . k K.N $ X X O O O @ O O O O O O O O o * + o + X O O O O O O O O + + + + + + + + + * * * * * * * > * > * > > < $XGXDXGXKXGXGXHXHXHXHXMXMXDXMXBXMXMXMXMXMXMXMXMXMXMXMXMXMXMXMXMXMXMXMXMXMXDXKXGXGXGXGXGXGXGXGXGXGXGXGXGXGXGXGXGXGXGXGXGXGXGXGXGXGXGXDXMXDXMXMXMXMXMXMXMXMXMXMXMXMXMX",
"MXMXMXMXMXMXMXMXMXMXMXMXMXMXMXMXMXMXMXMXMXMXMXMXMXMXDXKXGXGXGXGXGXGXGXGXGXGXGXGXGXGXGXGXGXGXGXGXGXGXGXGXGXGXGXMXMXMXMXMXMXMXMXMXCXCXCXMXMXMXMXMXMXMXAXAXAXAXAXAXLXLXKXNXK A Z A Z C l l 1 < 2 2 , > > > > 3 3 3 * 3 * ; * % ; * ; + o * o * % % # # & 6 X X * * o o o o o O O O O O             O O O   O   O O O O o o o O O O o o o o o o o o O o O O O O @ X . X X X X X o X X . X l A o .                                 @ @   X % . . X < A .   O . * X % u M P.H.% . o O   O             X   X X O @ @ @ . @ . o X . i N i # . X X X X % # # # # # X O   O @ O @ @ O @ O O O   + O X * O O O O O O O O + + + + + + + + + + * * * * * 3 > > * , > > > E GXKXGXDXGXGXKXGXKXGXGXMXMXDXMXBXMXMXMXMXMXMXMXMXMXMXMXMXMXMXMXMXMXMXMXMXMXDXKXGXGXGXGXGXGXGXGXGXGXGXGXGXGXGXGXGXGXGXGXGXGXGXGXGXGXGXDXMXDXMXMXMXMXMXMXMXMXMXMXMXMXMX",
"MXMXMXMXMXMXMXMXMXMXMXMXMXMXMXMXMXMXMXMXMXMXMXMXDXMXDXKXGXGXGXGXGXGXGXGXGXGXGXGXGXGXGXGXGXGXGXGXGXGXGXGXGXGXKXMXMXMXMXMXMXMXMXMXMXMXMXMXMXMXMXMXMXMXMXMXMXMXAXMXNXBXDXHX1XS S b Z C C l < < < 2 , > > > > 3 + + 3 + + + + + + + + O O O O O o o o o o o + + + + + + + O O O O O O O O O O O O O O O O O O O O O O O O o O o O o O O O O O O O O O @ @ @ @ X X X X   X O X . % = XXXXXXXXH X . +                 @ @ O O O O O O @   . & B K.XXXXh .     X . % XX;X.XG % . X o                         X     @ O @       X X . . . X X X       X X X X X X X @ @ @ @ @   @ O O O O O O O O O O O O O O O + + + O + + + + + + + + O > ; O * ; * * ; ; ; , > S FXHXGXGXGXGXGXGXGXGXGXKXMXMXMXMXMXMXMXMXMXMXMXMXMXMXMXMXMXMXMXMXMXMXMXMXMXMXMXKXGXGXGXGXGXGXGXGXGXGXGXGXGXGXGXGXGXGXGXGXGXGXGXGXGXGXGXKXMXMXMXLXMXMXMXMXMXMXMXMXMXMXMX",
"MXMXMXMXMXMXMXMXMXMXMXMXMXMXMXMXMXMXMXMXMXMXMXMXMXMXDXKXGXGXGXGXGXGXGXGXGXGXGXGXGXGXGXGXGXGXGXGXGXGXGXGXGXGXKXKXMXMXMXMXMXMXMXMXMXMXMXMXMXMXMXMXMXMXMXMXMXMXMXMXNXMXHXKXGX$XC D Z C b b C < > , , 2 > > > > > 3 + + + + + + + + + + O O O O O O O O O O O O O O O O O O O @ O O O O O @ @ @ @ @ @ @ @ @ @ @ @ @ @ @ @ @ @ @ @ @                 O O O           O X   @   . X % y g 6 # X X +                                 @ @ @ . . y r.d X . . O .   # . & # X X . . X X .                                                       X O @       @     O O O O O O     O O O O O O O O O O O O O O O O + + + + + + + + + + + + + O + > * + > , > ; < ; 1 FXFXGXGXGXGXGXGXGXGXGXGXKXKXDXDXDXAXMXMXMXMXMXMXMXMXMXMXMXMXMXMXMXMXMXDXDXDXDXDXKXGXGXGXGXGXGXGXGXGXGXGXGXGXGXGXGXGXGXGXGXGXGXGXGXGXGXKXDXMXMXMXLXLXMXMXMXMXMXMXMXMXMXMX",
"KXKXKXKXKXKXKXKXKXKXKXKXKXKXKXKXKXKXKXKXKXKXKXKXKXKXKXKXKXKXKXKXKXKXKXKXKXKXKXKXKXKXKXKXKXKXKXKXKXKXKXKXKXKXKXKXKXKXKXKXKXKXKXKXKXKXKXKXKXKXKXKXKXKXKXKXKXKXKXKXGXNXGXKXKXHXR A A D C C C 1 > < , > > > > > > 3 3 + + + + + + + + O O O O O O O O O @ @ O       @ @ @ @ @ X X X @       X                                                                       X         X . X X # X X X o +                                   @ @ X # # X X # X o @ .   o . X X . X % % o X     @                                                   X     @ @ O @   @ O O O O O O     @ O O O O O O O O O O O O O O + + + + + + + + + + + + + * + O O * > > * ; 2 ; 1 BXFXHXDXKXKXKXKXKXKXKXKXKXKXKXKXKXKXKXKXKXKXKXKXKXKXKXKXKXKXKXKXKXKXKXKXKXKXKXKXKXKXKXKXKXKXKXKXKXKXKXKXKXKXKXKXKXKXKXKXKXKXKXKXKXKXKXKXKXKXKXKXKXKXKXKXKXKXKXKXKXKXKXKXKX",
"GXGXGXGXGXGXGXGXGXGXGXGXGXGXGXGXGXGXGXGXGXGXGXGXGXGXGXKXDXMXMXMXMXMXMXMXMXMXMXMXMXMXMXMXMXMXMXMXMXMXMXMXMXMXDXKXGXGXGXGXGXGXGXGXGXGXGXGXGXGXGXGXGXGXGXGXGXGXGXGXGXGXDXLXMXNXNXE A A A Z C b l < 2 2 > > > 3 + + + + + + + + + + + O O O O O O O O O O O O O X   O O O O O @ @ @ @ @ @ X X     X X X X                           O O O O O O O O                     @   @ O X . # # # % o .   O                               @ @ @ . . # # # X X     O O . . % # X . X X . .   @ @                                             X X X         @ O O   @ O O O O O O O O @ O O O O O O O O O O O O O + O + + + + + + + + + + + + + O * > + O * , ; * A vXKXKXxXDXBXMXMXMXMXMXMXMXMXDXKXGXGXHXGXGXGXGXGXGXGXGXGXGXGXGXGXGXGXGXGXGXGXGXGXGXGXKXDXMXMXMXMXMXMXMXMXMXMXMXMXMXMXMXMXMXMXMXMXMXMXMXMXMXKXGXGXGXGXGXGXGXGXGXGXGXGXGXGXGXGX",
"GXGXGXGXGXGXGXGXGXGXGXGXGXGXGXGXGXGXGXGXGXGXGXGXGXGXGXKXMXMXMXDXMXMXMXMXMXMXMXMXMXMXMXMXMXMXMXMXMXMXMXMXMXMXDXGXGXGXGXGXGXGXGXGXGXGXGXGXGXGXGXGXGXGXGXGXGXGXGXGXKXGXGXNXNXNXNXxXW A A D C C C < 1 2 2 > > > > 3 + + + + + + + + + O O O O O O O O O O O O O O O O O O O O O O @ @ X X X X       X X @ @ @ @ X X X       X X X X                                   @ @ @ @ @ O X X X X . .   @ @ @                               . O +   . o X . . O @ @     X . X X X X X O @ O @ @                                             O O                   @ @       O O @ @ @ O O O O O O O O O O O O O O O O O O O O O O O O O O O O   * > + > < + , P NXKXNXNXBXNXMXMXMXMXMXMXMXMXNXDXKXGXGXGXGXGXGXGXGXGXGXGXGXGXGXGXGXGXGXGXGXGXGXGXGXGXGXKXMXMXMXMXMXMXMXMXMXMXMXMXMXMXMXMXMXMXMXMXMXMXMXMXMXMXMXKXGXGXGXGXGXGXGXGXGXGXGXGXGXGXGX",
"GXGXGXGXGXGXGXGXGXGXGXGXGXGXGXGXGXGXGXGXGXGXGXGXGXGXGXKXMXMXMXDXMXMXMXMXMXMXMXMXMXMXMXMXMXMXMXMXMXMXMXMXMXMXDXGXGXGXGXGXGXGXGXGXGXGXGXGXGXGXGXGXGXGXGXGXGXGXGXGXKXGXNXKXLXNXNXKXjX@XP T A C C l 1 2 2 2 > > > > 3 3 + + + + + + + O O O O O O O O O @ @ O O O O @ @ @ @ @ X @ X                   X         X X                                                   @ @ @ @ @ @   . . X X   O @ @ @                               3 @ .     . . + + + @ .   @ O   . X X   .     . @ @                                             O O                     O       O O @ @ O O O O O O O O O O O O O O O O O O O O O O O O O O O O X > O   , , + , L.DXBXNXKXNXFXMXMXMXMXMXMXMXMXMXMXDXGXGXGXGXGXGXGXGXGXGXGXGXGXGXGXGXGXGXGXGXGXGXHXHXGXGXGXKXDXMXMXMXMXMXMXMXMXMXMXMXMXMXMXMXMXMXMXMXMXMXMXMXMXMXMXKXGXGXGXGXGXGXGXGXGXGXGXGXGXGXGX",
"GXGXGXGXGXGXGXGXGXGXGXGXGXGXGXGXGXGXGXGXGXGXGXGXGXGXGXKXMXMXMXMXMXMXMXMXMXMXMXMXMXMXMXMXMXMXMXMXMXMXMXMXMXMXLXGXGXGXGXGXGXGXGXGXGXGXGXGXGXGXGXGXGXGXGXGXGXGXGXGXGXMXGXNXDXKXMXNXGXlX&XL.R S Z Z 1 1 2 2 2 > > > > > > + + + + + + O O O O O O O O O O O O O @   O O O       @                                                               @ @                     @ @ @ @ @ @ +   X   . . . +                                 .   O @ @ @ @ @ @ . . @ @ @ . .     O     O O O @ @                                                                   X O O @   O O O   O O O O O O O O O O O O O O O O O O O O     O O O O O O   > + > 1 O 1 2XLXNXNXDXMXLXBXNXMXMXMXMXMXMXMXMXMXKXGXGXGXGXGXKXGXGXGXGXGXGXGXGXGXGXGXGXGXGXGXGXGXHXGXGXGXKXDXMXMXMXMXMXMXMXMXMXMXMXMXMXMXMXMXMXMXMXMXMXMXMXMXMXDXGXGXGXGXGXGXGXGXGXGXGXGXGXGXGXGX",
"GXGXGXGXGXGXGXGXGXGXGXGXGXGXGXGXGXGXGXGXGXGXGXGXGXGXGXKXMXLXMXMXMXMXMXMXMXMXMXMXMXMXMXMXMXMXMXMXDXMXMXDXLXMXDXKXGXGXGXGXGXGXGXGXGXGXGXGXGXGXGXGXGXGXGXGXGXGXGXGXKXGXKXKXNXMXLXDXNXHXxX>X$X^ D A C C 1 2 2 2 2 > > > > > + + + + + O O O O O O O O O O O O O @   O O O O O O O O                                     @ @ @ @ @ @                     @           X X   @ @ @ @ @ @ . @     O   @                                         @ @ @ @ @ . o   .   @ @       @ @     @ @ @                                 O O O @                       @ @ X O O @ @ O O @   O O O O O O O O O O O O O O O O O   O O     O O O O O O *   > > + ( xXNXNXNXKXNXLXDXNXKXMXMXMXMXMXMXMXMXMXDXKXGXGXGXGXGXGXGXGXGXGXGXGXGXGXGXGXGXGXGXGXGXGXGXGXGXGXDXMXMXMXMXMXMXMXMXMXMXMXMXMXMXMXMXMXMXMXMXMXMXMXMXMXMXDXGXGXGXKXGXGXGXGXGXGXGXGXGXGXGXGX",
"GXGXGXGXGXGXGXGXGXGXGXGXGXGXGXGXGXGXGXGXGXGXGXGXGXGXGXKXMXMXMXMXMXMXMXMXMXMXMXMXMXMXMXMXMXMXMXMXMXMXMXMXDXMXDXGXGXGXGXGXGXGXGXGXGXGXGXGXGXGXGXGXGXGXGXGXGXGXGXGXGXGXKXMXMXMXMXMXDXNXDXxXA E J S C F 1 2 1 1 2 > > > > + + + 3 3 + + + + + + O @ O O @ @ O O O   O O @ @                                                                         O             X X X     @ @ @ @ @ @                                             X .   @ @ @ @ @ @   X X     @ @       @ @ @ @ @ @ @                                                                     O O O O O O O O O O O O O O O O O O O O O O X O + O     X       O O O O   > O , <XDXLXNXMXMXMXMXMXMXMXMXMXMXMXMXMXMXMXMXMXMXGXGXGXGXGXGXGXGXGXGXGXGXGXGXGXGXGXGXGXGXGXGXGXGXGXGXGXKXMXMXMXMXMXMXMXMXMXMXMXMXMXMXMXMXMXMXMXMXMXMXMXMXMXMXMXGXGXGXGXGXGXGXGXGXGXGXGXGXGXGXGX",
"GXGXGXGXGXGXGXGXGXGXGXGXGXGXGXGXGXGXGXGXGXGXGXGXGXGXGXKXMXMXMXMXMXMXMXMXMXMXMXMXMXMXMXMXMXMXMXMXMXMXMXMXDXMXDXGXGXGXGXGXGXGXGXGXGXGXGXGXGXGXGXGXGXGXGXGXGXGXGXGXGXGXKXMXMXMXMXMXNXKXMXNXnX/ 1 D ) C F C 1 1 > 2 > > > 2 2 + O O 3 + + + + + O O O O O O O O O   O O O @ O                             @                                         O         O O O X X X       @ @ @ @                                             X X   @ @ @ @     X X X X       @   @ @ @ @ @ @ @           X                                           @ @ O O       O O O O O O O O O O O O O O O O O O O O O . + + . .   O O     O     .   O + O  XMXNXnXKXMXMXMXMXMXMXMXMXMXMXMXMXMXMXMXMXMXMXMXGXGXGXGXGXGXGXGXGXGXGXGXGXGXGXGXGXGXGXGXGXGXGXGXGXGXGXKXMXMXMXMXMXMXMXMXMXMXMXMXMXMXMXMXMXMXMXMXMXMXMXMXMXMXMXGXGXGXGXGXGXGXGXGXGXGXGXGXGXGXGX",
"GXGXGXGXGXGXGXGXGXGXGXGXGXGXGXGXGXGXGXGXGXGXGXGXGXGXGXKXMXMXMXMXMXMXMXMXMXMXMXMXMXMXMXMXMXMXMXMXMXMXMXMXDXMXMXGXGXGXGXGXGXGXGXGXGXGXGXGXGXGXGXGXGXGXGXGXGXGXGXGXGXGXKXAXMXAXMXMXKXPXKXNXNXMXNX1 2 b 2 b C 1 C 2 2 2 > + + > 2 > 3 + + + + + O + O O O O O O O O O O O O O @ @ @   @                 @ @                                                     O O X X X X         @ @         X                                   X X     @ @       X X X X                                   X           @                       @ @   O @ @ @ O O O O O O O O O O O O O O O O O O O O O           X     O O             O + + O E xXKXxXKXKXPXMXMXMXMXMXMXMXMXMXMXMXMXMXMXMXMXMXMXMXGXGXGXGXGXGXGXGXGXGXGXGXGXGXGXGXGXGXGXGXGXGXGXGXGXGXGXKXMXMXMXMXMXMXMXMXMXMXMXMXMXMXMXMXMXMXMXMXMXMXMXMXMXMXMXGXGXGXGXGXGXGXGXGXGXGXGXGXGXGXGX",
"GXGXGXGXGXGXGXGXGXGXGXGXGXGXGXGXGXGXGXGXGXGXGXGXGXGXGXKXMXMXMXMXMXMXMXMXMXMXMXMXMXMXMXMXMXMXMXMXMXMXMXMXMXMXMXGXGXGXGXGXGXGXGXGXGXGXGXGXGXGXGXGXGXGXGXGXGXGXGXGXGXGXKXAXMXAXMXMXNXDXDXDXKXNXMXNX*X> > 1 2 1 1 C 1 1 2 2 > > > + + + + + + + + + O O O O O O O O O O O O @ @ @   @ @ @ @             @ @                                                         X X X X X                   X X                                 X X                 X X   X                                 X           @ @ @   @                               O O O O O O O O O O O O O O O O                 .     O O . . O O     +   O T dXLXNXMXKXMXNXMXDXMXMXMXMXMXMXMXMXMXMXMXMXMXMXMXMXMXMXGXGXGXGXGXGXGXGXGXGXGXGXGXGXGXGXGXGXGXGXGXGXGXGXGXGXGXKXMXMXMXMXMXMXMXMXMXMXMXMXMXMXMXMXMXMXMXMXMXMXMXMXMXMXMXGXGXGXGXGXGXGXGXGXGXGXGXGXGXGXGX",
"GXGXGXGXGXGXGXGXGXGXGXGXGXGXGXGXGXGXGXGXGXGXGXGXGXGXGXKXMXMXMXMXMXMXMXMXMXMXMXMXMXMXMXMXMXMXMXMXMXMXMXMXDXMXDXGXGXGXGXGXGXGXGXGXGXGXGXGXGXGXGXGXGXGXGXGXGXGXGXGXGXGXKXAXMXAXMXMXMXLXMXNXNXKXMXKXNXKXdX*XA + > 1 b 2 > 1 1 > > 2 > > > > 3 + + + + + + O O O O O O O @ @ @ @ @   O O @ @ @ @         @ @       @                                 O O O                                       X X                                                                                                                 @ @                           O O O @ O O O O O O O @ @                           O   . .             + / NXGXMXMXMXMXMXMXDXDXAXMXMXMXMXMXMXMXMXMXMXMXMXMXMXMXMXMXMXGXGXGXGXGXGXGXGXGXGXGXGXGXGXGXGXGXGXGXGXGXGXGXGXGXGXGXKXMXMXMXMXMXMXMXMXMXMXMXMXMXMXMXMXMXMXMXMXMXMXMXMXMXMXMXGXGXGXGXGXGXGXGXGXGXGXGXGXGXGXGX",
"GXGXGXGXGXGXGXGXGXGXGXGXGXGXGXGXGXGXGXGXGXGXGXGXGXGXGXKXMXMXMXMXMXMXMXMXMXMXMXMXMXMXMXMXMXMXMXMXMXMXMXMXDXMXDXGXGXGXGXGXGXGXGXGXGXGXGXGXGXGXGXGXGXGXGXGXGXGXGXGXGXGXKXAXMXAXMXMXKXNXKXMXMXNXxXNXMXDXDXMXDX$XO 3 + > 2 2 2 2 1 2 2 > > > > > + + + + + + O O O O O O O O O @ O @ O O O O @ @ @ @     @ @       @                                               @                             X X                                 @ @                                                                 @ @     @   @ @             O O O O O O O O O O @ @                                           X   O + O       A 3XKXGXGXLXNXDXKXMXMXMXMXNXAXMXMXMXMXMXMXMXMXMXMXMXMXMXMXMXMXMXMXGXGXGXGXGXGXGXGXGXGXGXGXGXGXGXGXGXGXGXGXGXGXGXGXGXGXGXKXMXMXMXMXMXMXMXMXMXMXMXMXMXMXMXMXMXMXMXMXMXMXMXMXMXMXMXGXGXGXGXGXGXGXGXGXGXGXGXGXGXGXGX",
"GXGXGXGXGXGXGXGXGXGXGXGXGXGXGXGXGXGXGXGXGXGXGXGXGXGXGXKXMXMXMXMXMXMXMXMXMXMXMXMXMXMXMXMXMXMXMXMXMXMXMXMXDXMXDXGXGXGXGXGXGXGXGXGXGXGXGXGXGXGXGXGXGXGXGXGXGXGXGXGXGXHXKXAXMXAXAXAXDXMXDXMXLXDXDXMXDXxXNXKXNXMXKX3X*X*XW 2 O > 2 2 > > 3 3 > > > > > > + + + + + + O O O O O O O O O O O O O @ O O   @ O @ @   @ @                                                 @ @ @       X       @ @                                         @ @ @   X X       @ @ @ @ @                 X X X X X X     @ @   @ @ @   X X   O O O O @ O O O O O O O O O O O                                                         .   F &XDXHXGXGXFXDXDXLXNXKXLXMXKXKXMXMXMXMXMXMXMXMXMXMXMXMXMXMXMXMXMXMXMXMXGXGXGXGXGXGXGXGXGXGXGXGXGXGXGXGXGXGXGXGXGXGXGXGXGXGXGXKXMXMXMXMXMXMXMXMXMXMXMXMXMXMXMXMXMXMXMXMXMXMXMXMXMXMXMXGXGXGXGXGXGXGXGXGXGXGXGXGXGXGXGX",
"GXGXGXGXGXGXGXGXGXGXGXGXGXGXGXGXGXGXGXGXGXGXGXGXGXGXGXKXMXMXMXMXMXMXMXMXMXMXMXMXMXMXMXMXMXMXMXMXMXMXMXMXDXMXDXGXGXGXGXGXGXGXGXGXGXGXGXGXGXGXGXGXGXGXGXGXGXGXGXGXGXGXKXAXMXAXAXAXMXKXxXDXLXMXNXLXMXDXDXMXMXAXMXDXMXDXKXMX<XD > + > + O + > 2 2 2 > > + + + 3 + + + + + O + O O O O O O O O O O O   @ O @ @ @ @ O                                 O O O           @ @ @               @ @                                       @ @ @ @             @ @ @ @ @                     X   X       @ @     @ @ X X X X O O O O @ O O O         O O O O                                                 + C / <XxXKXGXGXGXHXKXHXGXGXKXMXLXMXMXLXMXNXMXDXMXMXMXMXMXMXMXMXMXMXMXMXMXMXMXMXMXMXGXGXGXGXGXGXGXGXGXGXGXGXGXGXGXGXGXGXGXGXGXGXGXGXGXGXGXKXMXMXMXMXMXMXMXMXMXMXMXMXMXMXMXMXMXMXMXMXMXMXMXMXMXMXMXGXGXGXGXGXGXGXGXGXGXGXGXGXGXGXGX",
"GXGXGXGXGXGXGXGXGXGXGXGXGXGXGXGXGXGXGXGXGXGXGXGXGXGXGXKXMXMXMXMXMXMXMXMXMXMXMXMXMXMXMXMXMXMXMXMXMXMXMXMXDXMXMXGXGXGXGXGXGXGXGXGXGXGXGXGXGXGXGXGXGXGXGXGXGXGXGXGXGXGXKXAXMXMXMXMXMXMXMXMXMXMXMXMXMXMXMXMXMXMXMXMXMXMXMXMXMXDXKXNX3XxXgXC     2 + 2 > > O   + > > > > + O O O + + O O O O + + O O   O + O     @ @ O O @ O O O @ O       @ O O     +               @ @       @ O       @             O @         @ O   .         @ @   @ O       O       @ @ @     O . .       O .     O O @           O O @     O O     O @     @ +             O O               O     O .   .   . .   > F @X6XxXGXGXGXGXGXGXGXGXGXGXGXGXGXGXKXMXMXMXMXMXMXMXMXMXMXMXMXMXMXMXMXMXMXMXMXMXMXMXMXMXMXMXGXGXGXGXGXGXGXGXGXGXGXGXGXGXGXGXGXGXGXGXGXGXGXGXGXGXGXKXMXMXMXMXMXMXMXMXMXMXMXMXMXMXMXMXMXMXMXMXMXMXMXMXMXMXMXGXGXGXGXGXGXGXGXGXGXGXGXGXGXGXGX",
"GXGXGXGXGXGXGXGXGXGXGXGXGXGXGXGXGXGXGXGXGXGXGXGXGXGXGXKXMXMXMXMXMXMXMXMXMXMXMXMXMXMXMXMXMXMXMXMXMXMXMXMXDXMXMXGXGXGXGXGXGXGXGXGXGXGXGXGXGXGXGXGXGXGXGXGXGXGXGXGXGXGXKXAXMXMXMXMXMXMXMXMXMXMXMXMXMXMXMXMXMXMXMXMXMXDXMXMXMXDXGXDXGXGXGXNX&XC O O O @ > 2 +   O > > > 2 2 > @   O > > > 3 O O O + O O O O + + O O   O + O   O O O O + + O   .   O .   O O O O O     .   O O .   +                     .   O   .         O O   .   @ O   . . @ O   O O O         O   O + O       O           O O O O O   O O O         O O       @ . O     + O         @ O @       .     O . . . . 1  XxXGXGXKXKXGXGXGXGXGXGXGXGXGXGXGXGXGXGXGXKXMXMXMXMXMXMXMXMXMXMXMXMXMXMXMXMXMXMXMXMXMXMXMXMXMXMXMXGXGXGXGXGXGXGXGXGXGXGXGXGXGXGXGXGXGXGXGXGXGXGXGXGXGXGXKXMXMXMXMXMXMXMXMXMXMXMXMXMXMXMXMXMXMXMXMXMXMXMXMXMXMXMXGXGXGXGXGXGXGXGXGXGXGXGXGXGXGXGX",
"GXGXGXGXGXGXGXGXGXGXGXGXGXGXGXGXGXGXGXGXGXGXGXGXGXGXGXKXMXMXMXMXMXMXMXMXMXMXMXMXMXMXMXMXMXMXMXMXMXMXMXMXDXMXMXGXGXGXGXGXGXGXGXGXGXGXGXGXGXGXGXGXGXGXGXGXGXGXGXGXGXGXKXMXMXMXMXMXMXMXMXMXMXMXMXMXMXMXMXMXMXMXMXMXMXDXDXDXMXMXGXGXKXGXKXGXHXGXNXgX&X6XDXKX<XC O   3 O O > 2 > O   @ O + > > > + + O O O + O O O + O O O O O O O O @     @ + + + O + + O     O O     O O O O @   . O O   O O O     O   O + . @ +     O O     @ O O @     O O     . .       O O O @ O .   O .   +   +     O O     O   O O O O     O O       O O O   O   O O . . O @ .     . . . .   1 &XKXGX6X<X6XMXHXGXGXGXGXKXGXGXGXGXGXGXGXGXGXGXGXGXGXGXGXGXKXMXMXMXMXMXMXMXMXMXMXMXMXMXMXMXMXMXMXMXMXMXMXMXMXMXMXMXGXGXGXGXGXGXGXGXGXGXGXGXGXGXGXGXGXGXGXGXGXGXGXGXGXGXGXKXMXMXMXMXMXMXMXMXMXMXMXMXMXMXMXMXMXMXMXMXMXMXMXMXMXMXMXGXGXGXGXGXGXGXGXGXGXGXGXGXGXGXGX",
"GXGXGXGXGXGXGXGXGXGXGXGXGXGXGXGXGXGXGXGXGXGXGXGXGXGXGXKXMXMXMXMXMXMXMXMXMXMXMXMXMXMXMXMXMXMXMXMXMXMXMXMXDXMXMXGXGXGXGXGXGXGXGXGXGXGXGXGXGXGXGXGXGXGXGXGXGXGXGXGXGXGXKXMXMXMXMXMXMXMXMXMXMXMXMXMXMXMXMXMXMXMXMXMXMXDXDXDXNXMXGXGXKXGXKXGXMXGXGXGXGXGXKXGXGXDXgX&X^ @X<XxXGXKX*X>   O + + + + + > > + O + + O O + > + + + O . . O O + + + O   O + @ @     O O O O O 3 +     O + O .   O O O   O + O O @ O       . O O     O + @ . O O     @ O + + O + + O O         O     O O   + . O + O   O O . O   . .   O O   .   O         . .   .   @ . + S &X*X/ E T ! *X<XMXDXDXKXDXGXHXGXKXKXHXGXGXGXGXGXGXGXGXGXGXGXGXGXGXGXGXGXGXGXKXMXMXMXMXMXMXMXMXMXMXMXMXMXMXMXMXMXMXMXMXMXMXMXMXMXMXMXGXGXGXGXGXGXGXGXGXGXGXGXGXGXGXGXGXGXGXGXGXGXGXGXGXGXGXKXMXMXMXMXMXMXMXMXMXMXMXMXMXMXMXMXMXMXMXMXMXMXMXMXMXMXMXGXGXGXGXGXGXGXGXGXGXGXGXGXGXGXGX",
"GXGXGXGXGXGXGXGXGXGXGXGXGXGXGXGXGXGXGXGXGXGXGXGXGXGXGXKXMXMXMXMXMXMXMXMXMXMXMXMXMXMXMXMXMXMXMXMXMXMXMXMXDXMXDXGXGXGXGXGXGXGXGXGXGXGXGXGXGXGXGXGXGXGXGXGXGXGXGXGXGXGXKXMXMXMXMXMXMXMXMXMXMXMXMXMXMXMXMXMXMXMXMXMXMXDXMXMXMXMXGXKXGXGXGXGXGXKXKXGXDXKXGXGXGXGXGXKXKXGXGXGXKXGXGXKX2X/ 1 b ! <X6X7X*XA O .   O O @ 1 T @X@XS > O   @ O O + + + + + > O   O + O     @     O + O @   + O     O O O O   +     >   . > O     O O   O > O + +         . O @     O + + O + .   + O 1 E T + . .   @   O 2 / >X6X<XW 2   . O . . 2 @XjXNXxX6X^ S C 2 D 7XKXMXDXDXDXMXMXDXDXMXMXMXGXGXGXKXGXGXGXGXGXGXKXHXGXGXGXGXGXGXGXGXGXGXGXGXGXGXGXKXMXMXMXMXMXMXMXMXMXMXMXMXMXMXMXMXMXMXMXMXMXMXMXMXMXMXMXGXGXGXGXGXGXGXGXGXGXGXGXGXGXGXGXGXGXGXGXGXGXGXGXGXGXGXKXMXMXMXMXMXMXMXMXMXMXMXMXMXMXMXMXMXMXMXMXMXMXMXMXMXMXMXGXGXGXGXGXGXGXGXGXGXGXGXGXGXGXGX",
"GXGXGXGXGXGXGXGXGXGXGXGXGXGXGXGXGXGXGXGXGXGXGXGXGXGXGXKXMXMXMXMXMXMXMXMXMXMXMXMXMXMXMXMXMXMXMXMXMXMXMXMXDXMXDXGXGXGXGXGXGXGXGXGXGXGXGXGXGXGXGXGXGXGXGXGXGXGXGXGXGXGXKXMXMXMXMXMXMXMXMXMXMXMXMXMXMXMXMXMXMXMXMXMXMXMXMXDXMXDXGXKXGXGXHXMXGXGXGXKXGXGXGXGXKXKXGXGXHXKXDXGXGXGXGXGXGXKXAXMXDXKXDXMXGXNX2XE 1 b *XxXLXKXDXAXKXxX@X> +   . 2 ^ dXMXKXlX^ > . .   O O 1 S @X^ S 1 3 O . .   O O + 1 F A 2 O     O O .   O O + > 2 + . + . . O +   O > A W @X/ C >   .     + ) jXGXGXKXDX@X> . O C <XHXKXGXGXGXGXGXMXxX6XgXxXMXKXDXMXNXMXKXMXMXKXAXNXDXMXMXMXMXNXNXMXMXLXMXMXGXKXKXDXGXHXKXKXKXGXGXGXHXGXGXGXGXGXGXGXGXGXGXGXGXGXGXKXMXMXMXMXMXMXMXMXMXMXMXMXMXMXMXMXMXMXMXMXMXMXMXMXMXMXMXGXGXGXGXGXGXGXGXGXGXGXGXGXGXGXGXGXGXGXGXGXGXGXGXGXGXGXKXMXMXMXMXMXMXMXMXMXMXMXMXMXMXMXMXMXMXMXMXMXMXMXMXMXMXMXGXGXGXGXGXGXGXGXGXGXGXGXGXGXGXGX",
"GXGXGXGXGXGXGXGXGXGXGXGXGXGXGXGXGXGXGXGXGXGXGXGXGXGXGXKXMXMXMXMXMXMXMXMXMXMXMXMXMXMXMXMXMXMXMXMXMXMXMXMXDXMXDXGXGXGXGXGXGXGXGXGXGXGXGXGXGXGXGXGXGXGXGXGXGXGXGXGXGXGXKXMXMXMXAXMXMXMXMXMXMXMXMXMXMXMXMXMXMXMXMXMXMXMXMXDXMXMXGXGXGXGXGXGXGXKXGXGXGXKXHXGXGXGXKXKXGXGXKXGXGXKXKXHXHXKXMXMXMXMXMXMXNXMXMXMXNXNXMXLXNXMXMXNXAXGXKXNXdXgXxXMXKXGXGXGXGXGXxX@X2 3 E 7XKXGXGXKXGXGXdX^ >   O S 7XKXGXGXKXNXNX<X2   +   C <XMXDXNXDXKXMX7XT +   + F <XDXKXMXMXKXGXKX7X^ C ^ xXGXHXKXGXGXGXGXDXxXxXGXGXKXGXGXHXKXHXGXHXAXDXMXMXNXNXNXMXKXMXNXMXMXNXAXKXNXNXMXDXDXKXDXMXMXDXMXNXGXGXGXGXGXGXGXGXGXGXKXGXGXGXGXGXGXGXGXGXGXGXGXGXGXGXGXKXMXMXMXMXMXMXMXMXMXMXMXMXMXMXMXMXMXMXMXMXMXMXMXMXMXMXMXGXGXGXGXGXGXGXGXGXGXGXGXGXGXGXGXGXGXGXGXGXGXGXGXGXGXGXKXMXMXMXMXMXMXMXMXMXMXMXMXMXMXMXMXMXMXMXMXMXMXMXMXMXMXMXGXGXGXGXGXGXGXGXGXGXGXGXGXGXGXGX",
"GXGXGXGXGXGXGXGXGXGXGXGXGXGXGXGXGXGXGXGXGXGXGXGXGXGXGXKXMXMXMXMXMXMXMXMXMXMXMXMXMXMXMXMXMXMXMXMXMXMXMXMXDXMXDXGXGXGXGXGXGXGXGXGXGXGXGXGXGXGXGXGXGXGXGXGXGXGXGXGXGXGXKXMXMXMXMXMXMXMXMXMXMXMXMXMXMXMXMXMXMXMXMXMXMXDXMXMXMXMXGXGXGXGXKXHXGXGXGXGXGXGXGXGXKXGXGXGXGXGXGXGXGXGXGXGXHXKXLXMXMXDXMXMXKXLXMXMXMXDXMXNXDXMXMXDXMXNXMXKXLXMXMXMXDXKXGXGXKXGXGXGXGXGXGXGXGXGXGXKXGXGXGXKXPXxXMXKXGXGXKXGXKXDXNXDXNX&XW &XKXMXNXMXDXMXMXMXDXMXxXdXlXAXKXMXMXMXMXMXKXGXGXKXGXGXGXGXGXGXGXGXKXGXGXGXGXKXKXGXKXGXGXGXGXGXGXKXMXMXMXKXKXMXMXMXMXMXMXDXDXMXMXKXDXMXMXMXMXMXDXDXNXDXDXGXKXGXKXGXGXGXGXGXGXGXGXHXGXGXGXGXGXGXGXGXGXGXGXGXGXGXKXMXMXMXMXMXMXMXMXMXMXMXMXMXMXMXMXMXMXMXMXMXMXMXMXMXMXMXGXGXGXGXGXGXGXGXGXGXGXGXGXGXGXGXGXGXGXGXGXGXGXGXGXGXGXKXMXMXMXMXMXMXMXMXMXMXMXMXMXMXMXMXMXMXMXMXMXMXMXMXMXMXMXGXGXGXGXGXGXGXGXGXGXGXGXGXGXGXGX",
"GXGXGXGXGXGXGXGXGXGXGXGXGXGXGXGXGXGXGXGXGXGXGXGXGXGXGXKXDXDXMXMXMXMXMXMXMXMXMXMXMXMXMXMXMXMXMXMXMXMXMXDXMXMXDXGXGXGXGXGXGXGXGXGXGXGXGXGXGXGXGXGXGXGXGXGXGXGXGXGXGXGXKXMXMXMXDXDXMXMXMXMXMXMXMXMXMXMXMXMXMXMXMXMXDXDXMXMXMXKXGXGXGXGXGXGXGXGXGXGXGXGXGXGXGXGXGXGXGXGXGXGXGXGXGXGXGXKXLXMXMXMXMXDXMXMXMXMXMXMXMXMXMXMXMXMXMXMXMXNXMXMXMXMXDXKXGXGXGXGXGXGXGXGXGXGXGXGXGXGXGXGXGXGXGXGXGXGXGXGXGXGXDXMXMXMXMXMXMXMXMXMXMXMXMXMXMXMXMXMXMXMXMXMXMXMXDXMXMXDXKXGXGXHXGXGXGXGXGXGXGXGXGXGXGXGXGXGXGXGXGXGXGXGXGXGXGXKXMXMXMXMXMXMXMXMXMXMXMXMXMXMXMXMXMXMXMXMXMXMXMXMXDXMXDXGXGXGXGXGXGXGXGXGXGXGXGXGXGXGXGXGXGXGXGXGXGXGXGXGXGXGXKXMXMXMXMXMXMXMXMXMXMXMXMXMXMXMXMXMXMXMXMXMXMXMXMXMXMXDXKXGXGXGXGXGXGXGXGXGXGXGXGXGXGXGXGXGXGXGXGXGXGXGXGXGXGXKXMXMXMXMXMXMXMXMXMXMXMXMXMXMXMXMXMXMXMXMXMXMXMXMXMXMXMXKXGXGXGXGXGXGXGXGXGXGXGXGXGXGXGX",
"GXGXGXGXGXGXGXGXGXGXGXGXGXGXGXGXGXGXGXGXGXGXGXGXGXGXGXKXMXMXMXMXDXDXDXMXMXMXDXDXDXMXMXMXDXDXDXDXMXMXMXDXMXMXMXGXGXGXGXGXGXGXGXGXGXGXGXGXGXGXGXGXGXGXGXGXGXGXGXGXGXGXKXDXMXMXMXMXDXDXDXDXMXMXMXMXDXDXDXMXMXMXDXDXMXMXMXMXMXDXKXGXGXGXGXGXGXGXGXGXGXGXGXGXGXGXGXGXGXGXGXGXGXGXGXGXHXKXMXMXMXMXMXMXDXMXMXMXDXDXDXDXAXLXDXLXDXDXMXMXMXMXMXMXDXGXGXGXGXKXKXKXGXGXGXGXGXGXGXGXGXGXGXGXGXGXGXGXKXKXGXGXKXDXMXMXDXLXMXMXDXDXDXMXMXMXDXDXDXMXMXMXDXDXDXDXMXMXMXDXHXGXGXGXGXGXGXGXGXGXGXGXGXGXGXGXGXGXGXGXGXGXGXKXGXGXGXKXDXDXDXMXMXMXDXDXLXLXLXLXDXDXMXDXDXDXDXMXMXMXDXDXMXMXMXKXGXGXGXGXGXGXGXGXGXGXGXGXGXGXGXGXGXGXGXGXGXGXGXGXGXGXKXDXDXDXDXDXMXMXMXMXDXDXDXMXMXMXDXDXDXDXDXDXMXMXMXMXMXDXKXGXGXGXGXGXGXGXGXGXGXGXGXGXGXGXGXGXGXGXGXGXGXGXGXGXGXDXMXMXDXMXMXMXDXDXDXDXDXDXDXDXMXMXMXMXDXDXDXMXMXMXDXDXDXGXGXGXGXGXGXGXGXGXGXGXGXGXGXGXGX",
"GXGXGXGXGXGXGXGXGXGXGXGXGXGXGXGXGXGXGXGXGXGXGXGXGXGXGXKXMXMXMXMXMXMXMXMXMXMXMXMXMXMXMXMXMXMXMXMXMXMXDXDXMXMXDXGXGXGXGXGXGXGXGXGXGXGXGXGXGXGXGXGXGXGXGXGXGXGXGXGXGXGXKXDXMXLXDXMXMXMXMXMXMXMXMXMXMXMXMXMXMXMXMXMXMXMXDXMXMXDXKXGXGXGXGXGXGXGXGXGXGXGXGXGXGXGXGXGXGXGXGXGXGXGXGXGXGXKXLXLXDXLXMXMXMXMXMXMXMXMXMXMXMXMXMXMXMXMXMXMXMXDXDXMXDXGXGXKXGXGXGXGXGXGXGXGXGXGXGXGXGXGXGXGXGXGXGXGXGXGXGXGXKXMXMXMXMXMXMXMXMXMXMXMXMXMXMXMXMXMXMXMXMXMXMXMXDXMXMXDXKXGXGXKXGXGXGXGXGXGXGXGXGXGXGXGXGXGXGXGXGXGXGXGXGXGXGXKXMXMXMXMXMXMXMXMXMXMXMXMXMXMXNXNXMXMXMXMXMXMXMXMXDXMXDXKXGXGXKXGXGXGXGXGXGXGXGXGXGXGXGXGXGXGXGXGXGXGXHXGXGXGXKXMXMXMXMXMXMXMXMXMXMXMXMXMXMXMXMXMXMXMXMXMXMXMXMXMXMXDXKXGXGXGXGXGXGXGXGXGXGXGXGXGXGXGXGXGXGXGXGXGXGXGXGXGXGXKXDXMXMXMXMXMXMXMXMXMXMXMXMXMXMXMXMXMXMXMXMXMXMXMXMXMXDXKXGXGXKXGXGXGXGXGXGXGXGXGXGXGXGX",
"GXGXGXGXGXGXGXGXGXGXGXGXGXGXGXGXGXGXGXGXGXGXGXGXGXGXGXKXMXMXMXDXDXDXDXDXMXMXMXMXDXDXMXMXMXMXDXDXMXMXDXDXMXMXKXGXGXGXGXGXGXGXGXGXGXGXGXGXGXGXGXGXGXGXGXGXGXGXGXGXGXGXKXMXMXMXDXMXDXDXDXDXDXMXMXMXDXDXDXDXMXMXMXMXMXMXDXMXMXDXKXGXGXGXGXGXGXGXGXGXGXGXGXGXGXGXGXGXGXGXGXGXGXGXGXGXGXKXDXMXLXDXMXMXDXDXMXMXMXMXDXDXAXLXLXLXLXMXMXMXMXDXDXMXMXGXGXKXGXGXGXGXGXGXGXGXGXGXGXGXGXGXGXGXGXGXGXGXGXGXGXGXKXDXAXLXDXMXMXDXDXDXDXDXMXMXMXMXDXDXMXMXMXMXDXDXDXMXMXDXKXGXGXKXGXGXGXGXGXGXGXGXGXGXGXGXGXGXGXGXGXGXKXGXGXGXKXKXDXDXDXDXMXMXMXMXAXMXAXLXAXMXMXMXDXDXDXDXMXMXMXMXMXMXDXKXGXGXKXGXGXGXGXGXGXGXGXGXGXGXGXGXGXGXGXGXGXGXHXHXGXGXKXMXDXDXDXDXDXMXMXMXDXDXDXDXMXMXMXMXDXDXDXDXDXMXMXMXMXDXKXGXGXGXGXGXGXGXGXGXGXGXGXGXGXGXGXGXGXGXGXGXGXGXGXGXGXKXDXMXDXDXMXMXMXMXDXDXDXDXDXDXDXMXMXMXDXDXDXDXMXMXMXMXMXKXGXGXGXGXGXGXGXGXGXGXGXGXGXGXGX",
"GXGXGXGXGXGXGXGXGXGXGXGXGXGXGXGXGXGXGXGXGXGXGXGXGXGXGXKXMXMXMXMXMXMXMXMXMXMXMXMXMXMXMXMXMXMXMXMXMXMXMXMXMXMXDXHXGXGXGXGXGXGXGXGXGXGXGXGXGXGXGXGXGXGXGXGXGXGXGXGXGXGXKXDXMXMXMXMXMXMXMXMXMXMXMXMXMXMXMXMXMXMXMXMXMXMXMXMXMXMXKXGXGXGXGXGXGXGXGXGXGXGXGXGXGXGXGXGXGXGXGXGXGXGXGXGXGXKXMXMXMXMXMXMXMXMXMXMXMXMXMXMXMXMXMXMXMXMXMXMXMXMXMXMXMXGXGXGXGXGXGXGXGXGXGXGXGXGXGXGXGXGXGXGXGXGXGXGXGXGXGXGXKXDXMXMXMXMXMXDXMXMXMXMXMXMXMXMXMXMXMXMXMXMXMXMXMXMXMXDXKXGXGXGXGXGXGXGXGXGXGXGXGXGXGXGXGXGXGXGXGXGXGXGXGXGXGXKXMXMXMXMXMXMXMXMXMXMXMXMXMXMXMXMXMXMXMXMXMXMXMXMXNXMXDXKXGXGXGXGXGXGXGXGXGXGXGXGXGXGXGXGXGXGXGXGXGXGXGXGXGXGXKXMXMXMXMXMXMXMXMXMXMXMXMXMXMXMXMXMXMXMXMXMXMXMXMXMXMXKXGXGXGXGXGXGXGXGXGXGXGXGXGXGXGXGXGXGXGXGXGXGXGXGXGXGXGXKXMXNXMXMXMXMXMXMXMXMXMXMXMXMXMXMXMXMXMXMXMXMXMXMXMXMXDXKXGXGXGXGXGXGXGXGXGXGXGXGXGXGXGX",
"GXGXGXGXGXGXGXGXGXGXGXGXGXGXGXGXGXGXGXGXGXGXGXGXGXKXKXKXKXMXMXDXMXMXMXMXMXMXMXMXMXMXMXMXMXMXMXMXDXDXLXDXMXDXKXKXGXGXGXGXGXGXGXGXGXGXGXGXGXGXGXGXGXGXGXGXGXGXGXGXGXGXKXDXMXDXDXMXMXMXMXMXMXMXMXMXMXMXMXMXMXMXMXMXDXDXDXDXDXDXKXKXGXGXGXGXGXGXGXGXGXGXGXGXGXGXGXGXGXGXGXGXGXGXGXGXKXKXKXDXDXDXDXDXMXMXMXMXMXMXMXMXMXMXMXMXMXMXMXMXDXDXDXMXDXKXGXGXGXGXGXGXGXGXGXGXGXGXGXGXGXGXGXGXGXGXGXGXGXGXGXGXDXMXMXMXMXMXMXDXMXMXMXMXMXMXMXMXMXMXMXMXMXMXMXMXDXDXDXKXKXKXGXGXGXGXGXGXGXGXGXGXGXGXGXGXGXGXGXGXGXGXHXGXGXGXGXGXMXMXMXMXMXMXMXMXMXMXMXMXMXMXMXMXMXMXMXMXMXMXMXMXMXDXKXKXGXGXKXKXGXGXGXGXGXGXGXGXGXGXGXGXGXGXGXGXKXGXGXGXGXGXKXDXMXMXMXMXMXMXMXMXMXMXMXMXMXMXMXMXMXMXMXMXMXMXMXMXDXKXKXGXGXGXKXKXGXGXGXGXGXGXGXGXGXGXGXGXGXGXGXGXKXGXGXKXKXKXKXMXMXMXMXMXMXMXMXMXMXMXMXMXMXMXMXMXMXMXMXMXMXMXMXMXDXKXKXGXGXGXKXKXGXGXGXGXGXGXGXGXGX",
"MXMXMXMXMXMXMXMXMXMXMXMXMXMXMXMXMXMXMXMXMXMXMXMXDXMXMXKXHXHXGXGXGXGXGXGXGXGXGXGXGXGXGXGXGXGXGXGXGXGXKXKXGXGXKXKXMXMXMXMXMXMXMXMXMXMXMXMXMXMXMXMXMXMXMXMXMXMXMXMXMXDXKXKXKXGXGXKXGXGXGXGXGXGXGXGXGXGXGXGXGXGXGXGXGXGXKXKXKXKXKXDXMXMXMXMXMXMXMXMXMXMXMXMXMXMXMXMXMXMXMXMXMXMXMXMXKXKXGXGXKXGXGXKXGXGXGXGXGXGXGXGXGXGXGXGXGXGXGXGXGXHXKXKXKXDXMXMXMXMXMXMXMXMXMXMXMXMXMXMXMXMXMXMXMXMXMXMXMXMXMXMXGXGXGXGXGXGXGXGXGXGXGXGXGXGXGXGXGXGXGXGXGXGXGXGXGXGXGXKXKXLXLXDXMXMXMXMXMXMXMXMXMXMXMXMXMXMXMXMXMXMXMXMXMXMXMXDXGXGXGXGXGXGXGXGXGXGXGXGXGXGXGXGXGXGXGXGXGXGXGXGXGXGXKXKXDXDXDXDXMXMXMXMXMXMXMXMXMXMXMXMXMXMXMXMXDXKXDXDXDXKXKXKXGXGXGXGXGXGXGXGXGXGXGXGXGXGXGXGXGXGXGXGXGXGXGXGXKXKXDXDXDXDXDXMXMXMXMXMXMXMXMXMXMXMXMXMXMXMXMXMXMXDXLXMXKXKXGXGXGXGXGXGXGXGXGXGXGXGXGXGXGXGXGXGXGXGXGXGXGXGXGXGXKXDXDXDXDXDXDXMXMXMXMXMXMXMXMXMXMX",
"MXMXMXMXMXMXMXMXMXMXMXMXMXMXMXMXMXMXMXMXMXMXMXMXMXMXMXKXGXGXGXGXGXGXGXGXGXGXGXGXGXGXGXGXGXGXGXGXGXGXGXGXGXGXKXMXMXMXMXMXMXMXMXMXMXMXMXMXMXMXMXMXMXMXMXMXMXMXMXMXMXDXKXGXGXGXGXGXGXGXGXGXGXGXGXGXGXGXGXGXGXGXGXGXGXGXGXGXGXKXDXMXMXMXMXMXMXMXMXMXMXMXMXMXMXMXMXMXMXMXMXMXMXMXMXMXMXKXGXGXGXGXGXGXGXGXGXGXGXGXGXGXGXGXGXGXGXGXGXGXGXGXGXGXGXDXMXMXMXMXMXMXMXMXMXMXMXMXMXMXMXMXMXMXMXMXMXMXMXMXMXMXKXKXGXGXGXGXGXGXGXGXGXGXGXGXGXGXGXGXGXGXGXGXGXGXGXGXGXHXDXMXMXMXDXDXDXDXDXDXDXDXMXMXMXMXMXMXMXMXMXMXMXDXMXMXDXKXGXGXGXGXGXGXGXGXGXGXGXGXGXGXGXGXGXGXGXGXGXGXGXGXGXGXKXDXMXMXMXMXMXMXMXMXMXMXMXMXMXMXMXMXMXMXMXMXMXDXMXMXMXDXKXGXGXGXGXGXGXGXGXGXGXGXGXGXGXGXGXGXGXGXGXGXGXGXGXGXGXGXDXMXMXMXMXMXMXMXMXMXMXMXMXMXMXMXMXMXMXMXMXMXMXMXMXMXMXKXGXGXGXGXGXGXGXGXGXGXGXGXGXGXGXGXGXGXGXGXGXGXGXGXGXGXGXDXMXMXMXMXMXMXMXMXMXMXMXMXMXMXMX",
"MXMXMXMXMXMXMXMXMXMXMXMXMXMXMXMXMXMXMXMXMXMXMXMXMXMXDXKXGXGXGXGXGXGXGXGXGXGXGXGXGXGXGXGXGXGXGXGXGXGXGXGXGXGXGXMXMXMXMXMXMXMXMXMXMXMXMXMXMXMXMXMXMXMXMXMXMXMXMXMXMXMXKXGXGXGXGXGXGXGXGXGXGXGXGXGXGXGXGXGXGXGXGXGXGXGXGXGXGXGXMXMXMXMXMXMXMXMXMXMXMXMXMXMXMXMXMXMXMXMXMXMXMXMXMXMXMXKXGXGXGXGXGXGXGXGXGXGXGXGXGXGXGXGXGXGXGXGXGXGXGXGXGXGXGXDXMXMXMXMXMXMXMXMXMXMXMXMXMXMXMXMXMXMXMXMXMXMXMXMXMXMXKXGXGXGXGXGXGXGXGXGXGXGXGXGXGXGXGXGXGXGXGXGXGXGXGXGXGXGXMXMXMXMXMXMXMXMXMXMXMXMXMXMXMXMXMXMXMXMXMXLXMXMXDXMXMXKXGXGXGXGXGXGXGXGXGXGXGXGXGXGXGXGXGXGXGXGXGXGXGXGXGXGXHXDXMXMXMXMXMXMXMXMXMXMXMXMXMXMXMXMXMXMXMXMXMXMXMXMXMXMXKXGXGXGXGXGXGXGXGXGXGXGXGXGXGXGXGXGXGXGXGXGXGXGXGXGXGXGXMXMXDXMXMXMXMXMXMXMXMXMXMXMXMXMXMXMXMXMXMXMXMXMXMXMXDXKXGXGXGXGXGXGXGXGXGXGXGXGXGXGXGXGXGXGXGXGXGXGXGXGXGXGXGXDXMXDXMXMXMXMXMXMXMXMXMXMXMXMXMX",
"MXMXMXMXMXMXMXMXMXMXMXMXMXMXMXMXMXMXMXMXMXMXMXMXMXMXDXKXGXGXGXGXGXGXGXGXGXGXGXGXGXGXGXGXGXGXGXGXGXGXGXGXGXGXGXMXMXMXMXMXMXMXMXMXMXMXMXMXMXMXMXMXMXMXMXMXMXMXMXMXMXMXKXGXGXGXGXGXGXGXGXGXGXGXGXGXGXGXGXGXGXGXGXGXGXGXGXGXGXGXMXMXMXMXMXMXMXMXMXMXMXMXMXMXMXMXMXMXMXMXMXMXMXMXMXMXMXKXGXGXGXGXGXGXGXGXGXGXGXGXGXGXGXGXGXGXGXGXGXGXGXGXGXGXGXDXMXMXMXMXMXMXMXMXMXMXMXMXMXMXMXMXMXMXMXMXMXMXMXMXMXMXKXGXGXGXGXGXGXGXGXGXGXGXGXGXGXGXGXGXGXGXGXGXGXGXGXGXGXGXMXMXMXMXMXMXMXMXMXMXMXMXMXMXMXMXMXMXMXMXMXDXMXMXDXMXMXKXGXGXGXGXGXGXGXGXGXGXGXGXGXGXGXGXGXGXGXGXGXGXGXGXGXGXGXDXMXMXMXMXMXMXMXMXMXMXMXMXMXMXMXMXMXMXMXMXMXMXMXMXMXMXKXGXGXGXGXGXGXGXGXGXGXGXGXGXGXGXGXGXGXGXGXGXGXGXGXGXGXGXMXMXDXMXMXMXMXMXMXMXMXMXMXMXMXMXMXMXMXMXMXMXMXMXMXMXDXKXGXGXGXGXGXGXGXGXGXGXGXGXGXGXGXGXGXGXGXGXGXGXGXGXGXGXGXLXMXDXMXMXMXMXMXMXMXMXMXMXMXMXMX",
"MXMXMXMXMXMXMXMXMXMXMXMXMXMXMXMXMXMXMXMXMXMXMXMXMXMXDXKXGXGXGXGXGXGXGXGXGXGXGXGXGXGXGXGXGXGXGXGXGXGXGXGXGXGXGXMXMXMXMXMXMXMXMXMXMXMXMXMXMXMXMXMXMXMXMXMXMXMXMXMXMXMXKXGXGXGXGXGXGXGXGXGXGXGXGXGXGXGXGXGXGXGXGXGXGXGXGXGXGXGXMXMXMXMXMXMXMXMXMXMXMXMXMXMXMXMXMXMXMXMXMXMXMXMXMXMXMXKXGXGXGXGXGXGXGXGXGXGXGXGXGXGXGXGXGXGXGXGXGXGXGXGXGXGXGXDXMXMXMXMXMXMXMXMXMXMXMXMXMXMXMXMXMXMXMXMXMXMXMXMXMXMXKXGXGXGXGXGXGXGXGXGXGXGXGXGXGXGXGXGXGXGXGXGXGXGXGXGXGXGXMXMXMXMXMXMXMXMXMXMXMXMXMXMXMXMXMXMXMXMXMXMXMXMXDXMXMXKXGXGXGXGXGXGXGXGXGXGXGXGXGXGXGXGXGXGXGXGXGXGXGXGXGXGXKXDXMXMXDXMXMXMXMXMXMXMXMXMXMXMXMXMXMXMXMXMXMXMXMXMXMXMXKXGXGXGXGXGXGXGXGXGXGXGXGXGXGXGXGXGXGXGXGXGXGXGXGXGXGXGXMXMXDXMXMXMXMXMXMXMXMXMXMXMXMXMXMXMXMXMXMXMXMXMXMXMXDXKXGXGXGXGXGXGXGXGXGXGXGXGXGXGXGXGXGXGXGXGXGXGXGXGXGXGXGXDXMXDXMXMXMXMXMXMXMXMXMXMXMXMXMX",
"MXMXMXMXMXMXMXMXMXMXMXMXMXMXMXMXMXMXMXMXMXMXMXMXMXMXDXKXGXGXGXGXGXGXGXGXGXGXGXGXGXGXGXGXGXGXGXGXGXGXGXGXGXGXGXMXMXMXMXMXMXMXMXMXMXMXMXMXMXMXMXMXMXMXMXMXMXMXMXMXMXMXKXGXGXGXGXGXGXGXGXGXGXGXGXGXGXGXGXGXGXGXGXGXGXGXGXGXGXGXMXMXMXMXMXMXMXMXMXMXMXMXMXMXMXMXMXMXMXMXMXMXMXMXMXMXMXKXGXGXGXGXGXGXGXGXGXGXGXGXGXGXGXGXGXGXGXGXGXGXGXGXGXGXGXDXMXMXMXMXMXMXMXMXMXMXMXMXMXMXMXMXMXMXMXMXMXMXMXMXMXMXKXGXGXGXGXGXGXGXGXGXGXGXGXGXGXGXGXGXGXGXGXGXGXGXGXGXGXGXMXMXMXMXMXMXMXMXMXMXMXMXMXMXMXMXMXMXMXMXMXDXMXMXDXMXMXKXGXGXGXGXGXGXGXGXGXGXGXGXGXGXGXGXGXGXGXGXGXGXGXGXGXGXGXMXMXMXMXMXMXMXMXMXMXMXMXMXMXMXMXMXMXMXMXMXMXMXMXMXMXMXKXGXGXGXGXGXGXGXGXGXGXGXGXGXGXGXGXGXGXGXGXGXGXGXGXGXGXGXMXMXDXMXMXMXMXMXMXMXMXMXMXMXMXMXMXMXMXMXMXMXMXMXMXMXDXKXGXGXGXGXGXGXGXGXGXGXGXGXGXGXGXGXGXGXGXGXGXGXGXGXGXGXGXLXMXLXMXMXMXMXMXMXMXMXMXMXMXMXMX",
"MXMXMXMXMXMXMXMXMXMXMXMXMXMXMXMXMXMXMXMXMXMXMXMXMXMXDXKXGXGXGXGXGXGXGXGXGXGXGXGXGXGXGXGXGXGXGXGXGXGXGXGXGXGXGXMXMXMXMXMXMXMXMXMXMXMXMXMXMXMXMXMXMXMXMXMXMXMXMXMXMXMXKXGXGXGXGXGXGXGXGXGXGXGXGXGXGXGXGXGXGXGXGXGXGXGXGXGXGXGXMXMXMXMXMXMXMXMXMXMXMXMXMXMXMXMXMXMXMXMXMXMXMXMXMXMXMXKXGXGXGXGXGXGXGXGXGXGXGXGXGXGXGXGXGXGXGXGXGXGXGXGXGXGXGXDXMXMXMXMXMXMXMXMXMXMXMXMXMXMXMXMXMXMXMXMXMXMXMXMXMXMXKXGXGXGXGXGXGXGXGXGXGXGXGXGXGXGXGXGXGXGXGXGXGXGXGXGXGXGXMXMXMXMXMXMXMXMXMXMXMXMXMXMXMXMXMXMXMXMXMXDXMXMXDXMXMXKXGXGXGXGXGXGXGXGXGXGXGXGXGXGXGXGXGXGXGXGXGXGXGXGXGXGXGXMXMXMXDXMXMXMXMXMXMXMXMXMXMXMXMXMXMXMXMXMXMXMXMXMXMXMXKXGXGXGXGXGXGXGXGXGXGXGXGXGXGXGXGXGXGXGXGXGXGXGXGXGXGXGXMXMXDXMXMXMXMXMXMXMXMXMXMXMXMXMXMXMXMXMXMXMXMXMXMXMXDXKXGXGXGXGXGXGXGXGXGXGXGXGXGXGXGXGXGXGXGXGXGXGXGXGXGXGXGXMXMXDXMXMXMXMXMXMXMXMXMXMXMXMXMX",
"MXMXMXMXMXMXMXMXMXMXMXMXMXMXMXMXMXMXMXMXMXMXMXMXMXMXDXKXGXGXGXGXGXGXGXGXGXGXGXGXGXGXGXGXGXGXGXGXGXGXGXGXGXGXGXMXMXMXMXMXMXMXMXMXMXMXMXMXMXMXMXMXMXMXMXMXMXMXMXMXMXMXKXGXGXGXGXGXGXGXGXGXGXGXGXGXGXGXGXGXGXGXGXGXGXGXGXGXGXGXMXMXMXMXMXMXMXMXMXMXMXMXMXMXMXMXMXMXMXMXMXMXMXMXMXMXMXKXGXGXGXGXGXGXGXGXGXGXGXGXGXGXGXGXGXGXGXGXGXGXGXGXGXGXGXDXMXMXMXMXMXMXMXMXMXMXMXMXMXMXMXMXMXMXMXMXMXMXMXMXMXMXKXGXGXGXGXGXGXGXGXGXGXGXGXGXGXGXGXGXGXGXGXGXGXGXGXGXGXGXMXMXMXMXMXMXMXMXMXMXMXMXMXMXMXMXMXMXMXMXMXDXMXMXDXMXMXKXGXGXGXGXGXGXGXGXGXGXGXGXGXGXGXGXGXGXGXGXGXGXGXGXGXGXGXDXMXMXDXMXMXMXMXMXMXMXMXMXMXMXMXMXMXMXMXMXMXMXMXMXMXMXKXGXGXGXGXGXGXGXGXGXGXGXGXGXGXGXGXGXGXGXGXGXGXGXGXGXGXGXMXMXDXMXMXMXMXMXMXMXMXMXMXMXMXMXMXMXMXMXMXMXMXMXMXMXDXKXGXGXGXGXGXGXGXGXGXGXGXGXGXGXGXGXGXGXGXGXGXGXGXGXGXGXGXMXMXDXMXMXMXMXMXMXMXMXMXMXMXMXMX",
"MXMXMXMXMXMXMXMXMXMXMXMXMXMXMXMXMXMXMXMXMXMXMXMXMXMXDXKXGXGXGXGXGXGXGXGXGXGXGXGXGXGXGXGXGXGXGXGXGXGXGXGXGXGXGXMXMXMXMXMXMXMXMXMXMXMXMXMXMXMXMXMXMXMXMXMXMXMXMXMXMXMXKXGXGXGXGXGXGXGXGXGXGXGXGXGXGXGXGXGXGXGXGXGXGXGXGXGXGXGXMXMXMXMXMXMXMXMXMXMXMXMXMXMXMXMXMXMXMXMXMXMXMXMXMXMXMXKXGXGXGXGXGXGXGXGXGXGXGXGXGXGXGXGXGXGXGXGXGXGXGXGXGXGXGXDXMXMXMXMXMXMXMXMXMXMXMXMXMXMXMXMXMXMXMXMXMXMXMXMXMXMXKXGXGXGXGXGXGXGXGXGXGXGXGXGXGXGXGXGXGXGXGXGXGXGXGXGXGXGXMXMXMXMXMXMXMXMXMXMXMXMXMXMXMXMXMXMXMXMXMXDXMXMXDXMXMXKXGXGXGXGXGXGXGXGXGXGXGXGXGXGXGXGXGXGXGXGXGXGXGXGXGXGXGXMXMXMXDXMXMXMXMXMXMXMXMXMXMXMXMXMXMXMXMXMXMXMXMXMXMXMXKXGXGXGXGXGXGXGXGXGXGXGXGXGXGXGXGXGXGXGXGXGXGXGXGXGXGXGXMXMXDXMXMXMXMXMXMXMXMXMXMXMXMXMXMXMXMXMXMXMXMXMXMXMXDXKXGXGXGXGXGXGXGXGXGXGXGXGXGXGXGXGXGXGXGXGXGXGXGXGXGXGXGXLXNXDXMXMXMXMXMXMXMXMXMXMXMXMXMX",
"MXMXMXMXMXMXMXMXMXMXMXMXMXMXMXMXMXMXMXMXMXMXMXMXMXMXDXKXGXGXGXGXGXGXGXGXGXGXGXGXGXGXGXGXGXGXGXGXGXGXGXGXGXGXGXMXMXMXMXMXMXMXMXMXMXMXMXMXMXMXMXMXMXMXMXMXMXMXMXMXMXMXKXGXGXGXGXGXGXGXGXGXGXGXGXGXGXGXGXGXGXGXGXGXGXGXGXGXGXGXMXMXMXMXMXMXMXMXMXMXMXMXMXMXMXMXMXMXMXMXMXMXMXMXMXMXMXKXGXGXGXGXGXGXGXGXGXGXGXGXGXGXGXGXGXGXGXGXGXGXGXGXGXGXGXDXMXMXMXMXMXMXMXMXMXMXMXMXMXMXMXMXMXMXMXMXMXMXMXMXMXMXKXGXGXGXGXGXGXGXGXGXGXGXGXGXGXGXGXGXGXGXGXGXGXGXGXGXGXGXMXMXMXMXMXMXMXMXMXMXMXMXMXMXMXMXMXMXMXMXMXDXMXMXDXMXMXKXGXGXGXGXGXGXGXGXGXGXGXGXGXGXGXGXGXGXGXGXGXGXGXGXGXGXGXDXMXMXDXMXMXMXMXMXMXMXMXMXMXMXMXMXMXMXMXMXMXMXMXMXMXMXKXGXGXGXGXGXGXGXGXGXGXGXGXGXGXGXGXGXGXGXGXGXGXGXGXGXGXGXMXMXDXMXMXMXMXMXMXMXMXMXMXMXMXMXMXMXMXMXMXMXMXMXMXMXDXKXGXGXGXGXGXGXGXGXGXGXGXGXGXGXGXGXGXGXGXGXGXGXGXGXGXGXGXMXMXDXMXMXMXMXMXMXMXMXMXMXMXMXMX"
};
