/* XPM */
static char *e9d8a2de11854b7fcc030878d1c56b108vEqyvhuKGmNNsFD[] = {
/* columns rows colors chars-per-pixel */
"360 546 256 2 ",
"   c None",
".  c #010200",
"X  c #050B01",
"o  c #0A0C03",
"O  c #0A0603",
"+  c #140B02",
"@  c #0B1402",
"#  c #0E1C02",
"$  c #071203",
"%  c #131403",
"&  c #121D03",
"*  c #181907",
"=  c #181912",
"-  c #241B08",
";  c #2F1509",
":  c #0F2101",
">  c #122402",
",  c #1C2404",
"<  c #162A02",
"1  c #192D03",
"2  c #1B270B",
"3  c #1C3303",
"4  c #1E3804",
"5  c #1D2512",
"6  c #232B05",
"7  c #24240B",
"8  c #2C2B0A",
"9  c #262708",
"0  c #322C0C",
"q  c #223504",
"w  c #233C03",
"e  c #2A3608",
"r  c #33340D",
"t  c #353A0C",
"y  c #282A15",
"u  c #293518",
"i  c #3B3C12",
"p  c #383619",
"a  c #362B15",
"s  c #373B25",
"d  c #2E3424",
"f  c #443B1B",
"g  c #502E13",
"h  c #4B3B25",
"j  c #603213",
"k  c #264204",
"l  c #2B4404",
"z  c #2E4A04",
"x  c #2C440A",
"c  c #334C05",
"v  c #364808",
"b  c #355205",
"n  c #3A5405",
"m  c #3D5A05",
"M  c #3B580A",
"N  c #394515",
"B  c #355214",
"V  c #3C630C",
"C  c #384428",
"Z  c #3C4B2F",
"A  c #1F4B03",
"S  c #425C06",
"D  c #435D09",
"F  c #475708",
"G  c #47461B",
"H  c #475619",
"J  c #51530A",
"K  c #45620A",
"L  c #4B640A",
"P  c #4D6A0B",
"I  c #496507",
"U  c #536C0B",
"Y  c #556A08",
"T  c #55720C",
"R  c #5B740B",
"E  c #58780A",
"W  c #4B6813",
"Q  c #5B6D15",
"!  c #566C18",
"~  c #5C7B13",
"^  c #5D731A",
"/  c #587514",
"(  c #4D730E",
")  c #647B0C",
"_  c #66780B",
"`  c #637D12",
"'  c #637B1C",
"]  c #667719",
"[  c #6F720A",
"{  c #474626",
"}  c #4A5526",
"|  c #57582A",
" . c #4F5032",
".. c #6F5030",
"X. c #5A6629",
"o. c #57692F",
"O. c #677A26",
"+. c #6A7036",
"@. c #6A5116",
"#. c #525748",
"$. c #59694D",
"%. c #757947",
"&. c #67775A",
"*. c #6B6D50",
"=. c #6F7667",
"-. c #6C5C45",
";. c #906836",
":. c #8C622B",
">. c #906F4D",
",. c #9F7653",
"<. c #813910",
"1. c #5C8414",
"2. c #5A830F",
"3. c #6B840A",
"4. c #75890B",
"5. c #688618",
"6. c #768A18",
"7. c #6B951A",
"8. c #79951A",
"9. c #7B910D",
"0. c #79A31B",
"q. c #6B8624",
"w. c #768826",
"e. c #7C9C2C",
"r. c #789626",
"t. c #77873A",
"y. c #789734",
"u. c #6D8F28",
"i. c #7BA527",
"p. c #7BA531",
"a. c #589526",
"s. c #7A8A4A",
"d. c #778769",
"f. c #768A6F",
"g. c #7FA040",
"h. c #7CC631",
"j. c #878A0A",
"k. c #879718",
"l. c #919411",
"z. c #97A51A",
"x. c #8CAA1A",
"c. c #A6A915",
"v. c #B6B919",
"b. c #ACB117",
"n. c #869928",
"m. c #889A33",
"M. c #8F982B",
"N. c #86A62B",
"B. c #98A728",
"V. c #88B728",
"C. c #88A934",
"Z. c #98A838",
"A. c #8CB536",
"S. c #96B73A",
"D. c #96B82A",
"F. c #A3AD28",
"G. c #AAB428",
"H. c #A8B538",
"J. c #B4BD38",
"K. c #AEB430",
"L. c #A49924",
"P. c #99C639",
"I. c #97C52C",
"U. c #B9C13A",
"Y. c #A9D638",
"T. c #ADCE35",
"R. c #BAD02B",
"E. c #C6C927",
"W. c #C5C935",
"Q. c #D2D434",
"!. c #C8CA20",
"~. c #8B9955",
"^. c #8A9652",
"/. c #99B943",
"(. c #90A952",
"). c #A9B946",
"_. c #B3BD47",
"`. c #A4AF41",
"'. c #959969",
"]. c #879878",
"[. c #8C8F70",
"{. c #B1916D",
"}. c #98A971",
"|. c #A8B478",
" X c #A4AC75",
".X c #B08855",
"XX c #CA9E70",
"oX c #9CC646",
"OX c #9AC453",
"+X c #A6C849",
"@X c #B9C549",
"#X c #A9D649",
"$X c #ACCA52",
"%X c #BDCA54",
"&X c #B8CA56",
"*X c #ACD752",
"=X c #B5D359",
"-X c #B7D659",
";X c #B4DB47",
":X c #BAE547",
">X c #B9E758",
",X c #B9EB55",
"<X c #B0D06D",
"1X c #BEE662",
"2X c #BFF062",
"3X c #9EC267",
"4X c #C1CA4C",
"5X c #C3CF55",
"6X c #C2EC51",
"7X c #C4EA67",
"8X c #C7F668",
"9X c #CFF974",
"0X c #E2E649",
"qX c #C5A132",
"wX c #909886",
"eX c #98A987",
"rX c #99AD8E",
"tX c #A9B588",
"yX c #B3B88B",
"uX c #A8B798",
"iX c #B7BB96",
"pX c #A9A990",
"aX c #B1B9A6",
"sX c #A4A594",
"dX c #D1B18C",
"fX c #D2B89E",
"gX c #BCC597",
"hX c #B5C790",
"jX c #BAC6A8",
"kX c #B7CDB1",
"lX c #C2CA9B",
"zX c #C7D396",
"xX c #C4CAA7",
"cX c #CBD5A7",
"vX c #D2DAAD",
"bX c #C7CBB4",
"nX c #CAD6B7",
"mX c #D5DCB3",
"MX c #D5DCBA",
"NX c #D6CAB3",
"BX c #EDD2B1",
"VX c #D8E4B6",
"CX c #D3E1AF",
"ZX c #EDCC9F",
"AX c #D6DAC4",
"SX c #CBDAC9",
"DX c #DAE4C9",
"FX c #D7E8D7",
"GX c #CDE2C9",
"HX c #E6E9D7",
"JX c #F3EAD2",
"KX c #FFFEFA",
"LX c #F9F4E6",
"PX c #E9DBCA",
"IX c #BED3C2",
"UX c #7F9480",
/* pixels */
"                                                                                                                                                                                                                                                                                                                                                                                                                                                                                                                                                                                                                                                                                                                                                ",
"                                                                                                                                                                                                                                                                                                                                                                                                                                                                                                                                                                                                                                                                                                                                                ",
"                                                                                                                                                                                                                                                                                                                                                                                                                                                                                                                                                                                                                                                                                                                                                ",
"                                                                                                                                                                                                                                                                                                                                                                                                                                                                                                                                                                                                                                                                                                                                                ",
"                                                                                                                                                                                                                                                                                                                                                                                                                                                                                                                                                                                                                                                                                                                                                ",
"                                                                                                                                                                                                                                                                                                                                                                                                                                                                                                                                                                                                                                                                                                                                                ",
"                                                                                                                                                                                                                                                                                                                                                                                                                                                                                                                                                                                                                                                                                                                                                ",
"                                                                                                                                                                                                                                                                                                                                                                                                                                                                                                                                                                                                                                                                                                                                                ",
"                                                                                                                                                                                                                                                                                                                                                                                                                                                                                                                                                                                                                                                                                                                                                ",
"                                                                                                                                                                                                                                                                                                                                                                                                                                                                                                                                                                                                                                                                                                                                                ",
"                                                                                                                                                                                                                                                                                                                                                                                                                                                                                                                                                                                                                                                                                                                                                ",
"                                                                                                                                                                                                                                                                                                                                                                                                                                                                                                                                                                                                                                                                                                                                                ",
"                                                                                                                                                                                                                                                                                                                                                                                                                                                                                                                                                                                                                                                                                                                                                ",
"                                                                                                                                                                                                                                                                                                                                                                                                                                                                                                                                                                                                                                                                                                                                                ",
"                                                                                                                                                                                                                                                                                                                                                                                                                                                                                                                                                                                                                                                                                                                                                ",
"                                                                                                                                                                                                                                                                                                                                                                                                                                                                                                                                                                                                                                                                                                                                                ",
"                                                                                                                                                                                                                                                                                                                                                                                                                                                                                                                                                                                                                                                                                                                                                ",
"                                                                                                                                                                                                                                                                                                                                                                                                                                                                                                                                                                                                                                                                                                                                                ",
"                                                                                                                                                                                                                                                                                                                                                                                                                                                                                                                                                                                                                                                                                                                                                ",
"                                                                                                                                                                                                                                                                                                                                                                                                                                                                                                                                                                                                                                                                                                                                                ",
"                                                                                                                                                                                                                                                                                                                                                                                                                                                                                                                                                                                                                                                                                                                                                ",
"                                                                                                                                                                                                                                                                                                                                                                                                                                                                                                                                                                                                                                                                                                                                                ",
"                                                                                                                                                                                                                                                                                                                                                                                                                                                                                                                                                                                                                                                                                                                                                ",
"                                                                                                                                                                                                                                                                                                                                                                                                                                                                                                                                                                                                                                                                                                                                                ",
"                                                                                                                                                                                                                                                                                                                                                                                                                                                                                                                                                                                                                                                                                                                                                ",
"                                                                                                                                                                                                                                                                                                                                                                                                                                                                                                                                                                                                                                                                                                                                                ",
"                                                                                                                                                                                                                                                                                                                                                                                                                                                                                                                                                                                                                                                                                                                                                ",
"                                                                                                                                                                                                                                                                                                                                                                                                                                                                                                                                                                                                                                                                                                                                                ",
"                                                                                                                                                                                                                                                                                                                                                                                                                                                                                                                                                                                                                                                                                                                                                ",
"                                                                                                                                                                                                                                                                                                                                                                                                                                                                                                                                                                                                                                                                                                                                                ",
"                                                                                                                                                                                                                                                                                                                                                                                                                                                                                                                                                                                                                                                                                                                                                ",
"                                                                                                                                                                                                                                                                                                                                                                                                                                                                                                                                                                                                                                                                                                                                                ",
"                                                                                                                                                                                                                                                                                                                                      g g j @.@.@.@.@.......:.:.......................j @...@.j g g                                                                                                                                                                                                                                                                                                                                             ",
"                                                                                                                                                                                                                                                                                                                        ; g j :.:.;.,.,..X.XXXXXXXdXdXfXZXZXBXBXBXBXBXBXBXBXBXBXBXBXBXBXfXfXdXdX{..X,.>.;...j j g g ;                                                                                                                                                                                                                                                                                                                           ",
"                                                                                                                                                                                                                                                                                                                    ; j :.,.XXXXXXdXZXZXZXZXZXBXBXBXPXJXJXJXLXKXKXKXKXKXKXKXKXKXKXKXKXKXKXKXKXKXKXLXJXBXfXdX{.,.>.;...h a O                                                                                                                                                                                                                                                                                                                     ",
"                                                                                                                                                                                                                                                                                                                  j :..XdXZXZXZXBXBXBXBXPXJXJXBXBXBXBXBXBXBXBXPXJXJXLXLXLXKXKXKXKXKXKXLXLXLXKXKXLXLXJXBXZXdX{.{.,.>.........; .                                                                                                                                                                                                                                                                                                                 ",
"                                                                                                                                                                                                                                                                                                                ..,.XXZXZXZXBXBXJXJXJXJXJXLXLXJXZXZXZXZXdXXXdXdXdXdXdXdXfXfXNXBXPXJXJXJXJXJXJXJXBXNXfXdXdXXX{.{.{.;.........h a .                                                                                                                                                                                                                                                                                                               ",
"                                                                                                                                                                                                                                                                                                              @..X.XZXJXBXBXBXJXJXJXJXJXLXLXJXJXZXZXZXdX.XdXBXXX.XXX{..XXX,.,.ZXJX{..XXXdX{.{.,.dXBX,.>.,.,.>.:.,.;.j j h h h g - .                                                                                                                                                                                                                                                                                                             ",
"                                                                                                                                                                                                                                                                                                              ,..XXXLXBXZXBXLXJXJXZXBXBXKXPX.XJXZXZXZXXX.XLXJX;.XXXX.X,..X....JXLX;.:.,.dX,.:.:.fXKX>.@.>.>...@.>.>...h g g h a a O                                                                                                                                                                                                                                                                                                             ",
"                                                                                                                                                                                                                                                                                                            :.XX.XZXLXXXZXLXPXdXLXBXBXJXKXXXj KXfXdXdX.X{.KXNXj ,.>.:.>.,.; g JXfXj g j ..j j ; {.JXj j ......g >.{.h g g g h g a -                                                                                                                                                                                                                                                                                                             ",
"                                                                                                                                                                                                                                                                                                            >.XX.XLXBXXXBXKX{.{.KXLXJXLXKX;.j LXXXXX.X:.XXKXpXg ..g g ..:.; wXLXXX; ; g g g ; + {.dX; g g g h ; ..{.g ; ; ; ..h a ; O                                                                                                                                                                                                                                                                                                           ",
"                                                                                                                                                                                                                                                                                                            yXXXdXKXBXdXJXKXg {.KXKXJXLXLX;.j ;.@.XX<.g XXKX{.+ ; + O g j j KXLX,.+ . ; g ; + O NXdX+ ; ; g g + h .X; O + ; -.h ; a +                                                                                                                                                                                                                                                                                                           ",
"                                                                                                                                                                                                                                                                                                            BXdXJXBXdXdXLXPX+ - {.{...NXJX:.; + ; XX..; NXKX,.O + + . O ; ,.KXPX:.. . . O O O ; BXfX. . O + + . j {.; . - ; ..h - a +                                                                                                                                                                                                                                                                                                           ",
"                                                                                                                                                                                                                                                                                                              ZXKX>.g j JXdX. + ; g ; NXBXj .X>.; ZXBX{.JXKX[.:.;  .-.-.;.NXKXBX:.>.=. . .=.>.XXBXSX. s d + O + >.fXg . O O -.h O ; +                                                                                                                                                                                                                                                                                                           ",
"                                                                                                                                                                                                                                                                                                              BXLX,.<.:.BXXX+ :.;.XX:.BXPXj XX..; XXXXlXKXKXpX.X; iXJXZXZXJXKXZX<.XXKXKXLXdXfXJXfXJXg JXKXPXPX{.dXZX..-.jXbXKXsXO {.-.O                                                                                                                                                                                                                                                                                                         ",
"                                                                                                                                                                                                                                                                                                              BXLX.XqX,.BXXX+ ,.fXPX;.PXLX<.:.g ; fX,.XXKXKXZXqX; NXZX:.qXKXKXLX:.h PXJXZX@.HXKX{.XXj BXLXJXdX>.PXfX; ,.KXKXKXsXh KXXX+                                                                                                                                                                                                                                                                                                         ",
"                                                                                                                                                                                                                                                                                                              PXJX:.ZXLXLXXX+ XXKXKXXXJXBXj ;...j JXfX{.sX[.-.g ; fXfX.X{.wX=.-.= . *.XXdX:.PXPX>.g ; {.PXdX:.{.LXfXh j ZXPXKXaXh LXdX;                                                                                                                                                                                                                                                                                                         ",
"                                                                                                                                                                                                                                                                                                            ZXZXdX,.BXMXfX;.O h -.-.; O O . . . . + O . . . . . X . . . . . . . . . . . . . O . . . . o d  ...-.h d >.XXdX{.dX{...JXZXg                                                                                                                                                                                                                                                                                                         ",
"                                                                                                                                                                                                                                                                                                          {.ZX,.; . . . . . . . . . . O [.$.d & & @ & q t n n D D F F H W ! W D D b t , @ @ X X X X . . . . . . . . . * + . . . a ,..Xj                                                                                                                                                                                                                                                                                                         ",
"                                                                                                                                                                                                                                                                                                          - = O . . . . O O O s *.$.=.aXHXsX*.N v v c v F D I L U U U U / T U L D F v e 6 > > # @ @ $ $ X O . . . . . . . . . . . . O +                                                                                                                                                                                                                                                                                                         ",
"                                                                                                                                                                                                                                                                                                              . . O + 5 - * + #.=.wXaXaXaXwX$.C t e l l l l v b v n n n n n n v c l w e 6 1 > > # @ $ X X X . . . . . . . . O o O                                                                                                                                                                                                                                                                                                               ",
"                                                                                                                                                                                                                                                                                                                    + y y + O s #.*.=.wXwX=.#.C t e e e e l z c c c c c c c v z l e e e q 1 < & # @ @ X X . . . . . . . . . O                                                                                                                                                                                                                                                                                                                   ",
"                                                                                                                                                                                                                                                                                                                    O a - + O s #.#.=.=.=.*.#.C x x c v m S D L L P P P Y L L D D F n v c w 6 > & @ @ $ X . . . . . . . . o O                                                                                                                                                                                                                                                                                                                   ",
"                                                                                                                                                                                                                                                                                                                    + p * O % #.#.#.$.*.$.#. .C N N B D W ^ ' 5.u.w.r.e.e.r.6.5.' / ! D n v w 1 > # @ @ X . . . . . . . . o O                                                                                                                                                                                                                                                                                                                   ",
"                                                                                                                                                                                                                                                                                                                  . * p + O = #.#.#.$.*.$.#. .C N B B D W / / ` 5.6.6.6.5.5.5.` R U I S v l q 1 > # # @ X . . . . . . . . o O                                                                                                                                                                                                                                                                                                                   ",
"                                                                                                                                                                                                                                                                                                                  . y a + + y #.#.#.$.$.#.#. .C N N B M D L P U T R ~ R R T U P I S m v c w q 1 > # # @ $ X . . . . . . . o O                                                                                                                                                                                                                                                                                                                   ",
"                                                                                                                                                                                                                                                                                                                  O p y + + d #.#.#.$.$.$.#.Z C N N x b M M D K I P P P I I K S S n b c w w 1 > > # # @ $ X . . . . . . . o O .                                                                                                                                                                                                                                                                                                                 ",
"                                                                                                                                                                                                                                                                                                                  + h - + % s #.#.#.$.*.$.#.Z C N N x z B b M m K K I I K K S m n n c l w q 1 > > # # @ $ X . . . . . . . o o .                                                                                                                                                                                                                                                                                                                 ",
"                                                                                                                                                                                                                                                                                                                . - h * % * s #.#.$.*.*.$.#.Z C x x x x c b M m S K K K K S S m n c z l w 3 1 > > # # @ $ X . . . . . . . X o .                                                                                                                                                                                                                                                                                                                 ",
"                                                                                                                                                                                                                                                                                                                . y p * % =  .#.#.$.&.&.$.#.Z C x x x x z c b m m S K K S S m n n c l w q 3 1 > > # @ @ $ X . . . . . . . . o .                                                                                                                                                                                                                                                                                                                 ",
"                                                                                                                                                                                                                                                                                                                . s y % % y #.#.$.=.=.=.*.#.Z C u x x x x c b M m m S S m m n n c z l w q 1 < > # # @ @ X X . . . . . . . . o O .                                                                                                                                                                                                                                                                                                               ",
"                                                                                                                                                                                                                                                                                                              . + h - % % d #.#.*.=.=.=.$.#.Z N e e e x x x c b n m m m m n b c c l w q 3 1 > > # # @ @ X X . . . . . . . . O o .                                                                                                                                                                                                                                                                                                               ",
"                                                                                                                                                                                                                                                                                                              . - s * * * s #.$.=.=.=.=.*.#.Z u u e w e x x z c b b b b b c c c l w w q 1 < > & # @ @ @ X X . . . . . . . . . % .                                                                                                                                                                                                                                                                                                               ",
"                                                                                                                                                                                                                                                                                                              . a a * * = #.$.*.=.=.=.=.*.#.C u u e e w w x x z z z c z z l l l w q q 1 1 > > # # @ @ @ X X . . . . . . . . . o O .                                                                                                                                                                                                                                                                                                             ",
"                                                                                                                                                                                                                                                                                                              O h 7 * * y #.*.=.=.=.=.=.$.#.C u e q e q e w w w k k k w w w w w q 3 1 < > > : # @ @ @ @ X X . . . . . . . . . O O .                                                                                                                                                                                                                                                                                                             ",
"                                                                                                                                                                                                                                                                                                            . + h - * * s *.=.=.=.wXwX=.$. .C u q 1 3 1 1 1 1 q 3 3 3 3 3 3 1 1 1 < > > > # # # @ @ @ $ X X . . . . . . . . . . O .                                                                                                                                                                                                                                                                                                             ",
"                                                                                                                                                                                                                                                                                                            . - h * * = #.=.=.=.wXsXwX=.$. .C u 2 2 > > , , , , > > > > > > > > > > > & # # # @ @ @ @ $ X X . . . . . . . . . . O .                                                                                                                                                                                                                                                                                                             ",
"                                                                                                                                                                                                                                                                                                            . p s % % y *.[.wXsXaXSXaXwX&. .s y * @ @ @ @ @ @ @ @ @ @ @ # @ @ @ @ # # # @ # # @ @ @ $ $ X X . . . . . . . . . . X O .                                                                                                                                                                                                                                                                                                           ",
"                                                                                                                                                                                                                                                                                                            . h a % * h sXLXKXKXKXKXAXwX$.s 5 # # > 1 4 k A A b b b V V b b b z k A A 4 4 1 > : @ $ $ X X . . . . . . . . . . . . o O                                                                                                                                                                                                                                                                                                           ",
"                                                                                                                                                                                                                                                                                                            O h - % * y #.=.=.*.#.s 5 % $ $ < A V a.a.i.i.p.h.h.I.I.I.h.h.h.h.h.p.i.a.1.V B k 1 : $ $ X X . . . . . . . . . . . . o O                                                                                                                                                                                                                                                                                                           ",
"                                                                                                                                                                                                                                                                                                            O h 7 * + O . . . . . . . . . X $ @ @ @ @ X X X O X X . . . . . . O X O . . . . . . X X X X X . . . . . . . . . . . . % O                                                                                                                                                                                                                                                                                                           ",
"                                                                                                                                                                                                                                                                                                            . + 7 - % o O O o O . . . . . . . . . . . . . . . . . o # > : $ X . . . . . . . . . . . . X . . . . . . . . . . . . o @ O                                                                                                                                                                                                                                                                                                           ",
"                                                                                                                                                                                                                                                                                                              . + y = O . . . . . . . . . . % 2 w x B W / a.p./.(.p.p.p.p.P.oXp.a.a.a.a.V B x < # $ X X . . . . . . . . . . X o o o                                                                                                                                                                                                                                                                                                             ",
"                                                                                                                                                                                                                                                                                                                  + 5 * O O = d s  .#.#.d % X X X X X $ X X < x X . . . . . . . . . . . . . $ @ @ $ X X X X . . . . . . . X % % o                                                                                                                                                                                                                                                                                                               ",
"                                                                                                                                                                                                                                                                                                                  O * a + + -.aXKXKXKXKXxX#.% . % * , & & % . . . 8 | t.O.i 7 i | e * * * & * , , & % & @ @ X X . O . X X o % o                                                                                                                                                                                                                                                                                                                 ",
"                                                                                                                                                                                                                                                                                                                  . * h * + #.sXSXHXLXHXuX=.{ G ! ] Q Y J J J ] n.c.L.L.F.J.K.z.j.4.[ [ [ Y J J F v e 1 & % o X X X X X X o o o                                                                                                                                                                                                                                                                                                                 ",
"                                                                                                                                                                                                                                                                                                                  . *  .+ + #.wXsXaXAXAXsX=.+.X.J J @.Q +.O.n.M.k.j.j.:.j.l.M.k.[ [ [ [ [ [ Y J J F t 6 , & @ o X X X X X o X =                                                                                                                                                                                                                                                                                                                 ",
"                                                                                                                                                                                                                                                                                                                  . y  .+ + #.wXsXaXSXSXsX*.| G J @.[ [ 4.4.j.j.k.k.k.l.l.l.M.k.k.j.6.] [ [ Y J F t e 9 , & % @ o o X o o o o o                                                                                                                                                                                                                                                                                                                 ",
"                                                                                                                                                                                                                                                                                                                  . s  .+ + -.wXsXaXAXAXsX*.H J J J J [ [ [ [ j.j.j.j.j.j.j.j.j.j.[ [ [ [ Y J J F t e 6 , & % @ o o o o o @ o .                                                                                                                                                                                                                                                                                                                 ",
"                                                                                                                                                                                                                                                                                                                  . h  .+ * *.sXsXbXAXAXsX%.| J J J Y [ [ [ j.j.j.j.j.j.j.j.j.j.4.[ [ [ Y Y J F F t e 6 , & % @ o o o o @ @ o .                                                                                                                                                                                                                                                                                                                 ",
"                                                                                                                                                                                                                                                                                                                  .  .h + - =.sXaXbXAXAXsX%.| J J J Q [ [ [ j.j.j.j.j.j.j.j.j.j.4.4.[ [ [ Y J F F t e 6 , * & @ @ @ o o o % o .                                                                                                                                                                                                                                                                                                                 ",
"                                                                                                                                                                                                                                                                                                                  O ..h + y =.sXaXbXAXAXsX%.| J J J [ [ [ [ j.j.j.j.j.j.j.j.j.j.4.[ [ [ [ Y J J F t e 6 , * & @ @ @ @ @ @ % o O                                                                                                                                                                                                                                                                                                                 ",
"                                                                                                                                                                                                                                                                                                                  O ..f + a ,.sXaXSXPXAXpX%.| @.J Y [ [ [ :.j.j.j.j.j.j.j.j.j.j.4.[ [ [ [ R Y J F v e 6 6 * & % @ @ @ @ @ % % .                                                                                                                                                                                                                                                                                                                 ",
"                                                                                                                                                                                                                                                                                                                  + ..a + s [.sXaXSXPXAXpX%.@.@.@.Q [ [ [ j.j.j.j.j.j.j.j.j.j.j.4.[ [ [ [ [ Y J F v e 6 6 , & % @ @ @ @ @ % * .                                                                                                                                                                                                                                                                                                                 ",
"                                                                                                                                                                                                                                                                                                                . - ..a - h wXsXaXAXPXAXpX+.@.@.@.[ [ [ [ j.j.j.j.j.j.l.l.j.j.j.j.[ [ [ [ [ Y J F F t 6 6 * & & @ @ @ @ @ % * O                                                                                                                                                                                                                                                                                                                 ",
"                                                                                                                                                                                                                                                                                                                . 7 ..8 -  .wXsXaXAXPXAXeX+.Q Q Q [ [ [ j.j.j.j.j.l.l.l.l.l.j.j.j.4.[ [ [ [ Y Y J F t e 6 , * & % @ @ @ @ % * X                                                                                                                                                                                                                                                                                                                 ",
"                                                                                                                                                                                                                                                                                                                . a | - - -.sXsXaXAXPXNX X+.Q Q [ [ [ [ j.j.j.j.l.l.l.l.l.l.l.j.j.j.[ [ [ [ [ Y J F v e 6 9 * & % % @ @ @ % * o .                                                                                                                                                                                                                                                                                                               ",
"                                                                                                                                                                                                                                                                                                                . h  .- ; -.sXpXbXAXPXNX{.+.Q [ [ [ [ [ j.j.j.l.l.l.l.l.l.l.l.l.j.j.4.[ [ [ [ Y J J F t 6 6 * & % % @ % % % * o .                                                                                                                                                                                                                                                                                                               ",
"                                                                                                                                                                                                                                                                                                                O { { ; 7 *.pXuXbXAXPXbX'.O.[ [ [ [ :.j.j.j.l.l.l.l.l.l.l.l.l.l.j.j.j.4.[ [ [ R Y J F t e 6 , & % % @ @ @ % * @ o                                                                                                                                                                                                                                                                                                               ",
"                                                                                                                                                                                                                                                                                                                O | h - a =.pXaXbXAXPXbX'.O.[ [ [ [ :.j.j.l.l.l.l.z.z.z.z.z.z.l.l.j.j.j.4.[ [ [ Y J F t e 6 , * & % % @ % % * * O                                                                                                                                                                                                                                                                                                               ",
"                                                                                                                                                                                                                                                                                                                O ..f - p [.pXaXbXAXPXbX'.O.[ [ [ :.j.j.j.l.l.l.c.c.c.c.c.c.z.z.z.l.l.j.j.4.[ [ Y J F t e 6 , & & % % @ % % * * .                                                                                                                                                                                                                                                                                                               ",
"                                                                                                                                                                                                                                                                                                                + ..f - s [.pXaXbXPXPXbX'.O.[ [ [ :.j.l.l.l.z.c.c.c.c.c.c.c.c.c.z.l.l.j.j.4.[ [ [ Y F v e 6 , * & % % % % % & * O                                                                                                                                                                                                                                                                                                               ",
"                                                                                                                                                                                                                                                                                                              . - ..a - h [.uXaXbXPXPXxX~.O.[ [ :.j.l.l.l.c.c.c.c.b.b.b.b.c.c.c.c.z.l.l.j.j.4.[ [ Y J v t 6 , * & % % % % % & = o                                                                                                                                                                                                                                                                                                               ",
"                                                                                                                                                                                                                                                                                                              . a ..0 -  .wXuXaXbXPXPXxX^.O.[ :.j.j.l.z.c.c.c.b.b.b.b.b.b.b.b.c.c.c.z.l.l.j.4.[ [ Y J F t 6 , * & & % % % % & = o                                                                                                                                                                                                                                                                                                               ",
"                                                                                                                                                                                                                                                                                                              . f ..0 ;  .sXuXaXAXPXPXfX^.:.[ :.j.l.l.z.c.c.b.b.v.v.v.v.b.b.b.b.c.c.z.l.l.j.j.[ [ Y J F t 6 6 * & % % % % % % = o                                                                                                                                                                                                                                                                                                               ",
"                                                                                                                                                                                                                                                                                                              . h ..; ; -.pXuXjXAXHXPXiX^.:.:.j.j.l.z.c.c.b.v.v.v.v.v.v.v.v.b.b.c.c.c.z.l.l.j.4.[ [ J F t e 6 , & % % @ % % % = o O                                                                                                                                                                                                                                                                                                             ",
"                                                                                                                                                                                                                                                                                                              . { { ; 7 *.pXiXbXAXHXDXyX^.:.:.j.l.l.z.c.b.v.v.v.v.v.v.v.v.v.v.b.b.c.c.c.l.l.j.4.[ [ Y F v e 6 , & & % % % % % = @ .                                                                                                                                                                                                                                                                                                             ",
"                                                                                                                                                                                                                                                                                                              . | G ; 0 >.pXiXbXAXHXAXyXm.:.:.j.l.l.c.c.b.v.v.v.v.v.v.v.v.v.v.b.b.c.c.c.z.l.j.j.[ [ Y J v e 6 , * & % % % % % * @ .                                                                                                                                                                                                                                                                                                             ",
"                                                                                                                                                                                                                                                                                                              O ..f - a [.pXiXbXPXHXAX|.M.j.j.l.l.z.c.b.v.v.v.v.v.v.v.v.v.v.v.b.b.b.c.c.c.l.l.j.[ [ Y J F t 6 , * & % % % % % * % O                                                                                                                                                                                                                                                                                                             ",
"                                                                                                                                                                                                                                                                                                              + ..f ; p [.pXaXNXPXHXAX XM.k.l.l.l.c.c.b.v.v.v.v.!.!.!.v.v.v.v.v.b.b.b.c.c.z.l.j.4.[ [ J F t 6 6 * & % % % % % * % X                                                                                                                                                                                                                                                                                                             ",
"                                                                                                                                                                                                                                                                                                              - ..g ; h '.pXaXNXHXHXMX XM.l.l.l.z.c.b.b.v.v.v.v.E.E.E.!.v.v.v.v.v.b.b.c.c.z.l.l.j.[ [ Y F t e 6 , * % % % % % * * O                                                                                                                                                                                                                                                                                                             ",
"                                                                                                                                                                                                                                                                                                            . 8 ..g ; { wXpXjXNXHXHXNX{.M.l.l.l.z.c.b.v.v.v.v.!.E.E.E.!.!.v.v.v.v.b.b.c.c.c.z.l.j.4.[ Y J v e 6 , * % % % % % * * O                                                                                                                                                                                                                                                                                                             ",
"                                                                                                                                                                                                                                                                                                            . a ..a ;  .pXpXxXAXHXHXNX'.M.l.l.l.z.c.b.v.v.R.E.E.E.E.E.E.!.!.v.v.v.v.b.b.c.c.z.l.j.j.[ Y J F e 6 , * & & % % % * * o                                                                                                                                                                                                                                                                                                             ",
"                                                                                                                                                                                                                                                                                                            . f ..a 8 ..pXiXbXAXHXHXbX'.M.l.l.z.c.b.v.v.v.R.E.E.E.E.E.E.E.!.!.v.v.v.v.b.b.c.c.l.l.j.[ [ J F t 6 6 , & & & & * * * o O                                                                                                                                                                                                                                                                                                           ",
"                                                                                                                                                                                                                                                                                                            . { | 0 0 -.pXiXbXAXHXHXxX~.M.l.l.L.c.b.v.v.E.E.E.E.E.E.E.E.E.E.!.!.v.v.v.b.b.c.c.z.l.j.4.[ Y F t e 6 * & % & & & * * o .                                                                                                                                                                                                                                                                                                           ",
"                                                                                                                                                                                                                                                                                                            O ..| 0 0 %.pXiXbXAXHXHXlX^.M.L.L.L.c.b.v.v.E.E.E.E.E.E.E.E.E.E.!.!.v.v.v.v.b.b.c.z.l.l.j.[ Y J v e 6 * * & * * & * * % O                                                                                                                                                                                                                                                                                                           ",
"                                                                                                                                                                                                                                                                                                            + ..G 0 a >.yXaXNXAXHXHXdX^.M.L.L.c.b.v.v.v.E.E.E.E.E.E.E.E.E.E.E.E.!.v.v.v.b.b.c.c.l.l.j.[ [ J F t 6 9 * * * * * * * * O                                                                                                                                                                                                                                                                                                           ",
"                                                                                                                                                                                                                                                                                                            + +.h 0 g >.iXjXNXAXHXHXdXM.M.L.L.c.b.v.v.E.E.E.E.E.E.E.E.E.E.E.E.E.!.v.v.v.b.b.b.c.z.l.j.[ [ J F t 8 6 * * & * * * * * .                                                                                                                                                                                                                                                                                                           ",
"                                                                                                                                                                                                                                                                                                          . - +.f 0 f [.iXxXNXPXLXPXyXM.L.L.L.c.b.v.v.E.E.E.E.E.E.E.E.E.E.E.E.!.!.!.v.v.v.b.b.c.z.l.j.[ [ Y J t e 6 , * * * * * , * O                                                                                                                                                                                                                                                                                                           ",
"                                                                                                                                                                                                                                                                                                          . ; +.f 0 G '.iXbXAXPXLXPX|.M.L.L.L.c.b.v.v.E.E.E.E.E.Q.E.!.E.!.!.!.!.!.!.v.v.v.b.b.c.z.l.l.j.[ Y J t e 6 9 * * * * * , 7 o                                                                                                                                                                                                                                                                                                           ",
"                                                                                                                                                                                                                                                                                                          . a +.f 0 | {.iXbXAXPXLXPX XM.L.L.L.c.b.v.v.v.!.!.E.!.E.!.!.!.Q.!.!.!.!.!.!.v.v.v.b.b.c.c.l.j.[ Y J v t 8 6 - * * * * , 7 o                                                                                                                                                                                                                                                                                                           ",
"                                                                                                                                                                                                                                                                                                          . h +.g 0 ..pXiXbXAXHXLXPX XM.L.L.c.v.v.E.E.Q.Q.!.Q.Q.0XQ.Q.Q.E.K.K.K.G.v.v.v.v.G.L.l.l.l.j.[ [ J J F t 8 9 * * * * * 7 7 @ O                                                                                                                                                                                                                                                                                                         ",
"                                                                                                                                                                                                                                                                                                          .  ...a 0 -.yXjXbXAXHXLXAX XL.K.K.K.qXL.L.L.L.L.L.L.M.M.:.L..X;.^..X.X;.,..X,.;.;..X.X;.;.:.@.@.@.@.@.f 0 9 - * * * * 7 7 * O                                                                                                                                                                                                                                                                                                         ",
"                                                                                                                                                                                                                                                                                                          . ....0 f >.fXxXNXAXHXLXNX'.:.@.@...g ..:.@.>.{.;.....{.{..X,.;.>.:.>.XXXX.X;.{.XXZXXX.X>..X,.,.,.:.,.>.;.>...g ; 7 9 8 0 - .                                                                                                                                                                                                                                                                                                         ",
"                                                                                                                                                                                                                                                                                                          O >...; g ,.fXbXNXPXHXLXNXpX{...{.{.dXdX>.BX.X>.BXXXXXXX{.XX.XdXdXXXXXdX{..X{.{..X.X,.,.>.{.{.{.:.;.,.,.,.:.>.;.....@.h f a O                                                                                                                                                                                                                                                                                                         ",
"                                                                                                                                                                                                                                                                                                          + {.;...>.dXNXNXAXJXLXLXPXpXdX>.BX'...dXj {.>.{.ZX{.ZXXX;.{.XX.X;..XXX,.:.{.dX.X@.j >.XXXX....;.XX.X@.,.;.;.,.;.>.;.....{ f +                                                                                                                                                                                                                                                                                                         ",
"                                                                                                                                                                                                                                                                                                          - XX,.dX{.PXPXPXPXLXLXHXNX[.ZX.X-.>.{.dX>..XfX{.;.{...:.dX{.;.dX.X;.dX..,.XX;.;.ZXfX,.@..X.X,.>.>.;.>.g j ,...j ;.....{ h f +                                                                                                                                                                                                                                                                                                         ",
"                                                                                                                                                                                                                                                                                                        . a {...dX>.fXNXNXNXAXJXJXdX..{.XX .g dX..+ h dX..; dX,...{..X>.{...,.XX,.dX{...:...h ,.>...>.,.......>.;.>.g g ....| { h f p %                                                                                                                                                                                                                                                                                                         ",
"                                                                                                                                                                                                                                                                                                        . h ,.g ,.-.{.aXpXaXNXHXJXyXdX>...{.;...dX..-..X{.>.;.>.dXg ..,.j ,.,.j ..h g >.,.>.....h -.a + ....; h ..g + h h g a a a a 8 + O                                                                                                                                                                                                                                                                                                       ",
"                                                                                                                                                                                                                                                                                                        . h >.; h f >.wXsXaXNXLXPX=.a >.O ...XO y >.{.; h dXa a >.- >.>.h XX-.j {...-.>.a g ..= h h a  .>.a ; f ; -.>...g - - - - - * o .                                                                                                                                                                                                                                                                                                       ",
"                                                                                                                                                                                                                                                                                                        . h ..7 - a [.wXpXaXAXLXMX*.O {.{ h *.+ * % O O + O . - * + + O + - + - + O + + % % O % % % % % O . o @ + y % . + % % % % % % o O                                                                                                                                                                                                                                                                                                       ",
"                                                                                                                                                                                                                                                                                                        . { { 8 - f [.wXpXbXAXLXbX*.* * * O . % i y o t | - i O.^ J } O.O.H q 6 e D H F z l w q q w , . @ 1 < @ o . . O X o o % % % % o O                                                                                                                                                                                                                                                                                                       ",
"                                                                                                                                                                                                                                                                                                        . { { 0 -  .pXsXaXNXPXLXbX^.| G h - f J X.X.J m.|.J n.<X).C.C.S.).C.u.3.r.p.5.E 2.5.5.R ^ ' F q B H x 6 * & * & @ @ o @ @ @ @ @ O                                                                                                                                                                                                                                                                                                       ",
"                                                                                                                                                                                                                                                                                                        O { f a 9 -.aXpXbXAXHXLXNX~.+.+.+.G m.M.`.).+X5X7X%X7X9X7X6X6X8X9X8X6X6X6X6XT.T.;X;XT.D.D.N.r.5.~ ! M v e e 1 2 & & % % % @ @ % o                                                                                                                                                                                                                                                                                                       ",
"                                                                                                                                                                                                                                                                                                        + | f a 0 =.bXaXNXPXHXLXbX~.O.O.+.O.M.B.B.H.T.T.:X6X6X6X6X6X6X6X6X6X6X6X:X;X;X;XT.I.I.D.x.0.7.5.E P D n c w q 1 < > & & & & & * o                                                                                                                                                                                                                                                                                                       ",
"                                                                                                                                                                                                                                                                                                      . + | f a p [.bXaXnXPXHXHXbX~.O.O.w.n.k.N.B.D.P.T.;X:X6X6X6X:X6X6X6X6X:X;XY.Y.Y.Y.I.I.D.V.x.0.7.5.~ P D n c w q 1 < < > & & & & * o .                                                                                                                                                                                                                                                                                                     ",
"                                                                                                                                                                                                                                                                                                      . - | f a f '.bXjXnXAXHXHXxX~.O.O.w.6.k.N.B.D.T.T.Y.:X6X6X6X:X:X6X6X6X:X;X;XY.Y.T.T.I.I.D.x.0.7.5.~ P S n c l w q 1 < > > & & & * @ o                                                                                                                                                                                                                                                                                                     ",
"                                                                                                                                                                                                                                                                                                      . - | f p f eXbXxXAXPXHXHXxX~.O.O.w.6.n.N.D.H.T.T.;X:X:X6X:X:X:X:X6X:X:X:XY.Y.Y.T.I.I.I.V.x.0.7.3.E P K n c l w q 1 1 > > > & & & % .                                                                                                                                                                                                                                                                                                     ",
"                                                                                                                                                                                                                                                                                                      . a | f a { pXbXxXAXHXHXHXxX^.w.w.w.w.n.B.D.H.T.T.;X:X6X6X6X6X6X6X:X:X:X:XY.Y.Y.T.T.I.I.V.x.0.7.5.E P K M c l w q 1 1 < > > & & > * .                                                                                                                                                                                                                                                                                                     ",
"                                                                                                                                                                                                                                                                                                      . p | f p | iXbXxXAXHXHXHXgX^.w.w.w.r.n.B.D.P.T.T.Y.;X:X6X6X6X6X6X6X:X:X:XY.Y.Y.T.T.I.I.D.x.0.7.5.E P I M c l w q 1 1 > > > & & > 5 o                                                                                                                                                                                                                                                                                                     ",
"                                                                                                                                                                                                                                                                                                      . f | f p ..iXxXbXAXHXHXHXgX^.w.w.w.r.n.B.D.P.T.Y.Y.;X:X6X6X6X6X6X6X:X:X:XY.Y.Y.T.I.I.I.V.x.0.8.5.E ( I m c l w q 3 1 1 > > > & & 2 X                                                                                                                                                                                                                                                                                                     ",
"                                                                                                                                                                                                                                                                                                      O { { f f *.lXxXbXAXHXHXHXiX^.w.w.w.n.N.B.D.P.T.Y.Y.:X:X6X6X6X6X6X6X:X:X:X:XY.Y.Y.I.I.I.D.x.0.8.5.2.( K m b l w q 3 1 < > > > > & 2 o                                                                                                                                                                                                                                                                                                     ",
"                                                                                                                                                                                                                                                                                                      O | { f f %.lXbXnXAXHXHXDXyX^.w.w.r.n.N.D.D.T.T.Y.Y.:X6X6X6X6X6X6X6X:X:X:X:XY.Y.Y.I.I.I.D.x.0.8.3.2.( I M b z w q 3 1 1 > > > > & 2 @                                                                                                                                                                                                                                                                                                     ",
"                                                                                                                                                                                                                                                                                                    . + | G f f [.xXbXnXAXHXHXAXyX^.w.w.r.n.N.D.G.T.T.Y.Y.:X6X6X6X6X6X6X6X:X:X:X:XY.Y.T.I.I.I.D.x.0.8.3.2.( I m b z l w 3 1 1 > > > & & 2 @ .                                                                                                                                                                                                                                                                                                   ",
"                                                                                                                                                                                                                                                                                                    . - | G f G [.xXbXnXDXHXHXAXtX^.w.w.n.n.N.D.G.T.T.Y.Y.:X6X6X6X6X6X6X6X:X:X:X:XY.Y.T.T.I.I.D.x.0.8.3.2.( I m b z l w 4 1 1 > > > > & 2 % .                                                                                                                                                                                                                                                                                                   ",
"                                                                                                                                                                                                                                                                                                    . 8 | f f { '.xXbXnXDXHXHXAXtX^.n.w.n.n.N.D.G.T.T.Y.Y.:X:X6X6X6X6X6X6X:X:X:XY.Y.Y.Y.T.I.I.D.x.0.8.3.2.( I m b z l w 4 3 1 > > > > & > * o                                                                                                                                                                                                                                                                                                   ",
"                                                                                                                                                                                                                                                                                                    . a | f f | eXxXxXMXDXHXHXMXtX^.m.r.n.N.N.D.D.T.T.Y.Y.:X:X6X6X6X6X6X6X:X:X:XY.Y.Y.Y.Y.I.I.D.x.0.8.7.2.T I m b c l w 4 3 1 < > > > & > 5 O                                                                                                                                                                                                                                                                                                   ",
"                                                                                                                                                                                                                                                                                                    O f | f f | pXxXbXMXHXHXHXMX|.^.m.n.n.N.B.D.D.P.T.Y.Y.;X:X6X6X6X6X6X:X:X:X:XY.Y.Y.T.T.I.I.D.x.0.8.7.2.T I m b c l w q 3 1 < > > > & > 5 O                                                                                                                                                                                                                                                                                                   ",
"                                                                                                                                                                                                                                                                                                    O G { f f +.iXxXbXAXHXHXHXmX X^.m.n.n.N.B.D.I.T.T.Y.Y.;X:X6X6X6X6X:X:X:X:X:XY.Y.Y.T.I.I.I.V.x.0.8.7.2.T I m b c l w q 3 1 < > > > & > 5 o                                                                                                                                                                                                                                                                                                   ",
"                                                                                                                                                                                                                                                                                                    + { { f f -.iXjXbXAXHXHXHXvX X^.m.n.n.N.B.D.D.T.T.Y.Y.:X:X:X:X:X:X:X:X:X:X:XY.Y.Y.T.I.I.I.V.x.0.8.7.2.E P K n c z w w 3 1 < > > > & & 2 o                                                                                                                                                                                                                                                                                                   ",
"                                                                                                                                                                                                                                                                                                  O + | G f f %.iXjXbXAXHXHXHXcX X^.m.n.n.N.B.D.I.T.T.Y.Y.;X:X:X:X:X:X:X:X:X:X:XY.Y.Y.T.I.I.I.V.V.0.8.7.2.E P K n c z k w 4 1 1 > > > & & 2 @                                                                                                                                                                                                                                                                                                   ",
"                                                                                                                                                                                                                                                                                                  . * | G f G >.jXjXnXAXHXHXHXcX X^.m.n.n.N.B.D.I.T.T.Y.Y.;X:X:X:X:X:X:X:X:X:X:XY.Y.Y.T.I.I.I.D.V.0.0.7.3.E P K M b z k w 4 1 1 > > > & & 2 * .                                                                                                                                                                                                                                                                                                 ",
"                                                                                                                                                                                                                                                                                                  . - | G f { [.xXxXnXAXHXHXHXxX}.^.m.n.n.N.D.D.I.T.T.Y.Y.:X:X:X6X:X:X:X:X:X;XY.Y.Y.Y.T.I.I.I.D.V.0.0.7.3.E P K M b z l w 4 1 1 < > > > # 2 % O                                                                                                                                                                                                                                                                                                 ",
"                                                                                                                                                                                                                                                                                                  . 0 | f f } [.xXxXnXDXHXHXHXxX}.^.m.n.N.N.D.D.P.T.T.Y.Y.;X:X:X:X:X:X:X:X:X;XY.Y.Y.Y.T.I.I.I.D.x.0.0.7.3.E P K M b z l w 4 3 1 < > > > # 2 = .                                                                                                                                                                                                                                                                                                 ",
"                                                                                                                                                                                                                                                                                                  . p | f f | '.jXxXnXDXHXHXHXlX}.^.m.n.N.N.D.D.P.T.T.Y.Y.:X:X:X:X:X:X:X:X:X;X;XY.Y.Y.T.I.I.I.V.V.x.0.7.3.E ( K m b z l w w 3 1 < > > > # > 5 .                                                                                                                                                                                                                                                                                                 ",
"                                                                                                                                                                                                                                                                                                  . f | f f |  XjXxXMXDXHXHXHXgX}.^.m.n.N.N.D.D.P.T.T.Y.;X:X:X:X:X:X:X:X:X:X;X;XY.Y.Y.Y.I.I.I.V.V.0.0.7.3.E ( I m b c l w w 3 1 < > > > & > 5 O                                                                                                                                                                                                                                                                                                 ",
"                                                                                                                                                                                                                                                                                                  O { { f f +.pXjXbXMXDXHXHXDXgX}.^.m.n.N.N.D.D.P.T.Y.Y.;X:X:X:X:X:X:X:X:X:X;XY.Y.Y.Y.Y.I.I.I.V.V.0.0.7.3.E ( I V b b l w w 4 1 < > > > & > 5 .                                                                                                                                                                                                                                                                                                 ",
"                                                                                                                                                                                                                                                                                                  + | G f G -.pXxXbXMXDXHXHXDXgX}.^.m.n.N.A.D.D.T.T.Y.Y.;X:X:X:X:X:X:X:X:X:X:XY.Y.Y.Y.T.I.I.I.V.x.0.0.7.5.2.( I V M b l k w 4 3 < > > > & & 5 X                                                                                                                                                                                                                                                                                                 ",
"                                                                                                                                                                                                                                                                                                  + | G f G %.yXxXbXMXDXHXHXDXhX}.(.m.n.N.A.D.D.P.T.Y.;X;X:X:X:X:X6X:X:X:X:X:XY.Y.Y.Y.T.I.I.I.V.V.0.0.7.5.2.T I K M b z k w 4 3 1 < > > & & 2 o                                                                                                                                                                                                                                                                                                 ",
"                                                                                                                                                                                                                                                                                                . - | G f G %.iXbXnXMXDXHXHXDXhX(.(.n.N.N.A.D.S.P.T.Y.;X;X:X:X:X:X6X:X:X:X:X:X;XY.Y.Y.Y.I.I.I.V.V.x.0.7.5.2.E P K M b z k w 4 3 1 < > > & # 2 @ O                                                                                                                                                                                                                                                                                               ",
"                                                                                                                                                                                                                                                                                                . 0 | G f G >.iXbXnXAXHXHXHXVXhX(.(.m.N.N.A.D.S.P.T.#X;X;X:X:X:X:X:X:X:X:X:X:X:XY.Y.Y.Y.T.I.I.D.V.x.0.8.7.2.E P K M b z l w 4 3 1 < > > > # 2 @ .                                                                                                                                                                                                                                                                                               ",
"                                                                                                                                                                                                                                                                                                . a | f f { [.gXbXnXAXHXHXHXMXhX(.(.m.N.N.A.D.S.P.T.;X;X;X:X:X:X:X:X:X:X:X:X:X:XY.Y.Y.Y.Y.I.I.D.V.x.0.8.7.2.E ( K m b z l w w 3 1 < > > > # 2 % .                                                                                                                                                                                                                                                                                               ",
"                                                                                                                                                                                                                                                                                                . f | f G } [.xXbXMXAXHXHXHXMXyX(.^.m.N.C.A.S.P.P.T.#X;X;X:X:X:X:X:X:X:X:X:X:X:XY.Y.Y.Y.Y.I.I.D.V.x.0.8.7.1.E ( P m b c l k w 4 1 < > > > # > = O                                                                                                                                                                                                                                                                                               ",
"                                                                                                                                                                                                                                                                                                O G | f G | '.xXbXMXAXHXHXHXmX|.(.m.m.N.C.A.S.P.T.#X#X;X;X:X:X:X:X:X:X:X:X:X:X:XY.Y.Y.Y.Y.I.I.D.V.x.0.7.7.5.2.( P V M c z k w 4 3 < > > > # > 2 .                                                                                                                                                                                                                                                                                               ",
"                                                                                                                                                                                                                                                                                                O { { G G |  XxXbXMXAXHXHXHXvX|.(.m.m.N.C.A.S.P.T.Y.#X;X;X:X:X:X:X:X:X:X:X:X:X:XY.Y.Y.Y.I.I.I.D.V.x.0.8.7.5.2.T I K M b z k w 4 3 < > > > & > 2 X                                                                                                                                                                                                                                                                                               ",
"                                                                                                                                                                                                                                                                                                O | { G G | pXxXbXMXDXHXHXHXcX|.(.m.m.N.C.A.S.P.T.Y.#X;X;X:X:X:X:X:X:X:X:X:X:X:X;XY.Y.Y.I.I.I.D.V.V.0.0.7.5.2.E P K M b z k w 4 3 1 < > > & & 2 @                                                                                                                                                                                                                                                                                               ",
"                                                                                                                                                                                                                                                                                                + | G G G +.yXbXnXAXDXHXHXHXcX|.(.m.m.N.C.D.S.P.T.#X#X;X;X:X:X:X:X:X:X:X:X:X:X:X:XY.Y.Y.Y.I.I.I.V.V.V.0.7.7.2.E ( K m b z k w q 3 1 < > > & # 2 o                                                                                                                                                                                                                                                                                               ",
"                                                                                                                                                                                                                                                                                              . - | G G G *.iXbXnXAXDXHXHXHXxX X(.m.m.N.C.D.S.P.T.#X;X;X:X:X:X:X:X:X,X:X:X:X:X:X:XY.Y.Y.Y.I.I.I.V.V.V.0.7.7.1.E ( P m b z l w w 4 1 < > > > # 2 %                                                                                                                                                                                                                                                                                               ",
"                                                                                                                                                                                                                                                                                              . - | G G G %.xXbXnXAXDXHXHXHXxX}.^.m.m.N.A.D.S.P.+X#X;X;X:X:X:X:X:X,X,X,X,X:X:X:X:X;XY.Y.Y.I.I.I.D.V.V.0.7.7.5.2.( P V M c l k w 4 3 < > > > # 2 % .                                                                                                                                                                                                                                                                                             ",
"                                                                                                                                                                                                                                                                                              . 8 | G G G ^.xXbXnXAXDXHXHXDXgX}.^.m.n.N.A.D.S.P.+X#X;X;X;X:X:X:X,X,X,X,X,X:X:X:X:X;XY.Y.Y.P.I.I.V.V.V.0.0.7.5.2.( P K M b z k w 4 3 < < > > # 2 * .                                                                                                                                                                                                                                                                                             ",
"                                                                                                                                                                                                                                                                                              . a | G G { [.bXbXnXAXDXHXHXDXgX}.^.m.m.N.C.A.S.P.Y.#X;X;X;X:X:X:X,X,X,X,X,X,X:X:X:X:XY.Y.Y.P.I.I.V.V.V.i.0.7.7.2.( ( K m b z k w 4 3 < < > > : > 5 .                                                                                                                                                                                                                                                                                             ",
"                                                                                                                                                                                                                                                                                              . p | G G | }.bXbXMXAXDXHXHXDXgX(.m.m.m.N.C.A.S.P.Y.#X;X;X;X:X:X,X,X,X,X,X,X,X,X:X:X:X;XY.Y.Y.P.I.I.V.V.i.0.7.7.2.E ( P m b z k w 4 3 1 < > > : > 2 O                                                                                                                                                                                                                                                                                             ",
"                                                                                                                                                                                                                                                                                              O f | G G | eXbXbXMXAXHXHXHXDXhX(.m.m.m.N.C.A.S.P.+X#X;X;X;X:X,X,X,X6X6X6X,X,X,X,X:X:X:XY.Y.Y.P.P.I.V.V.V.0.7.7.5.E ( P V b z l w 4 3 1 < > > > > 2 o                                                                                                                                                                                                                                                                                             ",
"                                                                                                                                                                                                                                                                                              + G { G G +.tXbXnXMXDXHXHXHXVXhX(.m.e.m.N.A.A.S.P.+X#X;X;X;X:X,X,X6X6X6X6X,X,X,X,X,X:X:X;X#XY.Y.P.I.V.V.V.i.7.7.5.2.( P V b z l k w 4 1 < > > > > y o                                                                                                                                                                                                                                                                                             ",
"                                                                                                                                                                                                                                                                                              + { G G f -.iXbXbXMXDXHXHXHXVXhX(.m.e.m.C.A.S.S.P.+X#X;X;X:X,X,X,X6X6X6X6X6X,X,X,X,X:X:X;X#XY.Y.P.P.I.V.V.i.0.7.5.2.T P K M b z k w 4 1 1 < > > > 9 o                                                                                                                                                                                                                                                                                             ",
"                                                                                                                                                                                                                                                                                              * | G f G %.iXbXnXAXDXHXHXHXMXyX(.m.e.m.C.A.S.S.P.+X#X;X;X:X,X,X,X6X7X8X8X6X6X6X,X,X,X:X:X;X#XY.P.P.I.V.V.i.0.7.7.1.( ( K M b z k w 4 3 < < > > > 6 %                                                                                                                                                                                                                                                                                             ",
"                                                                                                                                                                                                                                                                                            O - | G f G %.xXbXnXAXDXHXHXHXnX|.(.y.e.m.C.C.S.S.P.+X#X;X*X>X>X,X,X6X7X8X8X8X8X6X6X,X,X,X:X;X#X#XY.P.I.V.V.V.i.7.7.2.( P K M b z k w 4 3 1 < > > > 2 % O                                                                                                                                                                                                                                                                                           ",
"                                                                                                                                                                                                                                                                                            O 7 | G f G [.xXbXnXAXDXHXHXHXvX|.(.y.e.n.C.A.S.S.+X+X#X*X;X>X>X,X6X7X8X8X8X8X8X8X6X2X,X,X:X:X;X#XY.P.I.I.V.V.i.7.7.1.~ ( P M b z k w 4 3 1 < > > > 1 * .                                                                                                                                                                                                                                                                                           ",
"                                                                                                                                                                                                                                                                                            . 0 | G f { [.xXbXnXAXDXHXHXHXnX|.^.y.e.m.C.C.S.S.oX+X#X*X;X>X>X>X6X8X8X8X8X8X8X8X8X8X,X,X:X:X;X#XY.P.P.I.V.V.i.7.7.5.~ ( P m b z k w 4 3 1 < < > > < 2 O                                                                                                                                                                                                                                                                                           ",
"                                                                                                                                                                                                                                                                                            . a | G f | '.xXbXnXAXDXHXHXHXcX|.^.y.e.m.C.A.S.S.+X+X#X*X>X>X>X>X7X8X8X8X8X8X8X8X8X8X2X,X,X:X;X#X#XY.P.I.V.V.i.7.7.5.2.( P V b z k w 4 3 1 < < > > < 5 o                                                                                                                                                                                                                                                                                           ",
"                                                                                                                                                                                                                                                                                            O p | G f |  XxXbXMXAXDXHXHXHXcX|.^.y.e.m.C.A.S.S.+X+X#X*X>X>X>X7X8X8X8X8X8X8X8X8X8X8X8X,X,X:X;X#X#XY.P.I.V.V.i.0.7.5.2.( P V b z k w 4 3 1 < < > > > 2 o                                                                                                                                                                                                                                                                                           ",
"                                                                                                                                                                                                                                                                                            O p | f f | pXbXbXMXDXDXHXHXHXxX X^.y.e.N.C.A.S.S.+X+X#X*X>X>X>X7X8X8X8X8X8X8X8X8X8X8X8X,X,X,X;X;X#XY.P.I.I.V.i.0.7.5.2.( P V b z k w 4 3 1 < < > > > 2 o                                                                                                                                                                                                                                                                                           ",
"                                                                                                                                                                                                                                                                                            O f | f i +.pXbXnXMXDXDXHXHXDXxX X^.y.e.m.C.A.S.P.+X+X#X*X>X>X>X7X8X8X8X8X8X8X8X8X8X8X8X2X,X:X;X;X#XY.P.P.I.V.i.0.7.5.2.( P V M z k w 4 3 3 1 < > > > 2 o                                                                                                                                                                                                                                                                                           ",
"                                                                                                                                                                                                                                                                                            O f  .p i -.pXbXbXMXDXHXHXHXDXxX}.^.y.e.N.C.A.S./.+X+X*X*X>X>X7X7X8X8X8X8X8X8X8X8X8X8X8X2X,X,X:X;X#X#XP.P.I.V.i.0.7.5.2.( P V M z k w 4 3 3 < < > > > 9 $                                                                                                                                                                                                                                                                                           ",
"                                                                                                                                                                                                                                                                                            O { { p i *.pXbXbXMXDXHXHXHXDXlX}.^.y.e.N.C.A.S./.+X+X*X*X>X>X7X7X8X8X8X8X8X8X8X8X8X8X8X2X,X,X;X;X#X#XP.P.A.V.i.0.7.5.2.( P V M z k w w 4 1 < < > > > 9 @                                                                                                                                                                                                                                                                                           ",
"                                                                                                                                                                                                                                                                                            O { { i i *.pXbXbXMXDXHXHXHXDXgX}.^.r.e.N.C.A.S.oX+X+X*X*X>X>X7X7X8X8X8X8X8X8X8X8X8X8X8X2X,X,X;X;X#X#XP.P.A.V.i.0.7.5.2.( P V b z k w 4 4 3 < < > > > 9 @                                                                                                                                                                                                                                                                                           ",
"                                                                                                                                                                                                                                                                                            O { { i i %.iXxXbXMXDXHXHXHXDXgX}.^.w.r.N.C.A.S./.+X+X*X*X>X>X>X8X8X8X8X8X9X8X8X8X8X8X8X8X,X,X:X;X#X#XP.P.I.V.i.0.7.5.2.( P V M z k w 4 4 3 1 < > > > 9 @                                                                                                                                                                                                                                                                                           ",
"                                                                                                                                                                                                                                                                                            O { { r i %.iXbXbXMXAXDXHXHXDXgX}.m.w.r.N.C.A.S./.+X+X*X*X>X>X>X7X8X8X8X8X9X8X8X8X8X8X8X7X>X,X:X;X#X#XP.P.I.V.i.0.7.5.2.( P V M z k k 4 4 3 1 < > > > 9 %                                                                                                                                                                                                                                                                                           ",
"                                                                                                                                                                                                                                                                                            O { { r p =.pXjXbXMXAXDXHXHXDXgX}.y.w.y.N.C.A.S./.oX+X#X*X*X>X>X7X8X8X8X8X9X8X8X8X8X8X8X7X>X,X;X;X#X#XP.P.A.V.i.0.7.1.2.( P V M z k k 4 4 1 1 < > > > 9 %                                                                                                                                                                                                                                                                                           ",
"                                                                                                                                                                                                                                                                                            O { { r p =.pXaXbXnXAXDXHXHXDXgX(.t.w.r.N.C.A.S.S.oX+X#X*X*X>X>X2X8X8X8X8X8X8X8X8X8X8X8X7X,X,X;X#X#X#XP.P.A.V.i.0.7.1.~ ( I V M z k w 4 4 3 1 < > > > 9 %                                                                                                                                                                                                                                                                                           ",
"                                                                                                                                                                                                                                                                                            O { { 0 p =.pXiXbXnXAXDXHXHXMXhX~.t.q.r.N.C.A.A.S.oX+X#X*X*X>X>X2X7X8X8X8X8X8X8X8X8X8X2X,X,X,X;X#X#XoXP.P.V.V.i.7.7.1.~ ( P V M z k w 4 3 1 < < > > > q *                                                                                                                                                                                                                                                                                           ",
"                                                                                                                                                                                                                                                                                            + { h 0 p =.sXuXjXnXAXDXHXHXMXhX~.t.q.u.m.N.C.A.S.oX+X+X*X*X*X>X1X2X8X8X8X8X8X8X8X8X8X2X,X,X;X#X#X#XY.P.P.V.i.i.7.7.1.( ( I m b z k w 4 3 1 < < > > > 9 %                                                                                                                                                                                                                                                                                           ",
"                                                                                                                                                                                                                                                                                            + { f 0 p *.eXuXjXnXAXDXHXHXMXyX~.t.q.w.e.N.C.A.S./.+X+X#X*X*X>X>X2X8X8X8X8X8X8X8X8X8X2X,X,X;X#X#X#XY.P.P.V.i.i.7.7.1.( ( I m b z k w 4 3 1 1 < > > > 9 *                                                                                                                                                                                                                                                                                           ",
"                                                                                                                                                                                                                                                                                            + { f 0 p *.wXpXaXbXAXDXHXHXnXtX^.q.O.q.e.N.N.C.S./.oX+X#X*X*X>X>X>X2X8X8X8X8X8X8X8X2X,X>X,X;X#X#XoXP.P.I.V.i.i.7.5.1.( ( K m b z k w 4 3 1 < > > > > 2 &                                                                                                                                                                                                                                                                                           ",
"                                                                                                                                                                                                                                                                                            + { f 8 p *.].sXaXbXMXDXDXHXnXtX^.O.' q.r.e.N.C.A.S.oX+X+X#X*X*X>X>X>X2X8X8X8X8X8X7X>X,X,X:X#X#XY.P.P.P.V.V.i.0.7.1.2.( P V M b z k w 4 3 1 < > > > > 2 &                                                                                                                                                                                                                                                                                           ",
"                                                                                                                                                                                                                                                                                            + { f 8 p *.].eXiXbXnXAXDXDXnXtX^.O.^ q.u.r.e.N.C.S.S.oX+X+X#X*X*X>X>X1X2X2X8X2X2X>X,X>X,X#X#XoXP.P.P.I.V.i.i.7.7.1.2.( P V M c z k w 4 3 1 < > > > > 2 %                                                                                                                                                                                                                                                                                           ",
"                                                                                                                                                                                                                                                                                            + { f 8 p *.[.eXuXbXnXAXDXDXcX|.s.O.^ ' q.r.r.p.C.A.S.S.oXoX+X#X*X*X>X>X1X2X2X2X>X,X>X>X*X#X#XP.P.P.P.V.V.i.0.7.7.1.( ( I M b z l k w 4 3 1 < > > > > 2 *                                                                                                                                                                                                                                                                                           ",
"                                                                                                                                                                                                                                                                                            + { p 8 p *.[.wXuXjXnXAXDXDXxX Xs.X.! ^ q.u.r.e.N.C.A.S.P.oXoX+X#X*X*X>X>X>X>X,X>X>X,X*X#X#XY.P.P.P.A.V.i.i.0.7.1.2.( ( I m b z k w 4 4 3 1 < > > > > 9 % .                                                                                                                                                                                                                                                                                         ",
"                                                                                                                                                                                                                                                                                          + + { p 8 a *.[.].uXjXnXAXDXAXxX}.t.X.! ^ ' 5.u.r.i.N.C.A.S.S.oXoX+X#X*X*X>X>X>X>X>X*X#X#X#XY.P.P.P.A.V.i.i.i.7.7.1.2.( P K M b z k w 4 4 1 < < > > > # 2 * O                                                                                                                                                                                                                                                                                         ",
"                                                                                                                                                                                                                                                                                          + + { p 8 a *.[.].pXjXbXMXDXAXxX}.+.! W ! ^ 5.q.u.e.p.N.A.A.S.S.oXoXoX#X#X#X*X*X*X#X#X#X#XP.P.P.I.A.V.V.i.i.0.7.1.1.( ( I V M c z k w 4 3 1 < > > > > # 2 = o                                                                                                                                                                                                                                                                                         ",
"                                                                                                                                                                                                                                                                                          O + { p 8 a *.[.].pXjXbXMXAXAXxX}.+.W H ! ^ 5.5.7.r.e.p.C.A.A.A.S.P.oXoX#X#X#X#X#X#X#X#XP.P.P.A.V.V.V.i.i.0.7.7.1.2.( ( K V b z l k w 4 3 1 < > > > > # 2 5 o                                                                                                                                                                                                                                                                                         ",
"                                                                                                                                                                                                                                                                                          O % { p 8 a *.[.].pXjXbXMXAXAXxX}.+.W H ! ^ 5.5.7.u.e.i.N.C.A.A.A.S.P.oXoX#X#X#X#X#XoXoXP.P.I.V.V.V.i.i.0.0.7.7.1.2.( ( K m b z l k w 4 3 1 < > > > & # 2 5 .                                                                                                                                                                                                                                                                                         ",
"                                                                                                                                                                                                                                                                                          . * { p 8 a *.[.wXuXjXbXAXAXAXxX}.%.! W ! ^ ' 5.5.u.r.e.p.C.C.A.A.A.S.P.oXoXoX#XoXoXP.P.P.P.A.V.i.i.i.i.0.7.7.1.2.( ( P V m b z k k 4 4 3 1 < > > > > # 2 7 .                                                                                                                                                                                                                                                                                         ",
"                                                                                                                                                                                                                                                                                          . * { p 8 p *.[.wXuXjXnXAXAXAXxX Xs.X.W ! ^ ' 5.5.u.r.r.i.p.C.C.A.A.A.S.P.P.oXoXP.P.P.P.P.A.V.i.i.i.i.i.0.7.7.1.2.( ( P V m b z k k 4 4 3 1 < > > > > # , y .                                                                                                                                                                                                                                                                                         ",
"                                                                                                                                                                                                                                                                                          . = { p y p *.[.wXuXjXnXAXAXAXbXtXs.+.! ! ^ ^ 5.5.q.u.r.r.i.p.p.C.A.A.A.A.P.P.P.P.P.P.I.A.V.p.i.i.i.i.0.7.7.1.1.2.( ( I V M b z k w 4 3 3 1 < > > : & # > y X                                                                                                                                                                                                                                                                                         ",
"                                                                                                                                                                                                                                                                                          . 5 { p 0 p *.[.wXuXjXnXAXAXAXnXyX[.%.o.^ ^ O.q.q.q.u.u.r.e.i.p.p.C.A.A.A.A.A.P.P.P.A.A.V.i.i.i.i.i.i.0.7.7.1.1.( ( ( I V M b z k w 4 3 3 1 < > > : # # > y X                                                                                                                                                                                                                                                                                         ",
"                                                                                                                                                                                                                                                                                          . y h p y s *.[.wXuXjXnXAXAXDXnXiX'.s.+.^ ^ ' ' q.q.q.u.u.r.r.i.i.p.p.C.C.A.A.A.A.A.A.V.i.i.i.i.i.i.7.7.7.1.1.2.( ( P K m b z z k w 4 3 3 1 < > > : # # > y o                                                                                                                                                                                                                                                                                         ",
"                                                                                                                                                                                                                                                                                          . a p a y h *.[.wXuXjXbXAXAXDXAXjX}.d.+.o.^ ^ ^ ^ q.5.5.u.u.u.r.i.i.i.p.p.p.C.A.A.p.p.i.i.i.7.7.7.7.7.7.7.1.2.E ( ( I V m b z l k w 4 3 3 1 < > > : # # # 2 @ .                                                                                                                                                                                                                                                                                       ",
"                                                                                                                                                                                                                                                                                          . p p a y h *.[.wXuXjXbXAXAXAXAXjXeX[.%.o.X.! ! ^ ~ 1.1.q.q.u.u.u.u.r.i.i.i.p.i.i.i.i.i.i.7.7.7.7.7.7.7.1.1.E ( ( P K V M b z l k w 4 3 1 1 < > > : # # # 2 @ .                                                                                                                                                                                                                                                                                       ",
"                                                                                                                                                                                                                                                                                          O p p a a h *.[.wXuXaXbXnXAXAXnXjXpX[.%.o.! W ! ! ! / / ~ 1.1.1.1.7.7.7.7.7.7.7.7.7.7.7.7.7.1.1.u.1.q.2.( ~ ( ( P I V m b c z k w 4 4 3 1 < < > : # # # # 2 * .                                                                                                                                                                                                                                                                                       ",
"                                                                                                                                                                                                                                                                                          % p p a a h *.=.wXsXaXjXbXSXSXSXkXuX].s.o.} W W W W W W ( / / / 1.1.1.1.1.1.1.1.1.1.1.1.1.1.1.2.u.y./ ~ ( ( ( K K V M b b z l k w 4 3 3 1 < > > > : # # # > 5 .                                                                                                                                                                                                                                                                                       ",
"                                                                                                                                                                                                                                                                                        . = s p p a h *.=.].sXaXaXbXbXbXbXjXuX].d.o.} H H H W W W W W W W W ( ( W ( ( ( ( ( ( ( ( ( ( ( ( / / ( / W V V V V M b b z l k w 4 4 3 1 < < > > > # # # # > 2 X                                                                                                                                                                                                                                                                                       ",
"                                                                                                                                                                                                                                                                                        . y p p a a { $.=.[.wXsXaXaXkXbXjXaXsXwXd.$.o.} H B B V V V V V V V V V V V V V V V V V V V V V ( ( M u.^ V M B M M z z z l k w w 4 4 3 < < < > > : # # # # # 2 o .                                                                                                                                                                                                                                                                                     ",
"                                                                                                                                                                                                                                                                                        O a p p a p { #.=.f.wXsXuXaXaXaXaXuXsXwXd.*.o.} } } B B B B B M M M M M M M M M M M M M M M M M V V b W B B B x B z x x l k w 4 4 4 3 1 1 < > > > : # # # # # 2 % .                                                                                                                                                                                                                                                                                     ",
"                                                                                                                                                                                                                                                                                      . % p p p a d C #.=.=.wXwXsXsXuXuXuXsXeXwXd.&.$.o.o.o.} } } Z B B B B B B B B M B M M M M M M M M M M B x z x x x x x x x k w w 4 4 3 3 1 < < > > : # # # # # # > 2 .                                                                                                                                                                                                                                                                                     ",
"                                                                                                                                                                                                                                                                                      . - p p p a d C #.$.=.[.wXwXsXsXsXsXwXwX].f.=.&.$.$.$.$.$.o.o.o.o.} } } } } } } } H V H V B B B M B B B B B B x x x x x k w w w 4 4 3 1 < < < > > & # # # # # # & 5 X                                                                                                                                                                                                                                                                                     ",
"                                                                                                                                                                                                                                                                                      . y p p p a p s  .$.=.=.].wXwXwXwXwXwX].f.d.=.&.&.&.&.&.&.&.&.$.$.$.$.$.$.$.$.$.$.o.o.o.o.o.} } B B B B B B B B B N x x x w w w q 4 3 1 < < > > > # # # # # # # # 2 @ .                                                                                                                                                                                                                                                                                   ",
"                                                                                                                                                                                                                                                                                    . + p p p a a p s  .#.$.=.=.f.].[.].[.f.f.=.=.=.&.&.&.&.=.=.d.d.d.d.d.d.d.d.d.d.d.d.d.d.d.d.&.$.$.o.o.} } } Z Z Z Z Z C C N x u u e 4 3 1 < < > > : # # # # # # # # > = .                                                                                                                                                                                                                                                                                   ",
"                                                                                                                                                                                                                                                                                    . 7 p p p a u u s Z #.#.$.=.=.=.=.=.=.=.=.=.=.=.=.=.=.=.d.d.d.f.f.f.f.f.UXUXUXwXwXwXwXwXwXUXf.f.d.&.&.&.$.$.$.$.$.$.$.#. .Z C C x u 4 4 3 < < > > > : # # # # # @ @ & 2 X                                                                                                                                                                                                                                                                                   ",
"                                                                                                                                                                                                                                                                                    O p p a u y u u d s  .#.#.$.*.&.=.=.=.=.=.&.&.&.&.=.=.=.d.d.f.f.f.f.UXwXwXwXwXrXrXrXrXrXrXrXrXrXwXwXUXUXUXUXUXUXf.f.d.&.$.#. .Z C N u u 2 < < > > > : # # # # # @ @ # 2 % .                                                                                                                                                                                                                                                                                 ",
"                                                                                                                                                                                                                                                                                  . * s p u y y y y u d s  .#.#.#.$.$.*.&.&.&.&.&.&.&.&.=.=.d.f.f.f.f.UXwXwXwXrXrXrXuXuXuXuXaXaXaXaXaXuXuXuXuXuXuXuXrXrXwXf.d.&.$. .Z C N u u 1 < < > > : # # # @ @ # @ @ > 5 .                                                                                                                                                                                                                                                                                 ",
"                                                                                                                                                                                                                                                                                  O y s p u y y y y y d s s Z  .#.#.#.#.#.$.$.$.$.&.&.&.=.=.d.f.f.f.f.wXwXwXrXrXrXuXuXaXaXaXkXkXkXkXkXkXkXkXkXkXIXIXkXaXuXrXUXf.&.$.#.Z C u u 2 2 < > > > # # # @ @ @ @ @ & 2 $ .                                                                                                                                                                                                                                                                               ",
"                                                                                                                                                                                                                                                                                . % p p a y y 7 y y y y d d s s Z Z  .#.#.#.#.$.$.$.&.&.&.=.d.f.f.f.wXwXwXrXrXrXuXaXaXjXkXkXkXkXkXIXIXIXSXSXSXSXSXSXSXIXkXuXrXwXf.&.$. .Z C u u 2 2 < > > : # # @ @ @ @ @ # > = .                                                                                                                                                                                                                                                                               ",
"                                                                                                                                                                                                                                                                                . 7 p p u y 7 7 5 7 5 y y d d d s C Z Z  .#.#.#.$.$.&.&.&.=.d.f.f.f.wXwXwXrXrXuXuXaXaXkXkXkXkXIXIXIXSXSXSXSXSXSXGXGXSXSXIXkXuXwXf.=.$.#.Z C u u 5 2 < > > > # # # @ @ @ @ @ & 2 o .                                                                                                                                                                                                                                                                             ",
"                                                                                                                                                                                                                                                                              . % a p a y 7 7 5 5 5 5 5 y y d d d s C Z Z  .#.#.#.$.$.&.&.&.d.f.f.f.wXwXwXrXrXuXuXaXaXkXkXkXkXIXSXSXSXGXFXFXFXFXFXFXFXSXIXkXaXrXwXd.$.#.Z C C u 5 2 2 < > > # # # @ @ @ @ @ # > 5 .                                                                                                                                                                                                                                                                             ",
"                                                                                                                                                                                                                                                                              . 7 p p u y 7 5 5 = = = 5 5 y y u d d s C Z Z  .#.#.$.$.$.&.&.d.d.f.f.].wXwXeXrXrXuXaXjXkXkXkXkXIXIXSXSXGXFXFXFXFXFXFXFXSXSXkXaXrXwXd.&.$. .Z C u u 5 2 < < > > # # # @ @ @ @ @ & 5 * .                                                                                                                                                                                                                                                                           ",
"                                                                                                                                                                                                                                                                            . % p p u y 7 7 = * * = = 5 5 5 y y d d d s Z Z  .#.#.$.$.$.&.&.d.d.f.f.f.].wXeXrXrXuXuXaXjXjXkXkXkXkXSXSXSXGXFXGXFXFXFXGXSXIXkXuXrX].d.&.$. .Z C N u 5 2 2 < > > : # # # # @ @ @ @ > 5 X                                                                                                                                                                                                                                                                           ",
"                                                                                                                                                                                                                                                                          . O y p a y y 7 5 = * * = = 5 5 5 y y d d d C Z Z  .#.#.$.$.$.&.&.d.d.f.f.f.].wXeXeXrXrXuXuXjXjXjXkXkXkXkXkXSXSXSXSXGXSXSXSXIXkXjXuXrX].f.&.$.#.Z C C u u 5 2 2 < > > : # # # @ @ @ @ # 5 = .                                                                                                                                                                                                                                                                         ",
"                                                                                                                                                                                                                                                                          . = u u u y 7 5 2 * * = = 5 5 5 y y u d d s C Z Z  .#.#.$.$.$.&.&.d.d.f.f.f.].].eXeXrXrXuXuXjXjXjXjXkXkXkXkXkXnXSXSXnXSXSXkXkXkXjXuXrX].f.=.$.#. .Z C N u u 5 2 2 < > > # # # # # @ @ @ > y o .                                                                                                                                                                                                                                                                       ",
"                                                                                                                                                                                                                                                                        . + y u u y y 7 5 * * * = 5 5 5 y y u d d s C Z Z  . .#.#.$.$.$.&.&.d.d.f.f.f.].].eXeXrXrXuXuXjXjXjXjXjXkXkXkXkXkXkXkXkXkXkXkXkXjXaXuXrX].f.d.&.$. .Z C C x u u 5 2 2 < > > # # # # @ @ @ # 2 5 .                                                                                                                                                                                                                                                                       ",
"                                                                                                                                                                                                                                                                      . O 7 u u y y 7 5 5 * = = 5 5 5 y u d d d s C Z Z  . . .#.$.$.$.&.&.d.d.d.f.f.].].wXeXrXrXuXuXhXhXjXjXkXkXkXkXkXkXkXkXkXkXkXkXkXkXjXaXuXrXwX].d.&.$.#. .Z C N u u u 3 1 < > > & # # # @ @ @ @ & y = .                                                                                                                                                                                                                                                                     ",
"                                                                                                                                                                                                                                                                      . * y u y y 7 7 5 2 5 5 5 5 y u u d d s C C Z Z  . . .#.$.$.$.&.&.d.d.d.f.f.].].].eXeXrXrXuXuXjXjXjXkXkXkXkXkXkXkXkXkXkXkXkXkXkXkXkXjXuXrXrX].f.d.&.$. .} Z C x u u q 3 1 < > > & # # # # @ @ @ > y o .                                                                                                                                                                                                                                                                   ",
"                                                                                                                                                                                                                                                                    . * y u y y y 7 2 5 5 5 5 5 y u d d s C Z Z Z  . . .#.#.$.$.$.&.&.d.d.d.f.f.].].].eXeXrXrXuXuXhXjXjXkXkXkXkXkXkXnXnXkXkXkXkXkXkXkXkXkXkXjXuXrXeX].f.&.$.$. .Z C N x u u 3 2 2 > > > & # # # @ @ @ # 5 y .                                                                                                                                                                                                                                                                   ",
"                                                                                                                                                                                                                                                                  . + y u u y y 7 7 2 5 5 5 y u u d s C C Z Z Z  . .#.#.$.$.$.&.&.&.d.d.d.f.].].].}.eXeXrXrXuXuXhXjXjXkXkXkXkXkXnXnXnXGXnXnXnXnXSXSXnXnXkXkXkXjXuXrXwXf.d.&.$.o.} Z C N u u q 2 1 < > > > & # # # # @ @ & y = .                                                                                                                                                                                                                                                                 ",
"                                                                                                                                                                                                                                                                  O 7 y u y y 7 7 7 5 5 5 y u d d s C Z Z Z  . .#.#.#.$.$.&.&.&.&.d.d.d.f.].].].].eXeXrXrXuXuXhXjXjXkXkXkXkXnXnXGXGXGXGXSXSXSXGXSXSXSXSXSXSXkXkXjXuXeX].f.&.$.$. .Z C N x u u 5 2 < < < > > & # # # @ @ @ , u % .                                                                                                                                                                                                                                                               ",
"                                                                                                                                                                                                                                                                . * y y u y y 7 7 7 5 y u u d s C Z Z  . . .#.#.#.$.$.$.&.&.&.d.d.d.d.f.].].].].}.eXrXrXuXuXhXjXjXkXkXkXnXnXGXGXGXGXGXGXGXGXGXGXGXGXGXGXSXSXSXbXkXaXsXwXf.d.&.$.o.} Z N N u u 4 2 2 < < > > > # # # # @ @ # 2 y O                                                                                                                                                                                                                                                               ",
"                                                                                                                                                                                                                                                              . % 7 u p y y y y 7 y y u u d s s Z  . . .#.#.#.$.$.$.$.&.&.&.d.d.d.d.f.].].].].}.eXeXrXuXuXhXhXjXkXkXkXnXnXGXGXGXGXGXGXGXGXGXGXGXGXGXFXFXFXGXSXSXkXjXuXeX].d.&.$.o.} Z C N x u e 4 3 1 < > > > & & # # # @ @ & y 5 .                                                                                                                                                                                                                                                             ",
"                                                                                                                                                                                                                                                            . O = u p y y y y y y y u u d s C {  . .#.#.#.$.$.$.$.&.&.&.d.d.d.d.f.].].].].}.}.eXeXrXuXuXhXhXjXjXkXkXnXnXGXGXGXDXGXFXFXFXFXFXFXFXFXFXFXFXFXFXGXSXSXkXaXrXwXf.d.*.$.o.} Z N x u u e 3 1 1 < > > > & # # # # @ @ > u = .                                                                                                                                                                                                                                                           ",
"                                                                                                                                                                                                                                                            O * y s p y y y y y y y u s s Z  . .#.#.#.$.$.$.*.&.&.&.&.d.d.d.d.[.].].].].}.eXeXrXrXuXuXuXhXjXjXkXkXnXnXGXGXGXGXFXFXFXFXFXFXFXFXFXFXFXFXFXFXFXFXGXSXkXjXuXeX].d.&.$.o.} Z C N u u u e 3 1 < < > > > & & & # # @ # 2 u o                                                                                                                                                                                                                                                           ",
"                                                                                                                                                                                                                                                          . % 7 p s y y y y y y u d s s Z  .#.#.#.$.$.$.*.&.&.&.&.d.d.d.d.f.].].].].].}.eXeXeXrXrXuXuXhXhXjXkXkXnXnXnXGXGXGXFXFXFXFXFXFXFXFXFXFXFXFXFXFXFXFXFXFXSXnXjXuXeX].d.&.$.o.} Z C N x e u e 3 1 1 < > > > > & & # # # @ & u y .                                                                                                                                                                                                                                                         ",
"                                                                                                                                                                                                                                                          O = y s u 7 y y y y y u s C {  .#.#.$.$.*.&.&.&.&.=.d.d.d.f.f.[.].].].].}.}.}.eXrXrXuXuXuXhXhXjXjXkXkXnXnXnXGXGXGXFXFXFXFXFXFXFXFXFXFXFXFXFXFXFXFXFXFXGXSXjXuXeX].d.&.$.o.} Z C N x x u e e 3 1 2 < > > > > & # # # @ @ 2 s = .                                                                                                                                                                                                                                                       ",
"                                                                                                                                                                                                                                                        . * 7 s p 7 7 y y y y u s C  . .#.#.$.$.&.&.&.=.=.d.d.f.f.[.].].].].].].}.}.eXeXrXrXtXuXuXuXhXhXjXjXkXkXnXnXnXGXGXDXFXFXFXFXFXFXHXFXFXFXFXFXFXFXFXFXFXSXSXuXuXuXeX].d.&.$.o.o.} C B N x e u e q 3 1 < < > > > > & & & # # # y d X                                                                                                                                                                                                                                                       ",
"                                                                                                                                                                                                                                                      . + 7 p s y 7 y y y y u s C  . .#.$.$.*.&.=.=.=.d.d.f.[.[.].].].].].].}.}.eXeXeXeXrXrXtXuXuXhXhXhXjXjXkXkXkXnXnXGXGXGXGXFXFXFXFXFXFXFXFXFXFXFXFXFXFXGXSXkXkXaXrXeX].[.s.%.$.o.o.} B B N N e u e e q 1 1 < < > > > & & & & # # & p y .                                                                                                                                                                                                                                                     ",
"                                                                                                                                                                                                                                                      . = y { p 7 y y y y u d C  .#.#.$.*.&.=.=.=.d.f.f.[.].].].].].].eXeXeXeXeXeXeXeXrXrXtXuXtXtXhXhXhXhXhXjXjXkXkXnXnXnXGXGXGXGXFXFXFXGXGXGXGXFXGXGXGXSXSXkXjXaXuXrXeX].d.s.%.+.o.o.} } B N N x e e e q 3 1 1 < < > > > > & & & # # 2 C =                                                                                                                                                                                                                                                     ",
"                                                                                                                                                                                                                                                    . % 7 s h 7 7 y y y u d s {  .#.$.*.&.=.=.d.f.[.[.].].].].].].eXeXeXeXeXeXeXeXeXrXrXtXtXtXtXtXtXtXhXhXhXhXhXhXjXjXkXkXkXnXnXnXGXGXGXGXFXGXGXSXSXSXSXkXkXjXuXrXd.].rXd.s.s.+.o.o.o.} } B B N x x e e q q 3 1 1 < > > > > > & & & # & u d .                                                                                                                                                                                                                                                   ",
"                                                                                                                                                                                                                                                    . 5 u { a 7 y y u y d s {  .#.$.*.=.=.=.f.[.[.].].wXwXeXeXeXeXeXeXeXeXeXeXeXrXeXeXeX|.|.}.}.|.|.|.|.|.|.tXhXhXhXhXhXhXhXhXjXjXkXkXkXnXSXGXnXnXbXkXkXjXuXrXrX}.d.[.s.s.s.+.+.o.o.} } H B B x x x e e w q 3 3 1 1 < > > > > > & & & # 2 C 5 .                                                                                                                                                                                                                                                 ",
"                                                                                                                                                                                                                                                  . + 7 s { 7 7 y y u u s Z  .#.$.*.=.=.=.f.[.].].wXwXeXeXeXeXeXeXrXeXeXrXrXeXeX X X}.}.}.}.}.}.}.}.}.}.}.}.|.3X|.3X3X<X<XhXhXhXhXhXhXhXhXhXhXjXjXjXiXuXuXeXeXrX].[.s.s.t.t.+.o.o.o.X.H H H B B x x x w w w q 3 3 1 1 < > > > > & & & # # u s X                                                                                                                                                                                                                                                 ",
"                                                                                                                                                                                                                                                  . - y { p 7 y y u u d s  .#.$.*.=.=.f.[.].wXwXwXeXeXeXeXeXrXrXrXrXtXtXrXeXeX}.}.}.}.}.(.(.(.(.(.(.(.(.(.(.(.}.}.|.3X3X3X3X3X3X3X3X<X3XhXnXnXMXjXuXuXuXtX}.}.'.s.s.s.s.s.+.o.o.X.X.W H H H B B x x x x e w q q 3 1 1 1 < > > > > & & & # > C 5 .                                                                                                                                                                                                                                               ",
"                                                                                                                                                                                                                                                . + 7 p { y y y y y p s { #.$.*.=.=.[.[.].wXwXwXeXrXrXrXrXrXpXtXtXuXuXtXeXeX}.}.}.(.(.(.(.(.(.(.(.(.(.(.(.(./././.OXOXOXOXOX3X3X3X3X3X<XcXcXzX<X}.hXhXgX3X(.}.}.s.s.s.s.+.O.^ X.! ! W H H H M B B x x x e w w q q 3 1 1 < < > > > > & & & # y s O                                                                                                                                                                                                                                               ",
"                                                                                                                                                                                                                                                . * y { s 7 y u y u s {  .#.*.=.=.f.[.].wXwXeXrXrXrXsXuXpXuXuXuXuXtXuXeX}.}.}.~.~.^.g.g.g.(.(.(.(.(././././.OXOXOXOXOXOXOXOXOXOXOXOXOX3X(.(.(.(.g.(.}.zX(.u.(.^.q.t.q.O.^ ! ! ! ! W W W H D M B B x x x x e w w q q 3 1 1 < < > > > > & & # > s = .                                                                                                                                                                                                                                             ",
"                                                                                                                                                                                                                                              . O - a { u 7 y y u p s  .#.*.&.=.[.[.wXwXeXrXsXsXsXuXuXuXuXuXuXuXuXuXtX}.}.~.~.g.g.y.y.y.g.(.(.(./.(././././.OXOXOXOXOXOXOXOXOXOX/./.A./.zX/.}.JX XC.(.q.^.^.(.5.^ ' ^ ^ ! ^ ^ ! ! W W W D D M M B v x x x e e w w q 3 3 1 1 < > > > > & & & & y d .                                                                                                                                                                                                                                             ",
"                                                                                                                                                                                                                                              . * 7 s s 7 7 y y a s { #.$.&.=.[.[.wXwXeXsXsXsXuXuXuXuXuXuXuXuXuXuXtX X}.~.g.g.y.y.y.y.y.p.(.(.(./././././.OXOXOXOXOXOXOXOXoXoXoX3XhXS.A.3X(.(.(.C.A.r.m.zX(.5.y.q.^ s.~.^ ' ^ ! ! W W W K D D M M b x x x x w w w q q 3 3 1 < < > > > > & & & > s *                                                                                                                                                                                                                                             ",
"                                                                                                                                                                                                                                              O - y { p 7 y y u p s  .#.*.=.d.[.wXwXeXsXpXuXuXuXuXaXaXaXgXgXuXuXtXeX}.~.g.y.y.y.y.y.y.p.p.C.(././././.oXOXOXoXOXoXOXOXOXOXoXoXoXOX<X/.S./.zXgX(.hX|.^.C.r.y. X}.g.t.O.^ ^ ! U ! ! ! W W W D D M M b b z x x x w w w q q 3 1 1 < < > > > > & & # u u .                                                                                                                                                                                                                                           ",
"                                                                                                                                                                                                                                            . + 7 p { y y y y u s { #.$.=.d.[.wXeXsXsXuXuXuXaXaXaXaXjXjXjXgXhXuXtX}.~.s.y.y.y.y.y.y.y.p.p.C.A././././.oXoXoXoXOXOXOX+X#X+X+X+XOXoXP.S.<X<X/./.(.zXhX(.<Xr.g.<Xu.y.O.U / ^ U P ! ! ! W W W D D M M n b z x x x l w w w q 4 3 1 1 < > > > > & & # 2 s o                                                                                                                                                                                                                                           ",
"                                                                                                                                                                                                                                            . * 7 s s y y y y p s  .#.*.=.[.wXeXsXpXuXuXaXaXaXjXjXjXjXjXjXgXhXtX}.~.g.y.y.y.y.y.y.y.y.p.p.C.A.A./.oXoXoXoXoXOX+X+X#X#X#X#X#X#XOXOXoXoX/.OXA.V.V.V.N.0.i.e.y.5.C.(./ ~ 5.~ T ! ! ! ! ! W W K D D M M b c z x x l w w w q q 3 3 1 1 1 > > > > > & # u y .                                                                                                                                                                                                                                         ",
"                                                                                                                                                                                                                                            O 7 y { p 7 y y u s {  .*.=.[.wXeXsXsXuXaXaXaXjXjXjXjXjXjXjXjXgXtX X~.s.y.y.y.y.y.y.y.y.p.p.C.C.A.A./.oXoXoXoXOXOX#X#X#X*X*X*X*X#X#X#XoXoX<X$XOX7XoXV.V.V.i.i.C.p.(.u.7.u.q.5.~ ~ / / ! ! W W W D D m M n b c z z l l w w w q 4 3 1 1 1 < > > > > & # 2 s O                                                                                                                                                                                                                                         ",
"                                                                                                                                                                                                                                          . % 7 a { y 7 y y a s { #.*.d.].eXsXsXuXaXaXaXjXjXjXjXjXjXkXjXjXhXtX~.s.y.u.y.y.y.y.y.y.p.p.C.C.A.A./.oXoXoXoXOX+X#X#X*X*X*X*X*X*X*X#X#X+XoX<X$X/.$XoXP.P.S.A.N.C.<X|.y.u.C.u.5.5.` ~ / ! ! W P L K D m M n b c z x z l l w w w q 3 3 1 1 < > > > > > # & C =                                                                                                                                                                                                                                         ",
"                                                                                                                                                                                                                                          . * 7 s h y y y y p s  .$.=.[.wXsXuXuXaXaXaXjXjXjXjXkXbXbXkXjXgXtX}.s.y.u.y.y.y.y.y.e.p.p.p.C.C.A././.oXoXoXOX+X#X*X*X*X*X*X*X*X*X*X*X#X#XoXoXoX=XoXP.P.P.S.A.A.p.(.y.r.u.e.r.7.5.5.` ~ / / ! P L K D m m n b c c x z l l w w w q 4 3 1 1 1 > > > > > & # u u .                                                                                                                                                                                                                                       ",
"                                                                                                                                                                                                                                          . - y { s 7 y y y p s  .*.[.wXsXuXuXaXaXaXjXjXjXkXbXbXbXbXbXjXhX}.^.y.u.y.y.y.y.e.e.e.p.p.C.C.A.A./.oXoXoXoX#X#X#X*X*X*X*X*X*X*X*X*X*X#X#X#X#X+X<X#XoXoXP.P.A.A.oX3X/.N.i.8.r.7.7.5.5.~ ~ / T P L K K D m M b b c z z z l l w w q 4 3 3 1 1 < > > > > & # < s X                                                                                                                                                                                                                                       ",
"                                                                                                                                                                                                                                        . O 7 a  .a 7 y y u s { #.=.[.eXpXuXaXaXjXjXjXbXbXbXnXnXnXnXxXjXtX~.t.u.y.y.y.e.e.e.e.e.p.C.C.A.A.A./.oXoXoX+X#X#X#X*X*X*X*X*X*X*X*X*X*X*X#X*X#X#X+XoXoXoXP.P.S.A.S./.C.i.N.r.r.r.7.7.5.5.~ / T P P L K D m M M b c c z z l l w w w q 4 3 1 1 < < > > > & # # d *                                                                                                                                                                                                                                       ",
"                                                                                                                                                                                                                                        . % 7 s { y 7 y y u s { #.=.wXsXuXaXaXjXjXjXbXbXbXnXnXnXnXnXkXhX}.s.t.u.y.y.y.e.e.e.p.p.C.C.A.A.S./.oXoXoX+X#X#X#X*X*X*X*X*X>X*X>X>X*X*X*X*X*X#X#X#X#X#XoXoXP.P.P.S.A.V.N.C.N.r.r.u.7.5.5.~ ~ T P P I K D m m M b b c z z l l k w w w q 3 3 1 1 < > > > > # @ u y .                                                                                                                                                                                                                                     ",
"                                                                                                                                                                                                                                        . * 7 h h 7 7 y y a s  .$.[.eXuXaXaXjXjXjXbXbXbXnXnXnXnXnXnXjXtX~.t.u.u.y.y.e.e.e.p.p.C.C.C.A.A./.oXoXoXoX+X#X#X*X*X*X>X>X>X>X>X>X>X>X>X*X*X#X*X#X#X#X#XoXoXP.P.P.P.P.S.A.C.N.e.r.r.7.7.5.5.~ T T P L I K D m M b b c c z z l l w w w q 4 3 1 1 < > > > > # @ 2 u .                                                                                                                                                                                                                                     ",
"                                                                                                                                                                                                                                        . - y  .p 7 7 y y a s  .&.].pXiXaXjXjXbXxXbXnXnXnXMXMXMXnXnXgX Xg.u.u.y.y.y.e.p.p.p.C.C.C.A.A././.oXoXoX+X#X#X*X*X*X*X>X>X>X>X>X>X>X>X>X>X*X*X*X#X#X#X#X+X+XP.P.P.P.S.A.V.N.N.i.i.r.u.7.5.5.~ T T P I I K D m M M b c c z z l l w w w w 4 3 1 1 < < > > > # @ > C o                                                                                                                                                                                                                                     ",
"                                                                                                                                                                                                                                      . O 7 a  .a 7 7 y y p C  .=.wXuXaXaXjXbXbXbXnXnXnXMXMXMXMXnXxXhX'.y.u.u.y.y.e.e.p.p.C.C.C.A.A.A./.oXoXoX+X#X#X*X*X*X*X>X>X>X>X>X>X>X>X>X>X>X>X*X*X*X#X#X#X#X+XoXP.P.P.S.S.A.V.N.N.i.r.r.7.5.5.~ / T P I I K D m M n b c c z z l l w w w w 4 3 1 1 1 < > > > # # @ p = .                                                                                                                                                                                                                                   ",
"                                                                                                                                                                                                                                      . % 7 p  .y 7 7 y y p { #.[.pXaXjXjXjXbXbXbXbXnXMXAXAXAXAXnXjXtX~.t.u.u.y.y.e.e.p.p.C.C.A.A.A./.oXoXoXoX+X#X#X*X*X*X>X>X>X>X>X>X>X>X>X>X>X>X>X>X,X*X*X#X#X#X#X+X+X+XP.P.S.A.A.N.N.i.i.r.7.7.5.1.~ T U P I K D m m n b c c z z z l w w w w 4 4 3 1 1 < > > > # # $ u u .                                                                                                                                                                                                                                   ",
"                                                                                                                                                                                                                                      . * 7 s { y 7 7 y y p { $.[.uXaXjXjXjXbXbXnXnXMXAXAXDXAXAXnXgX Xg.u.u.u.y.e.e.e.p.N.C.C.A.A.S./.oXoXoX+X#X#X*X*X*X>X>X>X>X>X2X2X2X2X2X>X>X>X,X,X>X>X*X#X#X#X#X#X#X+XP.P.P.S.A.V.N.N.i.r.7.7.5.1.~ T T P I K D m m n b b c z z z l w w w w 4 4 3 1 1 < > > > : # $ 2 s .                                                                                                                                                                                                                                   ",
"                                                                                                                                                                                                                                      . - 7 { { 7 7 7 y y s  .*.wXiXjXjXjXxXbXnXnXnXMXAXDXDXDXGXnXhX}.s.u.u.y.y.y.e.e.p.C.C.A.A.A.S.oXoXoXoX+X#X*X*X*X*X>X>X>X>X>X2X2X2X2X2X2X>X,X,X>X>X>X>X*X#X#X#X#X#X#X+XP.P.S.A.A.N.N.i.r.7.7.5.5.~ / T P I I K D m n b b c c z z l k w w w 4 4 3 3 1 < < > > > # @ # Z X                                                                                                                                                                                                                                   ",
"                                                                                                                                                                                                                                      . 7 8  .s 7 7 7 y a s  .=.sXaXjXjXxXbXbXnXnXMXAXDXDXDXDXVXxXtX~.y.u.u.y.y.y.p.p.p.C.C.A.A.S./.oXoXoXoX+X#X*X*X*X>X>X>X>X2X2X2X2X8X8X7X2X2X>X,X>X,X>X>X:X*X;X#X#X#X#X+X+XP.S.A.A.V.N.i.i.r.7.5.5.1.~ T P I I K D m n b b c c z z l k w w w 4 4 3 3 1 < < > > > # # $ C =                                                                                                                                                                                                                                   ",
"                                                                                                                                                                                                                                      . 7 0  .p 7 7 y y a s  .d.pXjXjXxXbXbXbXnXMXAXDXDXDXDXDXMXjX|.~.y.u.u.y.y.e.e.p.p.C.C.A.A.S./.oXoXoX+X+X#X*X*X*X>X>X>X>X2X2X8X8X8X8X8X8X8X2X>X,X,X>X>X>X*X*X;X*X#X#X#X+XP.P.A.A.V.N.i.i.r.7.7.5.1.~ T P I I K D m n b b c c z z l k w w w 4 4 3 3 1 < < > > > # # $ s 5 .                                                                                                                                                                                                                                 ",
"                                                                                                                                                                                                                                      O 7 p  .a 7 7 7 y a s #.[.iXjXjXxXbXnXnXnXMXAXDXDXDXDXDXnXgX}.^.y.u.u.y.y.e.e.p.p.C.C.A.A.S./.oXoXoX+X+X#X*X*X*X>X>X>X2X2X8X8X8X8X8X8X8X8X2X2X>X,X>X>X>X>X*X*X*X*X#X#X+XP.P.A.A.V.N.N.i.r.7.7.5.1.~ / P I I K S m n b b c c z l l k w w w w 4 3 3 1 1 < > > > # # $ u u .                                                                                                                                                                                                                                 ",
"                                                                                                                                                                                                                                    . o 7 p  .y 7 7 y y a { $.].aXjXxXbXbXnXnXMXMXDXDXDXDXDXDXnXhX}.^.y.u.u.r.y.r.e.p.N.C.C.A.A.S./.oXoXoX+X#X#X*X*X>X>X>X2X7X8X8X8X8X8X8X8X8X8X8X7X2X>X>X,X>X>X>X*X*X*X#X#X+X+XP.S.A.V.N.N.i.r.7.7.5.5.~ T ( I I K m m n b b c z z l l k w w w 4 4 3 1 1 < < > > > & # $ 2 p O                                                                                                                                                                                                                                 ",
"                                                                                                                                                                                                                                    . O 8 {  .7 7 7 y y p { *.eXiXjXxXbXbXnXnXMXAXDXDXDXDXDXDXcXhX}.^.y.u.u.u.r.r.e.p.p.C.C.A.A.S.S.oXoXoX+X$X*X*X*X>X>X>X2X8X7X8X8X8X8X8X8X8X8X8X8X7X7X>X,X,X>X>X;X*X*X*X#X+X+XP.S.A.A.N.N.i.r.7.7.5.5.~ T ( I I K m m n b b c z z l l k w w w 4 4 3 1 1 < < > > > # # @ & s X                                                                                                                                                                                                                                 ",
"                                                                                                                                                                                                                                    . + 8  . .7 7 7 y y p { *.pXjXjXxXbXbXnXMXAXDXDXDXDXDXDXDXxXtX'.g.y.u.u.u.r.y.e.p.p.C.C.A.A.A.S.oXoXoX+X#X*X*X*X>X>X1X2X7X8X8X8X8X8X8X8X8X8X8X8X8X7X2X>X>X>X>X>X*X*X*X#X+X+XP.S.A.A.N.N.i.r.7.7.5.5.~ / T P I K m m n b b c z z l l w w w w 4 3 3 1 1 < < > > : # # @ # s o                                                                                                                                                                                                                                 ",
"                                                                                                                                                                                                                                    . + 0  .{ 7 7 7 7 y s { *.pXjXjXbXbXnXnXMXAXDXDXDXDXDXDXVXxXtX~.g.y.u.u.u.r.y.e.p.p.N.C.C.A.A.S./.oXoX+X$X*X*X*X>X>X2X7X8X8X8X8X9X9X8X8X8X8X8X8X8X7X7X>X>X>X>X>X;X*X*X#X+X+XP.S.A.A.N.N.i.r.7.7.5.5.~ / T L I K m M n b c c z l l k w w w w 4 3 3 1 1 < < > > > # # # @ p %                                                                                                                                                                                                                                 ",
"                                                                                                                                                                                                                                    . + 0  .{ - 7 7 7 y p { &.uXjXxXbXbXnXnXMXAXDXDXDXHXHXDXMXjX|.~.g.y.u.u.u.u.r.y.e.p.p.C.C.A.A.S./.oXoX+X$X*X*X-X>X1X2X7X8X8X9X9X9X9X9X9X8X8X8X8X8X8X7X7X>X,X>X>X;X*X*X#X#X+XP.S.A.A.N.N.i.r.7.7.5.5.~ T P I I K m M n b c z z l l k w w w 4 4 3 3 1 1 < < > > > # # # @ p *                                                                                                                                                                                                                                 ",
"                                                                                                                                                                                                                                    . % a ..{ - 7 7 7 y p { =.uXjXxXbXbXnXnXMXDXDXDXDXHXHXDXMXgX|.~.g.y.u.u.u.u.r.r.e.p.p.C.C.A.A.S./.oXoX+X$X*X*X-X>X2X2X8X8X9X9X9X9X9X9X9X9X9X8X8X8X8X8X7X7X>X>X>X;X*X*X#X+X+XP.S.A.A.N.N.r.r.7.7.5.5.~ / P I I K m M b b c z l l k w w w w 4 4 3 3 1 1 < < > > > # # # @ u = O                                                                                                                                                                                                                               ",
"                                                                                                                                                                                                                                    . % p -.f * 7 7 7 y p { =.uXjXxXbXbXnXnXMXDXDXDXDXDXHXDXmXgX|.~.s.y.u.u.u.u.r.r.r.e.p.C.C.C.A.S./.oXoX+X$X*X-X-X1X1X7X8X9X9X9X9X9X9X9X9X9X9X8X8X8X8X8X7X7X>X>X>X;X*X*X#X+X+XP.S.A.V.N.i.r.8.7.7.5.5.~ T P I I K m n b b z z l l k w w w 4 4 4 3 3 1 < < < > > : & # # @ u 2 o                                                                                                                                                                                                                               ",
"                                                                                                                                                                                                                                    . % p -.p * 7 7 7 y p { &.uXjXxXbXbXnXnXAXDXDXDXDXDXDXDXnXgX X~.s.y.u.u.u.u.u.r.r.e.p.p.C.C.A.S./.oXoX+X$X$X-X-X1X1X7X8X9X9X9X9X9X9X9X9X9X9X9X8X8X8X8X8X7X>X>X>X;X*X#X#X+X+XP.S.A.C.N.i.r.7.7.5.5.~ / T P I K m m n b c z z l k k w w w 4 4 3 3 3 1 < < < > > : & # # @ u y O                                                                                                                                                                                                                               ",
"                                                                                                                                                                                                                                    . * f -.p * - 7 7 y p { &.pXjXxXbXnXnXnXAXDXDXDXDXHXDXDXvXgX X~.g.t.u.u.q.u.u.r.r.y.e.p.C.C.A./././.oX+X$X$X-X1X1X1X7X9X9X9X9X9X9X9X9X9X9X9X9X8X8X8X8X8X7X>X>X>X;X*X#X#X+XoXP.A.A.C.N.i.r.7.7.5.5.~ ~ T P I K m M b b c z l k k w w w 4 4 4 3 3 1 1 < < < > > : # # # @ u y o                                                                                                                                                                                                                               ",
"                                                                                                                                                                                                                                    . * f -.a * - 7 7 y p { &.pXjXxXbXnXnXnXMXAXDXDXDXDXDXDXnXgX X~.g.t.u.u.q.q.u.u.r.y.e.p.C.C.A./././.oX+X$X$X-X-X1X7X7X9X9X9X9X9X9X9X9X9X9X9X9X8X9X8X8X8X7X7X>X>X*X*X#X#X+XP.S.A.A.N.N.i.r.7.7.5.5.~ / T P I K m n b b c z l k w w w 4 4 4 3 3 3 1 1 < < > > > > # & # @ y y o                                                                                                                                                                                                                               ",
"                                                                                                                                                                                                                                    . * f -.a * - 7 7 y p { *.pXjXxXbXbXnXnXMXAXDXDXDXDXDXDXcXgX}.~.s.t.u.q.q.q.u.u.r.r.e.p.C.C.C.A././.oX+X$X*X=X1X1X7X7X9X9X9X9X9X9X9X9X9X9X9X9X8X8X8X8X8X7X7X>X-X*X*X#X#X+XP.S.A.C.N.i.r.r.7.7.5.1.~ / T L I K m M b c z l l k w w w 4 4 4 3 3 3 1 1 < < > > > : # & # @ y y o                                                                                                                                                                                                                               ",
"                                                                                                                                                                                                                                    . * f -.r * - 7 7 y p { *.pXgXjXbXbXnXnXMXAXDXDXDXDXDXVXcXhX}.~.s.t.q.q.q.q.q.u.u.r.y.e.C.C.C.A././.oX+X$X$X=X1X1X7X7X9X9X9X9X9X9X9X9X9X9X9X9X9X9X8X8X8X7X7X>X-X*X*X#X+X+XP.S.A.C.N.i.r.u.7.5.5.1.~ T P I K D M b b c z l l k w w w 4 4 3 3 3 1 1 1 < < > > > : # & # @ y u o                                                                                                                                                                                                                               ",
"                                                                                                                                                                                                                                    . * f -.0 * - 7 7 y p { *.eXiXjXxXbXbXnXMXMXDXDXDXDXDXMXcXyX}.~.s.t.q.q.q.q.q.q.u.u.r.e.p.C.C.A./././.+X$X$X=X1X1X1X7X7X9X9X9X9X9X9X9X9X9X9X9X9X9X8X8X8X7X>X>X-X*X#X#X+X+XP.S.A.C.N.i.r.7.7.5.5.~ / T P I K m M b b z z l k w w w 4 4 3 3 3 3 1 1 < < < > > > : # & # @ 7 p o                                                                                                                                                                                                                               ",
"                                                                                                                                                                                                                                    . * f -.0 * - 7 7 y p s *.eXiXjXxXbXbXbXnXMXVXDXDXDXDXMXxXtX}.^.s.t.q.q.q.q.q.q.u.u.r.e.e.C.C.A.A././.OX+X$X=X-X1X1X7X7X7X9X9X9X9X9X9X9X9X9X9X9X9X8X8X7X7X>X>X-X*X#X+X+XoXS.A.A.N.N.e.r.u.7.5.1.~ / P L I K m M b c z l l k w w 4 4 4 3 3 3 1 1 1 < < < > > > : # & # @ 7 p o                                                                                                                                                                                                                               ",
"                                                                                                                                                                                                                                    . * p -.0 * - 7 7 8 a s $.}.iXiXjXxXbXbXnXnXMXVXDXDXDXmXxXtX'.^.s.t.q.O.' q.q.q.q.u.u.r.e.p.C.C.A./././.+X$X*X=X1X1X1X7X7X7X9X9X9X9X9X9X9X9X9X9X8X8X7X7X7X>X-X*X#X#X+X+XP.S.A.C.N.i.r.u.7.5.5.~ ~ / P L K m M b c z z l k w w w 4 4 3 3 3 1 1 1 1 < < > > > > : # & # @ 7 p o                                                                                                                                                                                                                               ",
"                                                                                                                                                                                                                                    . % p -.0 * - 7 7 8 a s o.[.pXiXjXxXxXbXbXnXMXMXMXMXMXvXgXtX'.s.t.q.O.' ^ O.5.q.q.q.u.u.y.e.m.C.C././././.$X$X=X-X1X1X1X7X7X7X9X9X9X9X9X9X9X9X9X8X7X7X>X>X-X-X*X#X+X+X+XS.S.A.C.N.i.r.u.7.5.5.~ / T L K D m n b c z l l k w w 4 4 4 3 3 1 1 1 1 < < < > > : : : # & & $ 7 p @                                                                                                                                                                                                                               ",
"                                                                                                                                                                                                                                    . % p ..0 * - 7 7 8 y p  .[.eXpXiXgXjXxXxXxXbXnXvXnXnXxXiX X~.s.t.O.O.' ^ ' ^ 5.q.q.u.u.u.y.e.C.C.C.A././.+X$X$X=X-X1X1X7X7X7X9X9X9X9X9X9X8X8X7X7X7X7X>X-X-X*X#X+X+X+XS.S.A.A.N.N.r.r.u.5.5.~ ~ / ( L K m m b c z z l k w w 4 4 4 3 3 3 1 1 1 1 < < < > > : : : # # & $ y p @                                                                                                                                                                                                                               ",
"                                                                                                                                                                                                                                    . % a ..0 * - - 7 7 y p  .=.[.}.pXyXiXiXiXgXjXjXxXxXjXgXtX}.^.s.O.O.^ ^ ^ ^ ^ ^ q.q.q.u.u.r.e.e.C.C.C./././.).$X$X$X=X1X1X7X7X7X7X7X7X7X8X7X7X7X7X>X>X-X-X*X#X#X+XoXP.S.A.A.C.N.i.r.u.7.5.5.~ / ! P I D m n b c z l k w w w 4 4 3 3 3 1 1 1 1 < < < > > > : : # # # # @ u p o                                                                                                                                                                                                                               ",
"                                                                                                                                                                                                                                    . % 0 ..0 * - 7 7 7 y p { *.d.[.}.eXpXpXpXtXyXiXiXiXyXtX}.'.s.+.O.O.^ ^ ^ ^ ^ ^ ^ ^ q.q.u.u.u.y.e.y.C.C.C././././.+X$X$X$X=X-X-X-X1X1X7X7X1X1X>X>X-X-X-X*X#X+X+XP.S.A.A.C.N.i.r.r.7.7.5.5.~ / T P K K m n b c z l l k w w 4 4 4 3 3 1 1 1 1 < < < < > > : : : # # # # $ u p o                                                                                                                                                                                                                               ",
"                                                                                                                                                                                                                                    . + 0 ..a * * - 7 7 8 a C  .*.=.[.[.'.'.}.}. XeXeXeX X'.'.s.%.+.X.X.! ! ! ! ! ! / ^ ^ 1.q.q.q.q.u.u.r.y.e.N.C.C.C.A./././././.+X+X$X$X$X*X*X*X*X*X*X*X*X#X+XP.S.A.C.N.i.r.r.7.7.7.5.5.~ ~ / U L K K m M b c z z l k w w 4 4 4 3 3 1 1 1 < < < < < > > : : : : # # # # X p u O                                                                                                                                                                                                                               ",
"                                                                                                                                                                                                                                    . + 8 ..p * * 7 7 7 7 y p {  .-.*.%.s.d.^.[.[.[.[.[.~.^.s.%.+.X.W W W W W W W W ( ( ( / / / ^ ~ ~ 1.1.5.q.q.q.u.u.u.r.r.r.e.p.p.N.C.C.C.A.A.A.A.S.S.S.S.A.N.N.i.r.r.7.7.5.5.5.1.~ ~ / T P L I K D m n b c z z l k w w 4 4 4 3 3 1 1 1 1 < < < > > > > : : : : # # # # X C y                                                                                                                                                                                                                                 ",
"                                                                                                                                                                                                                                    . O 9 ..p * * * 7 7 7 7 y p {  .| o.$.*.%.%.%.%.%.%.%.%.+.X.| H D D D D H W W W W W W W ( ( ( ( ( ( ( / / ~ / ~ 1.1.1.1.1.5.5.5.5.5.7.7.7.7.7.7.r.r.r.7.7.7.7.5.2.2.2.2.~ ~ / T T ( P I I K K m m n b b c z l k w w w 4 4 3 3 1 1 1 1 < < < > > > > : : : : : # # # @ @ { =                                                                                                                                                                                                                                 ",
"                                                                                                                                                                                                                                      O -  .f * * * * 7 7 7 9 8 p N { } | o.o.+.+.+.+.o.o.X.| H H H F D D D D D K K W W P W L P W ( ( ( ( ( / / / ~ ~ 1.1.1.1.1.1.1.1.1.1.1.1.1.5.5.5.1.1.1.2.2.2.2.( ( ( ( E ( ( ( ( P P I K K m M n b b c z l k w w w 4 4 3 3 1 1 1 < < < < < > > > : > : : : # # # # # # { @                                                                                                                                                                                                                                 ",
"                                                                                                                                                                                                                                      O -  .{ * * * * , 7 7 7 9 e r i N { } | | X.X.| | } H H H M N M M M M M D D K K K W P L L W ( ( ( ( ( / ~ ~ 1.1.1.1.1.1.1.5.5.5.5.1.5.5.5.7.5.5.1.1.2.2.2.2.E E E ( ( ( ( ( ( P I P K K m m n b b c z l l k w w w 4 4 3 3 1 1 1 < < > > > > > : : : : : # # # # @ @ 2 C O                                                                                                                                                                                                                                 ",
"                                                                                                                                                                                                                                      O - f { - * * * * , , 7 9 8 r i N G } | | | | | } H H N N v v B B M M M M D D K K W W W W ( ( ( ( ~ / / 1.1.1.5.5.7.5.5.7.7.7.7.7.7.7.7.7.7.7.7.7.5.1.2.1.1.2.2.E E ( ( ( ( ( ( P P K K m M n b c c z l l k w w w 4 4 3 3 1 1 < < > > > > > > : > : : # # # # @ @ $ y s .                                                                                                                                                                                                                                 ",
"                                                                                                                                                                                                                                      . * p f 7 * * * * , 7 7 9 8 r p N G } } | | } } H H N N v v v B B M M M M D D K W W W W W ( ( ( ~ / ~ 1.1.1.5.5.5.5.7.7.7.7.7.7.r.7.7.7.7.7.7.7.7.7.5.1.1.2.1.2.2.~ ~ ~ ( T ( ( L P K m m M b b c z z l k w w w 4 4 3 3 1 1 1 < < > > > > > : > > : # # # # # # @ X p y .                                                                                                                                                                                                                                 ",
"                                                                                                                                                                                                                                      . % 0 f 7 * * * * , 7 7 9 8 r r N G } } } } } } H H H N N v v B M M M M M D D K K W W W ( ( ( ( ~ / ~ 1.1.1.5.5.5.5.7.7.7.7.7.7.7.7.7.7.r.r.7.7.7.7.7.5.1.2.1.2.2.~ ~ / ( T ( P P K K m M n b b c z z l k w w w 4 4 3 3 1 1 < < < > > > : > > > : : # # # # # # # X C =                                                                                                                                                                                                                                   ",
"                                                                                                                                                                                                                                        O 8 p 7 * * * * , 7 9 9 8 r p N G } } } | | } } } H H N N M M M M M M M D K K W W W W ( ( ( ( ~ / ~ 1.1.1.5.5.5.5.7.7.7.7.7.7.7.7.7.7.r.r.7.7.7.7.7.7.5.2.2.2.2.~ ~ / ( ( ( P P K K m M n b b c z l l k w w w 4 4 3 3 1 1 < < > > > > > > > : : # # # # # @ # @ @ { %                                                                                                                                                                                                                                   ",
"                                                                                                                                                                                                                                        O 7 p y * * * * 7 7 9 8 u p i N { } } | | | | X.X.| } H H H M M M M M D D K K K W W W ( ( ( ( ~ ~ 1.1.1.5.5.5.5.7.7.7.7.7.7.r.r.r.r.r.i.0.8.8.7.7.7.7.5.2.2.1.2.~ ~ / / T ( P L K K m M b b b z z l l w w w w 4 4 3 3 1 < < < > > > > > > > : : # # # # @ # @ $ # C o                                                                                                                                                                                                                                   ",
"                                                                                                                                                                                                                                        O - p y * * * * 7 7 7 e r p N { } | o.o.o.+.+.+.+.+.X.X.H H D D M M D D D K W W W W W ( ( ( ~ ~ ~ 1.1.5.5.5.7.u.7.u.r.r.r.r.i.i.i.i.i.i.i.i.i.8.7.7.7.5.1.2.2.2.~ ~ / / T ( P P I K m M b b b c z l l w w w 4 4 4 3 1 1 < < < < > > : : > : : : # # # # # # @ $ 2 s .                                                                                                                                                                                                                                   ",
"                                                                                                                                                                                                                                        . - p y - * * , 7 9 8 r p p { } | o.+.*.%.%.%.s.s.%.+.o.X.H H H D D D D K K W W W W ( ( ( ~ ~ ~ 1.1.5.5.7.7.7.7.u.r.r.r.i.i.i.i.i.i.N.N.N.N.i.i.7.7.7.5.5.2.1.1.2.2.~ / T ( P L I K m M M b b c z l l w w w 4 4 3 3 1 1 < < > > > > : : : : : : # # # # # # @ $ y p .                                                                                                                                                                                                                                   ",
"                                                                                                                                                                                                                                        . * p a - * , 7 7 7 y r p N } | o.*.%.s.s.^.[.[.[.^.s.+.o.X.W W W W K K W W W W W ( ( ( / ~ ~ 1.5.5.5.q.7.7.u.r.r.r.i.i.N.N.N.N.N.N.N.N.V.N.N.N.i.7.7.7.5.5.5.1.1.1.~ ~ T T P P L K K m M n b c z z l k w w w 4 3 3 1 1 < < < > > > : : : : : # # # # # # # @ $ u y .                                                                                                                                                                                                                                   ",
"                                                                                                                                                                                                                                        O % p p 7 * 7 7 7 8 r p p {  .o.*.%.^.[.'.'.}.}.}.'.~.s.+.o.X.! W W W W W W W ( ! ( / / ^ ~ 5.5.5.q.q.u.r.r.e.p.N.C.C.C.C.A.A.A.A.A.A.A.A.A.A.C.N.i.8.7.7.5.5.5.5.1.1.~ / / T P L K K m m M b c c z l l w w w 4 4 3 3 1 1 < < > > > > > > : : # # # # # # # # $ s 5                                                                                                                                                                                                                                     ",
"                                                                                                                                                                                                                                        . % p p 7 7 7 7 7 8 a p {  .o.*.%.[.'.}. X XtXtXtX X}.~.s.+.O.X.! ! ! ! W ( ! ! ! / ^ ^ ^ 5.5.5.q.u.r.r.e.N.N.C.A.A.S.S.S.S.S.S.S.P.P.S.S.S.S.A.C.N.i.8.7.7.7.5.5.5.1.1.~ ~ T T P L K K m M b b c z z l k w w 4 4 3 3 1 1 < < > > > > > > : : # # # # # # # # @ s =                                                                                                                                                                                                                                     ",
"                                                                                                                                                                                                                                        . % f p 7 7 7 7 8 y p p {  .-.%.[.'. XtXyXyXiXiXiXyX X'.^.%.+.O.^ ^ ! ! ! ! ! ! ^ ^ ^ 5.5.q.q.u.u.r.e.p.N.C.A.S.S././.+X+X+X+X+X+X+X+X+X+X+XP.S.S.A.N.N.r.7.7.7.5.5.5.1.1.~ ~ / T P L K D m M b c c z l l w w w 4 4 3 1 1 < < > > > > > : : : # # # # # # # @ @ s *                                                                                                                                                                                                                                     ",
"                                                                                                                                                                                                                                        . % f p 7 7 7 8 8 y p C  .| *.^.'. XtXiXgXgXxXxXlXgXyX X~.s.+.+.O.^ ^ ^ ! ^ ^ ^ ^ ' q.q.q.u.u.r.e.e.C.C.A.S./././.+X+X$X$X*X*X*X*X*X*X#X$X#X+X+X+XS.A.N.N.r.r.7.7.7.5.5.5.5.~ ~ / T ( L K D m M b c c z l l w w 4 4 3 3 1 < < > > > > > : : : # # # # # # # @ @ d %                                                                                                                                                                                                                                     ",
"                                                                                                                                                                                                                                        . + f p 7 7 7 7 y u p {  .o.%.[.}.tXiXxXxXxXxXxXxXxXgXtX'.^.s.+.O.O.^ ^ ^ ^ ' ' O.q.q.q.u.u.y.e.e.C.C.A.S././.+X+X$X=X-X-X-X-X-X-X-X-X-X-X-X*X#X+X+XS.A.C.N.i.r.r.r.u.7.5.5.5.~ ~ / T P L K D m M b z z z l w w w 4 4 3 1 1 < < > > : > : : : : # # # # # @ @ @ u *                                                                                                                                                                                                                                     ",
"                                                                                                                                                                                                                                        . + f p 7 7 7 8 y a p {  .-.=.[.pXiXjXxXcXvXvXvXcXcXgXtX}.^.s.+.O.O.O.O.' ' ' O.q.q.q.u.u.y.e.e.C.C.A.S././.+X$X$X=X-X-X7X7X7X7X7X7X7X7X7X>X-X-X*X$X+XS.A.C.N.N.i.e.r.u.7.5.5.5.~ ~ / T W L K D M n b c z l w w w 4 4 3 1 1 < < > > : : : : : : # # # # # # @ @ d *                                                                                                                                                                                                                                     ",
"                                                                                                                                                                                                                                        . + f p 8 7 7 8 y p p {  .*.d.'.tXiXxXvXmXmXMXmXmXcXxXyX}.~.s.t.t.O.O.O.O.O.O.q.q.q.u.u.y.e.e.N.C.A.S././.+X+X$X=X-X1X7X7X7X7X7X7X7X7X7X7X7X7X>X-X*X+X+XS.A.C.N.N.N.e.r.u.7.5.5.5.~ ~ / ! P K D m n b c z l k w w q 4 3 1 1 < < > > : : : : : # # # # # # # @ @ d *                                                                                                                                                                                                                                     ",
"                                                                                                                                                                                                                                        . + f p y 7 8 8 0 p p {  .*.^.}.iXjXbXmXMXMXMXMXMXvXxXyX}.~.s.t.t.q.O.O.O.O.O.q.q.q.u.u.e.e.N.C.C.S././.oX+X$X$X-X-X1X7X7X7X9X9X9X9X7X7X7X7X7X>X-X*X#X+XS.A.C.N.N.N.e.r.r.u.5.5.5.~ ~ / ! P K D m n b z z l k w w q 4 3 1 1 < < > > : : : : : # # # # # # # @ # d *                                                                                                                                                                                                                                     ",
"                                                                                                                                                                                                                                        . % f p y 7 7 8 0 a p { | *.[.}.iXxXvXMXMXMXMXMXMXmXxXhX X~.s.t.t.q.O.O.O.O.O.q.q.q.u.r.e.e.C.C.C.S././.+X+X$X=X-X-X7X7X7X7X7X9X9X9X7X7X7X7X>X-X-X*X#X+XS.A.C.C.C.N.i.r.r.7.5.5.5.' ~ / T P L D m n b c z l l w w q 4 3 3 1 < < > > > > : : : : # # # # # # @ @ d *                                                                                                                                                                                                                                     ",
"                                                                                                                                                                                                                                        . % p p 0 7 8 y 0 a p { | *.[.}.iXxXvXMXMXMXMXVXMXmXcXhX X~.s.t.t.q.O.O.O.O.q.q.q.q.u.r.y.e.C.C.C.S././.oX+X$X=X-X-X1X7X7X7X7X8X8X7X7X7X7X7X>X-X-X*X+X+XS.A.C.C.C.N.i.r.r.7.5.5.5.' ~ / T W L K m M b c z l l w w q 4 3 3 1 < < > > > > : : : : # # # # # # @ @ d *                                                                                                                                                                                                                                     ",
"                                                                                                                                                                                                                                        . % p p 0 8 8 y 0 a p { | *.[. XiXxXvXMXMXMXVXVXMXMXcXgX X'.s.t.t.q.O.O.O.O.q.q.q.u.u.y.e.e.p.C.C.A./././.+X$X$X-X1X7X7X7X7X7X7X7X7X7X7X7X>X-X-X-X*X#X+XS.A.C.N.C.N.i.r.r.7.q.5.5.5.~ / T W L K D M b c z z k w w w 4 3 1 1 < < > > > > : : : : # # # # # # # # d *                                                                                                                                                                                                                                     ",
"                                                                                                                                                                                                                                        . % p p 0 8 8 8 y a p { | *.[.eXiXxXvXMXMXVXVXVXVXMXcXgX X'.^.t.t.q.O.O.O.O.q.q.q.u.u.y.y.e.p.C.C.A.S././.+X$X$X=X-X1X7X7X7X7X7X7X7X7X7X7X>X-X-X-X*X+X+XS.A.C.N.C.N.i.r.r.7.5.5.5.' ~ / T P L K D M b c z z k w w w 4 3 3 1 < < > > > > : : : : # # # # # # # # d *                                                                                                                                                                                                                                     ",
"                                                                                                                                                                                                                                        . + p p 8 7 8 8 y p p { | *.[. XiXxXnXMXMXVXVXVXVXmXcXgX X~.^.t.t.q.q.O.O.O.q.q.q.u.u.r.e.e.p.C.C.A.S././.+X+X$X=X-X1X7X7X7X7X7X7X7X7X7X7X>X-X-X=X#X+X+XS.A.C.N.C.N.e.r.r.u.5.5.5.1.~ / T P L K D M b c z l l w w q 4 3 3 1 < < > > : : : : : : : # # # # # @ @ d *                                                                                                                                                                                                                                     ",
"                                                                                                                                                                                                                                        . % p p y 8 8 8 0 p p { | *.[. XiXxXnXMXMXVXVXVXVXMXcXgX X'.^.t.t.q.q.O.O.O.q.q.q.u.u.r.e.e.e.C.C.A.S././.oX+X$X=X-X1X7X7X7X7X7X7X7X7X1X1X>X-X-X*X$X+X+XS.A.C.N.C.N.e.r.r.u.5.5.5.' ~ / T P L K D M b c z z l w w q 4 3 3 1 < < > > : > : : : : : # # # # # # # d %                                                                                                                                                                                                                                     ",
"                                                                                                                                                                                                                                        . + p p 8 8 8 8 0 p p { | *.[. XiXxXnXMXMXMXVXVXVXmXcXgX|.'.^.t.q.q.q.O.O.O.q.q.q.q.u.r.e.e.p.N.C.A.S./././.+X$X$X-X1X7X7X7X7X7X7X7X7X1X>X>X-X-X*X$X+XoXS.A.C.N.C.N.e.r.r.u.5.5.5.` ~ / T P L K D M b c z z l w w q 4 3 3 1 < < < > > : : : : : : # # # # # # @ d *                                                                                                                                                                                                                                     ",
"                                                                                                                                                                                                                                        . + p p 8 8 8 8 0 p p { | *.[. XiXxXvXMXMXMXVXVXVXVXcXgX|.~.^.t.q.q.q.O.O.O.q.q.q.q.u.u.r.e.e.N.C.C.A./././.+X$X$X-X1X7X7X7X7X7X7X7X1X1X>X-X-X-X*X#X+XoXS.A.C.N.C.N.e.r.r.u.5.5.5.` ~ / T P L K D M n c c z l w w w 4 3 3 1 1 < < > > : > : : : : : # # # # # @ d *                                                                                                                                                                                                                                     ",
"                                                                                                                                                                                                                                        . + p p 8 8 8 8 0 p p { | *.[. XiXxXvXMXMXMXVXVXVXVXvXgX|.'.^.t.q.q.O.O.O.O.q.q.q.u.u.r.e.e.e.N.C.C.A./././.+X$X$X-X-X1X7X7X7X7X7X7X7X1X>X>X-X-X*X$X+XoXS.A.C.N.N.N.e.r.r.7.5.5.5.` ~ / T U L K D M n c c z l w w w 4 3 3 1 < < < > > > > : : : : # # # # # # @ u *                                                                                                                                                                                                                                     ",
"                                                                                                                                                                                                                                        . + p p 8 7 8 8 0 p p {  .*.[. XiXxXvXMXMXMXVXVXVXVXvXgX|.~.^.t.q.O.O.O.O.O.q.q.q.u.u.r.y.e.e.N.C.C.A.S././.+X$X$X=X-X1X7X7X7X7X7X7X7X>X>X-X-X-X*X#X+XoXS.A.C.N.N.N.e.r.u.u.5.5.5.` ~ / / U L K D M n c c z l w w w 4 3 3 1 1 < < > > > > > : : : # # # # # # @ u *                                                                                                                                                                                                                                     ",
"                                                                                                                                                                                                                                        . + p p 0 7 8 8 0 t p {  .*.^.}.iXxXvXMXMXMXVXVXVXVXvXgX X~.s.t.O.O.O.O.O.O.q.q.q.u.u.r.y.e.e.N.C.C.A.S././.+X+X$X=X-X1X7X7X7X7X7X7X1X1X-X-X-X=X*X$X+X/.S.A.N.N.N.N.e.r.u.7.5.5.5.` ~ / / ! L K D m n c c z l w w w 4 3 3 1 1 < < > > > > > : : : # # # # # # @ u *                                                                                                                                                                                                                                     ",
"                                                                                                                                                                                                                                          + p p 0 8 8 8 0 t p {  .*.^.}.iXxXvXMXMXMXVXVXVXVXvXgX X~.s.t.O.O.O.O.O.O.q.q.q.u.u.r.r.e.e.N.C.C.A.S././.oX+X$X=X-X1X7X7X7X7X7X7X1X>X-X-X-X=X#X#X+X/.S.A.N.N.N.N.e.r.u.7.5.5.5.~ ~ / / ! L K D m n c c z l w w w 4 3 3 1 1 < < > > > > > : : : # # # # # # @ u *                                                                                                                                                                                                                                     ",
"                                                                                                                                                                                                                                          + p p 0 8 8 8 0 p p { | *.^.}.iXxXcXmXMXVXVXVXVXVXvXgX X~.s.t.O.O.O.O.O.O.q.q.q.u.u.r.e.e.e.N.C.C.A.S././.oX+X$X=X-X1X1X1X7X7X7X1X1X>X-X-X-X*X#X+X+XS.S.A.N.N.N.N.e.r.u.7.5.5.5.` ~ / / U L K D m n c c z l w w w 4 3 3 1 1 < < > > > > > > : : : # # # # # @ u %                                                                                                                                                                                                                                     ",
"                                                                                                                                                                                                                                          + p p 0 7 8 8 0 p p { | *.^.}.iXxXcXmXmXVXVXVXVXVXvXgX X~.s.t.O.O.O.O.O.O.q.q.q.u.u.r.r.e.e.N.C.C.A.S./././.+X$X$X-X-X1X1X7X1X1X1X1X-X-X-X-X*X#X+X+XS.S.C.N.N.N.N.e.r.u.7.5.5.5.` ~ / / ! L L D m M c c z l w w w 4 3 3 1 1 < < > > > > > > > : # # # # # # @ u %                                                                                                                                                                                                                                     ",
"                                                                                                                                                                                                                                          + p p 0 8 8 8 0 p p { | -.s.}.iXxXcXmXMXVXVXVXVXVXvXgX X~.s.t.O.O.O.O.O.q.q.q.q.u.u.r.e.e.e.N.N.C.A.S./././.+X$X$X-X-X1X1X1X1X1X1X-X-X-X-X=X*X#X+X+XS.A.C.N.N.N.e.r.r.u.7.5.5.5.` ~ / / ! P L D m n c c z l w w w 4 3 3 1 1 < < > > > > > > > : : # # # # # # u %                                                                                                                                                                                                                                     ",
"                                                                                                                                                                                                                                          + p p 0 8 8 8 0 p p { | +.s.}.iXxXcXmXMXVXVXVXVXVXcXgX X~.s.q.O.O.O.O.' O.q.q.q.u.u.r.e.e.e.N.C.C.A.A.S././.+X+X$X=X-X-X1X1X1X1X1X-X-X-X-X*X#X$X+X+XS.A.C.N.N.N.e.r.r.u.7.5.5.5.` ~ / / U P L D D n c c z l w w w q 4 3 1 1 < < > > > > > > > : : # # : # # # u %                                                                                                                                                                                                                                     ",
"                                                                                                                                                                                                                                          + p p 8 8 8 8 0 t i G | +.s.'.yXxXcXvXMXVXVXVXVXVXcXgX|.~.s.q.O.O.O.O.' q.q.q.q.u.u.r.r.e.e.N.C.C.A.A.S././.+X+X$X=X-X-X1X1X1X1X1X-X-X-X-X*X#X$X+XoXS.A.N.N.N.n.e.r.r.u.5.5.5.5.~ ~ / / U L K D m n b c z l w w w q 4 3 1 1 < < < > > > > : : : : # # : # # # u %                                                                                                                                                                                                                                     ",
"                                                                                                                                                                                                                                          + p p 0 8 8 8 0 t i G | o.s.'.yXxXcXvXMXVXVXVXVXVXcXgX|.~.t.q.O.] O.O.' q.q.q.q.u.r.r.r.e.e.N.C.C.A.A.S././.oX+X$X$X-X-X-X1X1X1X-X-X-X-X=X*X$X+X+X/.S.A.C.N.N.e.e.r.r.u.5.5.5.5.~ ~ / / U L L D m M c c z l w w w q 4 3 1 1 < < < < > > > : : : : : # : # # # u %                                                                                                                                                                                                                                     ",
"                                                                                                                                                                                                                                          + p p 0 8 8 8 r t i G | o.%.'.yXxXcXvXVXVXVXVXVXVXcXgX|.~.t.q.' ' ] ' ' 5.q.q.u.u.r.r.e.e.e.N.C.C.A.A.S.S././.+X+X$X=X-X-X-X-X-X-X-X-X-X=X*X$X+X+X/.S.C.N.N.N.e.e.r.r.6.5.5.5.5.~ ~ / / U L L D D n b c z l w w w q 4 3 3 1 1 < < > > > > : : : : : # : # # # y %                                                                                                                                                                                                                                     ",
"                                                                                                                                                                                                                                          + p f 0 8 8 0 r t i G | o.%.'.tXxXcXvXVXVXVXVXVXCXcXgX|.~.t.O.' ' ] ' ' 5.q.q.u.u.r.r.e.e.e.N.C.C.A.A.S.S././.+X+X$X=X-X-X-X-X-X-X-X-X=X*X#X$X+X+XS.A.C.N.N.N.e.e.r.r.7.5.5.5.` ~ ~ / / U L L D D m n c z l w w w q 4 3 3 1 1 < < > > > > > : > : : # : # # # y %                                                                                                                                                                                                                                     ",
"                                                                                                                                                                                                                                          + p f 0 8 0 0 r i i G } o.%.'.yXxXcXnXVXVXVXVXVXVXcXgX|.~.t.O.' ' O.' ' q.q.q.u.u.r.r.r.e.e.N.C.C.A.A.S.S././.+X+X$X=X=X-X-X-X-X-X-X=X=X*X$X+X+X+XS.A.C.N.N.n.e.r.r.r.6.5.5.5.` ~ ~ / / U L L D m n b c z l w w w q 4 3 3 1 1 < < > > > > > > > : : # : # # # y @                                                                                                                                                                                                                                     ",
"                                                                                                                                                                                                                                          + p f 0 8 0 r r i i G | o.%.'.tXlXcXnXVXVXVXVXVXVXcXgX X~.t.O.] ' ' ' ' q.q.q.u.u.r.r.e.e.N.N.N.C.A.A.S./././.+X+X$X=X=X=X-X-X-X-X=X=X=X*X$X+X+X).S.A.C.N.N.n.e.r.r.u.6.5.5.5.` ~ ~ / / U L L D m n n c z l l w w q 4 3 3 1 1 < < > > > > > > > : : # : # # # u @                                                                                                                                                                                                                                     ",
"                                                                                                                                                                                                                                          + p f 0 0 0 r r i i G } o.%.'.tXlXxXvXVXVXVXVXVXCXcXgX X~.t.q.' ' ' ' ' 5.q.q.u.u.r.r.e.e.N.N.C.C.A.A.S./././.+X+X$X$X=X=X=X-X-X-X=X=X*X*X$X+X+X/.S.A.C.N.N.e.e.r.r.u.7.5.5.5.` ~ ~ / / U P I D D n n c z l w w w q 4 3 3 1 1 < < > > > > > > > : : # : # # # u @                                                                                                                                                                                                                                     ",
"                                                                                                                                                                                                                                          + p f 0 8 0 r r i i G } X.%.'.tXgXxXvXCXVXVXVXVXCXcXgX|.~.t.O.' ] ' ' ' 5.q.q.u.u.r.r.e.e.N.N.C.C.A.A.S./././.+X+X$X$X=X=X=X=X=X=X=X=X*X$X$X+X+X/.S.A.C.N.n.e.e.r.r.7.7.5.5.5.` ~ / / / U P I D D n n c z l w w w q 4 3 3 1 1 < < > > > > > > > : : # : # # # u @                                                                                                                                                                                                                                     ",
"                                                                                                                                                                                                                                          + f f 0 0 r r t i i G } X.%.'.tXlXxXvXVXVXVXVXVXCXcXhX|.~.t.O.' ] ' ' ' 5.q.q.u.r.r.r.e.e.N.N.C.C.A.A.S.S././.+X+X$X$X$X=X=X=X=X=X=X*X$X$X$X+X+X/.S.A.N.N.N.e.e.r.r.u.5.5.5.` ` ~ / / T U L L D D m n c z l w w w q q 3 3 1 1 < < < > > > > > > : : # # # # # u @                                                                                                                                                                                                                                     ",
"                                                                                                                                                                                                                                          + p { 0 0 r t t i i G } X.%.'.tXlXxXvXVXVXVXVXVXCXcXhX|.~.t.q.' ^ ' ' ' 5.q.q.u.r.r.r.e.e.N.C.C.C.A.A.S.S././.+X+X$X$X$X=X=X=X=X=X=X*X*X$X+X+X+XS.S.A.N.N.n.e.r.r.r.7.5.5.5.` ` ~ / / U U P L D D m n c z l w w w w q 3 3 1 1 < < < > > > > > > : : # # # # # u @                                                                                                                                                                                                                                     ",
"                                                                                                                                                                                                                                          + f { 0 8 r t t i i G } X.%.'.tXgXxXvXVXVXVXVXVXCXcXhX|.~.t.q.] ^ ' ' ' 5.q.q.u.r.r.r.e.e.N.N.C.C.Z.A.S./././.+X+X$X$X$X=X=X=X=X=X=X*X*X$X$X+X+XS.S.A.N.N.n.e.r.r.r.6.5.5.5.` ` ~ / / T U L L D D m n c z z l w w q q 3 3 1 1 < < < > > > > > > : : # # # # # u @                                                                                                                                                                                                                                     ",
"                                                                                                                                                                                                                                          + f { 0 0 r t t i i G } | %.'.tXgXcXcXVXVXVXVXVXCXcXhX|.~.t.q.' ^ ' ' ' 5.q.q.u.r.r.e.e.m.N.N.C.C.Z.A.S./././.+X$X$X$X=X=X=X=X=X=X=X*X$X$X+X+X+XS.S.A.N.N.n.r.r.r.r.7.5.5.5.` ~ ~ / / / U P L D D m n c z z l w w w 4 3 3 1 1 1 < < > > > > > > > : # # # # & u @                                                                                                                                                                                                                                     ",
"                                                                                                                                                                                                                                          + f { 0 0 r t t i i G } | %.~.tXgXxXvXVXVXVXVXVXCXcXhX|.~.t.q.] ] ' ' ' 5.q.q.u.r.r.r.e.m.N.N.C.C.A.S.S././.).+X$X$X$X=X=X=X=X=X=X=X=X$X$X+X+X+XS.S.A.N.N.n.e.r.r.r.6.5.5.5.` ` ~ / / T U P I D D m b c z z l w w w q 3 3 1 1 1 < < > > > > > > > > # # # # & u @                                                                                                                                                                                                                                     ",
"                                                                                                                                                                                                                                          + f { 0 0 t t t i i G } | %.~.|.gXcXvXCXCXVXVXVXCXcXhX|.~.t.O.] ] ' ' ' 5.q.q.u.r.r.r.e.e.N.N.C.C.A.S.S././.).+X$X$X$X=X=X=X=X=X=X=X=X$X$X+X+X+XS.S.A.N.N.n.r.r.r.r.7.6.5.5.` ` ~ / R T U P L D D m n c z z l w w w q 4 3 1 1 1 < < > > > > > > > > # # # # > u @                                                                                                                                                                                                                                     ",
"                                                                                                                                                                                                                                          + f { 0 0 t t t t i G } | +.~.|.gXcXvXCXVXVXVXVXCXcXhX|.~.t.q.] ] ] ' ' 5.q.q.u.r.r.r.e.m.N.N.C.C.Z.S./././.).+X$X$X$X=X=X=X=X=X=X=X=X$X$X+X+X+XS.S.C.N.N.e.r.r.r.r.7.6.5.5.` ~ ~ / R U U P I D D m n c z z l w w w q 4 3 1 1 1 < < > > > > > > > > # : # # > u @                                                                                                                                                                                                                                     ",
"                                                                                                                                                                                                                                          + f { a 0 t t t t i G } | +.^. XgXcXvXCXVXVXVXVXCXcXhX|.(.t.q.] ] ] ' ' 5.q.q.u.r.r.r.e.m.N.N.C.C.Z.S./././.).+X$X$X$X=X=X=X=X=X=X=X=X$X$X$X+X+XS.S.C.N.N.e.r.r.r.r.6.6.5.5.` ` ~ / R U U P I D D m n c c z l w w w q 4 3 1 1 1 < < > > > > > > > > # # # # > u @                                                                                                                                                                                                                                     ",
"                                                                                                                                                                                                                                          + f  .a 0 t t t i i G } | +.^. XgXcXvXCXVXVXVXVXCXcXzX|.(.t.q.] ^ ] ' ' 5.5.q.u.r.r.r.e.e.N.N.C.C.A.S./././.).+X$X$X$X=X=X=X=X-X-X=X=X$X$X$X+X+XH.S.A.N.N.n.r.r.r.r.6.6.5.5.` ` ~ / R T U P L K D m n c c z l w w w q 4 3 3 1 1 < < > > > > > > > > # # # # > u @                                                                                                                                                                                                                                     ",
"                                                                                                                                                                                                                                          + f  .0 0 t t t i i G } | +.^. XgXcXcXCXVXVXVXVXCXcXhX|.(.t.q.] ^ ] ' ' 5.q.q.u.w.r.r.e.e.N.N.C.C.A.S./././.).+X$X$X$X=X=X=X=X-X-X=X=X$X$X$X+X+XS.S.A.N.N.e.r.r.r.r.6.6.5.5.` ` ~ / R T U P L K D m n c c z l w w w q 4 3 1 1 1 < < > > > > > > > : # # # # > y @                                                                                                                                                                                                                                     ",
"                                                                                                                                                                                                                                          + f  .r 0 t t t i i G H | +.^. XhXcXcXCXVXVXVXVXCXcXhX|.(.t.q.] ^ ] ] ' 5.q.q.u.r.r.e.e.e.N.N.C.C.A.S./././.).+X$X$X$X$X=X=X=X-X=X=X=X$X$X$X+X).S.S.A.N.N.e.r.r.r.r.6.6.5.5.` ` ~ R / T U P L K D m n v c z l w w w q 3 3 1 1 1 < < > > > > > > : > # # # # > y @                                                                                                                                                                                                                                     ",
"                                                                                                                                                                                                                                          + f | r r t t t i i G H | +.^. XhXzXcXCXVXVXVXVXCXcXhX|.(.t.q.] ^ ] ] ' 5.q.q.u.r.r.r.e.e.N.N.C.C.A.S./././.).+X$X$X$X$X=X=X=X-X=X=X=X$X$X$X+X).S.S.A.N.N.e.r.r.r.r.6.5.5.5.` ` ~ R / T U P L K D m n c c z l w w w q 4 3 1 1 1 1 < > > > > > > : # # # # # > y @                                                                                                                                                                                                                                     ",
"                                                                                                                                                                                                                                          % f | r 0 t t t i i G H | +.^. XiXxXcXCXVXVXVXVXCXcXhX|.(.t.q.] ] ] ] ' 5.5.q.w.u.r.r.e.m.N.N.C.C.Z.S./././.).+X$X$X$X$X=X=X=X=X=X=X=X$X$X$X+X+XS.S.A.N.N.n.r.r.r.8.6.6.5.5.` ` ~ / / T U P I D D m n c c z l w w w q 4 3 3 1 1 1 < < > > > > > > > : # # # > y @                                                                                                                                                                                                                                     ",
"                                                                                                                                                                                                                                          % f | r 0 t i t i i G H | +.^. XiXxXcXCXCXVXVXVXCXcXhX|.(.y.q.] ] ] ] ' 5.5.q.w.u.r.r.e.m.N.N.C.C.Z.S./././.).+X$X$X$X$X=X=X=X=X=X=X=X$X$X$X+X+XS.S.B.N.N.n.r.r.r.8.6.6.5.5.` ` ~ / R T U P I D S m n c c z l l w w q 4 3 3 1 1 1 < < < > > > > > > # # # # > u @                                                                                                                                                                                                                                     ",
"                                                                                                                                                                                                                                          % f | r 0 t t t i i G H | +.^. XyXxXcXCXCXVXVXVXCXcXhX|.(.y.q.] ^ ] ] ' 5.q.q.q.u.r.r.e.e.m.N.C.C.Z.Z././.).).+X$X$X$X=X=X=X=X=X=X=X=X$X$X$X+X).S.S.C.N.N.e.r.r.r.8.6.6.5.5.` ` ~ / R T U P I D D m n c c z l l w w q q 3 3 1 1 1 < < < > > > > > > # # # # > u @                                                                                                                                                                                                                                     ",
"                                                                                                                                                                                                                                          % f  .r 0 t t t i i G G | +.^. XyXlXcXCXCXVXVXVXCXcXhX|.(.m.q.] ^ ] ] ' 5.5.q.q.u.r.r.e.e.N.N.C.C.Z.S././.).).+X$X$X$X=X=X=X=X=X=X=X=X$X$X$X+X).S.S.C.N.N.e.r.r.r.8.6.6.5.5.` ` ~ / R T U P I K D m n c c z l l w w q q 3 3 1 1 1 < > < > > > > > > & # # # > u %                                                                                                                                                                                                                                     ",
"                                                                                                                                                                                                                                          + h  .r 0 t t t i i G H | +.^.}.yXlXcXCXCXVXVXVXCXcXhX|.(.y.q.] ^ ^ ' ' ' 5.q.q.u.r.r.e.e.m.N.C.C.Z.S./././.).+X$X$X$X=X=X=X=X=X=X=X=X$X$X$X+X).S.S.C.N.N.r.r.r.r.8.6.6.5.5.` ~ ~ / R T U P L K D m n c c z l l w w q q 3 3 1 1 1 < < > > > > > > > # # # # > u %                                                                                                                                                                                                                                     ",
"                                                                                                                                                                                                                                          + f  .r 0 r t t i i G G | +.s.}.yXlXcXCXCXVXVXVXCXcXhX|.(.y.q.] ^ ^ ] ' ' 5.q.q.u.r.r.e.e.m.N.C.C.Z.Z./././.).+X$X$X$X=X=X=X=X=X=X=X=X$X$X$X+X).H.S.C.N.n.r.r.r.r.8.6.6.5.5.` ~ ~ R R T U P L K D m n c c z l l w w q q 3 3 1 1 1 < < > > > > > > > # # # # & u %                                                                                                                                                                                                                                     ",
"                                                                                                                                                                                                                                          % f { r 0 r t t i i G G | +.^.}.yXlXcXCXVXVXVXVXCXcXhX|.~.y.q.] ^ ^ ] ' ' 5.q.q.u.r.r.e.e.m.N.C.C.Z.Z././.).).).$X$X$X=X=X=X=X=X=X=X=X$X$X$X+X+XS.S.C.N.n.r.r.r.r.8.6.6.5.` ` ~ ~ / T T U P L D D m n c c z z l w w w q 3 3 1 1 1 < < > > > > > > : # : # # & y %                                                                                                                                                                                                                                     ",
"                                                                                                                                                                                                                                          % f { r 0 r t i i i G G | +.s.}.yXlXcXCXVXVXVXVXCXcXhX|.(.y.q.' ^ ^ ] ' ' 5.q.q.w.r.r.e.e.m.m.C.C.C.Z././.).).).$X$X$X=X=X=X=X=X=X=X=X$X$X$X+X+XS.S.B.N.n.r.r.r.r.8.6.6.5.` ` ~ ~ R T T U P I D D m n c c z z l w w w q 3 3 1 1 1 < < > > > > > > : # # # # # u %                                                                                                                                                                                                                                     ",
"                                                                                                                                                                                                                                          % f { r 0 t t i i i G G } +.s.}.yXlXcXvXCXVXVXVXCXcXzX|.(.^.q.' ^ ^ ] ' ' 5.q.q.u.r.r.r.e.m.m.C.C.C.A./././.).+X$X$X&X=X=X-X-X=X=X=X=X$X$X$X+X).H.Z.B.N.n.n.r.r.r.8.6.6.5.` ` ~ ~ R R U U P I K D m n c c z l l w w w q 3 3 1 1 1 < > > > > > > > > # # # # # u %                                                                                                                                                                                                                                     ",
"                                                                                                                                                                                                                                          % f G r 0 r t t i i G G } +.s.}.yXlXcXvXVXVXVXVXCXcXhX|.(.^.q.' ^ ^ ] ' ' 5.5.q.u.r.r.r.e.m.m.N.C.C.A././.).).).$X$X&X=X=X=X=X=X=X=X=X$X$X$X+X).S.S.B.N.n.r.r.r.r.6.6.6.5.` ` ~ ~ R R U U P I K D m n c c z l l w w q q 3 3 1 1 1 < < > > > > > > : # # # # # y %                                                                                                                                                                                                                                     ",
"                                                                                                                                                                                                                                          % f G 0 0 r t t i i N G } +.s.}.yXlXcXvXCXVXVXVXCXcXhX|.(.y.q.' ^ ^ ] ] ' 5.5.q.u.r.r.r.e.e.m.C.C.C.Z././.).).).$X&X=X=X=X=X=X=X=X=X=X$X$X$X+X).S.S.B.N.n.r.r.r.r.6.6.6.5.` ` ~ ~ R R U U P I K S M n c c c z l w w q q 4 3 1 1 1 < < < > > > > > > # : # # # y %                                                                                                                                                                                                                                     ",
"                                                                                                                                                                                                                                          % f f 0 0 r t t i i N G } +.%.}.yXlXcXvXCXVXVXVXCXcXhX|.(.t.q.' ^ ^ ^ ] ' 5.5.q.w.w.r.r.e.m.m.m.C.C.Z././.).).).$X$X&X=X=X=X=X=X=X=X=X$X$X$X+X).S.Z.C.N.n.r.r.r.8.6.6.5.5.` ` ~ / R T U U P I K D m n c c z z l w w q q 4 3 1 1 1 < < < > > > > > > # : & # # y %                                                                                                                                                                                                                                     ",
"                                                                                                                                                                                                                                          % f f r 0 r t t i i N G } +.%.}.yXlXcXvXCXVXVXVXCXcXhX|.(.t.q.] ^ ^ ^ ] ' 5.5.q.w.w.r.r.e.e.m.m.C.Z./././.).).$X$X&X&X=X-X-X-X=X=X=X=X$X$X$X+X).S.S.C.N.n.r.r.r.r.6.6.5.5.` ` ~ / R T U U L I D D m n c c c z l w w w q 4 3 1 1 1 < < < > > > > > > # # & # # y *                                                                                                                                                                                                                                     ",
"                                                                                                                                                                                                                                          % f f r 8 r t t i i N G } +.s.}.yXlXcXvXVXVXVXVXCXcXhX|.(.t.q.] ^ ^ ] ] ' 5.5.q.q.w.r.r.e.e.m.m.C.Z.Z././.).).$X$X&X&X=X-X-X-X-X=X=X=X$X$X$X+X).S.S.C.N.n.r.r.r.r.6.6.5.5.` ` ~ / R T U U L I D D m n c c c z l w w w q q 3 1 1 1 < < < > > > > > > # # & # # y *                                                                                                                                                                                                                                     ",
"                                                                                                                                                                                                                                          * f f r 8 r t t i i i G } +.%.'.yXlXcXvXVXVXVXVXCXcXhX|.(.^.q.] ^ ^ ] ] ' ' 5.q.w.w.w.r.e.e.m.m.C.Z.Z././.).).$X$X&X&X=X=X-X-X=X=X=X=X$X$X$X+X).S.S.C.N.n.r.r.r.r.6.6.5.5.` ` ~ / / R U U L I L S m n c c z l l w w w q 4 3 1 1 1 < < < > > > > > > # # # # # y *                                                                                                                                                                                                                                     ",
"                                                                                                                                                                                                                                          % f f r 0 r t t i i i G } +.%.'.yXlXcXvXVXVXVXVXCXcXhX|.~.t.q.' ^ ^ ^ ] ' ' 5.q.w.w.w.r.r.e.m.m.C.Z.Z././.).).$X$X&X&X=X=X-X-X=X=X=X=X&X$X$X+X).H.Z.B.N.n.r.r.r.r.6.6.5.5.` ` ~ / R T U U P I K S m n c c z l l w w w q 4 3 1 1 1 < < < > > > > > > # # # # # y *                                                                                                                                                                                                                                     ",
"                                                                                                                                                                                                                                          % f f r 8 r t t i i N G } +.%.}.yXlXcXvXVXVXVXVXCXcXhX|.~.t.q.' ^ ^ ^ ] ] ' 5.q.q.u.w.r.r.n.m.m.C.Z.Z./.).).).$X$X$X&X=X=X-X-X-X=X=X&X&X$X$X+X).S.S.B.N.n.r.r.8.8.6.6.5.5.` ` ~ R R T U U P I K D m n c c z z l w w w q 4 3 1 1 1 < < < > > > > > : # # # # # y *                                                                                                                                                                                                                                     ",
"                                                                                                                                                                                                                                          * f f r 8 r t t i i i G } +.%.}.yXlXcXvXVXVXVXVXCXcXgX|.(.t.q.' ^ ^ ^ ] ] ' 5.q.q.u.w.r.r.e.m.m.C.Z.Z./.).).).$X$X$X=X=X-X-X-X-X-X=X=X&X$X$X+X).H.Z.B.N.n.r.r.8.8.6.6.5.5.` ` ~ / R T U U P I K D m n c c z z l w w q q 4 3 1 1 1 < < < > > > > > > # # # # # y *                                                                                                                                                                                                                                     ",
"                                                                                                                                                                                                                                          % f f 0 8 r t t i i i G } X.%.'.yXlXcXvXVXVXVXVXCXcXhX|.~.t.q.] ^ / / ] ] ' 5.q.q.w.w.r.r.e.m.m.C.Z.Z./.).).).$X$X$X=X=X-X-X-X-X-X=X=X&X$X$X+X).H.Z.B.N.n.r.r.r.8.6.6.5.5.` ` ~ / R R Y U P I K D S m c c z z l w w w q 4 3 1 1 1 < < < > > > > > # # # # # # u =                                                                                                                                                                                                                                     ",
"                                                                                                                                                                                                                                          % f f 0 8 r t t i i i G } X.%.'.yXlXcXvXVXVXVXVXCXcXgX|.~.t.q.] ^ ^ ^ ] ] ' 5.q.q.w.w.r.r.e.m.m.C.Z.Z./.).).).$X$X&X=X=X-X-X-X-X-X-X=X&X&X$X+X).H.S.B.N.n.r.r.r.r.6.6.5.5.` ` ~ / R T U U P I K D S n n c z z l w w w q 4 3 1 1 1 < < < > > > > > & # # # # @ u =                                                                                                                                                                                                                                     ",
"                                                                                                                                                                                                                                          % f f 0 8 r t t i i i G } X.%.'.yXlXcXvXVXVXVXVXCXcXgX|.~.t.q.' ^ ^ / ] ] ' ' q.q.w.w.r.r.e.m.m.C.Z.Z./.).).).$X&X&X&X=X-X-X-X-X-X-X=X=X$X$X+X+X).S.C.N.n.n.r.r.r.6.6.5.5.` ` ` R R T U U L I K S m n c c c z l w w w q 4 3 1 1 1 < < < > > > > > > # # # # @ u =                                                                                                                                                                                                                                     ",
"                                                                                                                                                                                                                                          * { f 0 8 e t t i i i G } X.%.'.yXlXcXvXVXVXVXVXCXcXgX|.~.t.q.' ^ Q / ^ ] ' ' q.q.w.w.w.r.e.e.m.C.Z.Z./.).).).$X&X&X&X%X-X-X-X-X-X-X=X=X$X$X+X+X).S.C.N.n.n.r.r.r.6.6.5.5.` ` ~ R R T U U L I K S m n c c c z l w w w q 4 3 1 1 1 < < < > > > > > > # # # # @ u =                                                                                                                                                                                                                                     ",
"                                                                                                                                                                                                                                          * f f 0 8 e r t t i i G } X.%.'.yXlXcXvXVXVXVXVXCXcXgX|.~.t.q.] ^ Q / ^ ] ' ' 5.q.q.w.w.r.y.n.m.m.Z.Z./.).).).$X&X&X&X%X%X5X-X-X-X-X=X=X$X$X@X).H.S.B.N.n.r.r.r.r.6.6.5.5.` ` ~ R R T U U L I L D m n c c c z l w w w q 3 3 3 1 1 1 < < < > > > > > # # # # @ u =                                                                                                                                                                                                                                     ",
"                                                                                                                                                                                                                                          % { f 0 8 e r t i i i G } X.%.'.yXgXcXvXVXVXVXVXCXcXgX|.~.s.O.] ^ Q / ^ ] ] ' q.q.q.w.w.r.y.e.m.m.Z.Z./.).).).$X&X&X=X%X%X5X5X-X-X-X=X&X$X$X@X).H.S.B.N.n.n.r.r.r.6.6.5.5.` ` ~ R R T U U L I L D S n c c c z l w w w q 4 3 3 1 1 1 < < > > > > > > # # # # @ p =                                                                                                                                                                                                                                     ",
"                                                                                                                                                                                                                                          % { f 0 8 8 r t t i i G } X.%.'.yXgXcXvXVXVXVXVXVXcXlX|.~.t.q.] ^ Q / ^ ] ] ' q.q.q.w.w.r.r.n.m.m.Z.Z./.).).).$X&X&X=X%X-X5X5X-X-X-X=X=X&X$X$X).H.S.C.N.n.r.r.8.8.6.6.5.5.` ` ~ R R T U U P I F D S n c c c z l k w w q 4 3 3 1 1 < < < > > > > > > # # # # $ s =                                                                                                                                                                                                                                     ",
"                                                                                                                                                                                                                                          % { f 0 8 8 r t t i i G } X.%.'.yXlXcXvXVXVXVXVXVXcXlX|.~.t.O.] ^ Q / ^ ] ' ' 5.q.q.w.w.r.r.n.m.m.Z.Z./.).).).$X&X&X=X%X-X5X5X-X-X-X=X&X&X$X@X+XH.S.B.N.N.n.r.r.8.8.6.5.5.` ` ~ R R T U U P I L D S n c c c z l k w w q 3 3 3 1 1 < < < < > > > > > # # # # $ C 5                                                                                                                                                                                                                                     ",
"                                                                                                                                                                                                                                          % { f 0 8 8 r t t t i G } X.%.'.yXlXcXvXmXVXVXVXmXcXlX|.~.s.O.] ^ Q ^ ^ ^ ] ' 5.q.q.w.w.r.w.y.m.m.Z.Z./.).).).$X&X&X&X%X-X5X5X5X-X-X=X=X&X@X@X+XH.S.B.N.n.n.r.r.8.8.6.5.3.` ` ~ / R T U U P L L D S n b c c z l l w w q 4 3 3 1 1 < < < < > > > > > : # # # $ C 5                                                                                                                                                                                                                                     ",
"                                                                                                                                                                                                                                          % { f 0 8 8 r t t t i G } X.%.'.yXlXcXvXmXVXVXVXmXcXgX|.~.s.O.] ^ ^ ^ ^ ^ ] ] ' q.q.w.w.r.r.y.m.m.Z.Z./.).).).$X&X&X&X-X-X5X5X5X-X-X=X&X&X@X@X+X).S.B.N.n.n.n.r.r.8.6.5.5.` ` ~ / R T U U P L L D S m b c c z l l w w q 4 3 3 1 1 < < < < > > > > > # # & # X C 5                                                                                                                                                                                                                                     ",
"                                                                                                                                                                                                                                          % { f 0 8 8 r t t i i G } | %.'.yXgXcXvXmXVXVXVXVXcXlX|.~.t.O.^ ^ ^ ^ ^ ] ' ] ' q.q.w.w.w.r.y.m.m.Z.Z.`.).).).$X&X&X&X=X-X-X-X-X-X=X=X&X$X$X$X+X).S.Z.N.n.n.n.r.r.6.6.5.5.` ` E / R T U U P L L D S m b c c z l w w w w 4 3 3 1 1 1 < < < > > > > > # # # # X C 5                                                                                                                                                                                                                                     ",
"                                                                                                                                                                                                                                          % { f 0 8 8 r t t i i G } | %.'.yXlXcXvXmXVXVXVXVXcXlX|.~.t.O.^ Q Q Q ^ ] ' ' ' q.w.q.w.w.r.y.m.m.Z.Z./.).).).$X&X&X&X%X-X-X5X-X-X=X&X&X&X$X$X@X).S.Z.N.n.n.n.r.8.6.6.5.5.` ` ~ R R T U U P I L D S m b c c z l w w w w 4 3 3 1 1 1 1 < < > > > > > # # & # X C 5                                                                                                                                                                                                                                     ",
"                                                                                                                                                                                                                                          % { f 8 8 8 r t t i i G } | %.'.yXlXcXvXmXVXVXVXVXcXlX|.~.t.O.^ Q Q Q ^ ] ] ] ' ] w.q.w.w.w.y.m.m.Z.Z./.).).).$X&X&X=X%X5X5X5X-X-X&X&X&X&X@X@X+X).S.Z.N.N.n.n.r.r.6.6.5.3.` ` ~ R R U U U P I L D S m n c c z l w w w w 4 3 3 1 1 1 1 < < > > > > > & # # # X { 7                                                                                                                                                                                                                                     ",
"                                                                                                                                                                                                                                          % h f 0 8 8 r t t t i G } | %.'.yXgXcXvXmXVXVXVXVXcXlX|.~.t.O.^ Q Q Q ^ ] ] ] ] O.w.q.w.w.w.n.m.m.Z.Z./.).).).$X&X&X=X%X%X-X5X5X%X&X&X&X&X@X@X@X).S.Z.N.N.n.n.r.8.6.6.5.3.` ` R R T U U U P I L D S m n c c z l w w w q 4 3 3 1 1 1 1 < < > > > > > & # # & X { 7                                                                                                                                                                                                                                     ",
"                                                                                                                                                                                                                                          % { f 0 8 8 r t t t i G } | %.'.yXlXcXvXmXVXVXVXmXcXlX|.~.t.O.^ Q Q ^ ^ ] ] ] ] O.w.q.w.w.r.r.m.m.C.Z.`.`.).).$X&X&X%X%X%X-X5X5X-X%X%X&X&X$X@X@X).S.Z.B.N.n.n.r.8.6.6.5.3.` ~ / R R U U U L L L D S m n c c z l l w w q 4 3 1 1 1 1 1 < < > > > > > & # # # X { 7                                                                                                                                                                                                                                     ",
"                                                                                                                                                                                                                                          % { f 0 8 8 r t t t i G } | %.'.yXlXcXvXmXVXVXVXmXcXlX|.~.t.O.^ Q Q ^ ^ ] ] ] ' O.w.q.w.w.r.y.m.m.Z.Z.`.`.).).$X&X&X%X%X=X5X-X-X-X%X%X&X&X$X@X@X).S.Z.B.N.n.n.r.8.6.6.5.3.` ~ ~ R R U U U L L L D S m n c c z l l w w q 4 3 1 1 1 1 1 < < > > > > > & & # # X { 7                                                                                                                                                                                                                                     ",
"                                                                                                                                                                                                                                          % f f 0 8 8 r r t t i G H | %.'.yXgXxXcXmXVXVXVXmXcXlX|.~.t.O.^ Q Q ^ ^ ^ ] ] ] ] q.q.w.w.r.w.m.m.m.Z.`.).).).$X&X&X%X%X-X-X5X-X-X-X%X&X&X&X@X@X).S.Z.B.N.n.n.r.8.6.6.5.5.` ~ / R T U U U L L L D S m n c c z l l w w q 4 3 1 1 1 1 1 < < > > > > > > # & # X { 5                                                                                                                                                                                                                                     ",
"                                                                                                                                                                                                                                          % f f 0 8 8 r r t t i N H | %.'.yXgXxXcXmXVXVXVXmXcXlX|.~.t.O.^ Q Q ^ ^ ] ] ] ] O.q.q.w.w.w.w.m.m.Z.Z.`.).).).$X&X&X%X%X5X5X5X5X-X-X%X&X&X&X@X@X).S.Z.B.N.n.n.r.8.6.6.5.` ` ~ R R T U U U L L L D S m n c c z l l w w q 4 3 1 1 1 1 1 < < > > > > > > # & # X  .7                                                                                                                                                                                                                                     ",
"                                                                                                                                                                                                                                          % h { 0 8 8 r r t t i N H | %.'.yXgXxXvXmXVXVXVXmXcXgX|.~.t.O.^ Q Q ^ ^ ^ ] ' ] O.O.q.w.w.w.n.m.m.Z.Z.`.).).).$X&X&X%X%X5X5X5X5X-X-X%X&X&X$X@X@X).H.Z.C.N.n.n.r.8.6.6.5.` ` ~ R R T U U U P L L D S m n c c z z l w w q 4 3 3 1 1 1 1 < < > > > > > : # # # X  .7                                                                                                                                                                                                                                     ",
"                                                                                                                                                                                                                                          % f { 0 8 8 r r t t i G G | %.'.yXgXxXvXmXmXVXVXmXcXlX|.~.t.O.^ Q Q Q ^ ^ ] ] ] O.O.q.w.w.w.w.m.m.Z.Z.`.).).).$X&X&X%X%X5X5X5X5X%X-X%X&X&X$X@X@X).H.Z.C.N.n.n.n.8.6.6.5.` ) ~ R R T U U U P L L D S m n c c z z l w w q 4 3 3 1 1 1 1 < < > > > > > : # # # X  .7                                                                                                                                                                                                                                     ",
"                                                                                                                                                                                                                                          % f { 0 9 8 8 r t t i N G | %.'.yXgXxXcXmXmXVXVXmXcXlX|.~.s.O.^ Q Q Q ^ ^ ] ] ] O.O.q.q.w.w.w.m.m.Z.Z.`.`.).).$X&X&X%X%X=X5X5X5X%X%X%X&X&X&X@X@X).H.Z.C.N.n.n.r.8.6.6.5.` ) E R R T U U U L I L D S m n c c z z l w w q 4 3 3 1 1 1 1 < < < > > > > > # # # X  .y                                                                                                                                                                                                                                     ",
"                                                                                                                                                                                                                                          % f { 0 9 8 8 r t t i N G | %.'.yXgXxXcXmXmXVXVXmXcXlX|.~.s.O.^ Q Q Q ^ ^ ] ] ] O.O.q.w.w.w.w.m.m.Z.Z.`.`.).).$X&X&X%X%X5X5X5X5X%X%X%X&X&X&X@X@X).H.Z.C.N.n.n.r.8.6.6.5.` ) R R R U U U U L I L D S m n c c z z l w w w 4 3 3 1 1 1 1 < < < > > > > > & & # X  .y                                                                                                                                                                                                                                     ",
"                                                                                                                                                                                                                                          % f { 0 9 8 8 r r t i i G | %.'.yXgXxXcXmXmXVXVXmXcXlX|.~.t.O.^ Q Q Q ^ ^ ] ] ] O.O.w.w.w.w.w.m.m.Z.Z.`.).).).$X&X&X%X%X%X5X5X5X%X%X%X&X&X@X@X@X).H.Z.C.N.n.n.r.8.6.6.5.` ~ / R T U U U U L I L D S m n c c z l l w w w 4 3 3 1 1 1 1 < < < > > > > > : & # X  .y                                                                                                                                                                                                                                     ",
"                                                                                                                                                                                                                                          % f { 0 9 8 8 r r t i i G | %.'.yXgXxXcXmXmXVXVXmXcXlX|.~.t.O.^ Q Q Q ^ ] ] ] ] O.O.w.w.w.w.w.m.m.m.Z.`.).).).$X&X&X%X%X%X5X5X5X%X%X%X&X&X@X@X@X).H.Z.C.N.n.n.r.8.6.5.5.` ~ / R T U U U P L I L D S m n c c z l l w w w 4 3 3 1 1 1 1 1 < < > > > > > : & # X  .y                                                                                                                                                                                                                                     ",
"                                                                                                                                                                                                                                          % f  .0 9 8 8 0 r t i i G | %.'.yXgXxXcXmXmXVXVXmXcXlX|.~.s.O.^ Q Q ^ ^ ^ ] ] ] ' O.w.w.w.w.n.m.m.m.Z.`.).)._.$X&X&X%X%X5X5X5X5X%X%X%X&X&X@X@X@X).H.Z.B.N.n.n.r.8.6.5.5.` E / R T U U U P L I D D S m n c c z l l w w w q 3 3 1 1 1 1 < < < < > > > > > & # X { y                                                                                                                                                                                                                                     ",
"                                                                                                                                                                                                                                          % f  .0 9 8 8 8 r t i i G | %.'.yXgXxXcXmXmXmXVXmXcXlX|.~.s.O.^ Q Q ^ ^ ^ ] ] ] ] O.q.w.w.w.n.m.m.m.Z.`.`.).)._.&X&X%X%X5X5X5X5X%X%X%X&X&X@X@X@X).H.Z.B.N.n.n.r.8.6.6.5.` E / R T U U U P L L D D S m n c c z l l w w w q 3 3 1 1 1 1 < < < < > > > > > & # X { y                                                                                                                                                                                                                                     ",
"                                                                                                                                                                                                                                          + f  .8 9 8 8 r r t i i G | %.'.yXgXxXcXmXmXVXVXmXcXlX|.~.s.O.^ Q Q Q ^ ^ ] ] ] O.O.O.w.w.w.w.n.m.m.Z.`.`.).).$X&X&X%X%X%X5X5X5X%X%X%X&X&X&X@X@X).H.Z.B.N.n.n.r.8.6.6.5.) R R R T U U U L L L D D S m v c c z z l w w w q 3 3 1 1 1 1 < < < < > > > > > & # X { y                                                                                                                                                                                                                                     ",
"                                                                                                                                                                                                                                          + h  .8 9 8 8 r r t i N G | %.'.yXgXxXcXmXmXVXVXmXcXlX|.~.s.O.^ Q Q Q ^ ^ ] ] ] O.O.O.w.w.w.n.m.m.Z.Z.`.`.)._.&X&X&X%X%X%X5X5X5X%X%X%X&X&X&X@X@X).H.Z.B.N.n.n.r.8.6.5.5.) R R T U U U U L L L D D S m n c c z z l w w w q 3 3 1 1 1 1 < < < < > > > > > & # X { y                                                                                                                                                                                                                                     ",
"                                                                                                                                                                                                                                          + h | 8 9 8 8 0 r t i N { | %.'.yXgXxXcXmXmXVXmXmXcXlX|.~.s.O.^ Q Q Q ^ ^ ] ] O.O.O.q.w.w.w.n.n.m.Z.Z.`.`.)._._.&X&X%X%X%X%X5X%X%X%X&X&X&X&X@X@X).H.Z.B.N.n.n.r.8.6.5.5.` R R T U U U P P L L K D S m n c c z z l w w q q 3 3 1 1 1 1 1 < < < < > > > > & # X C y                                                                                                                                                                                                                                     ",
"                                                                                                                                                                                                                                          + { | 8 9 8 8 0 r t i i { | %.'.yXgXxXcXmXmXmXmXmXcXlX|.~.s.O.^ Q Q Q ^ ^ ] ] ] O.O.q.w.w.w.w.m.m.m.Z.`.`.)._._.&X&X%X%X%X%X5X%X%X%X&X&X&X@X@X@X).H.Z.B.N.n.n.r.8.6.5.5.` R R T U U U P L L L K D S m n c c z z l w w q 4 3 3 1 1 1 1 1 < < < < > > > > & # X C y                                                                                                                                                                                                                                     ",
"                                                                                                                                                                                                                                          + {  .8 9 8 8 0 r t i i G | %.'.yXlXxXcXmXmXmXmXmXcXlX|.~.s.O.^ Q Q ^ ^ ^ ] ] ] O.O.q.q.w.w.n.m.m.m.Z.`.`.)._._.&X&X%X%X%X%X5X%X5X%X%X&X&X@X@X@X).H.Z.C.N.n.n.k.8.6.5.5.` R R T U U U P L I L D D S m n c c z l l w w q 4 3 3 1 1 1 1 1 < < < < > > > > > # X C y                                                                                                                                                                                                                                     ",
"                                                                                                                                                                                                                                          + { | 8 9 8 8 0 r t i i { | %.'.yXlXxXcXmXmXmXmXmXcXlX|.~.s.O.^ ^ Q Q ^ ^ ] ] ] ] O.q.w.w.w.n.m.m.m.Z.`.`.)._._.&X&X%X%X%X%X5X5X5X%X%X&X&X@X@X@X).H.Z.C.N.n.n.k.8.6.5.3.` R R T U U U P L I L D D S m n c c z l l w w q 4 3 3 1 1 1 1 1 < < < < > > > > > # X C y                                                                                                                                                                                                                                     ",
"                                                                                                                                                                                                                                          + {  .8 9 7 8 8 r t i i G | %.'.yXgXxXcXvXmXmXmXmXcXlX|.~.s.O.^ Q Q Q ^ ^ ] ] ] O.O.q.w.w.w.n.n.m.Z.Z.Z.`.)._._.&X&X%X%X%X%X%X5X%X%X%X&X&X@X@X@X).H.Z.C.N.n.n.r.8.6.5.3.` R R U Y U U P L I L D D S m n c c z l l w w w 4 3 1 1 1 1 1 1 < < < < > > > > > # X C y                                                                                                                                                                                                                                     ",
"                                                                                                                                                                                                                                          + {  .8 9 7 8 8 r t i i { | %.'.yXgXxXcXvXmXmXmXmXcXlX|.~.s.O.^ Q Q ^ ^ ^ ] ] ] ] O.q.w.w.w.n.m.m.m.Z.Z.`.)._._.&X&X%X%X%X%X5X%X%X%X%X&X&X@X@X@X).H.Z.C.N.n.n.8.8.6.5.` ` R R U U U P P L I L D D S m n c c z l l w w q 4 3 1 1 1 1 1 1 < < < < > > > > > # X C u                                                                                                                                                                                                                                     ",
"                                                                                                                                                                                                                                          + { | 8 9 7 9 8 r t i i G | %.'.yXgXxXcXvXmXmXmXmXcXlX|.~.s.O.^ Q Q Q ^ ^ ] ] ] ] O.q.w.w.w.n.n.m.m.Z.Z.`.)._._.&X&X%X%X%X%X5X%X5X%X%X&X&X@X@X@X).H.Z.B.N.n.n.8.8.6.5.` ` R R T U U P P L L L D D S m n c c z z l w w q 4 3 3 1 1 1 1 1 < < < < > > > > & # X C u                                                                                                                                                                                                                                     ",
"                                                                                                                                                                                                                                          + { | 8 7 7 8 8 r t i i G | %.'.yXgXxXcXvXmXmXmXmXcXlX|.~.s.O.^ Q Q Q ^ ^ ] ] ] O.O.q.q.w.w.n.n.m.m.Z.Z.`.)._._._.&X%X%X%X5X5X5X%X%X%X&X&X@X@X@X).H.Z.B.N.n.n.8.8.6.5.5.` R R Y U U P L L L L S D m m n c c z l l w w w 4 3 3 1 1 1 1 1 < < < < > > > > & # X C u                                                                                                                                                                                                                                     ",
"                                                                                                                                                                                                                                          + { | 8 6 7 8 8 r t t i G | %.'.yXgXxXcXvXmXmXmXmXcXlX|.~.s.O.^ Q Q Q ^ ] ] ] ] ] O.w.q.w.w.w.n.m.Z.Z.`.`.)._._.&X&X&X%X%X%X%X5X%X%X%X&X&X@X@X@X).H.Z.B.N.n.n.8.8.6.5.` ) R R Y U U P L I L K D D S m n c c z l l w w q 4 3 3 1 1 1 1 < < < < < > > > > > # X C u                                                                                                                                                                                                                                     ",
"                                                                                                                                                                                                                                          + { | 8 6 7 8 8 r t t i G | %.'.yXgXxXcXmXmXmXmXmXcXlX|.~.s.O.^ Q Q Q ^ ] ] ] ] ] O.w.q.w.w.w.n.m.Z.Z.`.`.)._._.&X&X&X%X%X%X%X%X%X%X%X&X&X@X@X@X).H.Z.B.N.n.n.r.8.6.5.` ) R T Y U U P L I L K S D m m n c c z l l w w q 4 3 3 1 1 1 1 < < < < > > > > > > & X C u                                                                                                                                                                                                                                     ",
"                                                                                                                                                                                                                                          + h  .8 6 7 9 8 r t t i G | %.'.yXgXxXcXvXmXmXmXmXcXlX|.~.s.O.^ Q Q Q ^ ^ ] ] ] ] ] w.w.w.w.w.n.m.m.Z.Z.`.)._._._.&X%X%X%X%X%X%X%X%X%X&X@X@X@X@X).H.Z.B.N.n.n.r.8.6.5.` ) R R U U P P L I L D S S m m n c c z z l w w q 4 3 1 1 1 1 1 1 1 < < > > > > > > & X C u                                                                                                                                                                                                                                     ",
"                                                                                                                                                                                                                                          + h  .8 6 9 9 8 0 t i i G | %.'.yXgXxXcXvXmXmXmXmXcXlX|.~.s.O.^ Q Q Q ^ ^ ] ] ] ] ] w.w.w.w.w.n.m.m.Z.Z.`.).)._._.&X%X%X%X%X%X%X%X%X%X&X@X@X@X@X).H.Z.B.N.n.n.r.6.6.5.` ) R R Y U P P I I L D S S m m n c c z z l w w q 4 3 1 1 1 1 1 < 1 < < > > > > > > & X C u                                                                                                                                                                                                                                     ",
"                                                                                                                                                                                                                                          + h  .0 9 9 9 8 r t t i G | %.'.yXlXxXcXvXmXmXmXmXcXlX|.~.s.O.Q Q Q Q ^ ^ ] ] ] ] O.O.w.w.w.w.n.m.m.Z.Z.`.).)._._.&X%X%X%X%X%X%X%X%X%X&X@X@X@X@X_.H.Z.B.B.n.n.8.8.6.5.` R R T U U P L I I L D S S m n n c c z l l w w q 4 3 1 1 1 1 1 < < < < > > > > > > & X C d                                                                                                                                                                                                                                     ",
"                                                                                                                                                                                                                                          + h | 0 6 9 9 8 r t t i G | %.'.yXgXxXcXvXmXmXmXvXcXlX|.~.s.O.^ Q Q Q ^ ^ ] ] ] ] O.O.w.w.w.w.n.m.m.Z.Z.`.).)._._.&X&X%X%X%X%X%X%X%X%X&X@X@X@X@X_.H.Z.Z.B.n.n.8.8.6.5.` R R T U U P L L I L D S S m n v c c z l l w w q 4 3 1 1 1 1 1 < < < < > > > > : > & X C d                                                                                                                                                                                                                                     ",
"                                                                                                                                                                                                                                          + f | 8 7 7 8 8 8 r t i G | %.'.yXgXxXcXvXmXmXmXvXcXlX|.~.s.O.^ Q Q Q Q ^ ] ] ] ] O.O.w.w.w.w.n.m.m.Z.Z.`.).)._._._.&X%X%X%X%X%X%X%X%X&X@X@X@X@X_.H.Z.Z.N.n.n.8.8.6.5.` / R T Y U P L I L L D S S m n n c c z l l w w q 4 3 1 1 1 1 1 < < < < > > > > : > & X C d                                                                                                                                                                                                                                     ",
"                                                                                                                                                                                                                                          + f  .8 7 7 8 8 8 r t i G | %.'.yXgXxXcXvXmXmXmXmXcXlX|.~.s.O.Q Q Q Q Q ^ ] ] ] ] O.O.w.w.w.w.n.m.m.Z.Z.`.).)._._._.&X%X%X%X5X%X%X%X%X&X@X@X@X@X_.H.Z.B.B.n.n.8.6.6.3.` / R T U U P L I L K D S S m n v c c z l l w w q 3 3 1 1 1 1 1 < < < < > > > > : > & . C d                                                                                                                                                                                                                                     ",
"                                                                                                                                                                                                                                          + f  .8 9 7 8 8 8 r t i G | %.'.tXgXxXxXvXmXmXmXmXcXlX|.~.s.O.Q Q Q Q Q ^ ^ ] ] ] O.O.O.w.w.w.n.m.m.Z.Z.`.).)._._._.&X%X%X%X%X%X%X%X%X@X@X@X@X@X_.H.S.B.B.n.n.8.6.6.3.` ) R T Y U P L I L L D S S m n v c c z z l w w q 3 3 1 1 1 1 1 < < < < > > > > : : & X C d                                                                                                                                                                                                                                     ",
"                                                                                                                                                                                                                                          + f  .8 9 7 8 8 8 r t i G | %.'.tXgXxXxXvXmXmXmXmXcXlX|.~.s.O.Q Q Q Q Q ^ ^ ] ] ] O.O.O.w.w.w.n.M.m.Z.Z.`.).)._._.&X&X%X%X%X%X%X%X%X%X@X@X@X@X@X_.H.S.B.B.n.n.8.6.6.3.` R R T Y U P L I L L S S S m n n c c c l l w w q 3 3 1 1 1 1 1 < < < < < > > > : > & . C d                                                                                                                                                                                                                                     ",
"                                                                                                                                                                                                                                          + f  .0 9 9 8 8 8 r t i G | %.'.tXgXxXxXvXmXmXmXvXcXlX|.~.t.O.Q Q Q Q ^ ^ ] ] ] ] ] O.O.w.w.w.n.n.m.Z.Z.H.`.)._._.&X&X%X%X%X%X%X%X%X%X@X@X@X@X@X_.H.S.Z.B.n.n.8.8.6.5.` R R T U U P I I L K D S S m n n c c c l l w w q 4 3 1 1 1 1 1 < < < < > > > > > > & . C d                                                                                                                                                                                                                                     ",
"                                                                                                                                                                                                                                          + f  .8 9 7 8 8 8 r t i G | %.'.tXgXxXxXvXvXmXmXvXcXlX|.~.t.O.Q Q Q Q ^ ^ ] ] ] ] ] O.w.w.w.w.n.n.m.Z.Z.H.`.)._._.@X&X%X%X%X%X%X%X4X%X%X@X@X@X@X_.H.S.Z.B.n.n.8.8.6.5.` R R T U U P I I L K D S S m n n c c c l l w w q 4 3 1 1 1 1 1 < < < < > > > > : > & X C d                                                                                                                                                                                                                                     ",
"                                                                                                                                                                                                                                          + f { 8 9 7 8 8 8 r r i G | %.'.tXgXxXxXvXvXmXmXvXcXlX|.~.t.O.Q Q Q Q ^ ^ ] ] ] ] ] O.w.w.w.w.n.m.Z.Z.Z.H.).)._._.@X&X%X%X%X%X5X4X4X%X@X@X@X@X@X_.H.S.Z.B.n.n.8.6.6.5.` R R Y Y U P I I L K D S S m n n c c c l l w w q 3 3 1 1 1 1 1 < < < < > > > > # > & X C d                                                                                                                                                                                                                                     ",
"                                                                                                                                                                                                                                          + f { 8 9 7 8 8 8 r r i G | %.'.tXgXxXcXvXvXmXmXmXcXlX|.~.t.O.Q Q Q Q Q Q ] ] ] ] O.O.w.w.w.w.n.M.m.Z.Z.`.).)._._._.&X%X%X%X%X5X4X4X%X@X@X@X@X@X_.H.S.B.B.n.n.8.6.6.5.` R R Y U U P L I L K S S S m n n c c c z l w w q 3 3 1 1 1 1 1 < < < < > > > > : > & X C d                                                                                                                                                                                                                                     ",
"                                                                                                                                                                                                                                        . + f { 8 9 7 8 8 8 8 r i { | %.'.tXgXlXcXvXvXmXmXvXcXlX|.~.t.O.Q Q Q Q Q Q ] ] ' ] ] O.O.w.w.w.n.m.m.Z.Z.`.`.)._._._.&X%X%X%X4X4X%X%X@X@X@X@X@X@X_.H.S.B.B.n.n.8.6.6.5.` R R Y U U P I I L K S S S m n n c v c z l w w q 3 3 1 1 1 1 1 < < < < > > > > : > & X C d                                                                                                                                                                                                                                     ",
"                                                                                                                                                                                                                                        . + f f 8 9 7 8 8 8 r r i { | %.'.tXgXlXxXcXvXmXmXvXcXlX X~.t.O.Q ! Q Q Q Q ] ] ' ] ] O.O.w.w.n.n.M.m.Z.Z.`.`.)._._.@X&X%X%X%X4X4X%X%X%X@X@X@X@X@X_.H.S.B.B.n.n.8.6.6.5.` R R Y U U P I I I K D S S m n n c v c z l w w q 3 3 1 1 1 1 < < < < < > > > > : > & X C d                                                                                                                                                                                                                                     ",
"                                                                                                                                                                                                                                        . + f f 8 9 7 8 8 8 r r i } X.%.'.tXiXlXcXcXvXmXmXvXcXgX|.~.t.O.Q ! ! Q Q Q ] ] ] ] ] O.O.w.w.n.n.m.m.Z.Z.`.`.)._._.@X@X%X%X%X4X%X%X%X@X@X@X@X@X@X_.H.S.Z.B.n.n.8.6.6.3.` R R Y U U P I I L L D S S m m n c c c z l w w q 3 3 1 1 1 1 < < < < < > > > > > > & X C d                                                                                                                                                                                                                                     ",
"                                                                                                                                                                                                                                        . + f f 8 9 7 8 8 8 e r i } X.%.'.tXiXlXcXcXvXmXmXmXcXlX|.~.t.O.Q ! ! Q Q Q ] ] ] ] ] O.w.w.w.w.n.m.Z.Z.Z.`.`.)._._.@X@X%X%X%X4X%X%X%X%X@X@X@X@X@X_.H.H.Z.B.n.k.8.6.6.3.` R R Y U U P I L L K D S S m m n c c c z l w w q 3 3 1 1 1 1 < < < < < > > > > > > & X C d                                                                                                                                                                                                                                     ",
"                                                                                                                                                                                                                                        . + f f 8 9 7 8 8 8 e r i } X.%.'.yXgXlXcXvXvXmXmXvXcXgX|.~.t.O.Q Q Q Q Q Q ] ] ] ] O.O.w.w.w.n.n.M.m.Z.Z.`.`.)._._.@X@X%X%X%X%X%X%X%X%X@X@X@X@X@X_.H.H.Z.B.M.n.8.6.6.3.` R R Y U U P L I L K D S S m m n c c c z l w w q 3 3 1 1 1 1 < 1 < < < > > > > : > & X s d                                                                                                                                                                                                                                     ",
"                                                                                                                                                                                                                                        . + f p 8 9 7 8 9 8 e r i } X.%.'.tXiXlXcXvXvXmXmXvXcXgX X~.t.O.Q ! ! Q Q Q ] ] ] ] ] O.w.w.w.n.n.M.Z.Z.Z.`.`.)._._.@X@X@X%X%X%X%X%X%X%X@X@X@X@X@X_.H.H.B.B.M.k.8.6.6.3.` R R Y U U P L I L K D S S m m n c c c z l w w q 3 3 1 1 1 1 1 < < < < > > > > : > & X s d                                                                                                                                                                                                                                     ",
"                                                                                                                                                                                                                                        . + f p 8 9 7 8 8 8 e r i } X.%.'.tXiXlXcXvXvXmXmXvXcXgX X~.t.O.Q ! ! Q Q Q ] ] ] ] O.O.w.w.w.n.n.M.Z.Z.Z.`.`.)._._._.@X@X%X%X%X%X4X4X%X@X@X@X@X@XJ.H.H.B.B.N.k.8.6.6.3.` R R T U U P L I L S S S S m m n c c c z l w w q 4 3 1 1 1 1 1 < < < < > > > > : > # X C d                                                                                                                                                                                                                                     ",
"                                                                                                                                                                                                                                        . + f p 8 9 8 8 8 8 r r i } | %.'.tXiXlXcXvXvXmXmXvXcXgX X~.t.O.Q ! Q Q Q Q ] ] ] ] O.O.w.w.w.n.n.m.Z.Z.Z.`.`.)._._._.@X@X%X%X%X4X4X4X%X@X@X@X@X@XJ.H.H.B.B.N.k.8.6.6.3.` R R T U U P L I L L D S S m m n c v c z l w w q 4 3 1 1 1 1 1 < < < < > > > > : > # X C d                                                                                                                                                                                                                                     ",
"                                                                                                                                                                                                                                        . + f p 8 9 9 8 8 e r r i } X.%.'.tXgXlXcXcXvXmXmXvXcXgX X~.t.O.Q Q Q Q Q ^ ] ] ] ] ] w.w.w.w.n.n.m.Z.Z.Z.`.`.)._._._.@X@X%X4X4X4X4X4X4X@X@X@X@X@X_.H.H.B.B.M.k.8.6.6.5.` R R T Y U P L I L L D S S S m n v c c z l w w q 3 3 1 1 1 1 1 < < < < > > > > : > & X C d                                                                                                                                                                                                                                     ",
"                                                                                                                                                                                                                                        . + f p 8 9 9 8 8 e r r i } X.%.'.tXgXlXcXcXvXmXmXvXcXgX X~.t.O.Q Q Q Q Q ] ] ] ] ] ] w.w.w.w.n.n.m.Z.Z.Z.H.`.)._._._.@X@X%X4X4X4X4X4X4X@X@X@X@X@X_.H.H.B.B.M.k.8.6.6.5.` R R T Y U P L I L I D S S S m n v c v z l w w q 3 3 1 1 1 1 1 < < < < > > > > : > # X C d                                                                                                                                                                                                                                     ",
"                                                                                                                                                                                                                                        . + f p 8 9 9 8 8 e r r i } X.%.'.tXgXlXxXcXvXmXmXvXcXgX X~.t.O.Q Q Q Q Q ] ] ] ] ] O.w.w.w.w.n.n.m.Z.Z.Z.H.`.)._._._.@X@X%X4X4X4X4X4X4X@X@X@X@X@XJ.H.H.Z.B.N.n.k.6.6.5.) R R R Y U P L I I I D S S m m n c c c z l w w q 3 3 1 1 1 1 1 < < < < > > > > : # # X C d                                                                                                                                                                                                                                     ",
"                                                                                                                                                                                                                                        . % f f 8 9 9 8 8 e r r i } X.%.'.tXiXlXxXcXvXmXmXvXcXgX X~.t.O.Q Q Q Q Q ] ] ] ] ] O.w.w.w.w.n.n.m.Z.Z.Z.H.`.)._._._.@X@X%X4X4X4X4X4X4X@X@X@X@X@XU.H.H.B.B.N.n.8.6.6.5.) E R R Y U P I I L I D S S m m n c c c c l w w q 4 3 1 1 1 1 1 < < < < > > > > : # # X s y                                                                                                                                                                                                                                     ",
"                                                                                                                                                                                                                                        . % f f 8 9 9 8 8 e r r i } X.%.'.yXiXlXcXvXvXmXmXvXcXgX|.~.t.O.Q Q Q Q Q Q ] ] ' ] ] w.w.w.w.n.M.m.Z.Z.Z.H.`.H.)._._.@X%X%X4X4X4X4X4X4X@X@X@X@X@XJ.H.K.F.B.N.n.k.6.6.3.` R R R Y U P I I L I S S S S m n b c c c l w w q 4 3 1 1 1 1 1 < < < < > > > > > > # X C u                                                                                                                                                                                                                                     ",
"                                                                                                                                                                                                                                        . % f f 8 9 9 8 8 e e r i } X.%.'.tXiXlXxXvXvXmXmXvXcXgX|.~.t.O.Q Q Q Q Q Q ] ] ' ] ] w.w.w.w.n.M.m.Z.Z.Z.H.`.H._._._.@X@X%X%X4X4X4X4X4X@X@X@X@X@XJ.J.H.F.B.N.n.k.6.6.3.` R R T Y U P I I I I S S S m m n b c c z l w w q 4 3 1 1 1 1 1 < < < < < > > > > & # X C d                                                                                                                                                                                                                                     ",
"                                                                                                                                                                                                                                        . % f f 7 9 9 8 8 e e r i } X.%.'.tXiXlXcXvXvXmXmXvXcXgX|.~.t.O.Q Q Q Q Q Q ] ] ] ] ] w.w.w.w.n.M.m.Z.Z.Z.H.H.H.)._._.@X@X%X%X4X4X4X4X4X@X@X@X@X@XU.J.H.H.B.B.n.k.8.6.5.` R R R Y U U I I I I S S S S m n c c c z l w w w q 3 1 1 1 1 1 < < < < < > > > > > # X s y                                                                                                                                                                                                                                     ",
"                                                                                                                                                                                                                                        . % f f 9 9 9 8 8 e e r i } X.%.'.tXiXlXcXvXvXmXmXvXcXgX|.~.t.O.Q Q Q Q Q Q ] ] ] ] O.w.w.w.w.n.M.m.M.Z.Z.H.H.H._._._.@X@X%X4X4X4X4X4X4X4X@X@X@X@XU.J.H.H.B.B.n.k.8.6.5.` R R T Y U U I I I I S S S S m n v c c z l w w w q 3 1 1 1 1 1 < < < < < > > > > & # X s u                                                                                                                                                                                                                                     ",
"                                                                                                                                                                                                                                        . % f f 9 9 9 8 8 8 e t i } X.%.'.tXiXlXxXvXvXmXmXvXcXgX|.^.t.O.Q Q Q Q Q ] ] ] ] ] ] w.w.w.w.n.M.m.M.Z.Z.H.`.`._._._.@X@X%X%X4X4X4X4X4X4X@X@X@X@XU.J.H.H.B.B.n.8.8.6.5.` E R R T Y U I I I I S S S m m n n c c z l w w w 4 3 1 1 1 1 1 1 < < < < > > > : & # X s u                                                                                                                                                                                                                                     ",
"                                                                                                                                                                                                                                        . % f f 9 9 9 8 8 8 r t N H X.%.'.tXiXlXxXcXvXmXmXvXcXgX X^.t.O.Q Q Q Q ^ ] ] ] ] ] ] w.w.w.w.n.M.m.M.Z.Z.H.`.`.)._._.@X@X%X4X4X4X4X4X4X4X@X@X@X@XU.J.H.H.B.B.n.8.8.6.3.` ) R R Y U U I I I I S S S m m n n c c z l l w w 4 3 1 1 1 1 1 1 < < < < > > > : & # X s d                                                                                                                                                                                                                                     ",
"                                                                                                                                                                                                                                        . % f f 9 9 9 8 8 e r r N H X.%.'.tXiXlXcXcXvXvXmXvXcXgX X^.t.O.Q Q Q Q ] ] ] ] ] ] 6.w.w.w.w.n.M.m.M.Z.Z.Z.`.H.)._._._.@X@X%X4X4X4X4X4X4X@X@X@X@XU.J.H.F.B.B.n.k.8.6.3.` ) R R T U U P I I I S S S m m n n c c z l l w w 4 3 1 1 1 1 1 1 < < < < > > > : & # X d d .                                                                                                                                                                                                                                   ",
"                                                                                                                                                                                                                                        . % f f 9 9 9 8 8 8 r r N } X.%.'.tXiXlXcXvXvXvXmXvXcXgX X^.t.O.Q Q Q Q ] ] ] ] ] ] 6.6.w.w.w.n.M.M.Z.Z.Z.H.H.H.)._._._.@X@X4X4X4X4X4X4X4X@X@X@X@XU.J.H.H.B.B.n.k.8.6.3.` ) R R T U U P I I I S S S m m n n c c z l l w w 4 3 1 1 1 1 1 < < < < < > > > : # # $ d d .                                                                                                                                                                                                                                   ",
"                                                                                                                                                                                                                                        . % f f 9 9 9 9 8 e e r i } X.%.'.tXiXlXcXvXvXvXmXvXcXgX X^.t.O.Q Q Q Q Q ] ] ] ] ] ] 6.w.w.w.n.M.M.M.Z.Z.H.`.H.)._._._.@X@X4X4X4X4X4X4X4X@X@X@X@XU.J.H.H.B.B.n.k.8.6.6.` ) E R T Y U P I L I S S S S m n n c c z l w w w 4 3 3 1 1 1 1 1 < < < < > > > > & & $ u u .                                                                                                                                                                                                                                   ",
"                                                                                                                                                                                                                                        . % f f 9 9 9 9 8 e r r i } X.%.'.tXiXlXcXvXvXvXmXvXcXgX X^.t.O.Q Q Q Q Q ] ] ] ] ] 6.w.w.w.w.n.M.M.M.Z.Z.H.`.H.)._._.@X@X@X4X4X4X4X4X4X4X@X@X@X@XU.J.H.H.B.B.n.k.8.6.6.` ) E R Y U U L I I I S S S S m n v c c z l w w w 4 3 3 3 1 1 1 1 1 < < < > > > > & # $ u u .                                                                                                                                                                                                                                   ",
"                                                                                                                                                                                                                                        . % f p 9 9 9 9 8 e r t N } X.%.'.tXiXlXcXvXvXvXmXvXcXgX X^.t.O.Q Q Q Q Q ] ] ] ] ] ] w.w.w.w.n.n.M.M.Z.Z.H.`.H.)._._._.@X@X4X4X4X4X4X4X4X4X@X@X@XU.U.J.H.B.B.n.k.8.6.6.` ) E R T U U Y I I I K S S S m n n c c c z w w w 4 4 3 3 1 1 1 1 < < < < > > > : # & $ u u .                                                                                                                                                                                                                                   ",
"                                                                                                                                                                                                                                        . % f p 9 9 9 8 8 e r t N H X.%.'.tXiXlXcXcXvXvXmXvXcXhX X^.t.O.Q Q Q Q Q ] ] ] ] ] ] w.w.w.w.n.n.M.M.Z.Z.H.H.H.)._._._.@X@X%X4X4X4X4X4X4X4X@X@X@XU.U.J.H.B.B.n.k.8.6.6.` ) E R T U U P I I I K S S S m n n c c c z w w w q 3 3 3 1 1 1 1 1 < < < < > > > # & $ u u O                                                                                                                                                                                                                                   ",
"                                                                                                                                                                                                                                        . % f p 9 9 9 9 8 e r t N H X.%.'.tXiXlXcXcXvXvXmXvXcXhX X^.t.O.Q Q Q Q Q Q ] ] ] ] ] 6.w.w.w.n.n.M.M.Z.Z.H.H.H.)._._.@X@X@X@X@X4X4X4X4X4X@X@X@X@XU.J.H.H.B.B.n.k.8.6.6.` ) E R T U Y P I I I K S S S m n n c c c z l w w q 3 3 3 1 1 1 1 1 < < < > > > > & # $ u u O                                                                                                                                                                                                                                   ",
"                                                                                                                                                                                                                                        . % f p 9 9 9 9 8 e r t N H X.%.'.tXiXlXcXcXvXvXmXvXcXhX X^.t.O.Q Q Q Q Q Q ] ] ] ] ] 6.w.w.w.n.n.M.M.Z.Z.H.H.H.)._._.@X@X@X@X@X4X4X4X4X4X@X@X@X@XU.J.H.H.B.B.n.k.8.6.6.` ) E R T U U P I I I K S S S m n n c c c z l w w q 3 3 3 1 1 1 1 1 < < < > > > > & # $ u u O                                                                                                                                                                                                                                   ",
"                                                                                                                                                                                                                                        . % f p 9 9 9 8 8 e r r N H X.%.'.tXiXlXxXcXvXvXmXvXcXhX X^.t.O.Q Q Q Q Q ] ] ] ] ] ] 6.w.w.w.n.n.M.M.Z.Z.H.H.H.)._._._.@X@X@X@X4X4X4X4X4X@X@X@X@XU.J.J.H.B.B.n.k.8.6.6.3.) E R T U U P P I I S S S m m n n c c c z l w w q 3 3 3 1 1 1 1 1 < < < < > > > & # $ u u O                                                                                                                                                                                                                                   ",
"                                                                                                                                                                                                                                        . % f p 9 9 9 8 8 e r t N H X.%.'.tXiXlXxXcXvXvXmXvXcXhX X^.t.O.Q Q Q Q Q ] ] ] ] ] ] ] w.w.w.n.n.M.M.Z.Z.H.H.H.)._._._.@X@X@X@X4X4X4X4X4X@X@X@X@XU.J.H.H.B.B.n.k.8.6.4.` ) E R Y U Y P I I I S S S m m n n c c c z l w w q 3 3 3 3 1 1 1 1 1 < < > > > > > # $ u u o                                                                                                                                                                                                                                   ",
"                                                                                                                                                                                                                                        . + f i 9 9 9 8 8 e r t N H X.%.'.tXiXlXxXcXvXvXmXvXcXhX X^.t.O.Q Q Q Q Q ] ] ] ] ] ] 6.6.w.w.n.n.M.M.Z.Z.H.H.H.)._._._._.@X@X@X4X4X4X4X4X@X@X@X@XU.J.H.H.B.B.n.k.8.6.6.` ) E R Y Y U P P I I K S S m m n n c c c z l w w q 4 3 3 1 1 1 1 1 1 < < < > > > > # $ u u o                                                                                                                                                                                                                                   ",
"                                                                                                                                                                                                                                        . + f p 9 9 9 8 8 e r t N H X.%.'.tXiXlXxXcXvXvXvXvXcXhX X^.t.O.Q Q Q Q Q ] ] ] ] ] ] 6.6.w.w.n.n.M.M.Z.Z.H.H.H.)._._._._.@X@X@X4X4X4X4X4X@X@X@X@XU.J.H.H.B.B.n.k.8.6.6.` ) E R T Y U Y P I I K S S m m n n b c c z l w w w 4 3 3 1 1 1 1 1 1 < < < > > > > # $ u u X                                                                                                                                                                                                                                   ",
"                                                                                                                                                                                                                                        . % f p 9 9 9 8 8 e r t N H X.%.'.tXiXlXlXcXvXvXvXvXcXhX X^.t.O.Q Q Q Q Q Q ] ] ] ] ] 6.6.6.w.n.n.M.M.Z.Z.H.H.H.)._._._.@X@X@X@X@X4X4X4X4X@X@X@X@XU.J.J.H.B.B.k.k.8.6.6.` ) E R T Y U Y P I I K S S m m n n c c c z l w w w 4 3 3 3 1 1 1 1 1 < < < > > > > # $ u u O                                                                                                                                                                                                                                   ",
"                                                                                                                                                                                                                                        . + f p 9 9 9 8 e e r t N H X.%.'.tXyXlXlXcXvXvXvXvXcXhX X^.t.O.Q Q Q Q Q Q ] ] ] ] ] 6.6.6.w.n.n.M.M.Z.Z.H.H.H.J._._._.@X@X@X@X4X4X4X4X4X@X@X@X@XU.J.J.G.B.B.k.k.8.6.4.5.) E R T Y U Y P I I K S S m m n n b c c z l w w w 4 3 3 3 1 1 1 1 1 < < < > > > > # $ u u X                                                                                                                                                                                                                                   ",
"                                                                                                                                                                                                                                        . + p p 9 9 9 8 e e r t N H X.%.'.tXiXlXlXcXvXvXvXvXcXhX X^.t.O.Q Q Q Q Q Q ] ] ] ] ] 6.6.6.w.n.n.M.M.M.Z.H.H.H.J._._.@X@X@X@X@X4X4X4X4X4X@X@X@XU.U.J.H.H.B.B.n.k.8.6.3.) ) E R T U U Y P L I S S S m m n n c c c z l w w w 4 3 3 3 3 1 1 1 1 1 < < > > > & # $ u u O                                                                                                                                                                                                                                   ",
"                                                                                                                                                                                                                                        . + p i 9 9 9 8 e e r t N H X.%.'.tXiXlXlXcXvXvXvXvXcXhX X^.t.O.Q Q Q Q Q Q ] ] ] ] ] ] 6.6.w.w.n.M.M.M.Z.H.H.H.J._._.@X@X@X@X4X4X4X4X4X@X@X@X@XU.U.J.H.F.B.B.k.k.8.6.4.) ) E R T U U Y P L I K S S m m n n c c c z l w w w 4 3 3 3 3 1 1 1 1 1 < < > > > > # $ u u O                                                                                                                                                                                                                                   ",
"                                                                                                                                                                                                                                        . + p i 9 9 9 9 8 e r r N H X.%.'.tXyXlXlXcXvXvXvXvXcXhX X^.t.O.Q Q Q Q Q Q ] ] ] ` ] ] ] 6.w.w.n.M.M.M.Z.Z.H.H.H._._.@X@X@X@X4X4X4X@X@X@X@X@X@XU.U.J.K.F.B.B.k.k.8.6.6.) ) R R T U U Y P L I S S S m n n n c c c z l w w w 4 3 3 3 3 3 1 1 1 1 < < > > > & # $ u u O                                                                                                                                                                                                                                   ",
"                                                                                                                                                                                                                                        . + p p 9 9 9 8 8 e r t N H X.%.'.|.yXlXlXcXvXvXvXvXcXhX X^.t.O.Q Q Q Q Q Q ] ] ] ] ] ] ] 6.w.w.n.M.M.M.Z.Z.H.H.H._._._.@X@X@X4X4X4X@X@X@X@X@XU.U.U.J.K.F.B.M.k.k.8.6.6._ ) R R T U U Y Y L I K S S m m n n c c c z l w w w 4 4 3 3 3 3 1 1 1 1 < < > > > > # $ u u O                                                                                                                                                                                                                                   ",
"                                                                                                                                                                                                                                        O % p i 9 9 8 8 e e r t N H X.%.'.|.yXlXlXcXvXvXvXvXcXhX X^.t.O.Q Q Q Q Q Q ] ] ] ] ` ] ] 6.6.w.n.n.M.M.Z.Z.H.H.J._._._.@X@X@X4X4X@X@X@X@X@X@X@X@XU.J.H.F.B.B.k.k.8.6.6.` ) R R T U U Y Y L I K S S m m n n c c c z l w w w q 4 3 3 3 1 1 1 1 1 < < < > > > # $ u u O                                                                                                                                                                                                                                   ",
"                                                                                                                                                                                                                                        O + p p 9 9 8 8 e e r t N H X.%.'. XyXgXlXcXvXvXvXvXcXhX X^.t.O.Q Q Q Y Q Q Q ] ] ] ` ] ] 5.6.w.n.n.M.M.Z.Z.H.H.J.J._._.@X@X@X4X4X@X@X@X@X@X@X@XU.U.J.K.F.B.B.k.k.8.6.4.` ) E R T U U Y Y L I K S S m n n b c c c z l w w w 4 4 3 3 3 1 1 1 1 1 < < < > > > # $ u u O                                                                                                                                                                                                                                   ",
"                                                                                                                                                                                                                                        O + p p 9 9 8 8 e e r t N H X.%.'. XyXgXlXcXcXvXvXvXcXhX}.^.t.O.Q Q Q Y Q Q Q ] ) ] ` ] ] 6.6.6.w.n.M.M.Z.Z.H.H.H._._._.@X@X4X4X4X@X@X@X@X@X@X@XU.U.J.K.F.B.n.k.k.8.6.3.) ) E R T U U Y P I I K S S m n n b c c c z l k w w q 4 3 3 3 3 3 1 1 1 < < < > > & # $ u u O                                                                                                                                                                                                                                   ",
"                                                                                                                                                                                                                                        O + p p 9 9 8 8 8 e r t N H X.%.'. XyXgXlXcXcXvXvXvXcXhX X^.t.O.Q Q Y Y Q Q Q ] ) _ ` ` ] 5.6.6.w.n.M.M.Z.Z.H.H.H._._._.@X@X4X4X4X@X@X@X@X@X@X@XU.U.J.K.F.B.N.k.k.8.6.3.) ) E R T U U Y P I I K S S m n n b c c z z l k w w w 4 3 3 3 3 3 1 1 1 < < < > > & # $ u u O                                                                                                                                                                                                                                   ",
"                                                                                                                                                                                                                                        O + p p 9 6 8 8 8 e r t N H X.%.'. XyXgXlXcXcXvXvXvXcXhX X^.t.O.Q Q Q Q Y R Q Q ] _ ] ] ] ] 6.6.w.n.n.M.Z.Z.H.H.H.J._._._.@X4X4X4X@X@X@X@X@XU.U.U.J.J.K.F.B.n.k.k.8.6.3.) ) E R T Y U Y P I I K S S m n n b c c z l l k w w w 4 4 3 3 3 3 1 1 1 1 < < > > & # $ u u O                                                                                                                                                                                                                                   ",
"                                                                                                                                                                                                                                        O + p p 9 6 8 9 8 e r t N H X.%.'. XyXgXlXcXcXvXvXvXcXhX X^.t.O.Q Q Q Q Y Y Q Q ] ] ] ` ] ] 6.6.6.n.n.M.M.B.Z.H.H.J.J._.@X@X4X4X4X@X@X@XU.@XU.U.U.J.J.K.B.B.n.k.k.8.6.4.) ) E R T Y U U P I I K S S m n n b c c z z l k w w 4 4 4 3 3 3 3 1 1 1 1 < < > > & # $ u u O                                                                                                                                                                                                                                   ",
"                                                                                                                                                                                                                                        O + p p 9 9 8 8 e e r t N H X.%.'. XyXgXlXcXvXvXvXvXcXhX X^.t.O.Q Q Q Q Y Y Q Q ] _ ] ` ] ] 6.6.6.n.n.M.M.Z.Z.H.H.J.J._._.@X@X4X4X4X@X@X@X@XU.U.U.J.J.K.B.B.n.k.k.8.6.3.) ) E R T Y U U I I I S S m m n b b c c z l l k w w 4 4 4 3 3 3 3 1 1 1 1 < < > > & # $ u u O                                                                                                                                                                                                                                   ",
"                                                                                                                                                                                                                                        O + p p 9 6 9 8 e e r t N H X.%.'. XyXgXlXcXvXvXvXvXcXhX X^.t.O.Q Q Q Y Y Y Q Q Q ] ] ` ] ] 5.6.6.8.n.M.M.Z.Z.H.H.H.J._._.@X@X4X4X@X@X@XU.U.U.U.U.J.J.G.B.B.n.k.k.8.6.3.) ) E R Y U U P I I I S S m n n b b c c z l l k w w w 4 4 3 3 3 3 1 1 1 1 < < > > & # $ u u O                                                                                                                                                                                                                                   ",
"                                                                                                                                                                                                                                        O + p f 9 6 8 8 e e r t N H X.%.'. XyXgXlXcXcXvXvXvXcXhX X^.t.O.Q T Y Y Q Q Q Q Q Q ) ` ` ` ] 5.6.w.n.n.M.B.Z.H.H.H.J.J._.@X@X@X@X@X@XU.U.U.U.U.U.J.J.F.B.B.k.k.8.6.6.3.) ) R R U U Y P I I K S S m n n b c c z z l l k w w w 4 3 3 3 3 3 1 1 1 1 < < > > # # $ u u O                                                                                                                                                                                                                                   ",
"                                                                                                                                                                                                                                        O o p f 9 6 8 8 e r r t N H X.%.'. XyXgXlXcXcXvXvXvXcXhX X^.t.O.Q Y Y Y Y Y Q Q Q Q _ ) ` ` ] 5.6.6.n.n.M.M.B.Z.H.H.H.J.J._.@X@X@X@XU.J.U.J.J.J.J.J.K.F.B.B.k.k.8.6.6.3.) ) R T U U Y P I I K S m m n b b c c z l l l k w w w 4 3 3 3 3 3 3 1 1 1 1 < > > # # $ u u o                                                                                                                                                                                                                                   ",
"                                                                                                                                                                                                                                        O o p f 9 6 8 e e e e t N H | %.'. XyXgXlXcXcXvXvXvXcXhX X^.t.O.Q Q Y Y Y Y Y R R R Q ) _ ` ` ] 6.6.k.n.n.M.B.B.Z.H.H.H.J.J.J.@XJ.U.J.J.J.J.J.J.J.K.K.B.B.B.k.k.8.6.4.3.) E R T U Y P I I K S S m n n b c c c z z l k w w w 4 4 3 3 3 3 3 3 1 1 1 1 < > > # # $ u u O                                                                                                                                                                                                                                   ",
"                                                                                                                                                                                                                                        O + p { 8 9 9 e e e e t N H | %.'. XyXgXlXcXcXvXvXcXcXhX X^.t.O.Q Q Y Y Y Y Y Y R R R _ _ ` ` ] 5.6.6.n.n.M.M.B.Z.Z.H.H.H.J.J.J.J.J.J.J.J.J.J.K.K.G.F.B.B.k.k.k.6.6.3.3.) E R U U Y P I I K S m m n n b c c c z l l k k w w 4 4 4 3 3 3 3 1 1 1 1 1 < > > # # $ u u o                                                                                                                                                                                                                                   ",
"                                                                                                                                                                                                                                        O o p { 8 9 9 e e r e t N H X.%.'. XyXgXlXcXcXvXvXcXzXhX X^.t.O.Q Q Y U Y Y Y U R R R R ) ` ` ] 5.6.6.8.n.n.M.M.B.B.Z.H.H.H.H.J.J.J.K.K.K.K.K.K.K.G.B.B.B.k.k.8.6.4.3.) ) E T U Y P I I K K S m m n b b c c z z l l k k w w 4 4 4 3 3 3 3 1 1 1 1 1 < > > # # $ u u o                                                                                                                                                                                                                                   ",
"                                                                                                                                                                                                                                        O o p { e 6 9 e e r e t N H X.%.'. XyXgXlXcXcXvXvXcXzXhX X^.t.O.Q Q U U U Y Y Y U R R R ) _ ` ` ] 5.6.6.k.n.n.M.B.B.B.F.F.F.K.K.K.K.K.G.G.G.G.G.G.F.B.B.z.k.k.8.6.4.3.) E E T U Y I I I K S S m n n b c c c z z l l k w w w 4 4 4 3 3 3 3 3 1 1 1 1 < > : # # $ y u o                                                                                                                                                                                                                                   ",
"                                                                                                                                                                                                                                        . o p  .r 6 9 e e r e t N H X.s.'. XyXgXlXcXcXvXvXcXzXhX}.^.O.O.Q Y U Y U U Y Y U R R R _ _ ` _ ] 6.6.6.8.k.n.M.M.B.B.B.B.B.F.F.G.G.F.F.F.F.F.F.F.B.B.B.k.k.8.6.4.3.3.) E R U U P I I I K S m m n n b c c c z z l l k w w w 4 4 4 3 3 3 3 3 1 1 1 1 < > > # # $ y u O                                                                                                                                                                                                                                   ",
"                                                                                                                                                                                                                                        . o p  .r 6 9 e e r e t N H +.^. XtXiXlXxXcXcXvXvXcXzXhX}.^.O.] Q U U Y Y Y Y Y Y U Y R _ _ ` _ ` 5.6.6.8.k.k.n.M.z.B.B.B.B.B.B.B.B.B.B.B.B.B.B.B.B.z.k.k.k.6.6.4.3.) ) E R U U P I I K K S m m n b b c c z z z l k k w w w w 4 4 3 3 3 3 3 1 1 1 1 < > > # # $ 2 u O                                                                                                                                                                                                                                   ",
"                                                                                                                                                                                                                                        . + p | r 6 9 q e r e t N H +.'. XyXgXxXxXcXcXvXmXvXcXhX}.^.O.^ Q U U Y Y Y Y U Y Y Y Y R R ) ` _ _ 4.6.6.8.k.k.k.n.z.B.B.B.B.B.B.B.B.B.B.B.B.z.z.z.z.k.k.9.9.4.3.3.) ) E T U Y I I I K S S m n n b b c c z z z l l k w w w 4 4 4 4 4 3 3 3 1 1 1 1 < > > # # $ 2 u .                                                                                                                                                                                                                                   ",
"                                                                                                                                                                                                                                        . + p  .r 6 9 q e r t t N H +.'.tXyXlXxXcXcXcXmXmXmXcXhX}.^.O.^ Q U U Y Y Y Y Y U U Y Y R R R ) _ _ 3.4.6.6.8.k.k.k.k.k.z.z.z.z.B.B.z.z.z.z.z.z.z.k.k.k.9.9.4.3.3.) ) E E T U I I I I I S S m n n b b c c z z l l l k w w w 4 4 4 4 4 3 3 3 1 1 1 1 < > > # # $ < u O                                                                                                                                                                                                                                   ",
"                                                                                                                                                                                                                                        . % p  .r 6 9 e e r t x N } %.'.yXiXlXxXcXcXvXmXmXmXcXgX}.^.O.^ Q U Y Y L Y Y Y Y Y U U Y R R E _ _ ) _ 3.4.6.6.8.8.k.k.k.k.k.k.z.z.z.z.z.z.k.k.k.k.k.9.9.4.4.3.3.) E E R T Y I I I I I S m m n n b c c c z z l l l k w w w w 4 4 4 4 4 3 3 3 1 1 1 < < > # # @ & s o                                                                                                                                                                                                                                   ",
"                                                                                                                                                                                                                                        . * p | e 6 8 e r e t N N } %.}.yXgXxXxXcXcXmXmXMXmXcXgX}.^.O.^ Q U U L L L L L Y Y Y Y U U R R R E E ) ) 3.3.3.4.4.4.4.9.9.9.9.k.k.k.k.k.k.k.k.k.9.9.9.4.3.3.3.) E E T Y Y I I I I I S m m n n b b c c z z z l l l k w w w 4 4 4 4 4 4 3 3 3 1 1 1 < < > & # @ # s o                                                                                                                                                                                                                                   ",
"                                                                                                                                                                                                                                        . * { | 8 9 e e e e t N N } %.}.yXgXxXcXcXvXmXMXmXmXcXgX}.^.O.] Q Y U L L L Y Y Y Y Y Y Y Y U U R R E E E ) ) 3.3.3.3.3.3.3.4.4.9.9.9.9.9.9.9.9.4.4.4.3.3.3.) ) E E T U P I I I I K S m m m n b b b c c z z z l l l k k k w 4 4 4 4 4 3 3 3 3 3 1 1 1 < > : # @ @ s @                                                                                                                                                                                                                                   ",
"                                                                                                                                                                                                                                      . O , }  .9 9 e e e e t N N | ^.tXiXgXxXcXcXmXmXMXVXmXcXgX}.^.O.] Q Y U U L L Y I I Y Y Y Y Y U U T E E E E E E ) ) 3.3.3.3.3.3.3.3.4.4.3.4.4.4.3.3.3.3.3.3.3.) E E E T U I I I I I S S m m m n b b b c c z z z z l l k k k w w 4 4 4 4 4 3 3 3 3 1 1 1 < > : # # @ s =                                                                                                                                                                                                                                   ",
"                                                                                                                                                                                                                                      . O 9  . .6 9 e e r e t N B +.'.yXgXxXxXcXvXmXMXMXMXmXcXgX}.s.O.] Q Q U U Y Y Y Y I I Y Y U U U U R R E E E E ) ) ) 3.3.3.3.3.3.3.3.3.3.4.3.3.3.3.3.3.3.3.3.) ) E E Y Y Y P I I I I S S m m m n n b b c c c z z z l l k k k k w w w 4 4 4 4 4 3 3 3 1 1 < > > : # $ u y .                                                                                                                                                                                                                                 ",
"                                                                                                                                                                                                                                      . * 8 o.{ 6 9 e e r t x N H %.tXgXxXxXcXvXmXmXMXMXMXmXcXhX'.t.O.] Q Q U U Y Y Y Y Y Y Y Y U U T R E E E E ) ) ) ) 3.3.3.3.3.3.3.3.3.4.3.4.4.4.3.3.3.3.3.3.3.) ) E E E Y Y P P I I I K S S m m m n n b b b c z z z z l k k k k k k w w 4 4 4 4 3 3 3 1 1 < > > : # $ y u O                                                                                                                                                                                                                                 ",
"                                                                                                                                                                                                                                      . * p o.i 6 8 e e e t N N } [.iXxXcXcXvXvXmXMXMXMXMXmXxXyX'.t.O.^ Q Q Y U U U U Y Y Y Y U T R R R E E _ ) ) ) _ 3.3.3.3.3.3.3.3.3.4.4.4.4.4.4.4.4.3.3.3.3.3.3.) ) E E R T U U I I I I I K S m m m n n b b b c c z z z l l k k k k w w 4 4 4 4 4 3 3 3 3 1 < > : # @ > s X                                                                                                                                                                                                                                 ",
"                                                                                                                                                                                                                                    . . , N | e 9 8 e r e t N N o.}.lXxXcXcXvXmXMXMXMXMXMXmXxXtX~.t.O.^ Q T Y Y U U U U Y Y Y Y R E E E _ ) ) ) _ _ 3.3.3.4.4.4.4.4.4.4.4.9.9.9.9.9.9.9.9.4.4.3.3.3.3.) ) E E E T U U P I I I I K S S m m n n b b b c c z z l z k k k k k w w 4 4 4 4 4 3 3 1 1 < > > : @ @ C %                                                                                                                                                                                                                                 ",
"                                                                                                                                                                                                                                    . O 9 {  .9 9 9 e e e t N N *.tXxXxXcXvXvXmXmXMXMXMXMXmXlX|.^.O.] ^ Q Q Y Y Y Y Y Y Y Y Y R E E ) ) _ ) _ 3.3.3.4.4.4.9.9.9.9.9.9.9.k.k.k.k.k.k.k.k.9.9.9.9.4.4.3.3.3.) ) E E R T U U P P I I K S S m m M n n b b b c z z z z k k k k k k w 4 4 4 4 3 3 1 1 < > > > # $ s 5                                                                                                                                                                                                                                 ",
"                                                                                                                                                                                                                                    . o 8 } { 6 9 9 e e e t N N %.iXxXxXcXvXvXmXmXMXMXMXMXmXlX|.^.O.] Q Q Y Y Y Y Y Y Y Y R R R _ ) _ _ _ _ 3.3.4.6.6.4.6.9.k.k.k.k.k.k.k.k.k.k.k.k.k.k.k.k.k.k.9.9.4.4.3.3.) ) ) E E R T U P P I I K K S S m M n n b b b c z z z z k k k k k k w 4 4 4 4 3 3 1 1 > > > : $ u y .                                                                                                                                                                                                                               ",
"                                                                                                                                                                                                                                    . o r  .p 6 9 9 e e e t x G d.gXxXxXcXvXvXmXmXMXMXMXVXmXlX X^.O.^ Q Q U U Y Y Y Y Y R R R _ _ _ _ _ 3.3.4.4.6.6.8.k.k.k.k.k.k.k.k.k.k.k.k.z.z.z.z.z.z.k.k.k.k.9.9.9.4.4.3.3.) ) E R E T U U P P I K K S S m m n n b b b c z z z l k k k k k k 4 4 4 4 3 3 1 1 < > > > @ 2 s .                                                                                                                                                                                                                               ",
"                                                                                                                                                                                                                                    . % p  .p 6 9 9 e e r t t } [.xXxXxXcXcXvXvXmXmXMXMXMXmXlX Xs.O.Q Q Q Y U U Y Y Y R R R _ _ _ _ _ _ 4.4.6.6.8.k.k.k.k.k.z.z.B.z.B.B.z.z.z.z.z.z.z.z.z.z.z.k.k.k.k.9.6.4.3.3.3.) ) E E E T T U P P I I K S S m m M b b b c z z z z l k k k k k w 4 4 4 3 3 3 1 > > > > @ * C o                                                                                                                                                                                                                               ",
"                                                                                                                                                                                                                                    . % p  .r 6 9 9 e e e t t } [.xXxXxXbXcXnXvXmXmXMXMXMXmXlX Xs.O.Q Q Y R U Y Y Y Y R R _ _ _ _ _ _ 4.6.6.6.8.k.k.M.M.B.B.B.B.B.B.F.F.F.F.F.F.G.F.F.F.B.z.z.z.z.k.k.k.9.6.4.4.3.3.) ) ) E E R T U P P I I K K S m m n b b b c z z z l z k k k k k w 4 4 4 3 3 1 < > > : # # { %                                                                                                                                                                                                                               ",
"                                                                                                                                                                                                                                    . * p  .e 6 9 9 e e e e t } '.xXjXxXxXxXcXcXmXmXMXMXMXmXlX}.t.] Q Q Y Y Y Y Y Y R R _ _ _ _ ` _ 4.6.6.6.8.k.k.M.z.B.B.F.F.F.G.K.G.G.G.G.G.G.G.G.G.G.G.F.B.z.z.z.k.k.k.9.6.6.4.3.3.3.) ) E R R T U P I I I K S m m M n b b b z z z z z k k k k k w 4 4 4 3 3 3 1 > > : # @ { %                                                                                                                                                                                                                               ",
"                                                                                                                                                                                                                                    O * p { e 6 9 9 e e e t t } '.lXgXgXxXxXcXcXcXmXmXmXmXvXlX}.t.] Q Q Y Y Y R Y Y Y R _ _ ` ` _ 4.6.6.6.8.k.k.M.M.B.B.F.F.K.K.K.K.K.K.K.K.K.K.K.K.K.G.G.G.F.F.B.z.z.k.k.k.9.6.6.4.3.3.3.) E E R T T U P I I K K S m m n b b b c z z z z k k k k k w w 4 4 4 3 1 < > > > : $ { *                                                                                                                                                                                                                               ",
"                                                                                                                                                                                                                                  O O , p p 9 6 9 9 q e e e t | '.gXgXgXgXxXxXxXcXcXvXmXmXvXlX}.t.^ R Y Y Y Y Y Y Y R R _ _ _ ` _ 6.6.6.6.k.k.k.M.B.B.F.F.K.K.K.K.J.J.J.J.J.J.J.J.J.J.K.K.G.G.F.F.z.z.z.k.k.k.9.6.4.4.3.3.) ) E E R T U P P I I K K m m M n b b c z z z z z k k k k w w 4 4 4 3 3 1 > > > > $ Z 5                                                                                                                                                                                                                               ",
"                                                                                                                                                                                                                                  . o 7 p p 9 6 9 9 q e r e t | '.iXiXgXgXgXxXxXxXcXcXvXvXcXgX'.t.^ R Y Y Y Y Y Y Y R _ _ _ ` _ 3.6.6.6.6.k.k.M.M.B.B.F.F.K.K.K.J.J.J.U.U.U.U.U.U.R.U.U.K.K.G.G.F.B.z.z.z.k.k.k.9.9.4.3.3.3.) ) E R R T U P I I K S S m M n b b b z z z z z k k k k w w w 4 4 3 3 1 > > > > $ C 7                                                                                                                                                                                                                               ",
"                                                                                                                                                                                                                                  . o 9 p r 9 6 9 9 q e r e t | [.tXtXyXiXgXgXlXxXcXcXcXvXcXhX'.+.^ Y Y Y Y Y Y Y R R _ _ _ _ _ 3.6.6.6.8.k.k.M.M.B.F.F.K.K.K.J.J.U.U.W.W.W.W.W.W.U.R.U.J.K.v.G.G.F.z.z.z.k.k.k.8.6.9.4.3.3.) ) ) E R T U P I I K K S m m n b b b c z z z z l l k k k w w 4 4 3 3 1 > > : > @ C 7                                                                                                                                                                                                                               ",
"                                                                                                                                                                                                                                  . o 9 r r 9 6 6 9 9 e r e e } ~. X XtXtXyXhXgXgXlXcXcXcXcXyX~.+.Q Y Y Y Y Y Y Y Y R R _ _ _ ` 3.6.6.6.k.k.M.M.B.B.F.F.K.K.J.J.U.U.W.W.W.W.W.W.W.W.U.U.J.K.v.G.G.F.B.z.z.z.k.k.k.9.9.4.3.3.3.) ) E R R U U P I K K S m m n b b b c z z z z l k k k k w w 4 4 3 3 1 > > > > @ s 7                                                                                                                                                                                                                               ",
"                                                                                                                                                                                                                                  . + 7 r e 9 6 6 9 9 e e e e } s.}.}.}.|.|.yXyXhXgXlXlXzXlXyX~.+.Q Y Y Y Y Y Y Y Y R R _ _ _ ` 3.6.6.6.k.k.M.M.B.F.F.K.K.K.J.U.W.W.W.W.W.W.W.W.W.W.W.R.U.K.v.v.G.G.c.z.z.z.k.k.k.8.6.6.4.3.3.) ) E E E T U P I I K S m m n b b b c z z z l l k k k k w w 4 4 3 3 1 > > : > @ s 7                                                                                                                                                                                                                               ",
"                                                                                                                                                                                                                                  . % 7 e 8 6 6 6 9 9 q e e e } %.'.'.'.}. X|.tXyXhXgXlXlXhX|.~.O.Q Y Y Y Y Y Y Y Y R R _ _ _ ` 3.6.6.6.k.k.M.M.B.F.F.K.K.J.U.U.W.W.W.W.W.W.W.W.W.W.W.R.U.K.K.v.G.G.F.z.z.z.k.k.k.8.6.9.4.3.3.3.) ) E R T U P I I K S m m M b b b c c z z l l k k k w w 4 4 4 3 3 1 > > : > @ s y                                                                                                                                                                                                                               ",
"                                                                                                                                                                                                                                  . % 7 8 9 6 6 6 6 9 q e e e H %.^.^.~.'.}. X|.|.yXhXhXhXhX X^.O.Q U Y Y Y Y Y Y Y R R _ _ _ _ _ 4.6.6.k.k.k.z.B.F.F.K.K.J.U.W.W.W.W.W.W.W.W.W.W.W.E.R.R.K.K.G.G.G.F.z.z.z.k.k.k.9.9.9.4.3.3.3.) ) E R T U P I I K S m m M n b b c z z z l l k k k w w w 4 4 3 1 < > > > > $ s y                                                                                                                                                                                                                               ",
"                                                                                                                                                                                                                                  . % 7 8 9 6 6 6 6 6 q e e e H +.s.s.s.^.~.'.}. X|.|.|.|.|.}.^.O.Y Y Y Y Y Y Y Y R R R _ _ _ _ _ 4.6.6.6.k.k.M.B.F.F.K.K.J.J.W.W.W.W.W.W.W.W.W.W.W.W.R.R.K.G.v.G.G.F.c.z.z.z.k.k.k.9.4.4.4.3.3.) ) ) R T U P I I I S m m n b b b c z z z l l k k k k w 4 4 4 3 1 < > > > > $ s y                                                                                                                                                                                                                               ",
"                                                                                                                                                                                                                                  . % 7 9 6 6 6 6 6 6 6 q e e N X.+.+.t.s.^.~.~.'.}. X X X X~.t.] Y Y Y Y Y Y Y Y R R R R _ _ _ _ _ 6.6.6.k.k.M.B.F.F.K.K.J.J.W.W.W.W.W.W.W.W.W.W.E.E.R.R.K.G.G.G.G.F.c.z.z.z.k.k.k.9.6.4.4.3.3.3.) ) E R U P P I I S m m n b b c c z z z l l k k k w w w 4 4 3 1 < > > > : $ s y                                                                                                                                                                                                                               ",
"                                                                                                                                                                                                                                  . % 7 9 6 , 1 6 6 6 6 q e e N | +.+.+.t.s.^.^.~.(.(.(.'.(.^.t.^ Y Y Y I Y Y Y Y R Y R E _ _ _ _ _ 6.6.6.k.k.M.z.B.F.F.G.K.J.W.W.W.W.W.W.Q.W.W.W.E.E.R.R.v.G.G.G.G.G.c.z.z.z.z.k.k.9.9.4.4.3.3.3.) ) E R U P P I I S m m n b b c c z z l l l k k k w w 4 4 4 3 1 < > > > & $ s y                                                                                                                                                                                                                               ",
"                                                                                                                                                                                                                                  . % 7 9 6 , , 1 6 6 6 q e e N H X.X.+.+.t.s.^.^.^.^.~.~.~.^.O.Q Y L Y I Y Y Y Y R Y R R _ _ _ _ 3.4.6.6.k.k.k.z.B.F.F.K.K.J.W.W.W.W.Q.Q.Q.W.W.W.E.E.R.R.v.v.G.G.G.F.c.z.z.z.z.k.k.9.9.4.4.3.3.3.) ) E R U P I I I S m m n b c c c z z l l l k k k w w 4 4 3 3 1 < > > : & $ s y                                                                                                                                                                                                                               ",
"                                                                                                                                                                                                                                  . % 9 9 9 , , 6 6 6 6 q e e v H X.X.X.+.+.t.t.s.^.^.^.^.^.t.O.Q Y L L I Y Y Y U R R R E _ _ _ _ 4.4.6.6.k.k.k.z.B.F.F.G.K.J.W.W.W.W.W.W.Q.Q.W.W.E.R.R.v.v.G.G.G.G.F.c.z.z.z.k.k.k.9.9.4.4.3.3.3.) ) E R U P I K I S m n b b c c z z l l l l k k w w w 4 4 3 1 < < > > : # $ s y                                                                                                                                                                                                                               ",
"                                                                                                                                                                                                                                  . % 9 6 9 , , 6 6 6 6 q q e N H H ! X.O.O.+.t.t.t.t.t.t.t.t.] Y Y L I I Y Y Y Y Y R E _ ) _ _ _ 3.6.6.6.k.k.z.z.B.F.F.G.K.J.W.W.W.Q.Q.Q.Q.W.Q.W.W.E.R.R.v.G.G.G.b.F.c.z.z.z.k.k.k.9.6.4.4.3.3.3.) ) E T U P I I S m m n b c c c z z l l l k k w w w w 4 4 3 1 < > > : # # $ s 7                                                                                                                                                                                                                               ",
"                                                                                                                                                                                                                                  . % 9 9 9 , , 1 1 6 6 9 e e v H H ! X.X.O.O.O.t.t.t.t.t.t.O.] Y L L Y Y Y Y U Y R E _ ) _ _ ` 3.4.6.6.8.k.k.z.B.F.F.G.K.J.R.W.W.Q.Q.Q.Q.Q.Q.Q.Q.Q.W.W.R.R.v.v.G.G.b.F.c.z.z.k.k.k.9.6.4.4.3.3.3.) ) E T U P I I S m n b b c c z z l l l k k k w w w w 4 4 3 1 < > > # # # $ s 7                                                                                                                                                                                                                               ",
"                                                                                                                                                                                                                                  . % 9 9 9 , , 1 6 6 6 9 q e v N H H ! X.O.O.O.O.w.t.w.w.O.O.Q Y Y Y Y Y Y R Y R R _ ) _ ) _ _ 3.6.6.6.k.k.k.z.B.F.F.K.K.J.W.W.W.Q.Q.Q.Q.0X0XQ.Q.Q.Q.Q.W.E.R.R.v.G.G.b.c.z.z.k.k.k.9.6.4.4.4.3.3.) ) E T U I I S m n n b c c z z l l l l k k w w w w 4 4 3 1 < > > > # # # $ s 5                                                                                                                                                                                                                               ",
"                                                                                                                                                                                                                                  . + 9 9 6 , , 1 6 6 6 9 q e t v H H W ! X.O.O.O.O.O.O.O.O.O.^ Y Y Y Y Y Y Y R R E _ _ _ _ _ ` 3.4.6.6.k.k.k.z.B.F.F.K.K.J.W.W.Q.Q.0X0X0X0X0X0X0X0X0XQ.Q.Q.W.R.R.v.G.b.c.z.z.z.k.k.9.9.4.4.4.3.3.) ) E R U I I S m n b c c c z l l l l w w w w w w w 4 3 3 1 < > > > # # # $ s 5                                                                                                                                                                                                                               ",
"                                                                                                                                                                                                                                  . o 9 9 6 , , 1 6 6 6 6 q e e v H H H ! X.O.O.O.O.O.O.O.O.] Q Y Y Y Y Y Y Y Y Y Y Y R R R _ _ _ _ 6.6.8.k.k.z.B.F.F.K.K.J.W.W.Q.Q.Q.0X0X0X0X0X0X0X0X0XQ.Q.W.E.R.R.G.b.c.z.z.z.k.k.9.6.4.4.4.3.3.3.) E R U I I S n n b c c z l l l l l w w w w w w 4 4 3 1 < > > > # # # # $ s =                                                                                                                                                                                                                               ",
"                                                                                                                                                                                                                                  O o 9 9 6 , , 1 6 6 6 q q e e N N H H ! ! ^ O.O.O.O.O.O.O.^ Q U L L L L L L L Y Y Y Y Y Y R _ _ _ 4.6.6.8.k.k.z.B.F.F.K.K.K.U.U.U.W.W.W.W.W.W.W.W.W.W.R.R.R.v.G.G.b.c.z.z.z.k.k.k.9.9.4.4.3.3._ ) ) E R Y I S S n n c c c z l l l l l w w w w w 4 4 3 1 1 < > > # # # # @ $ s *                                                                                                                                                                                                                               ",
"                                                                                                                                                                                                                                  O o 7 9 9 , , 1 6 6 6 q q e e v v M H H ! X.O.O.O.O.O.O.O.^ ! L F D D D D F F F L Y Y Y U R R _ _ _ _ 4.6.6.k.k.k.z.z.B.B.F.F.F.F.G.G.F.c.c.z.z.z.z.z.z.z.z.z.z.l.k.k.k.k.k.k.9.9.4.3.3.) _ ) E R R U Y I K S m n n b c c c z z z l l w w w w q 3 3 1 1 < > > # # # # @ @ $ s *                                                                                                                                                                                                                               ",
"                                                                                                                                                                                                                                    O 7 9 9 6 , 1 6 6 6 6 q q e e v v M H W X.^ O.O.O.O.O.O.X.W F F F F F F F D F F L Y Y Y Y Y R _ _ _ _ _ 4.6.6.9.k.k.k.k.k.l.z.z.z.z.z.z.z.z.k.k.k.k.j.9.9.4.4.3.3._ _ _ _ _ _ ) _ _ R U Y Y L I F S S S m m n n c c c c c c c z z l w w w q 3 3 1 1 < > > & # # @ @ @ @ @ s %                                                                                                                                                                                                                               ",
"                                                                                                                                                                                                                                    O 7 9 9 9 , , 1 6 6 6 q q e e t N N H H X.X.+.+.+.+.O.O.X.W D D F F F F F F F F F F L Y Y Y Y Q R R _ _ _ _ _ _ _ 6.6.9.k.k.k.k.z.z.z.k.k.k.k.k.k.j.9.4.4.4.4.3._ _ _ R R R R Y Y Y L F S S F F n n v c c c c c z z l l l l l w w e w q q 3 1 1 1 > > > # # # @ @ @ @ @ o s +                                                                                                                                                                                                                               ",
"                                                                                                                                                                                                                                    O 7 9 9 , , , 1 6 6 6 6 q q e e e N B H X.o.+.+.+.+.+.o.X.X.H F M M n v v b n F F F F F D F L L Y Y Y Y Y Y R R _ _ _ 3.4.9.k.k.k.k.k.k.k.k.k.k.j.9.4.4.4.4.4.3.3._ _ _ R R Y Y I I F S S n b c z z l w w w w w q q q q q q q q 3 3 3 1 1 1 1 > > > > # # # @ @ @ @ @ X @ s O                                                                                                                                                                                                                               ",
"                                                                                                                                                                                                                                    O * 9 9 6 , , , 6 1 6 6 6 q q q e t N H X.o.+.+.+.+.+.o.o.} H N v v v v v v v v v v b n F F F D F L L L Y Y Y Y Y Y Y R _ _ 6.9.k.k.k.k.k.k.k.9.8.6.4.4.4.4.4.3.3._ _ _ R R Y Y L F S F n b c z l w w q q 3 1 1 1 1 1 1 1 < 1 < < < > > > > > & & # # # @ @ @ @ @ @ $ X @ s o                                                                                                                                                                                                                               ",
"                                                                                                                                                                                                                                    . * 9 9 9 , , , , 1 6 6 6 6 6 q q e x N } o.+.+.+.+.+.+.o.} H N x v e e e e e t t v v v n F F F F D F F L L F F F F F F Y Y R _ 3.4.k.k.k.k.k.9.9.4.4.4.4.3._ _ _ _ R Y Y Y L F F F n b c z w w w q q 1 1 1 > > > > > & & & & & & & # # # # # # @ @ @ @ @ $ X X X X X . * s .                                                                                                                                                                                                                               ",
"                                                                                                                                                                                                                                    . * 8 9 9 , , , , 1 1 1 1 6 6 6 6 e e N } | o.+.+.+.+.+.o.| } N t t e e e e e e e e v v M F F F F L L Y Y Y Y Y Q R R _ _ _ _ 6.8.k.k.k.k.k.k.k.8.4.4.3._ _ _ R Y Y L F F F F n v v l l w w q q 6 1 1 1 > > > > & & # # # # # # # # # @ @ @ @ @ @ X X X X X X X X X X . = d .                                                                                                                                                                                                                               ",
"                                                                                                                                                                                                                                    . % 8 7 9 , , , < , 1 1 1 1 1 1 6 6 e t N } | o.o.o.+.o.o.| { N t e e e q q q e e e e v v v M F F F ! Q Q ] ] 5.6.w.n.n.M.M.M.M.B.z.k.k.k.k.k.8.6._ _ R Y L F S F F n v v l l w w q q q q 1 1 1 < < > > > & & # # # # @ @ @ @ @ @ @ @ @ @ @ X X X X X X X X . . . . O . y y .                                                                                                                                                                                                                               ",
"                                                                                                                                                                                                                                    . + 8 9 9 , , < , , , , , 1 1 1 1 6 6 e p C } } | o.o.o.| } C N e e 6 6 1 1 1 1 1 1 q q e e w e e e e v v v n F F D F Y Q Q ] _ _ _ _ _ _ _ R R Y L F F n v v v l t w e q q q q 6 1 1 1 < < > > > & & & # # # # @ @ @ @ @ @ @ @ @ @ $ $ X X X X X . . . . . . . . . . . y = .                                                                                                                                                                                                                               ",
"                                                                                                                                                                                                                                      O 8 8 9 9 , , , < 2 2 2 2 , , , 1 1 6 e p C { } |  .} } { N u y 9 2 2 2 2 2 < < < < < 1 < < 1 1 1 1 1 1 1 1 1 3 q q q w w t v v v v v v v v v v t t w e e q q q q q 6 6 1 1 1 < < > > > > & & & & # # # @ @ @ @ @ @ $ $ $ $ X $ X X X X X X . . . . . . . . . . . . . d o                                                                                                                                                                                                                                 ",
"                                                                                                                                                                                                                                      O 7 8 7 9 , , , < 2 2 2 , , , 2 2 1 2 9 u p C C { } { C C p u q 2 2 2 > > > > > > > > > > > < 2 2 2 2 < < 1 1 1 6 q q q q q q q q q q q q q q q 6 q 6 6 6 6 1 1 1 1 < < < < > > & & & & & & & & # # @ @ @ @ @ @ X X X X X X X X X X X X X . . . . . . . . . . . . . o d .                                                                                                                                                                                                                                 ",
"                                                                                                                                                                                                                                      . 7 8 7 9 , , , , , , , 2 2 2 2 2 < 1 2 9 u p C C C C C p u u 7 2 2 > * * & & & & & & & & & & & & & & & & & & & & & & > , , , , < , , 1 1 1 6 6 1 1 , < < , , , , > > & & & & & & & # # # @ @ @ @ @ @ @ @ $ X X X X X X X X X X X X . . . . . . . . . . . . . . . . % y .                                                                                                                                                                                                                                 ",
"                                                                                                                                                                                                                                      . * 0 7 9 , , , , , > , , 2 2 2 2 2 2 2 2 y u u s s s s u u y 5 2 = & % % & @ @ # # # # # # # # @ @ @ @ @ # # @ @ @ @ @ % & % & & & & & & * * * * > > & & & & & & & & & & & % % @ # # @ @ @ @ @ @ $ X X X X X X X X . . . . . . . . . . . . . . . . . . . . . . . . = = .                                                                                                                                                                                                                                 ",
"                                                                                                                                                                                                                                        + 0 7 7 , , , , > > > > > > > , > 2 2 2 2 5 y u u u u u y 5 5 & % & # # @ @ @ @ @ @ @ @ @ @ @ @ @ @ @ @ @ @ @ @ @ @ @ @ @ @ @ @ # # # # # & & & # # # # & % # @ @ @ @ @ @ @ @ @ @ @ @ @ @ @ $ X X X X X . . . . . . . . . . . . . . . . . . . . . . . . . . . . . = o                                                                                                                                                                                                                                   ",
"                                                                                                                                                                                                                                        O 8 8 7 7 * * & & & & & & & & * * & * * * 2 5 5 y y y 5 5 5 = % & % @ @ @ @ @ @ $ $ $ $ @ @ @ @ @ @ @ @ @ @ @ @ @ @ @ @ @ @ @ @ @ @ @ @ @ @ @ @ @ @ @ @ @ @ @ @ @ @ @ @ @ @ @ @ @ @ @ @ @ @ @ @ $ X X X X X X X X X X X . . X X X X X . X . . . . . . . . . . . . = O                                                                                                                                                                                                                                   ",
"                                                                                                                                                                                                                                        . - 0 7 - * * & & & & & & & & & & % & & # & % = = 5 5 5 5 = = = = % @ $ $ $ $ $ $ $ $ o o @ o o @ o o o o o o o o o o o @ @ @ @ @ @ @ @ @ @ @ @ @ @ @ @ @ @ @ @ @ @ @ @ @ @ # # & & & & & & & & > > > > > > * & & & & & % % @ @ @ $ $ X X X . . . . . . . . . . O + .                                                                                                                                                                                                                                   ",
"                                                                                                                                                                                                                                          + 0 7 * * * % % % % @ @ @ @ @ @ @ @ @ @ @ @ @ % = = = = = = = = $ $ $ $ $ o o o o o X X X X X X X X X o X X X X X X X X X X X X X X X X $ X X X X @ @ o @ @ @ @ @ @ @ @ @ & & & & & > > 2 2 2 2 2 9 9 7 7 y 7 2 2 2 2 5 = * * @ $ $ X X X . . . . . . . . . . O o                                                                                                                                                                                                                                     ",
"                                                                                                                                                                                                                                          . - 8 - * * % % @ @ @ $ $ $ $ $ $ $ $ $ $ o o o o $ $ @ @ @ $ $ o o o o o o o o o o X X X X X X X X X X X X X X X X X X X X X X X X X X X X X X X X X X X X X X X X X X X @ @ @ @ @ @ @ @ @ @ @ @ @ @ @ @ @ @ o o X X X X X X . . . . . . . . . . . . . . . O O                                                                                                                                                                                                                                       ",
"                                                                                                                                                                                                                                            O 7 - * % @ @ o o o o o o o o o o o o o o o o O X O O O o O O O O O O O O X O X X X X . X . . . . . . . . . . . . . . . . . . . . . . . . . . . . . . . . . . X . . X X X . X X X X X X . . . . . . . . . . . . . . . . . . . . . . . . . . . . . . . . . O O                                                                                                                                                                                                                                       ",
"                                                                                                                                                                                                                                            . + - * % @ o O o o o X o o X X O O O O O O O O O X O O O O . . O O . . . . O . . . . . . . . . . . . . . . . . . . . . . . . . . . . . . . . . . . . . . . . . . . . . . . . . . . . . . . . . X X X . . . . . . . . . . . . . . . . . . . . . . . . O . O                                                                                                                                                                                                                                         ",
"                                                                                                                                                                                                                                              . + * % % o o o o X X o X X X X O O O O O O O O X O O O O . . . . . . . . . . . . . . . . . . . . . . . . . . . . . . . . . . . . . . . . . . . . . . . . . . . . . . . . . . . . . . . . . . . . . . . . . . . . . . . . . . . . . . . . . . . . . . O                                                                                                                                                                                                                                           ",
"                                                                                                                                                                                                                                                . O O + @ o o o o o o X X X X X X X O O o o o o o O O O O . . . . . . . . . . . . . . . . . . . . . . . . . . . . . . . . . . . . . . . . . . . . . . . . . . . . . . . . . . . . . . . . . . . . . . . . . . . . . . . . . . . . . . . . . . . . .                                                                                                                                                                                                                                             ",
"                                                                                                                                                                                                                                                    . . O o o o o o o o o o X X o o o o o $ @ @ @ o o o O O . . . . . . . . . . . . . . . . . . . . . . . . . . . . . . . . . . . . . . . . . . . . . . . . . . . . . . . . . . . . . . . . . . . . . . . . . . . . . . . . . . . . . . . . . . .                                                                                                                                                                                                                                               ",
"                                                                                                                                                                                                                                                      . . . . . . O O O O o o o o o $ @ @ = = = = = = = @ o o O X X X . . . . . . . . . . . . . . . . . . . . . . . . . . . . . . . . . . . . . . . . . . . . . . . . . . . . . . . . . . . . . . . . . . . . . . . . . . . . . . . . . . . .                                                                                                                                                                                                                                                   ",
"                                                                                                                                                                                                                                                                . . . . . . . . . . . . . . O O o o o o o o O O X . . . . . . . . . . . . . . . . . . . . . . . . . . . . . . . . . . . . . . . . . . . . . . . . . . . . . . . . . . . . . . . . . . . . . . . . . . . . . . . . . O                                                                                                                                                                                                                                                           ",
"                                                                                                                                                                                                                                                                            . . . . . . . . . . . . . . . . . . . . . . . . . . . . . . . . . . . . . . . . . . . . . . . . . . . . . . . . . . . . . . . . . . . . . . . . . . . . . . . . . . . . . . . . . . . . . . .                                                                                                                                                                                                                                                                       ",
"                                                                                                                                                                                                                                                                                                        . . . . . . . . . . . . . . . . . . . . . . . . . . . . . . . . . . . . . . . . . . . . . . . . . . . . . . . . . . . . O O O o O . . . . O O                                                                                                                                                                                                                                                                                           ",
"                                                                                                                                                                                                                                                                                                                                                                      .               .                                                                                                                                                                                                                                                                                                                                                         ",
"                                                                                                                                                                                                                                                                                                                                                                                                                                                                                                                                                                                                                                                                                                                                                ",
"                                                                                                                                                                                                                                                                                                                                                                                                                                                                                                                                                                                                                                                                                                                                                ",
"                                                                                                                                                                                                                                                                                                                                                                                                                                                                                                                                                                                                                                                                                                                                                ",
"                                                                                                                                                                                                                                                                                                                                                                                                                                                                                                                                                                                                                                                                                                                                                ",
"                                                                                                                                                                                                                                                                                                                                                                                                                                                                                                                                                                                                                                                                                                                                                ",
"                                                                                                                                                                                                                                                                                                                                                                                                                                                                                                                                                                                                                                                                                                                                                ",
"                                                                                                                                                                                                                                                                                                                                                                                                                                                                                                                                                                                                                                                                                                                                                ",
"                                                                                                                                                                                                                                                                                                                                                                                                                                                                                                                                                                                                                                                                                                                                                ",
"                                                                                                                                                                                                                                                                                                                                                                                                                                                                                                                                                                                                                                                                                                                                                ",
"                                                                                                                                                                                                                                                                                                                                                                                                                                                                                                                                                                                                                                                                                                                                                ",
"                                                                                                                                                                                                                                                                                                                                                                                                                                                                                                                                                                                                                                                                                                                                                ",
"                                                                                                                                                                                                                                                                                                                                                                                                                                                                                                                                                                                                                                                                                                                                                ",
"                                                                                                                                                                                                                                                                                                                                                                                                                                                                                                                                                                                                                                                                                                                                                ",
"                                                                                                                                                                                                                                                                                                                                                                                                                                                                                                                                                                                                                                                                                                                                                ",
"                                                                                                                                                                                                                                                                                                                                                                                                                                                                                                                                                                                                                                                                                                                                                ",
"                                                                                                                                                                                                                                                                                                                                                                                                                                                                                                                                                                                                                                                                                                                                                ",
"                                                                                                                                                                                                                                                                                                                                                                                                                                                                                                                                                                                                                                                                                                                                                ",
"                                                                                                                                                                                                                                                                                                                                                                                                                                                                                                                                                                                                                                                                                                                                                ",
"                                                                                                                                                                                                                                                                                                                                                                                                                                                                                                                                                                                                                                                                                                                                                ",
"                                                                                                                                                                                                                                                                                                                                                                                                                                                                                                                                                                                                                                                                                                                                                ",
"                                                                                                                                                                                                                                                                                                                                                                                                                                                                                                                                                                                                                                                                                                                                                ",
"                                                                                                                                                                                                                                                                                                                                                                                                                                                                                                                                                                                                                                                                                                                                                ",
"                                                                                                                                                                                                                                                                                                                                                                                                                                                                                                                                                                                                                                                                                                                                                ",
"                                                                                                                                                                                                                                                                                                                                                                                                                                                                                                                                                                                                                                                                                                                                                ",
"                                                                                                                                                                                                                                                                                                                                                                                                                                                                                                                                                                                                                                                                                                                                                ",
"                                                                                                                                                                                                                                                                                                                                                                                                                                                                                                                                                                                                                                                                                                                                                ",
"                                                                                                                                                                                                                                                                                                                                                                                                                                                                                                                                                                                                                                                                                                                                                "
};
