/* XPM */
static char *_ae5cb3b3a2c4edaa2d01d030c42b45fWxaZCx8OYYD9ifC8[] = {
/* columns rows colors chars-per-pixel */
"250 503 162 2 ",
"   c black",
".  c #1D180D",
"X  c #231E0F",
"o  c #231E11",
"O  c #25200E",
"+  c #2A240F",
"@  c #252112",
"#  c #2B2513",
"$  c #2E2815",
"%  c #2D2718",
"&  c #2F2A18",
"*  c #312716",
"=  c #332B15",
"-  c #382D17",
";  c #312B19",
":  c #392F1A",
">  c #3B321B",
",  c #2F2F2F",
"<  c #362F21",
"1  c #3E3623",
"2  c #3F3929",
"3  c #353434",
"4  c #383737",
"5  c #3C3A33",
"6  c #3C3B3A",
"7  c #41361C",
"8  c #453A1F",
"9  c #413723",
"0  c #453921",
"q  c #4A3E24",
"w  c #443B2B",
"e  c #493E29",
"r  c #403D34",
"t  c #403F3D",
"y  c #4C4019",
"u  c #4C4025",
"i  c #4B412E",
"p  c #524422",
"a  c #434137",
"s  c #4C4637",
"d  c #444239",
"f  c #4E493D",
"g  c #544B3A",
"h  c #615026",
"j  c #454444",
"k  c #484744",
"l  c #494947",
"z  c #4C4C4A",
"x  c #514D44",
"c  c #504F4E",
"v  c #575242",
"b  c #52514E",
"n  c #5E5A4B",
"m  c #555553",
"M  c #585655",
"N  c #575855",
"B  c #595856",
"V  c #5D5C5A",
"C  c #655D47",
"Z  c #625D56",
"A  c #605F5D",
"S  c #5F605C",
"D  c #696253",
"F  c #61615F",
"G  c #68655D",
"H  c #6B695A",
"J  c #656462",
"K  c #686765",
"L  c #676864",
"P  c #696966",
"I  c #6D6D6B",
"U  c #706F6E",
"Y  c #6F706D",
"T  c #7A7567",
"R  c #71716E",
"E  c #716F70",
"W  c #757573",
"Q  c #787776",
"!  c #777875",
"~  c #797A77",
"^  c #797778",
"/  c #7C7C7A",
"(  c #80734A",
")  c #807F76",
"_  c #807F7D",
"`  c #7F807C",
"'  c #818177",
"]  c #81827E",
"[  c #85857D",
"{  c #89877F",
"}  c #87897F",
"|  c #89887F",
" . c #827F81",
".. c #7F8080",
"X. c #838380",
"o. c #858581",
"O. c #858483",
"+. c #878784",
"@. c #888685",
"#. c #878884",
"$. c #8A8980",
"%. c #8C8B81",
"&. c #8E8E82",
"*. c #8A8A86",
"=. c #8A8A87",
"-. c #8E8E85",
";. c #898788",
":. c #8B8B88",
">. c #8C8B89",
",. c #8C8F89",
"<. c #8D8D8A",
"1. c #8D8F8B",
"2. c #8F8F8C",
"3. c #908F86",
"4. c #908F8C",
"5. c #908F8D",
"6. c #8F9087",
"7. c #8D908A",
"8. c #8F908D",
"9. c #919186",
"0. c #90908D",
"q. c #98968D",
"w. c #97988E",
"e. c #99988E",
"r. c #959591",
"t. c #999693",
"y. c #979892",
"u. c #9A9B94",
"i. c #9D9E99",
"p. c #A09E97",
"a. c #A09F9A",
"s. c #9FA096",
"d. c #9EA099",
"f. c #A4A396",
"g. c #A4A49A",
"h. c #A8A69B",
"j. c #A7A89A",
"k. c #ABAA9C",
"l. c #A4A3A1",
"z. c #A9A6A1",
"x. c #ADACA2",
"c. c #B0AEA5",
"v. c #B2AFA9",
"b. c #AFB1A4",
"n. c #B1B1A5",
"m. c #B4B3AA",
"M. c #B9B6AE",
"N. c #B7B8AC",
"B. c #BABAAD",
"V. c #BAB7B0",
"C. c #BDBCB1",
"Z. c #C0BFB3",
"A. c #C2C2B4",
"S. c #C5C5BA",
"D. c #C9C7BC",
"F. c #C7C8B9",
"G. c #CACABD",
"H. c #CECDC3",
"J. c #D0CEC5",
"K. c #D2CFC8",
"L. c #CFD0C5",
"P. c #D1D0C6",
/* pixels */
"2.2.2.2.2.2.2.2.2.2.2.2.2.2.2.2.2.2.2.2.2.2.2.2.2.2.2.2.2.2.2.2.2.2.2.2.2.2.2.2.2.2.8.2.2.2.2.2.2.2.0.2.2.8.8.8.8.2.2.2.2.8.8.2.2.2.8.2.2.2.2.2.2.8.2.2.2.8.2.2.2.2.2.2.8.8.2.2.2.8.2.2.2.2.2.2.2.8.2.2.8.2.2.2.2.2.2.2.8.2.2.8.8.2.2.2.2.2.8.2.2.2.2.8.2.2.2.2.2.2.2.8.2.2.8.8.2.2.2.2.2.2.2.2.2.2.2.2.2.2.2.2.8.2.2.2.2.2.0.0.0.0.0.0.0.0.0.0.0.0.0.0.0.0.0.0.0.0.0.0.0.0.0.0.0.0.0.0.0.0.0.0.0.0.0.0.0.0.0.0.0.0.0.0.0.0.0.0.0.0.0.0.0.0.0.0.0.0.0.0.0.0.0.0.0.0.0.0.0.0.0.0.0.0.0.0.0.0.0.0.0.0.0.0.0.0.0.0.0.0.",
"0.0.0.0.0.0.0.0.0.0.0.0.0.0.0.0.0.0.0.0.0.0.0.0.0.0.0.0.0.0.0.0.0.0.0.0.0.0.0.0.0.0.0.0.0.0.0.0.0.0.0.0.0.0.0.0.0.0.0.0.0.0.0.0.0.0.0.0.0.0.0.0.0.0.0.0.0.0.0.0.0.0.0.0.0.0.0.0.0.0.0.0.0.0.0.0.0.0.0.0.0.0.0.0.0.0.0.0.0.0.0.0.0.0.0.0.0.0.0.0.0.0.0.0.0.0.0.0.0.0.0.0.0.0.0.0.0.0.0.0.0.0.0.0.0.0.0.0.0.0.0.0.0.0.0.0.0.0.0.0.0.0.0.0.0.0.0.0.0.0.0.0.0.0.0.0.0.0.0.0.0.0.0.0.0.0.0.0.0.0.0.0.0.0.0.0.0.0.0.0.0.0.0.0.0.0.0.0.0.0.0.0.0.0.0.0.0.0.0.0.0.0.0.0.0.0.0.0.0.0.0.0.0.0.0.0.0.0.0.0.0.0.0.0.0.0.0.0.0.0.",
"0.0.0.0.0.0.0.0.0.0.0.0.0.0.0.0.0.0.0.0.0.0.0.0.0.0.0.0.0.0.0.0.0.0.0.0.0.0.0.0.0.0.0.0.0.0.0.0.0.0.0.0.0.0.0.0.0.0.0.0.0.0.0.0.0.0.0.0.0.0.0.0.0.0.0.0.0.0.0.0.0.0.0.0.0.0.0.0.0.0.0.0.0.0.0.0.0.0.0.0.0.0.0.0.0.0.0.0.0.0.0.0.0.0.0.0.0.0.0.0.0.0.0.0.0.0.0.0.0.0.0.0.0.0.0.0.0.0.0.0.0.0.0.0.0.0.0.0.0.0.0.0.0.0.0.0.0.0.0.0.0.0.0.0.0.0.0.0.0.0.0.0.0.0.0.0.0.0.0.0.0.0.0.0.0.0.0.0.0.0.0.0.0.0.0.0.0.0.0.0.0.0.0.0.0.0.0.0.0.0.0.0.0.0.0.0.0.0.0.0.0.0.0.0.0.0.0.0.0.0.0.0.0.0.0.0.0.0.0.0.0.0.0.0.0.0.0.0.0.0.",
"0.0.0.0.0.0.0.0.0.0.0.0.0.0.0.0.0.0.0.0.0.0.0.0.0.0.0.0.0.0.0.0.0.0.0.0.0.0.0.0.0.0.0.0.0.0.0.0.0.0.0.0.0.0.0.0.0.0.0.0.0.0.0.0.0.0.0.0.0.0.0.0.0.0.0.0.0.0.0.0.0.0.0.0.0.0.0.0.0.0.0.0.0.0.0.0.0.0.0.0.0.0.0.0.0.0.0.0.0.0.0.0.0.0.0.0.0.0.0.0.0.0.0.0.0.0.0.0.0.0.0.0.0.0.0.0.0.0.0.0.0.0.0.0.0.0.0.0.0.0.0.0.0.0.0.0.0.0.0.0.0.0.0.0.0.0.0.0.0.0.0.0.0.0.0.0.0.0.0.0.0.0.0.0.0.0.0.0.0.0.0.0.0.0.0.0.0.0.0.0.0.0.0.0.0.0.0.0.0.0.0.0.0.0.0.0.0.0.0.0.0.0.0.0.0.0.0.0.0.0.0.0.0.0.0.0.0.0.0.0.0.0.0.0.0.0.0.0.0.0.",
"0.0.0.0.0.0.0.0.0.0.0.0.0.0.0.0.0.0.0.0.0.0.0.0.0.0.0.0.0.0.0.0.0.0.0.0.0.0.0.0.0.0.0.0.0.0.0.0.0.0.0.0.0.0.0.0.0.0.0.0.0.0.0.0.0.0.0.0.0.0.0.0.0.0.0.0.0.0.0.0.0.0.0.0.0.0.0.0.0.0.0.0.0.0.0.0.0.0.0.0.0.0.0.0.0.0.0.0.0.0.0.0.0.0.0.0.0.0.0.0.0.0.0.0.0.0.0.0.0.0.0.0.0.0.0.0.0.0.0.0.0.0.0.0.0.0.0.0.0.0.0.0.0.0.0.0.0.0.0.0.0.0.0.0.0.0.0.0.0.0.0.0.0.0.0.0.0.0.0.0.0.0.0.0.0.0.0.0.0.0.0.0.0.0.0.0.0.0.0.0.0.0.0.0.0.0.0.0.0.0.0.0.0.0.0.0.0.0.0.0.0.0.0.0.0.0.0.0.0.0.0.0.0.0.0.0.0.0.0.0.0.0.0.0.0.0.0.0.0.0.",
"0.0.0.0.0.0.0.0.0.0.0.0.0.0.0.0.0.0.0.0.0.0.0.0.0.0.0.0.0.0.0.0.0.0.0.0.0.0.0.0.0.0.0.0.0.0.0.0.0.0.0.0.0.0.0.0.0.0.0.0.0.0.0.0.0.0.0.0.0.0.0.0.0.0.0.0.0.0.0.0.0.0.0.0.0.0.0.0.0.0.0.0.0.0.0.0.0.0.0.0.0.0.0.0.0.0.0.0.0.0.0.0.0.0.0.0.0.0.0.0.0.0.0.0.0.0.0.0.0.0.0.0.0.0.0.0.0.0.0.0.0.0.0.0.0.0.0.0.0.0.0.0.0.0.0.0.0.0.0.0.0.0.0.0.0.0.0.0.0.0.0.0.0.0.0.0.0.0.0.0.0.0.0.0.0.0.0.0.0.0.0.0.0.0.0.0.0.0.0.0.0.0.0.0.0.0.0.0.0.0.0.0.0.0.0.0.0.0.0.0.0.0.0.0.0.0.0.0.0.0.0.0.0.0.0.0.0.0.0.0.0.0.0.0.0.0.0.0.0.0.",
"0.0.0.0.0.0.0.0.0.0.0.0.0.0.0.0.0.0.0.0.0.0.0.0.0.0.0.0.0.0.0.0.0.0.0.0.0.0.0.0.0.0.0.0.0.0.0.0.0.0.0.0.0.0.0.0.0.0.0.0.0.0.0.0.0.0.0.0.0.0.0.0.0.0.0.0.0.0.0.0.0.0.0.0.0.0.0.0.0.0.0.0.0.0.0.0.0.0.0.0.0.0.0.0.0.0.0.0.0.0.0.0.0.0.0.0.0.0.0.0.0.0.0.0.0.0.0.0.0.0.0.0.0.0.0.0.0.0.0.0.0.0.0.0.0.0.0.0.0.0.0.0.0.0.0.0.0.0.0.0.0.0.0.0.0.0.0.0.0.0.0.0.0.0.0.0.0.0.0.0.0.0.0.0.0.0.0.0.0.0.0.0.0.0.0.0.0.0.0.0.0.0.0.0.0.0.0.0.0.0.0.0.0.0.0.0.0.0.0.0.0.0.0.0.0.0.0.0.0.0.0.0.0.0.0.0.0.0.0.0.0.0.0.0.0.0.0.0.0.0.",
"0.0.0.0.0.0.0.0.0.0.0.0.0.0.0.0.0.0.0.0.0.0.0.0.0.0.0.0.0.0.0.0.0.0.0.0.0.0.0.0.0.0.0.0.0.0.0.0.0.0.0.0.0.0.0.0.0.0.0.0.0.0.0.0.0.0.0.0.0.0.0.0.0.0.0.0.0.0.0.0.0.0.0.0.0.0.0.0.0.0.0.0.0.0.0.0.0.0.0.0.0.0.0.0.0.0.0.0.0.0.0.0.0.0.0.0.0.0.0.0.0.0.0.0.0.0.0.0.0.0.0.0.0.0.0.0.0.0.0.0.0.0.0.0.0.0.0.0.0.0.0.0.0.0.0.0.0.0.0.0.0.0.0.0.0.0.0.0.0.0.0.0.0.0.0.0.0.0.0.0.0.0.0.0.0.0.0.0.0.0.0.0.0.0.0.0.0.0.0.0.0.0.0.0.0.0.0.0.0.0.0.8.8.8.8.8.8.8.8.8.8.8.8.8.8.8.8.0.0.0.0.0.0.0.0.0.0.0.0.0.0.0.0.0.0.0.0.0.0.0.",
"0.0.0.0.0.0.0.0.0.0.0.0.0.0.0.0.0.0.0.0.0.0.0.0.0.0.0.0.0.0.0.0.0.0.0.0.0.0.0.0.0.0.0.0.0.0.0.0.0.0.0.0.0.0.0.0.0.0.0.0.0.0.0.0.4.4.4.0.0.0.0.0.0.0.0.0.0.0.0.0.0.0.0.0.0.0.0.0.0.0.0.0.0.0.0.0.0.0.0.0.0.4.4.0.0.0.0.0.0.0.0.0.0.0.0.0.0.0.8.8.8.8.8.8.8.8.8.8.8.8.8.8.8.8.8.8.8.8.8.8.8.8.8.8.8.8.8.8.2.1.8.2.2.2.2.2.2.2.2.2.2.2.2.2.2.2.2.2.2.2.2.2.2.2.2.2.2.2.2.2.2.2.2.2.2.2.2.2.2.2.2.2.2.2.2.2.2.2.2.2.2.2.2.2.2.2.2.2.2.2.2.4.4.4.4.4.4.4.4.4.4.4.4.4.4.4.4.2.2.2.2.2.2.2.0.0.0.0.0.0.0.0.0.0.0.0.0.0.0.0.",
"0.0.0.0.0.0.0.0.0.0.0.0.0.0.0.0.4.4.4.4.4.4.4.4.4.4.4.4.4.4.4.4.4.4.4.4.4.4.4.4.0.0.0.0.0.0.0.0.0.0.0.0.0.0.0.0.0.0.0.0.0.0.0.0.0.0.4.0.0.0.0.0.0.0.0.0.0.0.0.0.0.0.0.0.0.0.0.0.0.0.0.0.0.0.0.0.0.0.0.0.0.4.4.0.0.0.0.0.0.0.0.0.0.0.0.0.0.0.0.0.0.0.0.0.0.0.0.0.0.0.0.0.0.0.0.0.0.0.0.0.0.0.0.0.0.0.0.0.4.4.0.0.0.0.0.0.0.0.0.0.0.4.0.0.0.0.0.0.0.0.0.0.0.0.0.0.0.0.0.0.0.0.0.0.0.0.0.0.0.0.0.0.0.0.0.0.0.0.0.0.0.0.0.0.0.0.0.0.0.0.0.8.8.8.8.8.8.8.8.8.8.8.8.8.8.8.8.0.0.0.0.0.0.0.0.0.0.0.0.0.0.0.0.0.0.0.0.0.0.0.",
"0.0.0.0.0.0.0.0.0.0.0.0.0.0.2.2.8.8.8.8.8.8.8.8.8.8.8.8.8.8.0.8.8.8.8.8.8.8.8.8.2.2.2.2.2.2.2.2.2.2.2.2.2.2.2.2.2.2.2.2.2.2.2.2.2.2.2.2.2.2.2.2.2.2.2.2.2.2.2.2.2.2.2.2.2.2.2.2.2.2.2.2.2.2.2.2.2.2.2.2.2.2.2.2.2.2.2.2.2.2.2.2.2.2.2.2.2.2.2.2.2.2.2.2.2.2.2.2.2.2.2.2.2.2.2.2.2.2.2.1.2.2.2.2.2.2.2.2.2.2.2.2.2.2.2.2.2.2.2.2.1.2.1.1.2.2.2.2.2.2.2.2.2.2.2.2.2.2.2.2.2.2.2.2.2.2.2.2.2.2.2.2.2.2.2.2.2.2.2.2.2.2.2.2.2.2.2.2.2.1.1.1.1.1.1.1.1.1.1.1.1.1.1.1.1.1.1.1.1.1.1.1.1.2.0.0.0.0.0.0.0.0.0.0.0.0.0.0.0.0.",
"0.0.0.0.0.0.0.0.0.0.0.0.0.4.8.8.2.2.2.2.2.2.2.2.2.2.2.1.1.1.2.2.1.1.1.1.1.1.1.1.1.1.1.1.1.1.1.1.1.1.1.1.1.1.1.1.1.1.1.1.1.1.1.1.1.1.1.1.1.1.1.1.1.1.1.1.1.1.1.1.1.1.1.1.1.1.1.1.1.1.1.1.1.1.1.1.1.1.1.1.1.1.1.1.1.1.1.1.1.1.1.1.1.1.1.1.1.1.1.1.1.1.1.1.1.1.1.1.1.1.1.1.1.1.1.1.1.1.1.1.1.1.1.1.1.1.1.1.1.1.1.1.1.1.1.1.1.1.1.1.1.1.1.1.1.1.1.1.1.1.1.1.1.1.1.1.1.1.1.1.1.1.1.1.1.1.1.1.1.1.1.1.1.1.1.1.1.1.1.1.1.1.1.1.1.1.1.1.1.1.1.1.1.1.1.1.1.1.1.1.1.1.1.1.1.1.1.1.1.1.1.1.2.0.2.2.0.0.0.0.0.0.0.0.0.0.0.0.0.0.",
"0.0.0.0.0.0.0.0.0.0.0.0.0.0.2.2.0.1.1.1.1.1.1.1.1.1.1.1.1.1.1.1.1.1.1.1.1.1.1.1.1.1.1.1.1.1.1.1.1.1.1.1.1.1.1.1.1.1.1.1.1.1.1.1.1.1.1.1.1.1.1.1.1.1.1.1.1.1.1.1.1.1.1.1.1.1.1.1.1.1.1.1.1.1.1.1.1.1.1.1.1.1.1.1.1.1.1.1.1.1.1.1.1.1.1.1.1.1.1.1.1.1.1.1.1.1.1.1.1.1.1.1.1.1.1.1.1.1.1.1.1.1.1.1.1.1.1.1.1.1.1.1.1.1.1.1.1.1.1.1.1.1.>.>.>.>.>.>.1.1.1.1.1.1.1.1.1.1.1.1.1.1.>.>.1.1.1.1.:.:.:.:.:.:.:.:.:.:.:.:.:.:.:.:.:.:.:.:.:.=.=.=.=.=.=.=.=.=.=.=.=.=.=.=.=.=.=.=.1.1.1.7.2.0.8.8.0.0.0.0.0.0.0.0.0.0.0.0.0.0.",
"0.0.0.0.0.0.0.0.0.0.0.0.0.0.8.8.4.7.1.=.=.=.=.=.=.=.=.=.:.:.:.:.:.:.:.:.:.:.:.:.:.:.:.:.:.:.:.:.:.:.:.:.:.:.:.:.:.:.:.1.1.1.1.1.>.>.1.1.1.>.>.>.>.>.>.>.>.>.>.>.>.>.1.1.1.1.>.>.1.1.1.1.1.1.>.>.1.1.1.1.1.1.1.1.1.1.1.1.1.1.1.1.1.1.1.1.1.1.1.1.1.1.1.1.1.1.1.1.1.1.1.1.1.1.1.1.1.1.1.1.1.1.>.>.1.1.1.1.1.>.1.1.1.1.1.>.1.1.1.1.1.1.>.>.>.>.>.>.>.>.>.>.>.>.>.>.>.>.>.>.>.>.>.:.:.:.:.:.=.=.=.=.=.=.=.=.=.=.=.=.=.=.=.:.:.:.:.:.:.=.=.=.=.=.=.=.=.=.=.+.+.+.+.+.o.o.o.+.7.7.7.7.2.0.8.8.0.0.0.0.0.0.0.0.0.0.0.0.0.0.",
"0.0.0.0.0.0.0.0.0.0.0.0.0.0.8.8.4.7.7.X.X.X.o.o.#.#.o.o.o.o.o.o.o.o.o.o.o.o.+.+.+.o.o.o.o.o.o.+.+.o.o.o.o.o.o.o.o.o.o.o.o.o.o.o.o.o.o.o.o.o.o.o.o.o.o.o.X.X.X.X.X.X.X.X.X.X.X.X.X.X.X.] ] ] ] ] ] ] ] ] ] ] ] ] ] ] ] ` / / / / / / / / / / / / / / / ~ ~ ~ ~ ~ ~ ~ ~ ~ ! ! ~ ~ ! ! ~ ~ Q ! ! Q Q Q Q ! ! Q Q Q Q W Q Q Q W W W W W W W W W W W W W W W I I I I I I I I I I I I I I I I P P K K P K K K K L K L L L L J J J J J J J J F F V V V V V V m m m m m m m b P 8.8.8.7.2.0.8.8.0.0.0.0.0.0.0.0.0.0.0.0.0.0.",
"0.0.0.0.0.0.0.0.0.0.0.0.0.0.8.8.4.1.7.o.o.o.F N B B B N B B B B B V B B V V V V V V V V V V V V V V V V V V V V V V V V V V V A A A A A A A A A A A A A V V V V V V V V V V V V V V V B B V V V V B B B B B B B B B B B B B B B B B B B B B N B B B B B B B B B B B B B B B N N B B N N B B B B B B B N B N N B m B B B B B N B B B B B N N N B m B B B B B B B N B B B B N B N m m N N m m m m m m m m m m m m m m m m m m m m m m b c c z z z z l l l l l j j j j j J 7.7.7.7.2.0.8.8.0.0.0.0.0.0.0.0.0.0.0.0.0.0.",
"0.0.0.0.0.0.0.0.0.0.0.0.0.0.8.8.4.1.7.=.=.=.! j j j j k k k k l l l l l z z z z z z b m m m m m m m m m m m m m m m m m m N N M m m B B B B B B B B B B B B B B B B B B B B B B B B B B B B B B B B B B B B B B B B B N m m m m m m m m m m m m m m m m c c b b b b b b c c z z z z z z z z z z z z z z z z z z z z z z z z l l l l l z z z z z l z z z l l l l l l l l l l l l l l l l k j j j j j j j j j j j j j j j j j j j j j t t t t 6 6 6 4 4 4 4 4 3 4 4 4 , N =.=.=.7.2.0.8.8.0.0.0.0.0.0.0.0.0.0.0.0.0.0.",
"0.0.0.0.0.0.0.0.0.0.0.0.0.0.8.8.4.1.7.o.o.o./ B 6 6 6 6 6 6 6 6 6 6 6 6 6 6 6 j j j j j j j j j k l l l l l l l l l l l l l l l z z z z z z z z z z z z z z z z z z z z z z z z z z z z z z z z z z z z z z z z z z z m P P P P P P P P P P P P P P P U ) ) ~ ~ / / ~ ~ ! ! ~ ~ / / ~ ! &.&.%.%.%.%.%./ ' ) / / ' / ` ` / %.&.9.&.&.&.] [ [ [ ] ] ) ) ) ] -.-.-.-.-.{ { { [ [ [ [ [ [ [ [ q.9.9.q.-.-.-.-.[ %.%.[ [ ] -.-.-.-.-.-.-.-.%.%.] / / ! ! ! / / / [ [ %.%.9.! [ [ [ 7.8.0.8.8.0.0.0.0.0.0.0.0.0.0.0.0.0.0.",
"0.0.0.0.0.0.0.0.0.0.0.0.0.0.8.8.4.1.7./ / / ! L P P %.| &.-.-.-.{ [ [ [ [ [ [ ] [ 9.q.y.y.y.y.y.u.0.q.q.q.q.q.q.q.q.y.g.g.g.g.g.u.u.y.y.y.y.y.y.y.q.f.f.f.f.f.f.f.f.u.t.y.y.y.t.y.y.h.h.h.h.h.h.h.h.u.a.u.u.t.y.y.y.y.y.q.y.y.y.y.y.1.1.2.9.1.9.9.9.9.1.4.4.1.1.1.1.1.o.+.+.o.o.+.+.o.o.o.X.o.o.o.o.o.X.o.o.X.o.X.o.o.o.o.X.] X.] ] ] o.] ] X.X.] o.o.o.] ` X.X.] X.X.X.] ] X.] ] ] o.o.] ] X.] X.] ] ] ] ] X.] ] ] ] ] X.X.X.] / ] / / / ~ ! ! Q W W W W W R W Q Q / W ` ` ` 1.2.0.2.2.0.0.0.0.0.0.0.0.0.0.0.0.0.0.",
"0.0.0.0.0.0.0.0.0.0.0.0.0.0.8.8.4.7.1./ / / W P W W P I P P P P I I I I Y Y I W W R W W W W W Q Q ! ~ ~ ~ ! ! ! ~ ! ! Q Q Q Q Q Q Q ! Q ! ! ! ! ! ~ W W Q Q W W W Q Q Q Q Q W W Q Q W W W W R W W W W W W W W W W W W W W W W W W W W W W W W W W W W W W W W W W W W Q W W W W W W Q W W W W W W W W W W W W W W W W W W W W W W W W W W W W W W W W W W W W W W W W W W W W W W W W W W W W W W W W W W W W W W W W W W W W R W R I I I I P P L J J L L L J L P P R W / / / =.2.0.2.2.0.0.0.0.0.0.0.0.0.0.0.0.0.0.",
"0.0.0.0.0.0.0.0.0.0.0.0.0.0.8.8.0.7.7./ / / W P R R J J J J J J F L L L L L L L P P I I I I I R R R W W W W R R W R R R W W W W R R W R W W W W W W W W W W R R W W W W W W W W W W W W W W W W W W R R W W W W R R R W W W W W W W R R R W W W R W W W W W W W R R R R W W R R W W R R W R W W W W R R R R R W R W W R W W R W R R R W R R W W R W W W R R W W R W W W W R W R R R W W R W W R W W W R W W W W W W R W W W W R W W I I I P P P L J J J J J J L P P R W / / / =.2.0.2.2.0.0.0.0.0.0.0.0.0.0.0.0.0.0.",
"0.0.0.0.0.0.0.0.0.0.0.0.0.0.8.8.0.7.7./ / / W P R R J J J J J J F L L L L L L L P P I I I I I R R W W R W R R R W R R R W W W W W W W W W W W W W W W W W W W W W W W W R R R R W W W W W W W W W W R W W W W W R R R W W W W W W W W R R W W W R R W W W W W W W W W R W W R R W W R R W R W W W W W R R R R W R W W W W W R W R R R W R R W W R W W W R R R R R W W W R R W W W W W W R W W R W W W R W W W W W W R W W W W W W W I I I P P P L J J J J L J L L L R W / / / =.2.0.2.2.0.0.0.0.0.0.0.0.0.0.0.0.0.0.",
"0.0.0.0.0.0.0.0.0.0.0.0.0.0.8.8.4.7.1./ / / W P R R J J J J J J J J L L L L L P P P I I I I I R W R W W W W W W W W W W R W W W R R W W W W W W W W W W W W W W W W W W W W W W W W W W W W W W W W W W W W W W W W W W W W W W W W W W W W W W W W W W W W W W W W W W W W W W W W W W W W W W W W W W W W W W W W W W W W W W W W W W W W W W W W W W W W W W W W W W W W W W W W W W W W W W W W W W W W W W W W W W W W W W W W I I I P L L L J J J J J J L L L Y W / / / =.2.0.2.2.0.0.0.0.0.0.0.0.0.0.0.0.0.0.",
"0.0.0.0.0.0.0.0.0.0.0.0.0.0.8.8.4.1.7./ / / ! P R R J V F F J J F L J J L L L L P P I I I I I R R W W W W W W W W W W W W W W W W W W W W W W W W W W W W W W W W W W W W W W W W W W W W W W W W W W W W W W W W W W W W W W W W W W W W W W W W W W W W W W W W W W W W W W W W W W W W W W W W W W W W W W W W W W W W W W W W W W W W W W W W W W W W W Q W W W W W W W Q W W W Q Q W W W W Q Q W W W Q Q W Q W W W Q Q Q W W W R I I I P P L L J L L L J L P P R W ` ` ` 1.8.4.8.8.0.0.0.0.0.0.0.0.0.0.0.0.0.0.",
"0.0.0.0.0.0.0.0.0.0.0.0.0.0.8.8.4.7.1./ / / ! Y R R J J J J J L J J L L L L P P P I R R R R R W Q Q Q Q Q ! ! ! ! Q ! ! ! ! ! ! ! ! ! ! ! ! ! ! ! ! ! ! ! ! ! ! ! ! ! ! ! ! ! ! ! ! ! ! ! ! ! ! ! ! ! ! ! ! ! ! ! ! ! ! ! ! ! ! ! ! ! ! ! ! ! ! ! ! ! ~ ! ! ! ! ! ! ! ~ ! ! ~ ~ ! ! ! ! ! ! ! ! ! ! ! ! ! ~ ~ ! ! ! ! ! ! ! ~ ! ~ ~ ~ ! ~ / ~ ~ ~ ~ ~ ~ ~ ~ ~ ~ / ! ~ ~ ~ / ~ / / / ~ ! ~ / / / ~ / / / / / / / ~ ~ / ~ ~ ~ ~ ! ! Q W W W Y I I P L L L L L L L P P W W ` ` ` 1.8.0.8.8.0.0.0.0.0.0.0.0.0.0.0.0.0.0.",
"0.0.0.0.0.0.0.0.0.0.0.0.0.0.8.8.4.1.7./ / / ~ R R R L L L L L L L L P P P P P I I R W W W W W ! ~ ~ / / / / / / / / / / / / / / / / / / / / ` / ` ` ` ` / / / / / / ` / ` ` / / / ` / ` ` ` ` ` ` ` / / ` / ` ` ` ` ` ` ` ` ` ` ` ` ` ` ` ` ` ` ` ` ` ` ` ` ` ` ` ` ` ` ` ` ` ` ` ` ` ` ` ` ` ] ` ` ` ` ` ` ` ` ` ` ] ] ] ] ] ] ] ] ] ] ] [ ] ] ] ] ] ] ] ] ] ] ] ` ] ] ] ] ] ] ] ] ] ] ] ] ] ] ] ] ] ] ] ] ] ] ] ] ` ` ` ` ` ` / / ! Q Q W I I I P P P P P L P P P W Q ] ] ] 1.8.0.8.8.0.0.0.0.0.0.0.0.0.0.0.0.0.0.",
"0.0.0.0.0.0.0.0.0.0.0.0.0.0.8.8.4.1.7.` ` ` / R R R P L P P P P L I P P I I R I W W W / / / / / / ] ] [ o.[ [ [ [ o.o.o.o.o.o.o.#.#.o.#.#.#.#.#.#.#.#.#.#.#.=.=.#.#.#.#.=.#.=.=.=.#.=.=.=.=.=.=.=.=.=.=.=.=.=.=.=.=.=.=.=.=.=.=.=.=.=.=.=.=.=.=.=.=.=.=.=.=.=.=.=.=.=.=.=.=.=.=.=.=.=.=.=.=.=.=.=.=.=.=.=.=.=.=.=.=.=.=.=.=.=.=.=.=.=.=.=.=.=.=.=.=.=.=.=.=.=.=.#.=.=.=.=.=.=.=.=.=.=.=.#.=.#.#.#.#.#.#.#.#.#.o.o.o.] o.o.o.o.` ] X./ ~ / ! W W Y P P P P P P P I I W ! [ [ [ 1.8.0.8.8.0.0.0.0.0.0.0.0.0.0.0.0.0.0.",
"0.0.0.0.0.0.0.0.0.0.0.0.0.0.8.8.4.1.7.] ] ] / W ! ! P P P P P P I I W W W W R ! Q ! ` ` ` ` ` / / / / / / ` ` ` ` / ` ` / ] ] ` ` ` ] / / / / / / ` / / / / / / / / / / ~ ~ ! ! ! ~ ! ! ! ! ! ! ! ! ! ! ! W W W W W W W W W W W W W W W W W W W W W W W R R R R R R R R R R R R Y Y Y Y Y Y I I Y Y I Y I I I P I P P P P P P I P P P P P P P P P P P P P P L L L L L L L L L L L L J J J J J F F F F S F F V F V V V N N N N ~ @.o.o.` ` ~ Q Q R I I P P P P P I I ! ! o.o.o.1.2.0.8.8.0.0.0.0.0.0.0.0.0.0.0.0.0.0.",
"0.0.0.0.0.0.0.0.0.0.0.0.0.0.8.8.4.1.7.] ] ] ` ! / / I I I I I I I W W W W W ! ! / / ] o.o.o.o.o.B B B V V V V V V V V V V V V V V V V V V V V V V V V V V V V V V V V V V V V V V V V V V V V V V V V V V V V V V V V V V V V V V V V V V V V F F F F F F F F F F F F F F F F F F F L L L L L L L L L L L L L L L P P P P P P P P P P P P P P P P I I I I I I I I I I I I I I I I I I I I W W W W R R R R R R I I I I P P P P x.X.:.+.o.o./ ! ! W Y I I I I I I I I Q ! o.o.o.1.8.0.8.8.0.0.0.0.0.0.0.0.0.0.0.0.0.0.",
"0.0.0.0.0.0.0.0.0.0.0.0.0.0.8.8.4.1.7.] ] ] ] ] [ [ I I I I I R R Q Q Q ! ! / / ] X.o.#.#.#.#.0.R I W W Q Q Q Q Q ! / / / / / / / / / / / / / / / / / / / / / / / / / / / / ` ` ] ] ] ] ] ] ] ] ] ] ] ] ] ] X.X.o.X.o.X.X.X.X.X.X.X.X.X.X.o.X.X.X.X.X.X.] ] X.X.X.X.X.X.o.X.X.X.X.X.X.X.X.X.X.X.X.X.X.X.X.X.X.X.X.X.X.X.X.X.X.] X.X.X.X.X.X.X.X.X.X.X.X.X.X.X.X.X.] X.X.X.X.X.X.X.X.] ] ] X.] X.X.X.X.X.X._ / ~ / ~ / W W W W p.+.1.=.o.o.] ~ ~ W R I I I I I I Y I ! ! o.o.o.1.2.0.8.8.0.0.0.0.0.0.0.0.0.0.0.0.0.0.",
"0.0.0.0.0.0.0.0.0.0.0.0.0.8.8.8.2.1.7.] ] ] ] [ [ [ I R I I I R W W ~ ~ / / ~ ] ] o.=.#.#.#.#.0.W Q / / / X.X.X.X.X.o.o.o.X.X.o.o.o.X.o.o.X.X.X.o.X.+.+.o.o.o.+.+.+.o.o.o.o.o.o.o.o.+.+.+.+.+.+.+.+.+.+.+.o.o.+.#.#.#.#.=.+.+.@.@.o.+.+.o.o.+.+.+.+.@.@.X.X.@.+.@.@.@.=.@.@.@.@.@.@.@.@.o.+.o.o.o.o.o.+.+.+.o.X.+.+.+.+.+.+.@.o.o.o.o.o.o.o.o.o.o.o.o.o.o.o.o.o.o.X.o.o.o.o.o.o.X.o.o.o.X.o.X.X.X.o.o.o.o.] ` ` / / ] W W W W q.:.1.1.o.o.] / / W W R I I I Y I Y Y ~ ! o.o.o.7.2.0.8.8.0.0.0.0.0.0.0.0.0.0.0.0.0.0.",
"0.0.0.0.0.0.0.0.0.0.0.0.0.8.0.0.2.1.7.o.o.o.o.[ [ [ R R R R R W W ~ ~ ~ / / ] / o.=.#.7.7.7.1.0.W / / ! ! ~ ~ ~ ~ / / / / / / / / / / / / / / / / ! ! ! ! ! ! ~ ~ ~ ! ! ! ! ! ! ! ! ! Q Q Q Q Q Q ! Q Q Q Q Q Q Q Q Q ! W W W W W W W W W W W W W W W W R R R R R R R R R U U U U U U U U U I R R R R I I I I I I I I I I I I I I I I P P P P P P P P P P P P P P P K K K K K K K K K K L L L J L J J J J J F V P ] / Q Q Q Q 9.:.2.1.=.=.o./ / ! W R R R R I R R R ! / o.o.o.1.2.0.8.8.0.0.0.0.0.0.0.0.0.0.0.0.0.0.",
"0.0.0.0.0.0.0.0.0.0.0.0.0.8.0.0.8.7.7.o.o.o.[ [ [ [ I R R R R W Q ! / / / / ] o.o.=.1.=.=.=.=.y.W ~ ` ] B B B B B V V V V V V V V V V V V V V V V V V V V V V V V V V V V V V V V V V V V V V V V V V V V V V V V V V V V V V V V V V V V V V V V V V V V V V V V V V V V A A A A A A V J J J F J F F J J J J J J J J J J J L L L L L L L L L L L L J J J L L L L L L L L L K K L L L L L L L L L L L L L J L F ! 9.` W W W Q q.>.0.2.:.:.o.] ] ! W R R R R W R W W / / #.#.#.7.2.0.8.8.0.0.0.0.0.0.0.0.0.0.0.0.0.0.",
"0.0.0.0.0.0.0.0.0.0.0.0.0.8.0.0.8.7.7.=.=.=.[ [ [ [ R R R R R W ! ~ / / ] ] X.=.=.1.7.1.1.1.1.y.Q / ] =.I P P P P I I R Y R R R R R R R R W W W W W W W Q Q Q Q Q Q Q Q Q Q Q Q Q Q Q Q Q Q Q Q Q ! ! ! ! ! ! ! ! ! ! ~ ~ ~ ~ ~ ~ ~ ~ ~ / / / / / / / / / / / / / / / / / / / / / / / / / / / / / / / / / / / / / / / / / / / / / / / / / / / / / / / / / / / / / / / / / / / / / / / / / / / / / ~ ~ ~ ~ Q Q W [ 7.] Q Q Q Q q.>.0.0.1.1.=.X.X./ Q W W W W W W W W / / #.#.#.7.2.0.8.8.0.0.0.0.0.0.0.0.0.0.0.0.0.0.",
"0.0.0.0.0.0.0.0.0.0.0.0.0.8.0.0.8.7.7.=.=.=.%.| [ [ W W W W W Q Q / / / X.X.=.#.1.0.8.8.8.8.8.y.! _ X.1.R Q Q Q Q ~ ~ ~ / _ _ _ _ _ _ _ _ _ _ _ ] ] ] ] X.X.] ] ] ] ] ] X.X.X.X.X.X.X.X.X.X.X.X.X.X.X.X.X.X.X.X.X.X.X.X.X.o.X.o.o.o.o.o.o.o.o.o.o.o.o.o.o.o.o.o.o.o.o.X.X.o.o.o.o.o.o.o.o.o.o.o.o.+.+.o.o.o.o.+.+.+.+.+.+.+.+.+.+.+.+.#.+.+.+.@.@.@.@.@.@.@.@.@.@.@.@.@.@.@.@.@.=.=.=.=.@.@.o.] X.] ] ] ] / / ! ] 0.] ~ ~ ~ ~ q.>.0.2.0.0.1.o.o.] ! Q Q Q Q W W W W / ] #.#.#.7.2.0.8.8.0.0.0.0.0.0.0.0.0.0.0.0.0.0.",
"0.0.0.0.0.0.0.0.0.0.0.0.0.8.0.0.2.7.7.=.=.=.o.%.[ [ W W W W W Q / / X.X.+.#.#.2.2.2.0.2.2.2.2.t./ / o.1.W / / / / / / X.] +.+.X.X.X.+.o.+.+.+.+.o.o.o.o.o.o.o.o.o.o.X.X.X.X.X.X.X.X.X.X.X.X.X.X.X.X.X._ _ _ ] ] ] ] ] ] ] ] ] ] ] ] / / / / / / / / / / / / / / ~ ~ ~ ! ! ~ ~ ~ ~ ~ ~ ~ ~ ~ ! ! ~ ~ ~ ! ! Q Q Q Q W W W W W W W W W W W W W W W R R U U R U U U U U U U U U U I I I P P P L J J J F F F F I / / [ 0.X.~ ~ ~ ~ q.>.0.2.2.2.2.=.=.] / ! Q Q Q ! Q Q Q ] ] =.=.=.7.2.0.8.8.0.0.0.0.0.0.0.0.0.0.0.0.0.0.",
"0.0.0.0.0.0.0.0.0.0.0.0.0.8.0.0.2.7.7.1.1.1.=.&.%.%.W W ! ! Q ~ / ] o.o.=.=.1.2.0.0.0.2.2.2.2.t./ X.+.0.W / / / / _ / m B B B B B B V V V V V V V V V V V V V V V V V V V V V V V V V V V V V V V V V V V B B B B B B B V V V V V V B B V V B B B B B B B B V V V V V V V V V V V V B B V V V V V V V V V V V V V V V V V V V V V F F F F F A F A A A A A A A A A J J J J J J J J J F F A A A A V m m m m +./ / [ 0.] ~ ~ ~ ~ q.>.0.4.2.2.0.1.1.o./ ~ ! ! ! ! ! ! ! ] ] =.=.=.7.2.0.8.8.0.0.0.0.0.0.0.0.0.0.0.0.0.0.",
"0.0.0.0.0.0.0.0.0.0.0.0.0.8.0.0.2.7.7.1.1.1.=.-.%.%.Q Q ! ! ! / / o.+.+.:.:.8.2.2.4.0.2.2.2.2.t./ X.@.0.Q / / / / _ o.L P I I I I I U U W W W W W W W W W W W W W W W W W W Q Q Q Q Q Q Q Q Q Q Q Q Q Q Q ! ! ! ! ! ! ! ! ! ~ ~ ~ ~ ~ ~ ~ ~ ~ / / / / / / / / / / / / / / / / / / / / / ~ ~ / / ~ ~ ~ / / / / / / / / / / ~ ~ / / / / ~ / / / / / / / / / / / / / / / / / / / / / / ~ ~ ! Q W Q W P P P P :./ / [ 9.o.~ ~ ~ ~ q.>.0.4.2.2.0.2.2.=.] / ! ! ! ! ! ! ! ] [ =.=.=.7.2.0.8.8.0.0.0.0.0.0.0.0.0.0.0.0.0.0.",
"0.0.0.0.0.0.0.0.0.0.0.0.0.8.0.0.2.7.7.1.1.1.=.9.%.%.Q ! ! ! ! / ] o.=.=.1.1.1.0.2.8.1.1.1.1.1.t./ ] @.0.Q ] ] ] ] / o.I W ! ! Q ! ! ! Q / / / / / ] _ ] ] ] / / / _ ] ] ] ] ] ] ] ] ] ] ] ] ] ] ] X.] ] X.] X.X.] ] X.] ] _ ] X.X.] ] ] ] ] X.] ] ] ] X.] ] ] ] ] ] ] X.] ] X.X.] ] ] ] ] X.] X.] ] ] X.] ] ] ] ] ] ] ] ] ] X.] ] ] ] _ X.X.] ] ] ] ] ] ] X.] ] X.X.X.X.X.X.] ] _ _ / / / ~ ! / Q I I I I =./ / $.0.[ ~ ! ! ! q.>.0.4.0.0.0.2.2.=.] / ! ~ ! / ~ ! ! o.] =.=.=.7.2.0.8.8.0.0.0.0.0.0.0.0.0.0.0.0.0.0.",
"0.0.0.0.0.0.0.0.0.0.0.0.0.8.0.0.2.7.7.1.1.1.1.9.-.-.! ! ~ ~ ~ / ] +.=.=.1.1.0.2.4.8.1.1.1.1.1.y./ X.@.0.! ` ] ] ` _ %.I Q Q Q ! ! Q / _ / / / / ] ` ] ] X.] o.o.o.+.X.X.X.X.X.X.X.X.X.X.X.X.X.X.X.] X.X.] X.X.X.X.X.X.X.X.o.o.] ] X.X.X.X.X.] X.X.X.X.] X.X.X.X.X.X.X.] X.X.] ] X.X.] X.+.o.o.+.o.o.o.X.X.] ] X.] X.X.X.X.o.o.o.] X.X.o.X.X.X.X.] X.X.X.X.X.X.X.X.o.o.o.o.X.X.X.] ] _ _ / / / ~ ~ I I I I >.` / o.0.[ ! ! ! ! q.>.0.4.0.0.4.4.2.=.] / ~ / / ! ~ ! ! ] o.=.=.=.7.2.0.8.8.0.0.0.0.0.0.0.0.0.0.0.0.0.0.",
"0.0.0.0.0.0.0.0.0.0.0.0.0.8.0.0.2.7.7.1.1.1.1.9.=.-.! ! ~ ~ ~ / ] o.:.:.1.1.0.2.4.2.1.1.1.1.1.y./ X.@.0.! ] ] ] ] / %.I W ~ ~ ! ~ ~ / / _ ] ] ] ] ] ] ] ] X.] ] ] X.] X.X.X.X.X.X.X.X.X.] X.X.X.X.X.] X.X.] X.X.X.X.X.] ] ] ] X.X.X.] ] ] ] ] ] ] ] ] X.] ] ] ] ] ] ] X.] ] X.X.] ] ] ] ] ] ] ] ] ] ] X.] ] ] ] X.] ] ] ] ] ] ] ] ] ] ] ] ] ] ] X.] ] ] ] X.X.X.o.X.X.X.X.o.X.X.] ] _ _ / / / ~ ! I I I U >.` / o.0.[ ! ! ! / q.>.0.4.0.0.0.2.2.=.] / ! ! ! ~ ~ ! ! ] ] =.=.=.7.8.0.8.8.0.0.0.0.0.0.0.0.0.0.0.0.0.0.",
"0.0.0.0.0.0.0.0.0.0.0.0.0.8.0.0.2.7.7.1.1.1.1.0.-.-.! ~ ~ ~ / / ] o.:.:.1.1.0.2.0.2.1.1.1.1.1.y./ ] @.0.! ] ] ] ] / o.I W ~ ~ ~ / / / / / ] ] ] ] ] ] ] ] ] _ _ _ ] ] ] ] ] ] ] ] ] _ ] ] _ _ _ _ ] _ _ ] ] ] ] ] ] ] _ ] ] ] ] ] _ ] ] ] ] ] _ _ _ ] ] ] ] / _ _ _ _ ] _ ] ] ] _ _ _ ] ] ] ] ] ] ] ] ] ] ] _ _ ] _ _ _ _ ] ] ] ] ` ` _ ] ] / _ ] _ _ _ ] ] ] ] X.] ] ] ] X.X.X.] ] ] ] ` / / ~ ! I I I I 1.` ` =.q.o.~ ~ ~ / q.>.0.4.0.0.0.2.2.=.] / ! ! ! ~ ~ ! ! o.] =.=.=.7.8.0.8.8.0.0.0.0.0.0.0.0.0.0.0.0.0.0.",
"0.0.0.0.0.0.0.0.0.0.0.0.0.8.0.0.2.7.7.1.1.1.7.q.-.-.~ ~ / / / / ] =.:.:.1.1.0.2.0.2.1.1.1.1.1.y./ X.+.0.! ] ] ] ] ] #.I Q ~ ! / / / / / / _ _ _ ] / ] ] ] / ] ] ] _ ] ] / / ] ] ] _ ] / / ] ] ] ] / ] ] / ] / / / / / ] / ] ] / / ] / / _ ] / ] ] ] ] / ] ] / / ] ] ] / ] ] / / ] ] / _ ] / ] ] ] ] ] / ] / / ] / ] ] _ ] ] / ] / _ _ ] / / ] ] / ] ] ] ] ] ] ] ] X.] ] ] ] X.] ] ] ] ] ] _ / / ~ U U U U 1.X.X.@.q.@./ / / / q.>.0.4.0.0.4.2.2.=.] / ~ ~ ~ ! ~ ~ ~ ] o.=.=.=.7.2.0.8.8.0.0.0.0.0.0.0.0.0.0.0.0.0.0.",
"0.0.0.0.0.0.0.0.0.0.0.0.0.8.0.0.2.7.7.1.1.1.1.0.-.-.! ! ~ ~ ~ / X.o.>.>.1.1.0.2.0.2.1.1.1.1.1.y./ X.=.0.! X.X.X.X.] =.R Q / / / / / / / ] ] ] ] / / / / / / / / / / / / / / / / / / / / / / / / / / / / / / / / / / / / / / / / / / / / / / / / / / / / / / / / / / / / / / / / / / / / / / / / / / / / / / / / / / / / / / / / / / / / / / / / / / / / / / / / / / / / / / / / ] ] X.X.X._ _ / / R R W R 2.X._ @.q.@./ / / / q.>.0.2.0.0.0.2.2.=.] / ! ! ! ~ ! ~ ~ o.o.=.=.=.7.2.0.8.8.0.0.0.0.0.0.0.0.0.0.0.0.0.0.",
"0.0.0.0.0.0.0.0.0.0.0.0.0.8.0.0.2.7.7.7.7.7.7.q.-.-.! ! ~ ~ ~ / ] +.:.:.1.1.0.2.0.2.1.1.1.1.1.y./ X.@.0.! X.X.X.X.o.=.R ! / / / / / / ] / ! ! ! ! W W W W W W W W W W W W W W W W W W W W W W W W W W W W W W W W W W W W W W R R W R R R W R R R R R R R R R R R R R R R R U U R R R R R R W W W W W R R R R R R W W W W W R W W W W W W W W W W W W W W W W W W W W W W W W ~ / / o.o.X._ ] / / W E W W 2.o.X.@.y.@./ / / / q.>.0.2.0.0.0.2.2.=.] / ~ ~ ~ ! ! ! ! ] o.1.1.=.7.2.0.8.8.0.0.0.0.0.0.0.0.0.0.0.0.0.0.",
"0.0.0.0.0.0.0.0.0.0.0.0.0.8.0.0.2.7.7.7.7.7.7.q.-.-.! ! ~ ~ ~ / ] +.:.:.1.1.0.2.0.2.1.1.1.1.1.y./ X.o.0.! X.X.X.X.o.1.W ~ / / ] / / _ ] ] / / / _ ] ] ] ] ] ] ] ] ] o.o.o.o.o.o.o.o.o.o.o.o.o.o.o.o.o.o.o.=.#.+.+.+.+.=.+.#.#.+.+.=.+.+.+.=.:.:.:.:.:.:.1.1.=.:.1.1.1.=.:.:.=.=.1.1.1.1.1.=.=.=.=.=.=.=.:.=.=.:.=.1.1.1.1.1.>.1.1.=.=.=.=.=.=.:.=.1.1.1.:.1.1.1.1.1.1.1.1.=.0.! ~ ~ X.X.X.] ] / / W W W W 4.+. .@.y.@./ / / / q.:.0.2.0.0.0.2.2.=.] / ~ ~ ~ ! ! ! ! ] o.=.1.=.7.2.0.8.8.0.0.0.0.0.0.0.0.0.0.0.0.0.0.",
"0.0.0.0.0.0.0.0.0.0.0.0.0.8.0.0.2.7.7.1.1.1.-.0.-.-.! ! ~ / ~ / X.o.1.1.1.1.0.2.0.2.1.1.1.1.1.y./ X.+.0.! X.X.X.X.o.1.W ~ _ _ / ] ] X.] ] ] ] ] g.X.+.+.+.=.+.+.+.=.=.=.=.=.=.=.+.+.o.+.+.o.o.o.o.+.+.+.@.+.+.@.@.@.@.o.o.o.o.o.o.o.o.o.o.o.o.o.o.o.o.o.] ] X.] ] ] ] X.] X.X.X.] ] X.X.] X.X.X.X.X.X.X.] X.X.X.X.X.X.X.X.X.X.X.o.X.X.X.o.X.X.X.o.X.X.X.o.o.X.X.o.X.X.X.X.X.1.! ! ! _ _ X.] ] ] / W W W W 0.+.X.@.y.@./ / / / w.:.0.2.0.0.0.2.2.=.X./ ~ ~ ~ ~ ! ! ! o.[ =.=.=.1.2.0.2.2.0.0.0.0.0.0.0.0.0.0.0.0.0.0.",
"0.0.0.0.0.0.0.0.0.0.0.0.0.8.0.0.2.7.7.7.7.7.7.q.-.-.~ ~ / / / ` ] =.:.:.1.1.0.2.0.2.1.1.1.1.1.y./ X.=.0.! X.X.X.X.o.9.W / ] ] X.] ] X.X._ [ [ [ k.X.=.=.=.=.=.=.=.=.=.=.=.=.=.=.=.=.>.:.:.:.:.:.:.:.:.:.:.:.:.:.:.:.:.:.:.:.>.>.>.>.>.>.1.1.1.>.>.>.>.>.1.1.1.>.1.1.1.1.1.1.1.1.1.1.1.1.1.1.1.1.1.1.1.>.1.>.>.1.>.1.1.1.>.>.1.1.1.>.>.1.1.>.1.>.>.>.>.>.>.>.>.>.>.>.1.1.1.:.0.! ~ ~ ] ] X.X.X._ _ W W W W 4.+._ @.y.@./ / / / w.:.0.2.0.0.4.2.2.:.X./ / / / ! ! ! ! ] o.=.=.=.1.2.0.2.2.0.0.0.0.0.0.0.0.0.0.0.0.0.0.",
"0.0.0.0.0.0.0.0.0.0.0.0.0.8.0.0.2.7.7.7.7.7.1.0.-.-.! ! / / / / X.o.:.:.1.1.0.2.4.2.1.1.1.1.1.y./ X.=.0.! X.X.X.X.+.8.W / X.X.X.X.X.o.X._ [ [ [ x.+.>.>.>.>.>.>.>.>.>.>.>.>.>.>.>.>.>.>.>.>.>.>.>.>.>.>.>.>.>.>.>.>.>.>.>.>.:.:.:.:.:.:.:.:.1.>.>.>.:.>.:.:.:.:.:.:.:.:.:.:.:.:.:.:.:.1.1.:.:.:.:.:.:.:.:.:.:.:.:.>.:.:.:.:.>.:.:.:.:.:.>.>.:.:.:.:.:.:.>.:.:.:.>.:.>.>.>.:.0.! ~ ~ ] ] X.X.X.X._ W W W W 0.@.X.=.y.@./ / / / w.:.0.2.0.0.0.2.2.=.] / ! ~ ~ ! ! ! ! ] [ =.=.=.1.2.0.2.2.0.0.0.0.0.0.0.0.0.0.0.0.0.0.",
"0.0.0.0.0.0.0.0.0.0.0.0.0.8.0.0.2.7.7.7.7.7.1.0.-.-.! ! / / ~ / X.o.:.:.1.1.0.2.4.2.1.1.1.1.1.y./ X.=.0.! X.X.X.X.+.7.Q / X.X.X.X.X.o.X._ [ [ [ x.+.>.>.>.>.:.:.:.>.>.:.>.>.>.>.:.:.>.>.>.>.>.>.>.>.>.>.:.>.>.>.>.>.>.>.>.>.>.>.>.>.>.>.>.>.1.>.>.>.>.>.>.>.:.:.>.>.>.:.>.:.>.>.>.>.>.1.1.>.>.>.>.>.>.>.>.1.>.>.>.>.>.>.>.:.1.:.:.:.:.:.>.>.>.:.>.>.>.>.>.:.:.:.>.>.>.>.>.:.0.! / / ] ] X.X.X.X.] Q Q Q Q 0.+.X.4.u.+./ / / / e.:.0.2.0.0.0.2.2.=.] / ! ~ ~ ! ! ! ! ] [ =.=.=.1.2.0.2.2.0.0.0.0.0.0.0.0.0.0.0.0.0.0.",
"0.0.0.0.0.0.0.0.0.0.0.0.0.8.0.0.2.7.7.7.7.7.7.q.-.-.~ ~ / / / / ] =.:.:.1.1.0.2.4.2.1.1.1.1.1.y./ X.+.0.Q X.X.X.X.+.0.Q _ X.X.o.o.o.o.X.] [ [ [ x.o.:.:.:.:.>.>.>.:.:.>.:.:.:.:.:.:.:.>.>.>.1.1.1.1.>.:.>.:.1.:.:.:.:.>.>.>.>.>.>.>.1.1.1.1.1.>.>.>.>.>.>.>.1.1.>.>.>.:.1.:.>.>.>.>.>.>.>.1.1.1.>.>.>.>.>.1.1.>.>.>.=.=.>.>.1.>.>.>.>.:.>.>.:.:.:.>.>.>.:.:.:.:.:.:.>.>.>.=.0.~ ~ ~ ] ] X.o.o.] X.Q Q Q Q 0.+.X.1.t.+./ / / / e.>.0.2.0.0.0.2.2.=.] / ~ / / ! ~ ! ! ] o.=.=.=.1.2.0.2.2.0.0.0.0.0.0.0.0.0.0.0.0.0.0.",
"0.0.0.0.0.0.0.0.0.0.0.0.0.8.4.4.8.1.1.1.1.1.1.0.-.-.! ! ~ ~ ~ / X.o.1.1.1.1.0.2.4.2.1.1.1.1.1.y./ ] =.0.! X.X.X.X.+.0.! _ X.X.o.o.o.o.X.] [ [ [ x.o.:.:.=.=.:.:.:.1.:.>.>.>.:.:.:.:.:.1.1.>.>.>.>.>.1.1.1.>.:.1.1.1.1.1.1.1.1.1.1.1.1.1.1.1.1.>.>.>.>.1.>.>.:.>.1.1.>.>.>.1.>.>.>.>.>.>.1.>.>.>.>.>.>.1.1.1.>.>.1.>.>.>.1.1.>.1.1.1.1.1.1.1.:.:.=.=.=.=.:.:.=.=.=.=.:.:.:.=.0.~ ~ ~ ] ] X.o.X.X.] Q Q Q Q 0.+.X.4.t.+./ / / / e.:.0.2.0.0.0.2.2.=.] / ! ~ ~ / ~ ! ! [ o.=.=.=.7.2.0.8.8.0.0.0.0.0.0.0.0.0.0.0.0.0.0.",
"0.0.0.0.0.0.0.0.0.0.0.0.0.2.0.0.2.1.1.9.9.9.9.w.-.-.~ ~ / / / / X.+.:.:.1.1.0.2.0.2.1.1.1.1.1.y./ ] =.0.! ] ] ] ] +.0.! ] X.X.o.o.o.o.X._ [ [ [ x.o.1.1.:.:.=.=.=.=.:.1.:.:.:.:.:.:.:.1.>.>.1.1.1.1.>.>.>.:.1.>.>.>.>.>.>.>.>.>.>.>.1.1.1.1.1.1.1.1.>.>.:.:.1.:.1.1.>.>.1.>.1.1.>.>.>.>.>.>.1.>.1.1.1.>.>.1.1.>.>.=.=.=.>.>.>.>.>.>.>.>.>.>.1.:.:.:.:.:.:.:.:.:.:.:.>.:.:.=.0./ / / X.X.X.X.o.X.X.Q Q Q Q 0.+.X.1.t.+./ / / / e.>.0.2.0.0.0.2.2.=.] / ~ ~ ~ ! ~ ! ~ ] o.=.=.=.7.2.0.8.8.0.0.0.0.0.0.0.0.0.0.0.0.0.0.",
"0.0.0.0.0.0.0.0.0.0.0.0.0.2.0.0.2.1.1.9.9.9.0.u.9.9.~ ~ / / / / X.#.:.:.1.1.0.2.0.2.1.1.1.1.1.y./ ] =.0.! X.X.X.X.+.0.! ] X.X.o.o.o.X.X._ [ [ [ x.o.:.:.:.:.=.=.=.:.>.1.:.:.:.:.1.:.:.1.1.>.1.1.1.1.>.>.>.>.1.1.>.1.1.1.1.1.:.:.1.:.:.:.:.1.:.1.1.1.>.1.:.:.1.:.1.1.1.:.1.1.1.1.1.1.:.:.:.:.:.:.1.1.1.1.1.1.1.1.>.-.=.=.>.>.>.>.1.>.>.>.:.:.1.:.:.1.1.1.:.:.:.:.:.:.:.:.:.=.0.~ / / X.X.X.o.o.X.X.Q Q Q Q 0.+.X.4.t.+./ / / / e.:.0.2.0.0.0.2.2.=.] / ~ ~ ~ ! ! ! ! ] o.=.=.=.7.2.0.8.8.0.0.0.0.0.0.0.0.0.0.0.0.0.0.",
"0.0.0.0.0.0.0.0.0.0.0.0.0.2.0.0.2.1.1.4.9.9.0.u.9.9.! ! ~ ~ ~ / X.o.1.1.2.2.0.2.0.2.1.1.1.1.1.y./ ] =.0.! o.o.o.o.+.0.! ] X.X.o.o.o.X.X._ ] [ [ x.o.:.:.:.=.:.:.:.=.:.:.:.:.1.1.:.1.:.1.>.>.>.>.1.>.>.>.1.:.:.1.:.:.1.1.1.:.>.>.>.1.>.>.>.>.1.1.1.1.:.1.>.>.1.1.1.1.>.>.>.:.1.1.1.1.>.1.1.1.>.>.>.>.>.:.>.>.>.1.1.1.1.1.1.1.>.>.1.1.1.:.>.>.1.:.1.:.:.:.:.:.:.:.:.=.:.:.:.=.0.! / / X.X.X.o.o.X.X.Q Q Q Q 0.+.X.4.u.+./ / / / e.:.0.2.0.0.0.2.2.=.] / ! ! ! ~ ! ~ ~ o.o.=.=.=.7.2.0.8.8.0.0.0.0.0.0.0.0.0.0.0.0.0.0.",
"0.0.0.0.0.0.0.0.0.0.0.0.0.2.4.4.2.1.1.0.0.0.0.u.9.9.~ ~ / / / / X.=.=.=.2.2.0.2.0.2.1.1.1.1.1.y./ ] =.0.! X.X.X.X.+.0.! ] X.X.o.X.X.X.X._ ] [ [ b.o.:.:.=.:.:.:.:.:.:.:.:.:.1.1.:.1.:.1.>.>.>.>.1.1.>.:.>.1.1.>.>.>.>.1.1.1.>.>.>.>.1.1.>.>.1.1.1.1.:.1.1.1.1.1.1.1.1.>.>.:.>.>.1.1.>.1.1.1.1.>.>.>.>.:.>.>.>.>.1.1.1.1.1.1.>.>.1.1.1.1.>.>.:.1.:.1.1.1.:.=.=.=.:.=.:.:.:.=.0.! / / X.X.X.o.o.X.] Q Q Q Q 0.o.] 9.u.+./ / / / e.:.0.2.0.0.0.2.2.=.] / ~ ~ ~ ! ! ~ ~ o.o.=.=.=.7.2.0.8.8.0.0.0.0.0.0.0.0.0.0.0.0.0.0.",
"0.0.0.0.0.0.0.0.0.0.0.0.0.8.0.0.2.7.7.q.q.q.0.u.9.9.~ ~ ~ ~ ~ / X.+.:.:.2.2.0.2.0.2.1.1.1.1.1.y./ ] =.0.! X.X.X.X.+.0.! ] o.o.o.o.o.o.X.] [ [ [ b.o.:.:.:.:.:.:.:.1.:.>.>.1.:.:.>.>.>.>.>.>.1.1.1.1.>.:.1.1.1.>.>.>.>.1.>.:.>.1.2.1.2.1.>.>.1.>.:.:.>.1.1.1.>.1.1.1.>.1.>.>.>.>.>.>.1.1.1.1.1.>.1.>.>.:.1.1.1.1.1.1.1.1.1.1.1.>.>.1.1.>.:.:.>.:.>.1.1.1.:.:.:.:.:.=.:.:.>.=.0.! / / X.X.X.o.o.X.X.W W W W l.o.] 9.u.+./ / / / e.:.0.2.0.0.0.2.2.=.X./ ! ~ ~ ~ ~ ! ! o.o.1.=.=.7.2.0.8.8.0.0.0.0.0.0.0.0.0.0.0.0.0.0.",
"0.0.0.0.0.0.0.0.0.0.0.0.0.8.0.0.2.7.7.0.0.0.0.u.9.9.~ ~ / ~ ~ / X.+.:.:.2.2.0.2.0.2.1.1.1.1.1.y.~ ] =.0.! X.X.X.X.+.0.! ] o.o.o.o.o.o.X.X.[ [ [ b.o.:.:.:.:.:.:.:.1.:.1.>.>.>.>.>.>.>.>.1.1.1.1.1.1.>.:.>.1.1.>.>.>.>.1.>.:.>.1.2.2.1.1.1.>.>.:.:.:.:.1.1.>.>.>.1.1.1.>.>.>.1.1.1.1.1.1.1.>.1.1.1.>.>.:.>.>.1.:.:.1.1.1.1.1.1.1.1.:.:.1.:.:.>.:.>.:.:.:.1.=.1.1.:.:.:.:.>.=.0.! / / X.X.X.o.+.X.X.W W W W l.o.] 7.u.+./ / / / e.:.0.2.0.0.0.2.2.=.] / ! ~ ~ ~ ~ ! ! o.o.1.1.=.7.2.0.8.8.0.0.0.0.0.0.0.0.0.0.0.0.0.0.",
"0.0.0.0.0.0.0.0.0.0.0.0.0.8.0.0.2.7.7.q.q.q.0.u.9.9.~ / / / / / X.=.=.=.2.2.0.4.0.2.1.1.1.1.1.y./ ] =.0.! X.X.X.X.+.0.Q ] o.o.o.o.o.o.X.X.[ [ [ b.+.:.:.=.:.:.:.:.1.1.1.1.1.>.>.>.>.1.1.1.1.1.1.1.1.:.:.>.>.1.1.1.1.1.>.>.>.>.1.1.2.1.1.>.>.1.>.>.>.>.1.1.1.>.1.>.>.>.1.1.1.>.>.>.>.1.1.1.>.1.>.1.1.>.>.>.>.>.>.>.:.:.:.:.1.>.1.:.>.1.:.1.1.1.1.1.:.:.:.1.:.:.:.:.=.:.:.:.=.0.! / / X.X.X.o.o.X.X.W W W W l.o.] 7.u.@./ / / / q.:.0.2.0.0.4.2.2.:.X./ ~ ~ ~ ! ~ ! ! ] o.=.=.=.7.2.0.8.8.0.0.0.0.0.0.0.0.0.0.0.0.0.0.",
"0.0.0.0.0.0.0.0.0.0.0.0.0.8.0.0.2.7.7.0.0.0.0.u.-.-.~ ~ / / ~ / X.o.1.1.2.2.0.2.2.0.0.0.0.0.0.y.~ X.=.0.! X.X.X.X.+.0.Q ] o.o.o.o.o.X.X.X.[ [ [ n.+.:.:.:.:.:.:.:.1.1.1.1.1.1.1.>.1.1.1.1.>.>.>.>.>.>.:.>.>.1.1.1.1.1.1.1.1.1.1.1.2.2.1.1.1.>.>.>.>.1.1.1.1.>.>.1.1.1.1.>.>.>.>.>.>.1.1.1.1.>.1.1.1.1.1.>.>.>.1.>.>.>.>.1.1.1.:.>.:.=.>.:.:.1.1.1.1.1.1.:.>.:.:.:.:.:.:.:.=.0.~ / / X.X.X.o.o.X.X.W W W W l.o.] 7.u.+./ / / / q.:.0.2.0.0.0.2.2.=.X./ ! ! ! ~ ~ ! ! o.o.=.=.=.7.2.0.8.8.0.0.0.0.0.0.0.0.0.0.0.0.0.0.",
"0.0.0.0.0.0.0.0.0.0.0.0.0.8.0.0.2.7.7.0.r.r.0.u.7.7.~ ~ / / / / X.=.:.:.2.2.0.0.0.0.0.0.0.0.0.t.~ X.=.0.! o.o.o.o.+.0.! ] o.o.o.o.o.o.X.] [ [ [ n.+.>.>.>.:.1.1.1.1.1.1.1.1.1.1.1.1.1.1.:.1.1.1.1.1.1.:.>.:.1.1.1.1.>.1.1.1.1.>.>.1.>.>.1.1.>.1.1.1.1.1.1.2.2.>.1.1.1.>.1.1.1.1.1.1.1.1.1.1.>.1.1.1.1.1.1.1.1.>.1.1.1.1.1.1.>.:.1.>.1.:.>.>.1.1.1.1.>.>.1.:.>.>.1.:.>.>.>.=.0.~ / / X.X.X.X.+.X.X.W W W W l.o.X.1.u.@./ / / / f.=.0.2.0.0.0.2.2.=.] / ~ ~ ~ ! ~ ! ! o.o.=.=.=.7.2.0.8.8.0.0.0.0.0.0.0.0.0.0.0.0.0.0.",
"0.0.0.0.0.0.0.0.0.0.0.0.0.8.0.0.2.7.7.0.0.r.0.u.7.7.~ ~ / / / / X.=.:.:.2.2.0.0.0.0.0.0.0.0.0.t.! X.=.0.! X.X.X.X.+.0.! ] o.o.o.o.o.o.X.] [ [ [ n.+.>.>.:.>.1.1.1.1.1.1.1.1.1.1.1.1.1.1.:.1.1.1.1.1.>.:.>.>.>.1.1.1.1.1.1.1.1.1.>.1.>.>.1.1.>.1.1.1.1.1.1.1.1.>.1.>.1.1.>.>.1.1.>.>.1.1.1.2.1.>.1.1.>.1.1.>.>.1.>.>.1.1.1.1.:.>.>.1.1.1.>.>.1.1.>.>.>.>.1.:.1.1.:.:.:.:.:.=.0.~ / / X.X.X.o.o.X.X.W W W W l.o.] 1.t.@./ / / / f.=.0.2.0.0.0.2.2.=.] / ~ ~ ~ ! ~ ! ! o.o.=.=.=.7.2.0.8.8.0.0.0.0.0.0.0.0.0.0.0.0.0.0.",
"0.0.0.0.0.0.0.0.0.0.0.0.0.8.0.0.2.7.7.0.0.0.0.u.-.-.~ ~ ~ ~ ~ / X.o.1.1.2.2.0.2.2.2.1.8.2.2.2.t.~ X.=.0.! X.X.X.X.+.0.! ] o.o.o.o.o.o.X.] ] ] ] n.+.1.1.:.:.:.:.:.1.>.>.=.=.:.:.:.>.>.:.:.>.1.1.1.1.>.:.:.:.>.>.>.1.>.1.1.1.1.>.1.1.1.1.1.1.1.>.1.1.1.1.1.1.1.1.1.>.1.1.1.1.1.1.>.>.1.1.1.1.1.1.1.1.1.>.1.1.1.1.>.1.1.1.1.>.:.:.1.1.1.:.:.:.:.1.>.1.>.>.1.1.:.:.:.=.:.:.:.=.0.~ / / X.X.X.o.o.X.X.W W W W l.o.X.1.t.@./ / / / g.:.0.8.0.0.0.2.2.=.] / ! ! ~ ~ ! ! ! o.o.=.=.=.7.2.0.8.8.0.0.0.0.0.0.0.0.0.0.0.0.0.0.",
"0.0.0.0.0.0.0.0.0.0.0.0.0.8.0.0.2.7.7.r.r.r.q.u.9.9.~ ~ / / / / X.=.=.=.2.2.0.2.0.8.1.7.1.1.4.y./ X.=.0.! X.X.X.X.+.0.! ] o.o.o.o.o.o.X._ ] ] ] n.+.:.:.:.>.>.1.1.:.>.>.=.=.>.>.>.:.:.>.>.1.1.1.1.>.>.>.>.>.>.1.1.1.1.>.>.1.>.1.1.>.1.1.1.1.1.1.1.1.1.1.>.1.1.>.1.1.1.>.1.1.>.1.1.1.1.1.1.1.1.1.1.1.1.>.1.1.1.1.>.1.1.1.1.>.>.>.1.1.1.1.>.>.>.:.1.1.>.>.1.1.:.:.:.:.>.>.>.=.0.! / / ] ] X.o.o.o.X.W W W W l.o.] 1.t.@./ / / / g.:.0.8.0.0.4.2.2.=.] / ~ ~ ~ ! ! ! ! [ o.=.=.=.7.2.0.8.8.0.0.0.0.0.0.0.0.0.0.0.0.0.0.",
"0.0.0.0.0.0.0.0.0.0.0.0.0.8.0.0.2.7.7.0.q.q.0.u.6.6.! ~ / / / / X.+.:.:.2.2.0.2.0.2.1.1.1.1.1.y.~ X.=.0.! X.X.X.X.+.0.! ] o.o.o.o.o.o.X. .] ] ] n.+.:.:.:.1.:.:.:.>.>.>.:.:.1.1.1.1.:.1.>.1.1.1.2.1.1.1.1.1.1.1.1.1.1.>.>.1.2.2.2.1.>.>.1.1.2.2.>.>.1.1.1.1.1.1.1.1.1.1.1.1.>.1.1.2.1.1.1.>.1.1.2.1.2.2.>.1.>.1.1.1.1.1.1.2.1.1.>.>.>.1.1.1.1.:.1.1.1.1.>.>.>.>.1.1.>.>.>.=.0.! / / X.X.o.o.o.o.[ W W W W l.o.] 1.u.@./ / / / g.:.0.8.0.0.0.2.2.=.] / ! ! ~ ! ! ! ! o.o.1.=.=.7.2.0.8.8.0.0.0.0.0.0.0.0.0.0.0.0.0.0.",
"0.0.0.0.0.0.0.0.0.0.0.0.0.8.0.0.2.7.7.0.0.0.0.u.9.9.! / / / / / X.+.:.:.2.2.0.2.0.2.1.1.1.1.1.y./ X.=.0.! X.X.X.X.+.y.Q ] o.o.o.o.o.o.X. .] ] ] n.+.:.:.:.1.1.1.>.>.>.>.:.:.1.1.>.1.:.1.1.1.1.1.1.2.1.1.1.1.1.1.1.1.1.1.1.1.2.2.1.1.1.1.>.>.1.1.1.1.>.1.1.1.>.>.1.1.1.1.1.1.>.1.1.2.2.>.>.>.1.1.1.2.2.2.>.>.>.1.1.>.>.>.1.2.1.1.>.>.>.1.1.1.>.:.>.1.1.1.1.>.1.>.1.>.>.>.>.=.0.~ / / X.X.o.o.+.o.[ W W W W l.o._ 1.u.@.~ ~ ~ ~ g.:.0.8.0.0.0.2.2.=.] / ! ! ~ ! ! ! ! o.o.1.1.=.7.2.0.8.8.0.0.0.0.0.0.0.0.0.0.0.0.0.0.",
"0.0.0.0.0.0.0.0.0.0.0.0.0.8.0.0.2.7.7.r.r.y.0.s.9.9.~ ~ / / / ] X.=.=.=.2.2.0.2.0.2.1.1.1.1.4.y./ X.=.0.! X.X.X.X.+.y.! ] o.o.o.o.o.o.X._ ] ] ] n.+.:.:.1.:.1.1.1.1.>.>.1.1.>.>.>.1.:.>.>.1.1.1.1.1.1.1.1.1.1.1.1.1.1.1.>.1.>.1.1.>.1.1.2.1.>.1.2.1.1.>.>.>.1.1.>.>.>.1.1.1.1.1.1.1.1.2.1.1.1.>.1.>.1.2.>.1.1.1.1.1.1.1.2.1.>.1.>.>.>.1.1.1.1.:.:.:.:.:.:.>.>.>.>.>.1.1.1.=.0.~ / / X.X.o.o.+.o.o.W W W W a.o.] 1.u.@.~ ~ ~ ~ g.:.0.8.0.0.4.2.2.=.] / ~ / / ! ~ ! ~ o.o.=.=.=.7.2.0.8.8.0.0.0.0.0.0.0.0.0.0.0.0.0.0.",
"0.0.0.0.0.0.0.0.0.0.0.0.0.8.0.0.2.7.7.0.0.0.0.u.-.-.! ! / / / ] o.+.1.1.2.2.0.2.0.2.1.1.1.1.4.y./ X.=.0.! X.X.X.X.#.0.Q ] o.o.o.o.o.+.X._ ] ] ] c.+.1.>.:.1.1.1.1.1.1.>.:.:.1.1.>.>.>.>.>.1.1.1.1.1.1.>.1.1.1.1.1.1.1.>.1.>.1.>.>.>.1.1.1.1.1.>.2.1.1.1.1.1.2.2.1.1.1.1.1.1.1.1.1.>.1.>.>.1.1.1.>.>.>.1.>.1.1.1.1.1.1.1.1.1.1.>.>.>.1.1.1.1.>.:.>.>.1.1.>.1.>.1.>.>.1.1.1.=.0.~ / / X.X.o.+.+.o.X.Q Q Q Q r.+.X.1.t.@.~ ~ ~ ~ g.:.0.8.0.0.0.2.2.=.] / ! ~ ~ / ~ ! ! o.o.=.=.=.7.2.0.8.8.0.0.0.0.0.0.0.0.0.0.0.0.0.0.",
"0.0.0.0.0.0.0.0.0.0.0.0.0.8.0.0.2.7.7.q.q.q.0.u.4.9./ / / / / / X.=.:.:.2.2.0.2.0.2.1.1.1.1.4.y.~ X.=.0.! o.o.o.o.+.0.W ] o.o.o.X.X.o.X._ ] ] ] x.+.>.>.1.:.1.1.1.1.=.=.=.=.1.1.1.1.1.1.1.>.>.>.>.1.>.1.>.1.1.>.>.>.1.2.2.2.1.>.>.1.1.>.1.1.>.1.1.1.>.1.>.>.1.>.1.1.1.1.1.1.1.1.>.>.>.1.1.1.1.1.1.1.1.>.1.1.1.1.1.1.1.1.1.1.>.>.1.>.1.1.>.>.>.:.>.1.1.1.1.:.1.>.>.1.1.1.1.:.0.~ / / X.X.o.o.o.o.X.Q Q Q Q y.+.X.1.i.@.~ ~ ~ / h.:.0.8.0.0.0.2.2.=.] / ~ ~ ~ ! ~ ! ! o.o.=.=.=.7.2.0.8.8.0.0.0.0.0.0.0.0.0.0.0.0.0.0.",
"0.0.0.0.0.0.0.0.0.0.0.0.0.8.0.0.2.7.7.0.0.0.0.u.4.4.~ / / / / / X.=.:.:.2.2.0.2.0.2.1.1.1.1.4.y.~ X.=.0.! X.X.X.X.+.0.Q ] o.o.o.X.o.o.X._ { { { x.+.>.>.:.1.1.1.1.1.>.>.:.:.1.1.>.>.>.1.>.>.>.>.>.1.>.>.1.>.>.1.1.1.1.>.1.1.>.1.1.1.>.1.1.>.1.>.1.>.1.1.1.1.1.1.1.1.1.>.1.1.1.1.1.1.1.1.1.>.2.1.1.1.1.1.1.>.1.2.1.>.1.>.>.>.1.>.1.1.2.1.1.1.1.:.>.1.1.1.1.:.1.1.1.1.1.1.1.:.0.~ / / X.X.o.o.o.+.] W Q Q Q y.+.X.4.t.@.~ / / / h.:.0.8.0.0.0.2.2.=.] / ~ ~ ~ ! ! ! ! o.o.=.=.=.7.2.0.8.8.0.0.0.0.0.0.0.0.0.0.0.0.0.0.",
"0.0.0.0.0.0.0.0.0.0.0.0.0.8.0.0.2.7.7.0.0.0.0.u.-.-.! ~ / / / / o.+.1.1.2.2.4.2.0.2.1.1.1.4.4.y./ X.=.0.! X.X.X.X.+.0.Q ] o.o.o.o.o.o.X._ $.{ { x.+.1.1.1.:.=.>.1.1.1.>.:.:.1.1.>.>.2.2.2.1.1.1.1.1.2.2.1.2.>.>.>.>.>.1.1.1.1.1.1.>.2.1.1.1.1.>.>.>.2.1.1.2.>.>.>.1.>.1.>.1.1.1.2.2.>.1.>.1.>.1.1.2.1.1.1.1.1.1.>.1.1.1.1.1.1.2.1.1.2.1.1.1.>.:.1.1.1.1.1.:.>.1.1.1.>.>.1.:.0.~ / / X.X.o.o.+.+.] Q Q Q Q r.+.X.1.t.@.~ ~ ~ / h.1.0.8.0.0.0.2.2.=.] / ! ! ! ~ ! ! ! o.o.=.=.=.7.2.0.8.8.0.0.0.0.0.0.0.0.0.0.0.0.0.0.",
"0.0.0.0.0.0.0.0.0.0.0.0.0.8.0.0.2.7.7.q.q.q.y.u.9.9.~ ~ / / / / X.=.=.=.2.2.0.2.0.2.1.1.1.1.4.y.~ X.=.0.! o.o.o.o.+.0.Q ] o.o.o.+.+.o.X._ %.%.%.x.+.=.1.:.1.=.=.1.1.>.>.:.:.1.1.>.1.2.1.2.1.1.1.1.1.2.2.1.2.1.1.1.1.1.1.1.1.1.1.1.>.1.1.1.1.1.1.1.1.1.1.2.2.1.1.>.2.1.1.>.1.1.1.1.1.>.1.1.1.1.>.>.1.1.1.>.1.1.>.1.1.1.1.1.1.1.2.>.2.2.1.1.1.>.>.>.1.1.1.1.:.1.>.>.>.1.>.1.=.0.~ / / X.X.o.o.o.+.X.Q Q Q Q y.+.X.1.u.@.~ ~ ~ ~ h.1.0.8.0.0.4.2.2.=.] / ~ ~ ~ ! ~ ! ! ] o.=.=.=.7.2.0.8.8.0.0.0.0.0.0.0.0.0.0.0.0.0.0.",
"0.0.0.0.0.0.0.0.0.0.0.0.0.8.0.0.8.7.7.q.0.0.0.u.-.-.~ ~ / / / / o.+.:.:.2.2.0.2.0.2.1.4.4.4.1.y.~ X.=.0.! X.X.X.X.@.q.Q ] o.o.o.o.o.o.X._ $.$.$.x.+.>.>.=.>.=.=.1.1.1.>.:.:.1.1.>.>.1.1.1.1.1.1.1.1.>.1.>.1.>.1.1.1.1.>.1.>.1.1.1.1.2.2.1.>.>.1.1.1.1.1.1.1.1.>.1.1.2.1.1.1.2.1.1.1.1.1.1.1.>.1.1.1.1.1.>.>.1.1.1.2.2.>.>.>.2.2.1.>.2.2.1.1.1.>.>.>.>.>.1.:.>.1.>.>.>.>.>.=.0.~ / / X.X.o.+.+.o.o.W W W W y.+.X.@.y.@.~ ~ ~ ~ g.1.0.8.0.0.0.2.2.=.] / ! ~ ~ ~ ~ ! ! o.o.=.=.=.7.8.0.8.8.0.0.0.0.0.0.0.0.0.0.0.0.0.0.",
"0.0.0.0.0.0.0.0.0.0.0.0.0.8.0.0.8.7.7.q.0.0.0.u.-.-.~ ~ / / / / o.+.:.:.2.2.4.2.0.4.1.1.1.1.1.y.~ X.=.0.! X.X.X.X.@.0.Q ] o.o.o.o.o.o.X._ $.$.$.x.+.>.>.1.:.=.-.1.1.1.>.:.:.1.1.>.>.1.1.1.1.1.1.1.1.>.1.>.1.1.2.1.1.1.>.1.1.1.1.1.1.1.1.1.1.>.1.1.2.1.1.1.1.1.>.1.1.2.>.1.1.2.1.>.>.1.1.1.1.>.1.1.1.1.1.1.1.>.>.1.1.2.1.1.>.1.1.>.1.1.>.2.1.1.>.>.:.1.1.:.1.>.>.>.>.>.>.>.:.0.~ / / X.X.o.o.+.o.[ W W W W y.+.X.$.y.@.~ ~ ~ ~ g.1.0.8.0.0.0.2.2.=.] / ! ~ ~ ~ ! ! ! o.] =.=.=.7.8.0.8.8.0.0.0.0.0.0.0.0.0.0.0.0.0.0.",
"0.0.0.0.0.0.0.0.0.0.0.0.0.8.0.0.8.7.7.q.0.0.q.s.1.1.~ / / / / ] X.=.=.=.1.1.0.2.0.4.1.1.1.1.1.y.~ X.=.0.! X.X.X.X.+.0.Q ] o.o.o.o.o.o.X._ $.$.$.x.+.>.>.:.1.1.1.1.1.1.>.>.>.>.>.1.1.1.1.1.1.1.1.1.1.1.2.1.1.1.1.>.1.>.1.1.1.1.>.>.1.1.1.1.1.>.1.1.1.1.1.1.1.1.1.>.>.>.>.1.1.1.1.1.1.1.1.1.1.1.1.1.1.1.1.1.>.1.>.>.1.1.1.1.>.1.1.>.>.>.1.>.>.>.>.>.:.:.:.1.:.1.>.>.1.1.1.1.=.0.~ / / X.X.o.o.o.o.[ W W W W y.+.X.$.y.@.~ ~ ~ ~ g.1.0.8.0.0.4.2.2.=.] / ~ / / ! ! ~ ~ o.o.=.=.=.7.2.0.8.8.0.0.0.0.0.0.0.0.0.0.0.0.0.0.",
"0.0.0.0.0.0.0.0.0.0.0.0.0.8.0.0.2.7.7.0.q.0.0.u.-.-.! ~ / / / / o.+.1.1.8.8.4.2.0.4.1.1.1.1.1.y.! X.=.0.! X.X.X.X.+.0.Q ] o.o.o.o.X.o.X._ $.$.$.x.+.>.>.1.1.1.1.>.1.1.1.>.>.>.>.1.1.1.1.>.1.1.1.1.1.1.1.1.1.>.1.2.1.1.>.1.1.1.1.1.1.>.1.1.>.1.1.1.1.2.1.1.1.1.1.1.1.1.1.1.1.1.1.1.1.1.1.1.1.1.1.1.1.1.1.1.>.1.>.1.1.1.1.1.>.1.>.1.1.1.1.>.>.1.1.1.>.>.>.:.1.1.1.>.>.1.1.1.:.0.~ / / X.X.o.o.o.o.[ W W W W y.+.X.$.q.@.~ / ~ ~ j.:.0.8.0.8.0.2.2.=.] / ~ ~ ~ ~ ! ! ~ o.o.=.=.=.7.2.0.8.8.0.0.0.0.0.0.0.0.0.0.0.0.0.0.",
"0.0.0.0.0.0.0.0.0.0.0.0.0.8.0.0.8.7.7.0.r.r.y.u.-.-.~ / / / / ] o.=.:.:.2.2.0.4.0.2.1.1.1.1.1.y.! X.:.0.! X.X.X.X.+.0.Q ] o.o.o.+.+.o.X._ $.$.$.x.+.1.1.:.1.>.>.>.1.>.>.1.1.1.>.1.1.1.2.1.>.>.>.2.2.1.1.1.1.2.2.2.1.1.1.1.1.1.1.1.1.1.1.1.1.1.1.1.1.1.1.>.>.1.1.1.1.1.1.>.1.1.1.1.1.1.1.1.1.1.1.2.1.1.1.2.2.1.2.2.1.>.>.>.1.>.1.1.1.1.1.1.1.2.1.1.1.1.>.>.:.1.1.>.1.>.>.>.=.0.~ / / X.X.o.o.o.o.[ Q Q Q W y.+.] =.y.@.~ / / / j.1.0.8.0.0.0.2.2.=.] / ~ ~ ~ ! ! ! ! o.o.1.1.=.7.2.0.8.8.0.0.0.0.0.0.0.0.0.0.0.0.0.0.",
"0.0.0.0.0.0.0.0.0.0.0.0.0.8.0.0.2.7.7.0.r.r.0.f.9.9.~ / / / / ] o.=.:.:.2.2.0.4.0.2.1.1.1.4.1.y.! X.:.0.! X.X.X.X.+.0.Q ] o.o.o.+.+.o.X._ $.$.%.x.+.=.=.:.1.1.1.>.:.>.>.1.1.1.1.>.1.1.2.1.>.>.>.>.>.1.2.>.2.1.1.1.2.1.>.1.1.1.1.1.1.1.1.1.1.1.1.1.1.1.>.1.1.>.1.1.1.1.1.1.1.1.1.1.1.1.1.>.1.1.1.2.1.1.1.1.2.2.2.1.1.>.>.>.1.1.>.1.1.1.1.1.1.1.1.1.1.1.>.>.:.>.1.1.1.>.>.>.=.0.~ / / X.X.o.o.o.o.[ Q Q Q W y.o.` %.q.@.~ / / / j.1.0.8.0.0.0.2.2.=.] / ~ ~ ~ ! ! ! ! o.o.=.1.=.7.2.0.8.8.0.0.0.0.0.0.0.0.0.0.0.0.0.0.",
"0.0.0.0.0.0.0.0.0.0.0.0.0.8.0.0.2.7.7.0.0.0.0.f.9.9.~ / / / / / o.+.1.1.8.8.2.2.0.2.1.1.4.4.4.y.! X.=.0.! X.X.X.X.+.0.Q ] o.o.o.+.+.o.X._ $.%.%.x.+.1.1.1.>.>.1.1.:.>.1.>.>.1.1.>.1.2.2.2.2.>.>.>.>.1.>.1.1.1.1.>.>.>.1.>.>.1.1.1.1.1.1.1.1.1.1.1.1.1.>.1.1.1.2.1.1.1.1.1.1.1.1.>.>.1.1.1.1.1.1.2.1.1.1.>.>.1.2.2.1.1.1.>.1.1.1.1.1.1.>.1.1.2.2.1.1.1.1.>.:.1.1.>.1.>.>.>.=.0.! / / X.X.o.o.o.o.[ W Q Q Q y.o.] =.y.@.~ ~ ~ ~ j.1.0.8.0.0.0.2.2.=.] / ! ~ ! / ~ ! ! o.[ =.=.=.7.2.0.8.8.0.0.0.0.0.0.0.0.0.0.0.0.0.0.",
"0.0.0.0.0.0.0.0.0.0.0.0.0.8.0.0.2.7.7.y.y.y.0.f.q.q.~ / / / / ] o.=.:.:.2.2.0.2.0.2.1.1.4.4.4.y.! X.=.9.! X.X.X.X.#.0.Q ] o.o.o.+.+.o.X._ $.$.$.x.+.1.1.:.>.>.>.1.:.>.1.1.1.1.1.>.1.2.2.2.1.1.1.1.1.>.1.1.>.>.1.1.1.1.>.1.1.1.1.1.1.1.1.>.1.1.1.1.1.1.>.1.1.2.2.1.1.1.1.1.1.1.1.1.1.>.1.1.1.>.1.>.1.>.1.1.>.>.1.1.2.2.1.1.>.1.1.1.1.1.>.>.2.1.1.1.1.1.1.>.:.1.1.>.1.>.>.>.=.0.! / / X.X.o.o.o.o.[ W W Q Q y.+.X.%.q.@.~ ~ ~ ~ j.1.0.8.0.0.4.2.2.=.] / ~ ~ / ! ~ ! ! X.o.=.=.=.7.2.0.8.8.0.0.0.0.0.0.0.0.0.0.0.0.0.0.",
"0.0.0.0.0.0.0.0.0.0.0.0.0.8.0.0.2.7.7.y.y.y.0.f.9.9.~ / / / / ` o.+.:.:.2.2.0.2.0.2.1.1.1.1.1.y.! X.=.7.! o.o.o.o.#.0.Q ] o.o.o.o.o.X.X._ $.$.$.x.+.:.1.1.1.>.>.1.:.1.1.1.1.>.>.1.>.1.1.1.1.1.1.1.1.1.>.>.1.1.1.1.1.1.1.1.>.1.1.1.1.1.1.1.1.1.1.1.1.1.2.>.>.1.>.1.1.1.1.1.1.1.1.1.1.1.1.>.>.1.1.1.1.1.1.1.1.>.>.1.2.>.>.>.1.1.2.1.>.>.1.1.1.>.2.1.1.1.1.>.>.>.1.>.1.>.>.>.=.0./ / / X.X.o.+.+.o.[ Q Q Q Q r.+.] =.y.@.~ ~ ~ ~ j.1.0.8.0.0.0.2.2.=.] / ! ! ! ~ ~ ! ! o.[ =.=.=.7.2.0.8.8.0.0.0.0.0.0.0.0.0.0.0.0.0.0.",
"0.0.0.0.0.0.0.0.0.0.0.0.0.8.0.0.2.7.7.y.y.y.0.f.9.9.~ / / / / ` o.+.:.:.2.2.0.2.0.2.1.1.1.1.1.y.~ X.1.7.! X.X.X.X.+.0.Q ] o.o.o.o.o.o.X._ $.$.$.x.+.>.1.1.1.>.>.1.1.>.1.>.>.1.1.>.1.1.1.1.>.>.>.>.2.1.1.1.1.1.1.1.1.1.>.1.>.1.1.1.1.1.1.1.1.1.1.1.2.1.2.>.>.1.>.1.1.1.1.1.1.1.1.1.1.1.>.>.>.1.1.1.1.1.1.>.1.>.>.1.1.>.>.>.>.1.2.1.>.>.1.1.1.1.1.1.2.1.1.>.:.1.1.1.>.1.1.>.:.0./ / / X.X.o.+.+.o.[ Q Q Q Q r.o./ #.q.@.~ ~ ~ ~ j.1.0.8.0.0.0.2.2.=.] / ! ! ! ~ ~ ! ! o.[ =.=.=.7.2.0.8.8.0.0.0.0.0.0.0.0.0.0.0.0.0.0.",
"0.0.0.0.0.0.0.0.0.0.0.0.0.8.0.0.2.7.7.y.y.y.q.u.-.-.~ / / / / ] o.=.:.:.2.2.0.2.0.2.1.1.1.1.1.y.~ X.1.7.! X.X.X.X.+.0.Q X.o.o.o.o.o.o.X._ { { { x.+.1.1.1.1.>.>.>.:.1.1.1.>.1.1.>.1.1.1.1.>.>.>.2.2.1.1.1.1.1.1.1.1.1.>.1.1.1.1.1.1.1.1.1.1.1.1.1.1.2.2.1.1.>.1.1.1.1.1.1.1.1.1.1.1.1.1.1.1.1.1.1.1.1.1.>.1.1.1.2.2.1.1.1.1.>.1.1.1.1.>.>.>.>.1.2.>.>.>.1.:.1.>.1.1.>.>.>.:.0./ / / X.X.o.o.+.o.[ W W Q W r.+.` #.q.@.~ ~ ~ ~ j.1.0.8.0.0.4.2.2.=.] / ~ ~ ~ ! ~ ! ! o.o.=.=.=.7.2.0.8.8.0.0.0.0.0.0.0.0.0.0.0.0.0.0.",
"0.0.0.0.0.0.0.0.0.0.0.0.0.8.0.0.2.7.7.y.y.y.0.u.-.-.~ / / / / ] o.+.1.1.0.0.2.2.0.2.1.1.1.1.1.y.~ X.1.7.! X.X.X.X.+.0.Q ] o.o.o.o.o.o.X._ | | | c.+.1.1.1.1.>.>.>.:.>.1.1.1.1.1.1.1.1.1.1.>.>.>.1.2.2.1.1.1.1.1.1.1.1.>.1.1.1.1.1.1.1.1.1.1.>.1.1.1.2.1.1.1.1.1.1.1.1.1.1.1.1.1.1.1.1.1.2.2.1.1.1.1.1.1.1.1.1.1.1.2.2.2.1.1.1.>.1.1.1.>.>.>.1.1.1.1.1.1.1.:.1.1.1.1.1.>.>.=.0./ / / X.X.o.+.+.o.[ Q Q Q Q r.+.X.o.q.@.~ ~ ~ ~ j.1.0.8.0.0.0.2.2.=.] / ! ! ! ~ ~ ! ! o.[ =.=.=.7.2.0.8.8.0.0.0.0.0.0.0.0.0.0.0.0.0.0.",
"0.0.0.0.0.0.0.0.0.0.0.0.0.8.0.0.2.7.7.y.y.y.0.u.-.-.~ / / / / ] o.=.:.:.2.2.0.2.0.2.1.0.0.0.0.y.~ X.1.9.! X.X.X.X.+.y.Q ] o.o.o.+.o.o.X._ { | | c.+.1.1.1.>.>.>.>.:.1.1.1.1.1.1.1.1.>.1.2.2.2.2.>.1.>.>.1.>.1.1.1.1.1.>.1.>.1.1.1.1.1.1.1.1.1.1.1.1.1.1.1.1.1.1.1.1.1.>.1.1.1.1.1.1.>.1.2.1.1.1.1.1.1.1.2.1.1.1.1.>.>.>.1.1.1.>.2.2.1.>.1.1.1.>.1.1.1.1.1.:.>.>.>.>.>.>.1.=.0./ / / X.X.o.o.o.o.[ Q W Q Q y.o.X.%.q.@.~ ~ ~ ~ j.1.0.8.0.0.0.2.2.=.] / ~ ~ ~ ! ~ ! ! X.o.=.=.=.7.2.0.8.8.0.0.0.0.0.0.0.0.0.0.0.0.0.0.",
"0.0.0.0.0.0.0.0.0.0.0.0.0.8.0.0.2.7.7.y.y.y.0.u.-.-.~ / / / / ] o.=.:.:.2.2.0.2.0.2.1.0.0.0.0.y.~ X.1.7.! X.X.X.X.+.y.Q ] o.o.o.o.o.o.X._ { | | c.+.1.1.1.1.>.>.1.:.1.1.>.>.1.1.1.>.1.1.2.2.2.2.1.>.1.1.1.1.1.1.1.1.1.>.>.1.1.2.1.1.1.1.1.1.1.1.1.1.1.1.1.1.1.1.1.1.1.1.1.1.1.1.1.1.>.1.2.1.1.1.1.1.1.>.2.1.1.>.1.>.>.>.>.1.2.2.2.2.1.>.>.>.1.1.1.1.1.1.1.:.>.>.>.>.>.>.1.=.0./ / / X.X.o.o.o.o.[ W W W W y.+.X.o.q.@.~ ~ ~ ~ j.1.0.8.0.0.0.2.2.=.X./ ~ ~ ~ ! ~ ! ! o.o.=.=.=.7.2.0.8.8.0.0.0.0.0.0.0.0.0.0.0.0.0.0.",
"0.0.0.0.0.0.0.0.0.0.0.0.0.8.0.0.2.7.7.y.y.y.0.u.-.-.~ / / / / ] o.+.1.1.0.0.2.2.0.2.1.4.4.4.4.y.~ X.1.9.! X.X.X.X.+.y.Q ] o.o.o.o.o.o.X._ { { { c.+.1.1.1.1.1.1.>.:.1.1.1.1.>.>.>.1.>.>.1.1.2.2.1.>.1.1.1.1.1.1.1.1.1.1.1.1.1.1.1.1.1.1.1.1.1.1.1.1.1.1.1.1.1.1.1.1.1.1.>.1.1.1.1.1.1.1.1.1.1.1.1.1.1.1.1.>.>.1.2.1.1.1.1.1.1.2.1.1.>.>.2.2.2.1.1.1.1.1.1.:.>.>.1.1.1.1.1.=.0./ / / X.X.o.+.+.o.[ W W W W r.+.X.%.q.@./ / / / e.1.0.0.0.0.0.2.2.=.X./ ! ~ ~ / ~ ~ ~ o.o.=.=.=.7.2.0.8.8.0.0.0.0.0.0.0.0.0.0.0.0.0.0.",
"0.0.0.0.0.0.0.0.0.0.0.0.0.8.0.0.2.7.7.y.y.y.0.u.-.-.~ / / / / ] o.=.:.:.2.2.0.2.0.2.1.0.0.0.0.y.~ X.1.0.! X.X.X.X.+.y.Q ] o.o.+.o.o.o.X._ { { { c.+.1.1.1.1.1.1.1.:.1.1.>.>.1.1.1.1.1.>.1.1.1.1.1.>.1.1.1.1.>.>.1.1.1.1.1.1.1.1.1.1.1.1.1.1.1.1.1.1.1.1.1.1.1.1.1.1.1.>.1.1.1.1.1.1.1.1.1.>.1.1.1.1.1.1.1.1.1.1.1.1.1.1.1.1.1.1.>.1.1.>.2.2.2.2.1.>.1.1.1.:.>.>.1.1.1.1.1.=.0.! / / X.X.o.o.+.o.[ W W W W r.+.X.o.0.@./ / / / u.1.0.0.0.0.4.2.2.:.X./ ~ ~ ~ ! ~ ~ ~ o.o.=.=.=.7.2.0.8.8.0.0.0.0.0.0.0.0.0.0.0.0.0.0.",
"0.0.0.0.0.0.0.0.0.0.0.0.0.8.0.0.2.7.7.y.y.y.0.u.-.-.~ / / / / ] o.+.:.1.2.2.0.2.0.2.1.4.4.4.4.y.! X.1.0.! X.X.X.X.+.y.Q ] o.o.o.o.+.X.X._ $.$.$.c.+.1.1.1.>.1.1.:.:.>.>.1.1.1.1.1.1.>.>.1.1.1.2.1.1.1.1.1.1.1.1.1.1.1.1.1.1.1.1.1.1.1.1.1.1.1.1.1.1.1.1.1.1.1.1.1.1.1.1.1.1.1.1.1.1.1.1.1.1.1.>.>.1.1.1.1.1.1.>.>.1.1.1.1.>.1.>.2.2.1.1.1.1.1.1.1.>.1.>.>.>.>.>.1.1.1.1.>.=.0.Q / / X.X.o.+.+.o.[ W W W W y.+.X.%.q.@./ / / / e.1.0.0.0.0.0.2.2.=.] / ! ! ! ! ! ! ! o.o.1.=.=.7.2.0.8.8.0.0.0.0.0.0.0.0.0.0.0.0.0.0.",
"0.0.0.0.0.0.0.0.0.0.0.0.0.8.0.0.2.7.7.y.y.y.0.u.-.-.~ / / / / ] o.+.:.:.2.2.0.2.0.2.1.4.4.4.4.y.! X.1.0.! X.X.X.X.+.y.Q ] o.o.o.+.+.X.X._ $.$.$.c.+.1.1.>.:.>.>.>.>.>.>.1.1.1.1.1.1.>.>.1.>.1.1.1.1.1.1.1.1.1.1.1.1.1.1.1.1.1.1.1.1.1.1.1.1.1.1.1.1.1.1.1.1.1.1.1.1.1.1.1.1.1.1.1.1.1.1.1.1.1.1.1.1.1.1.1.1.1.>.1.>.>.>.1.1.1.1.2.2.2.2.>.>.1.>.>.1.1.1.1.>.>.>.1.>.1.1.>.=.0.Q / / X.X.o.+.+.o.[ W W W W r.#.] [ 0.@./ / / / u.1.0.0.0.0.0.2.2.=.] / ! ! ! ! ! ! ! o.X.1.1.=.7.2.0.8.8.0.0.0.0.0.0.0.0.0.0.0.0.0.0.",
"0.0.0.0.0.0.0.0.0.0.0.0.0.8.0.0.2.7.7.y.y.y.0.u.-.1.~ / / / / ] o.=.=.=.2.2.0.2.0.2.1.4.4.4.4.y.! X.1.0.! X.X.X.X.o.y.Q ] o.o.o.+.+.X.X._ $.$.$.c.+.1.>.:.:.>.>.>.1.>.>.1.2.1.1.1.1.1.>.1.2.2.2.1.>.1.1.1.1.1.1.1.1.1.1.1.1.1.1.1.1.1.1.1.1.1.1.1.1.1.1.1.1.1.1.1.1.1.1.1.1.1.1.1.1.1.1.1.1.1.1.1.1.1.1.1.1.1.>.>.1.2.1.2.2.>.>.2.1.1.2.>.>.1.1.1.1.1.1.1.:.>.>.1.>.1.>.>.@.0.Q / / X.X.o.+.+.o.[ W W W W r.+.X.%.q.@.~ ~ ~ / u.1.0.0.0.0.4.2.2.=.] / ~ ~ ~ ! ~ ! ! X.o.=.=.=.7.2.0.8.8.0.0.0.0.0.0.0.0.0.0.0.0.0.0.",
"0.0.0.0.0.0.0.0.0.0.0.0.0.8.0.0.8.7.7.y.y.y.0.u.-.-.~ / / / / ] o.+.1.1.4.4.2.2.0.2.1.4.4.4.4.y.! X.1.8.! X.X.X.X.+.y.Q ] o.o.o.+.o.o.X._ $.$.$.c.+.1.>.>.:.>.>.1.1.1.1.1.1.>.>.>.1.1.1.1.2.2.2.1.2.1.1.1.1.1.1.1.1.1.1.1.1.1.1.1.1.1.1.1.1.1.1.1.1.1.1.1.1.1.1.1.1.1.1.1.1.1.1.1.1.1.1.1.1.1.1.1.1.1.>.1.1.1.1.1.1.1.1.1.2.1.1.1.1.>.1.>.>.2.1.1.1.1.1.1.:.1.>.1.1.1.>.>.=.0.Q / / X.X.o.+.+.o.[ W W W W y.#.o.[ 0.@.~ ~ / / u.1.0.0.0.0.0.2.2.=.] / ! ~ ~ ~ ~ ! ! o.] =.=.=.1.2.0.2.2.0.0.0.0.0.0.0.0.0.0.0.0.0.0.",
"0.0.0.0.0.0.0.0.0.0.0.0.0.2.0.0.2.1.1.y.y.y.0.u.-.-.~ / / / / ] o.=.1.1.2.2.0.2.0.2.1.0.0.0.0.y.! X.1.0.! o.o.o.o.=.y.Q ] o.o.o.o.o.o.X._ { { { c.+.>.>.1.:.>.>.1.1.1.1.1.1.1.1.>.>.1.2.1.>.>.>.>.>.1.1.1.>.1.1.1.1.1.1.1.1.1.1.1.1.1.1.1.1.1.1.1.1.1.1.1.1.1.1.1.1.1.1.1.1.1.1.1.1.1.1.1.1.1.1.1.1.1.>.1.1.>.1.1.1.2.1.1.1.1.1.>.1.1.>.1.1.1.2.1.1.1.1.1.:.:.:.:.>.>.>.1.=.0.Q / / X.X.o.+.+.o.[ W W W W y.+.X.%.q.@.~ ~ ~ ~ u.1.0.0.0.0.0.2.2.=.] / ~ ~ ~ ~ ~ ! ! X.X.=.=.=.1.2.0.2.2.0.0.0.0.0.0.0.0.0.0.0.0.0.0.",
"0.0.0.0.0.0.0.0.0.0.0.0.0.2.0.0.2.1.1.y.y.y.0.u.-.-.~ / / / / ] o.=.1.1.2.2.0.2.0.2.1.0.0.0.0.y.! X.1.0.! X.X.X.X.+.y.Q ] o.o.o.o.o.o.X._ { { { c.+.1.>.1.:.>.>.1.2.1.1.2.2.>.>.1.>.1.2.1.>.>.>.1.1.1.1.1.1.1.1.1.1.1.1.1.1.1.1.1.1.1.1.1.1.1.1.1.1.1.1.1.1.1.1.1.1.1.1.1.1.1.1.1.1.1.1.1.1.1.1.1.1.1.1.1.1.1.1.1.1.2.1.1.1.>.>.>.>.>.1.1.1.1.1.1.1.1.1.1.1.1.1.>.:.>.>.1.=.0.Q / / ] ] o.+.+.o.o.W W W W q.+.X.[ 0.+.~ ~ ~ ~ u.1.0.0.0.0.0.2.2.=.] / ~ ~ ~ ~ ~ ! ! X.X.=.=.=.1.2.0.2.2.0.0.0.0.0.0.0.0.0.0.0.0.0.0.",
"0.0.0.0.0.0.0.0.0.0.0.0.0.2.0.0.2.1.1.y.y.y.0.u.-.-.~ / / / / ] o.+.1.1.2.2.2.2.0.2.1.0.0.0.0.y.! o.1.0.! o.o.o.o.#.y.Q ] o.o.o.o.o.o.X._ { { { c.+.1.1.1.:.>.>.>.>.1.1.2.2.1.1.>.1.2.2.1.1.>.>.>.1.1.1.1.1.1.>.>.>.>.1.1.1.1.1.1.>.1.1.1.1.1.1.1.1.1.1.1.1.1.1.1.1.1.1.1.1.1.1.1.1.1.1.1.1.1.1.1.1.1.1.1.1.1.>.1.1.1.1.1.1.1.1.1.1.1.>.>.>.>.>.1.1.1.1.>.1.1.1.>.1.1.1.1.=.0.Q _ _ [ [ o.o.+.o.X.Q Q Q Q r.+.X.%.q.@.~ ~ ~ ~ u.1.0.0.0.0.0.2.2.=.] / ! ! ~ ~ ~ ! ! o.o.=.=.=.1.2.0.2.2.0.0.0.0.0.0.0.0.0.0.0.0.0.0.",
"0.0.0.0.0.0.0.0.0.0.0.0.0.2.0.0.2.1.1.y.y.y.q.u.-.-.~ / / / / ] o.=.:.:.1.1.0.2.0.2.1.0.0.0.0.y.! o.1.0.~ X.X.X.X.+.q.W ] o.o.+.o.o.o.X._ { { { c.+.1.1.1.:.>.>.>.1.1.1.1.1.>.>.>.1.2.2.2.1.1.1.1.>.1.1.>.1.1.1.1.1.1.1.1.1.1.1.1.1.1.1.1.1.1.1.1.1.1.1.1.1.1.1.1.1.1.1.1.1.1.1.1.1.1.1.1.1.1.1.1.1.1.1.1.>.>.1.1.1.1.1.1.>.1.2.1.1.1.1.1.1.1.1.>.1.1.1.>.>.>.>.>.1.1.1.1.=.r.Q / / X.X.o.o.+.o.X.Q Q Q Q 0.+.X.[ 0.@.~ ~ ~ ~ u.1.0.0.0.0.4.2.2.=.] / ~ ~ ~ ! ~ ! ! ] o.=.=.=.1.2.0.2.2.0.0.0.0.0.0.0.0.0.0.0.0.0.0.",
"0.0.0.0.0.0.0.0.0.0.0.0.0.2.0.0.2.1.1.y.y.y.0.u.-.-.~ / / / / ] o.@.1.1.2.2.0.2.0.2.1.0.0.0.0.y.! o.1.9.! o.o.o.o.+.y.Q ] o.o.o.o.o.o.X._ { { { z.@.1.1.1.:.1.1.1.1.1.1.1.1.1.1.1.1.>.1.1.>.>.>.>.1.>.1.>.1.1.1.1.1.1.1.1.1.1.1.1.1.1.1.1.1.1.1.1.1.1.1.1.1.1.1.1.1.1.1.1.1.1.1.1.1.1.1.1.1.1.1.1.1.1.1.1.1.1.1.1.1.1.1.1.1.1.1.1.2.1.2.1.2.1.1.1.1.1.1.1.1.1.>.>.>.1.1.1.=.0.Q / / ] ] o.+.+.o.X.Q Q Q Q r.+.X.o.q.@.~ / / ~ u.1.0.0.0.0.0.2.2.=.] / ! ~ ~ ~ ~ ! ! o.o.1.=.=.7.2.0.8.8.0.0.0.0.0.0.0.0.0.0.0.0.0.0.",
"0.0.0.0.0.0.0.0.0.0.0.0.0.2.0.0.2.1.1.y.y.y.0.y.-.-.~ / / / / ] o.=.1.1.2.2.0.2.0.2.1.0.0.0.0.y.! X.1.9.! o.o.o.o.=.y.Q ] o.o.o.o.o.o.X./ &.&.&.z.@.1.1.1.:.>.>.>.1.1.>.1.1.1.1.>.1.1.1.1.1.1.1.1.1.>.1.>.>.1.1.1.1.1.1.1.1.1.1.1.1.1.1.1.1.1.1.1.1.1.1.1.1.1.1.1.1.1.1.1.1.1.1.1.1.1.1.1.1.1.1.1.1.1.1.1.1.1.1.1.1.1.1.1.1.>.1.>.1.1.2.2.2.>.1.1.1.1.1.1.1.>.>.>.>.1.1.1.=.0.Q / / ] ] o.+.o.o.X.Q Q Q Q q.+.X.[ 0.@.~ / / / y.1.0.0.0.0.0.2.2.=.] / ~ ~ ~ ~ ~ ! ! o.o.1.=.=.7.2.0.8.8.0.0.0.0.0.0.0.0.0.0.0.0.0.0.",
"0.0.0.0.0.0.0.0.0.0.0.0.0.2.0.0.2.1.1.y.y.y.q.u.-.-./ / / / / ] o.=.:.:.1.1.0.2.0.2.1.0.0.0.0.y.! X.:.7.~ o.o.o.o.+.y.Q ] o.o.+.+.+.+.X./ -.-.-.z.@.1.1.>.:.>.>.>.1.1.1.1.1.>.>.1.>.1.>.>.1.2.2.1.1.1.1.1.1.1.2.1.1.2.1.1.1.1.1.1.1.1.1.1.1.1.1.1.1.1.1.1.1.1.1.1.1.1.1.1.1.1.1.1.1.1.1.1.1.1.1.1.1.1.1.1.1.1.1.1.1.1.1.1.1.1.1.>.>.>.1.1.1.1.>.>.>.>.>.>.1.1.1.1.>.>.1.>.=.0.Q / / X.X.X.o.o.o.X.W W W W r.+.] o.q.@./ / / ~ y.1.0.0.0.0.2.2.2.=.] / ~ / / ! ~ ! ~ o.o.=.=.=.7.2.0.8.8.0.0.0.0.0.0.0.0.0.0.0.0.0.0.",
"0.0.0.0.0.0.0.0.0.0.0.0.0.2.0.0.2.1.1.y.y.y.0.u.-.-./ / / / / ] o.+.1.1.8.8.2.2.0.2.1.0.0.0.0.y.! X.1.8.~ o.o.o.X.#.y.Q ] o.o.o.o.o.+.X._ -.-.-.z.@.1.1.1.:.>.>.>.1.>.1.1.1.1.1.>.1.>.1.1.1.1.1.2.1.2.1.1.1.1.1.1.1.1.1.1.>.1.1.1.1.1.1.1.1.1.1.1.1.1.1.1.1.1.1.1.1.1.1.1.1.1.1.1.1.1.>.1.1.1.1.1.1.1.1.1.1.1.>.1.1.1.1.1.1.1.1.1.>.>.1.1.1.>.1.>.>.>.>.1.1.1.>.1.>.1.1.>.=.0.Q / / X.X.X.+.+.o.] W W W W r.+.X.[ 0.@./ / / ~ y.1.0.0.0.0.0.2.2.=.X./ ~ ~ ~ / ~ ~ ~ o.o.=.=.=.7.2.0.8.8.0.0.0.0.0.0.0.0.0.0.0.0.0.0.",
"0.0.0.0.0.0.0.0.0.0.0.0.0.2.0.0.2.1.1.y.y.y.0.u.-.-./ / / / / ] o.=.1.1.2.2.0.2.0.2.1.0.0.0.0.y.~ o.1.8.! o.o.o.X.+.y.Q ] o.o.o.o.o.o.X./ -.-.-.z.@.>.>.1.1.>.>.>.1.>.2.>.>.1.1.1.2.>.1.1.1.2.1.1.1.1.1.1.>.1.1.1.1.1.>.1.1.1.1.1.1.1.1.1.1.1.1.1.1.1.1.1.1.1.1.1.1.1.1.1.1.1.1.1.1.1.1.1.1.1.1.1.1.1.1.1.1.1.1.1.1.1.1.1.1.1.1.1.>.1.>.>.>.>.1.>.>.1.1.1.1.1.1.1.1.1.1.1.=.0.Q / / X.X.X.o.+.o.] W W W Q y.+.X.o.q.@.~ ~ ~ ~ y.1.0.0.0.0.0.2.2.=.] / ~ ~ ~ ! ~ ~ ~ o.o.=.=.=.7.2.0.8.8.0.0.0.0.0.0.0.0.0.0.0.0.0.0.",
"0.0.0.0.0.0.0.0.0.0.0.0.0.2.0.0.2.1.1.y.y.y.q.f.9.9./ / / / / ] o.=.1.1.2.2.4.2.0.2.1.0.0.0.0.y.~ o.1.8.! o.o.o.X.+.y.Q ] o.o.o.o.o.o.X._ 3.-.-.z.@.>.1.1.:.1.1.1.1.>.2.1.1.>.>.1.1.1.>.>.>.1.2.>.1.1.1.1.>.1.1.1.1.1.1.1.>.1.1.1.1.1.1.1.1.1.1.1.1.1.1.1.1.1.1.1.1.1.1.1.1.1.1.1.1.1.1.1.1.>.1.1.1.1.1.1.1.1.1.1.1.1.1.1.1.1.1.2.1.1.1.1.1.1.1.>.>.1.1.>.1.>.>.1.1.1.1.1.=.0.Q / / X.X.o.o.+.o.] W Q W Q y.+.X.[ 0.@.~ ~ / ~ y.1.0.0.0.0.0.2.2.=.] / ~ ~ ~ ! ! ~ ~ o.o.=.=.=.7.2.0.8.8.0.0.0.0.0.0.0.0.0.0.0.0.0.0.",
"0.0.0.0.0.0.0.0.0.0.0.0.0.2.0.0.2.1.1.y.y.y.0.s.4.4.~ / / / / ] o.+.1.1.8.2.2.2.0.2.1.0.0.0.0.y.~ o.1.9.! o.o.o.o.+.r.Q ] o.o.o.X.X.o.X._ -.-.-.x.@.>.>.>.:.1.1.1.1.1.>.2.2.1.1.1.>.2.1.>.1.1.2.1.1.1.>.>.1.1.1.1.1.1.1.1.1.1.1.1.1.1.1.1.1.1.1.1.1.1.1.1.1.1.1.1.1.1.1.1.1.1.1.1.1.1.1.1.1.1.1.1.1.1.1.1.1.1.>.>.1.1.1.1.1.1.1.2.1.1.2.>.>.1.>.2.2.2.2.1.>.>.>.>.>.1.1.1.=.0.Q / / X.X.o.o.+.o.[ Q Q Q Q y.+.X.[ q.@.~ / / / u.2.0.0.0.0.0.2.2.=.] / ~ ~ ~ ~ ~ ~ ~ o.[ =.=.=.7.2.0.8.8.0.0.0.0.0.0.0.0.0.0.0.0.0.0.",
"0.0.0.0.0.0.0.0.0.0.0.0.0.2.0.0.2.1.1.y.y.y.q.f.9.9./ / / / / ] o.=.1.1.2.2.4.2.0.2.1.0.0.0.0.y.! o.1.9.! o.o.o.o.@.q.Q ] o.o.+.o.o.o.X./ -.-.-.x.@.>.>.>.:.1.1.>.1.1.>.>.1.1.1.1.1.2.1.>.1.1.1.1.1.1.>.1.1.1.2.1.1.1.1.1.1.1.1.1.1.1.1.1.1.1.1.1.1.1.1.1.1.1.1.1.1.1.1.1.1.1.1.1.1.1.1.1.1.1.1.1.1.1.1.1.1.1.1.>.1.1.1.1.1.1.>.1.1.1.1.1.1.>.1.2.2.2.2.>.1.1.1.>.:.1.1.1.=.0.Q / / X.X.o.o.+.[ o.W W W Q q.+.X.%.q.@.~ / / / u.2.0.0.0.0.2.2.2.=.] / ~ ~ ~ ! ~ ! ! o.o.=.=.=.7.2.0.8.8.0.0.0.0.0.0.0.0.0.0.0.0.0.0.",
"0.0.0.0.0.0.0.0.0.0.0.0.0.2.0.0.2.1.1.y.y.y.q.f.9.9.~ / / / / ] o.=.1.1.2.2.0.2.0.2.1.0.0.0.0.y.! X.1.7.! o.o.o.o.#.q.Q _ o.o.o.+.+.o.X./ 3.3.3.x.@.>.>.>.:.>.1.>.>.>.1.1.1.>.>.1.1.1.>.1.1.1.1.1.1.1.1.1.1.1.1.1.1.1.1.1.1.1.1.1.1.1.1.1.1.1.1.1.1.1.1.1.1.1.1.1.1.1.1.1.1.1.1.1.1.1.1.1.1.1.1.1.1.1.1.1.1.1.1.>.1.1.1.1.1.>.1.1.>.>.1.1.1.1.1.1.1.1.1.1.1.>.1.>.>.>.>.1.=.0.Q / / ] ] o.+.+.o.[ W W W W y.+.X.-.y.+.~ ~ ~ / u.2.0.0.0.0.0.2.2.=.] / ~ ~ ~ ~ ~ ~ ~ o.[ =.=.=.7.2.0.8.8.0.0.0.0.0.0.0.0.0.0.0.0.0.0.",
"0.0.0.0.0.0.0.0.0.0.0.0.0.2.0.0.2.1.1.y.y.y.0.s.9.9.~ / / / / ] o.=.1.1.2.2.0.2.0.2.1.0.0.0.0.y.! X.1.1.! o.o.o.o.+.q.Q ] o.o.o.+.o.o.o./ -.-.3.x.@.1.>.1.:.1.1.>.1.>.>.1.1.>.1.1.1.1.1.1.1.1.1.>.>.1.1.>.1.1.1.1.1.1.1.1.1.1.1.1.1.1.1.1.1.1.1.1.1.1.1.1.1.1.1.1.1.1.1.1.1.1.1.1.1.1.1.1.1.1.1.1.1.1.1.1.1.1.>.1.1.1.1.1.>.1.1.1.1.1.>.>.>.1.1.1.>.1.>.>.1.>.1.>.:.1.>.1.=.0.Q / / ] ] o.+.+.o.X.W W W W q.+.] %.y.+.~ ~ ~ / u.2.0.0.0.0.0.2.2.=.] / ~ ~ ~ ~ ~ ~ ~ o.[ =.=.=.7.2.0.8.8.0.0.0.0.0.0.0.0.0.0.0.0.0.0.",
"0.0.0.0.0.0.0.0.0.0.0.0.0.2.0.0.2.1.1.t.t.t.0.u.-.-./ / / / / ] o.=.1.1.2.2.0.2.0.2.1.0.0.0.0.y.~ o.1.1.! o.o.o.o.#.y.Q ] o.o.o.+.+.o.X./ -.-.3.x.@.1.1.1.:.>.>.>.>.1.1.1.2.1.2.1.1.1.1.1.1.1.2.1.1.1.1.1.1.1.1.1.1.1.1.>.1.1.1.1.1.1.1.1.1.1.1.1.1.1.1.1.1.1.1.1.1.1.1.1.1.1.1.1.1.1.1.1.1.1.1.1.1.1.1.1.1.1.1.1.1.1.1.1.1.1.1.1.>.1.1.1.2.1.2.1.1.1.1.>.1.1.1.1.1.1.1.1.=.0.Q / / X.X.o.o.+.[ o.W W W W y.+.X.-.y.+.~ ~ ~ ~ u.1.0.0.0.0.2.2.2.=.] / ~ ~ ~ ! ~ ~ ~ X.o.=.=.=.7.2.0.8.8.0.0.0.0.0.0.0.0.0.0.0.0.0.0.",
"0.0.0.0.0.0.0.0.0.0.0.0.0.2.0.0.2.1.1.y.y.y.0.y.=.=.~ / / / / ] o.+.1.1.0.0.2.2.0.2.1.8.8.8.8.y.~ X.1.1.! o.o.o.o.+.r.Q ] o.o.+.o.o.o.X./ -.-.-.x.@.1.1.1.:.1.1.>.1.1.1.1.2.2.2.1.1.1.1.1.1.1.2.1.1.1.1.1.1.1.1.1.1.1.1.1.1.1.1.1.1.1.1.1.1.1.1.1.1.1.2.1.1.1.1.1.1.1.1.1.1.1.1.1.1.1.1.1.1.1.1.1.1.1.1.1.>.1.1.1.1.1.1.1.1.1.1.1.2.2.1.1.2.1.2.1.1.1.1.>.>.1.1.1.:.1.1.1.=.0.Q / / X.X.o.o.+.o.[ W W W W q.o.] %.y.@.~ ~ ~ ~ y.1.0.0.0.0.0.2.2.=.] / ~ ~ ~ ~ ! ~ ~ o.o.=.=.=.1.8.4.8.8.0.0.0.0.0.0.0.0.0.0.0.0.0.0.",
"0.0.0.0.0.0.0.0.0.0.0.0.0.2.0.0.0.1.1.y.y.y.0.u.-.-./ / / / / ] o.=.>.>.2.2.0.2.0.2.1.2.2.2.2.y.! X.1.1.! o.o.o.o.+.q.Q ] o.o.+.o.o.o.X./ -.-.-.x.@.1.1.1.:.>.>.>.1.2.2.1.1.2.1.1.1.>.1.>.1.1.1.1.1.1.1.1.1.1.1.1.1.1.1.1.1.1.1.1.1.1.1.1.1.1.1.1.1.1.1.1.1.1.1.1.1.1.1.1.1.1.1.1.1.1.1.>.1.1.1.1.1.1.1.1.1.1.1.1.1.1.1.1.1.1.1.1.>.>.1.>.>.1.2.1.>.>.>.1.1.1.1.1.:.>.1.1.=.0.Q _ / X.X.o.o.+.o.o.] ] ] _ i.o.] &.y.+.~ ~ ~ ~ y.1.0.0.0.0.0.2.2.=.] / ~ / ~ ! ~ ~ ~ X.o.:.=.=.1.2.0.2.2.0.0.0.0.0.0.0.0.0.0.0.0.0.0.",
"0.0.0.0.0.0.0.0.0.0.0.0.0.2.0.0.0.1.1.y.y.y.0.u.-.-./ / / / / ] o.=.>.>.2.2.0.2.0.2.1.0.0.0.0.y.! X.1.1.! o.X.o.X.+.q.Q ] o.o.o.o.o.o.X./ -.-.-.x.@.1.1.>.:.1.>.>.2.2.2.1.>.1.2.>.1.>.>.>.1.1.1.1.1.1.1.1.1.1.1.1.1.1.1.1.1.1.1.1.1.1.1.1.1.1.1.1.1.1.1.1.1.1.1.1.1.1.1.1.1.1.1.1.1.1.1.1.1.1.1.1.1.1.1.1.1.1.1.1.1.1.1.1.1.1.>.1.1.1.1.1.1.1.2.1.>.>.>.1.1.1.1.>.1.>.>.1.=.0.Q / / X.o.o.+.+.o.o.` ` ` / u.o.] %.y.@.~ ~ ~ ~ y.1.0.0.0.0.0.2.2.=.] / ~ / ~ ! ~ ~ ~ X.o.=.=.=.1.2.0.2.2.0.0.0.0.0.0.0.0.0.0.0.0.0.0.",
"0.0.0.0.0.0.0.0.0.0.0.0.0.2.0.0.0.1.1.y.y.y.0.y.=.=./ / / / / ] o.+.1.1.0.0.2.2.0.8.1.0.0.0.0.y.! X.1.1.! o.o.o.o.+.q.Q ] o.o.o.+.+.o.X./ -.-.-.x.@.1.1.>.1.>.>.>.1.>.>.1.1.1.2.1.>.1.1.1.1.1.1.1.1.1.1.1.1.1.1.1.1.1.1.1.>.1.1.1.1.1.1.1.1.1.1.1.1.1.1.1.1.1.1.1.1.1.1.1.1.1.1.1.1.1.1.1.1.1.1.1.1.1.1.1.1.>.1.1.1.1.1.1.1.1.>.>.1.1.1.1.1.2.2.2.1.1.1.>.>.>.>.>.:.>.>.1.=.0.Q / / ] o.o.+.+.o.o.] / / / i.o.] %.y.@./ ~ ~ ~ y.1.0.0.0.0.0.2.2.=.] / ~ ~ ~ ~ ~ ~ ~ o.[ =.=.=.1.2.0.2.2.0.0.0.0.0.0.0.0.0.0.0.0.0.0.",
"0.0.0.0.0.0.0.0.0.0.0.0.0.2.0.0.0.1.1.t.t.t.0.y.=.=./ / / / / ] o.=.1.1.2.2.0.8.0.8.7.0.0.0.0.y.! X.1.1.~ o.o.o.o.=.y.Q ] o.o.o.+.+.o.X./ -.-.-.x.@.1.1.1.1.>.>.>.>.1.1.>.>.2.1.>.>.1.1.1.>.>.>.>.1.1.1.1.1.1.1.1.1.1.1.1.1.1.1.1.1.1.1.1.1.1.1.1.1.1.1.1.1.1.1.1.1.1.1.1.1.1.1.1.1.1.1.1.1.1.1.1.1.1.1.1.1.1.1.1.1.1.1.1.1.1.>.1.>.>.>.1.1.2.2.2.1.>.>.>.>.>.>.:.>.>.>.1.=.0.Q / / X.X.o.o.+.[ o._ / / / a.+.X.%.q.@./ / / ~ y.1.0.0.0.0.2.2.2.=.] / / / / ! ! ! ! X.o.=.=.=.1.2.0.2.2.0.0.0.0.0.0.0.0.0.0.0.0.0.0.",
"0.0.0.0.0.0.0.0.0.0.0.0.0.2.0.0.2.1.1.t.t.t.0.y.=.=./ / / / / ] o.=.1.1.2.2.0.8.0.2.7.0.0.0.0.y.! o.1.1.! o.o.o.o.=.y.Q ] o.o.o.+.+.o.X./ -.&.-.x.@.>.>.>.1.1.>.>.1.1.1.1.1.1.1.2.2.1.>.1.>.1.1.>.1.1.1.1.1.1.1.1.1.1.1.1.1.1.1.1.1.1.1.1.1.1.1.1.1.1.1.1.1.1.1.1.1.1.1.1.1.1.1.1.1.1.1.1.1.1.1.1.1.1.1.1.1.1.1.1.1.1.1.1.1.1.1.1.1.1.1.>.>.2.2.2.1.1.1.1.:.>.>.=.>.1.1.1.=.0.Q / / X.X.o.o.+.o.X./ / / / a.+.X.%.y.+.~ ~ ~ ~ y.1.0.0.0.0.0.2.2.=.] / ~ ~ ~ ! ! ~ ~ o.o.=.=.=.1.2.0.2.2.0.0.0.0.0.0.0.0.0.0.0.0.0.0.",
"0.0.0.0.0.0.0.0.0.0.0.0.0.2.0.0.2.1.1.t.t.t.0.y.=.=./ / / / / ] o.=.1.1.2.2.4.8.0.2.7.0.0.0.0.y.! X.1.1.! o.o.o.o.=.y.Q ] o.o.o.o.+.o.X./ &.&.&.x.@.>.>.1.1.1.1.>.1.1.1.1.1.1.1.2.2.1.1.1.1.1.1.1.1.>.1.1.1.1.1.1.1.1.1.1.1.1.1.1.1.1.1.1.1.1.1.1.1.1.1.1.1.1.1.1.1.1.1.1.1.1.1.1.1.1.1.1.1.1.1.1.1.1.1.1.1.1.1.1.1.1.1.1.1.1.1.1.1.1.>.1.1.2.1.1.>.1.>.1.:.1.1.>.=.1.1.1.=.0.Q / / ] ] o.+.+.o.X./ / / / a.+.X.%.y.@.~ ~ ~ ~ y.1.0.0.0.0.0.2.2.=.] / ~ ~ ~ ! ! ~ ~ o.o.=.=.=.1.2.0.2.2.0.0.0.0.0.0.0.0.0.0.0.0.0.0.",
"0.0.0.0.0.0.0.0.0.0.0.0.0.2.0.0.2.1.1.t.u.u.q.u.=.=./ / / / / ] o.=.:.1.2.2.4.2.0.2.1.0.0.0.0.y.! o.1.9.! o.o.o.o.=.0.Q ] o.o.o.+.+.o.X._ &.-.&.x.+.1.1.1.1.1.1.>.>.>.1.1.1.>.>.>.1.1.>.>.1.1.1.1.1.1.1.>.1.1.1.1.1.1.1.1.1.1.1.1.1.1.1.1.1.2.1.1.1.1.1.1.1.1.1.1.1.1.1.1.1.1.1.1.1.1.1.1.1.1.1.1.1.1.1.1.1.1.1.1.1.1.1.1.1.>.>.1.1.1.1.>.>.1.1.>.1.1.1.1.1.1.>.>.=.1.1.1.=.0.Q / / ] ] o.o.+.o.[ / / / / i.+.X.%.y.@.~ / ~ ~ y.1.0.0.0.0.2.2.2.=.] / ~ / ~ ! ~ ! ! ] o.=.=.=.1.2.0.2.2.0.0.0.0.0.0.0.0.0.0.0.0.0.0.",
"0.0.0.0.0.0.0.0.0.0.0.0.0.2.0.0.2.1.1.t.u.u.0.y.%.%./ / / / / ] o.+.1.1.0.4.2.2.0.2.1.0.0.0.0.y.! o.1.7.! o.o.o.o.=.0.! ] o.o.o.o.o.o.X._ &.&.&.x.+.>.1.1.1.1.1.1.>.1.1.1.1.>.>.1.1.1.1.1.1.1.1.1.1.1.1.1.1.1.>.>.>.1.1.1.1.1.1.1.1.1.1.1.1.1.1.1.1.1.1.1.1.1.1.1.1.1.1.1.1.1.1.1.1.1.1.1.1.1.1.1.1.1.1.1.1.1.1.1.1.1.1.1.1.1.1.1.1.1.1.1.1.>.1.>.1.1.1.1.1.1.1.>.=.1.1.1.=.0.Q / / ] ] o.+.o.o.X._ _ _ _ i.+.X.#.q.@.~ / ~ ~ y.1.0.0.0.0.0.2.2.=.] / ~ ~ ~ ~ ~ ~ ~ o.o.=.=.=.1.2.0.2.2.0.0.0.0.0.0.0.0.0.0.0.0.0.0.",
"0.0.0.0.0.0.0.0.0.0.0.0.0.2.0.0.8.1.1.u.u.u.q.u.=.=./ / / / / ] o.=.1.1.2.2.0.2.0.2.1.0.0.0.0.y.! X.1.7.~ o.o.o.o.=.0.! ] o.o.o.o.o.o.X._ &.&.&.x.+.1.1.:.:.>.>.>.1.>.>.>.>.1.2.1.>.>.1.1.1.1.1.1.1.1.1.1.1.1.>.1.1.>.1.1.1.1.1.1.1.1.1.1.1.1.1.1.1.1.1.1.1.1.1.1.1.1.1.1.1.1.1.1.1.1.1.1.1.1.1.1.1.1.1.1.1.1.1.1.1.1.1.1.1.>.1.1.>.>.1.1.1.>.>.1.>.2.2.1.2.>.>.>.:.>.1.1.=.0.Q / / X.X.o.+.o.+.X._ _ _ _ u.+.X.%.y.@.~ ~ ~ ~ j.:.0.0.0.0.0.2.2.=.] / ~ ~ ~ ! ~ ~ ~ X.o.=.=.=.1.2.0.2.2.0.0.0.0.0.0.0.0.0.0.0.0.0.0.",
"0.0.0.0.0.0.0.0.0.0.0.0.0.2.0.0.8.1.1.u.u.u.q.u.=.=./ / / / / ] o.=.1.1.2.2.0.2.0.2.1.0.0.0.0.y.! X.1.7.! o.o.o.o.=.0.! ] o.o.o.o.o.o.X./ -.-.-.x.+.1.1.1.:.1.1.>.1.1.>.>.>.2.2.>.1.>.1.1.1.1.1.1.1.1.1.>.1.>.1.1.1.1.1.1.1.1.1.1.1.1.1.1.1.1.1.1.1.1.1.1.1.1.1.1.1.1.1.1.1.1.1.1.1.1.1.1.1.1.1.1.1.1.1.1.1.1.1.1.1.1.1.1.1.1.1.>.1.1.1.1.1.1.1.>.1.2.1.1.1.>.>.>.:.1.1.1.=.0.Q _ _ X.X.o.o.o.+.X.] _ _ _ i.+.X.} q.@.~ / / / g.:.0.0.0.0.0.2.2.=.] / ~ ~ ~ ! ~ ~ ~ X.o.=.=.=.1.2.0.2.2.0.0.0.0.0.0.0.0.0.0.0.0.0.0.",
"0.0.0.0.0.0.0.0.0.0.0.0.0.2.0.0.8.1.1.t.t.t.0.y.=.=./ / / / / ] o.#.1.1.0.0.2.2.0.2.1.0.0.0.0.y.! X.1.8.~ +.o.o.o.=.q.Q ] o.o.o.o.o.o.X./ -.-.-.x.+.>.>.>.:.1.1.>.1.>.1.1.1.2.2.1.1.1.1.1.1.1.1.1.1.1.1.1.1.1.1.1.1.1.1.1.1.1.1.1.1.1.1.1.1.1.1.1.1.1.1.1.1.1.1.1.1.1.1.1.1.1.1.1.1.1.1.1.1.1.1.1.1.1.1.1.1.1.1.1.1.1.1.1.1.1.1.1.1.1.1.1.1.>.1.1.>.>.1.1.1.>.>.>.1.1.1.1.=.0.Q _ _ X.X.o.o.+.+.X./ / / / a.+.X.%.y.@.~ ~ ~ ~ j.:.0.0.0.0.0.2.2.=.] / ~ ~ ~ ~ ~ ~ ~ o.o.=.=.=.1.2.0.2.2.0.0.0.0.0.0.0.0.0.0.0.0.0.0.",
"0.0.0.0.0.0.0.0.0.0.0.0.0.2.0.0.2.1.1.y.y.y.q.u.=.=./ / / / / ] o.=.1.1.2.2.0.2.0.2.1.0.0.0.0.y.! X.1.7.~ +.+.o.o.=.y.Q X.o.o.o.+.+.o.X./ -.-.-.x.+.1.>.>.:.1.1.>.1.1.1.1.1.1.2.1.1.1.1.1.1.1.1.1.1.1.1.1.1.1.1.1.1.1.1.1.1.1.1.1.1.1.1.1.1.1.1.1.1.1.1.1.1.1.1.1.1.1.1.1.1.1.1.1.1.1.1.1.1.1.1.1.1.1.1.1.1.1.1.1.1.1.1.1.1.1.1.1.1.1.1.1.1.1.1.1.1.1.1.>.>.>.>.>.>.1.1.1.:.0.Q / _ X.X.o.o.+.o.X.X.X.] X.r.o.] [ q.@.~ ~ ~ ~ j.:.0.0.0.0.2.2.2.=.] / ~ ~ ~ ! ~ ! ! ] o.=.=.=.1.2.0.2.2.0.0.0.0.0.0.0.0.0.0.0.0.0.0.",
"0.0.0.0.0.0.0.0.0.0.0.0.0.2.0.0.2.1.1.t.u.u.q.y.=.=./ / / / / ] o.@.>.>.2.2.0.2.0.2.1.0.0.0.0.y.! X.1.1.~ o.o.o.o.=.y.! ] o.o.o.o.o.o.X./ -.-.-.x.+.1.1.1.:.>.1.>.1.1.1.1.>.1.1.1.1.>.1.1.1.1.1.1.1.1.1.1.1.1.1.1.1.1.1.1.1.1.1.1.1.1.1.1.1.1.1.1.1.1.1.1.1.1.1.1.1.1.1.1.1.1.1.1.1.1.1.1.1.1.1.1.1.1.1.1.1.>.1.1.1.1.1.1.1.1.1.>.>.>.>.>.>.2.1.1.1.1.1.>.>.>.>.>.1.1.1.1.:.0.Q / / ] ] o.+.+.o.]  .X.X.X.1.o.] %.y.+.~ ~ ~ ~ g.:.0.0.0.0.0.2.2.=.] / ~ ~ ~ ~ ~ ~ ~ o.o.=.=.=.1.2.0.2.2.0.0.0.0.0.0.0.0.0.0.0.0.0.0.",
"0.0.0.0.0.0.0.0.0.0.0.0.0.2.0.0.2.1.1.t.u.u.q.y.=.=./ / / / / ] o.@.1.1.2.2.0.2.0.2.1.0.0.0.0.y.! X.1.1.~ o.o.o.o.=.0.W ] o.o.o.o.o.X.X./ &.-.-.x.+.1.1.>.:.>.1.1.2.>.1.2.2.1.1.1.>.1.1.1.1.1.1.1.1.1.1.1.1.1.1.1.1.1.1.1.1.1.1.1.1.1.1.1.1.1.1.1.1.1.1.1.1.1.1.1.1.1.1.1.1.1.1.1.1.1.1.1.1.1.1.1.1.1.>.1.1.1.1.1.1.1.1.1.1.1.1.>.1.1.>.1.>.1.2.1.1.1.1.1.1.>.>.>.1.1.1.>.:.0.Q _ _ ] ] o.+.+.o.]  .X.X.X.7.+.] [ q.+.~ ~ ~ ~ g.:.0.0.0.0.0.2.2.=.] / ~ ~ ~ ~ ~ ~ ~ o.o.=.=.=.1.2.0.2.2.0.0.0.0.0.0.0.0.0.0.0.0.0.0.",
"0.0.0.0.0.0.0.0.0.0.0.0.0.2.0.0.2.1.1.y.y.y.q.y.%.=./ / / / / ] o.=.1.1.2.2.0.2.0.2.1.0.0.0.0.y.~ X.1.1.~ +.o.o.o.=.0.Q X.o.o.+.o.o.X.o./ &.-.-.x.+.1.1.:.:.>.>.1.>.1.1.2.1.1.>.1.1.1.1.2.2.1.1.1.1.1.1.2.2.1.1.1.1.1.1.1.1.1.1.1.1.1.1.1.1.1.1.1.1.1.1.1.1.1.1.1.1.1.1.1.1.1.1.1.1.1.1.1.1.1.1.1.1.1.1.1.1.1.1.1.1.1.1.1.1.1.1.1.>.1.1.2.2.2.2.1.1.1.1.>.1.1.1.>.>.1.1.1.:.0.Q / / ] ] o.+.+.[ ]  .X.X.X.7.#.] %.y.@.~ ~ ~ ~ j.:.0.0.0.0.2.2.2.=.] / ~ / / ! ~ ! ! o.o.=.=.=.1.2.0.2.2.0.0.0.0.0.0.0.0.0.0.0.0.0.0.",
"0.0.0.0.0.0.0.0.0.0.0.0.0.2.0.0.2.1.1.t.t.t.0.y.%.=./ / / / / ] o.#.1.1.0.0.2.2.0.2.1.0.0.0.0.y.! X.1.1.! o.o.o.o.=.0.Q ] +.+.o.o.o.o.o./ -.-.-.h.=.1.1.>.>.>.1.1.1.1.1.2.2.2.1.>.1.1.>.2.2.1.1.1.1.>.1.1.>.1.1.1.1.1.1.1.1.1.1.1.1.1.1.1.1.1.1.1.1.1.1.1.1.1.1.1.1.1.1.1.1.1.1.1.1.1.1.1.1.1.1.1.1.1.1.1.1.1.1.1.1.1.1.1.>.1.1.1.1.1.1.2.2.2.2.>.>.1.>.1.>.1.1.>.>.>.>.1.=.0.Q / / X.X.o.+.+.o.]  .X.X.X.0.+.X.[ q.@.~ ~ ~ ~ j.:.0.0.0.0.0.2.2.=.X./ ~ ~ ~ ~ ~ ~ ~ o.o.=.=.=.1.2.0.2.2.0.0.0.0.0.0.0.0.0.0.0.0.0.0.",
"0.0.0.0.0.0.0.0.0.0.0.0.0.2.0.0.2.1.1.t.t.t.q.y.%.%./ / / / / ] o.=.1.1.2.2.0.2.0.2.1.0.0.0.0.y.! X.1.1.~ +.o.o.o.=.0.Q X.o.o.o.+.o.X.X./ -.-.-.g.=.1.>.>.>.1.1.>.>.1.1.2.2.1.1.1.1.1.1.1.>.>.>.>.1.1.1.1.1.>.1.1.1.1.1.1.1.1.1.1.1.1.1.1.1.1.1.1.1.1.1.1.1.1.1.1.1.1.1.1.1.1.1.1.1.1.1.1.1.1.1.1.1.1.1.1.1.1.1.1.>.>.>.>.1.1.1.1.1.1.1.1.1.1.1.1.1.1.1.1.1.1.1.1.:.1.1.1.=.0.Q / / ] ] o.+.+.o.] X.X.X.X.4.+. .o.q.@.~ ~ ~ ~ g.:.0.0.0.0.0.2.2.=.] / ~ ~ ~ ! ~ ~ ~ o.o.=.=.=.1.2.0.2.2.0.0.0.0.0.0.0.0.0.0.0.0.0.0.",
"0.0.0.0.0.0.0.0.0.0.0.0.0.2.0.0.2.1.1.t.t.t.0.u.-.-./ / / / / ] o.=.1.1.2.2.0.2.0.2.1.0.0.0.0.y.! X.1.1.~ +.o.o.o.=.0.Q ] o.o.o.+.+.o.X./ -.-.-.g.=.1.1.1.1.1.1.1.>.1.1.1.1.>.>.>.1.1.1.2.1.1.1.1.1.1.1.1.1.1.>.1.>.>.1.1.1.1.1.1.1.1.1.1.1.1.1.1.1.1.1.1.1.1.1.1.1.1.1.1.1.1.1.1.1.1.1.1.1.1.1.1.1.1.1.1.1.1.1.1.1.1.1.1.1.1.1.1.1.1.1.1.1.1.>.>.>.>.>.1.1.1.1.>.1.1.1.1.=.0.Q / / ] ] o.+.+.o.] X.X.X.X.4.+.X.[ 0.@.~ ~ ~ ~ j.:.0.0.0.0.0.2.2.=.] / ~ ~ ~ ! ~ ~ ~ o.o.=.=.=.1.2.0.2.2.0.0.0.0.0.0.0.0.0.0.0.0.0.0.",
"0.0.0.0.0.0.0.0.0.0.0.0.0.2.0.0.2.1.1.y.y.y.0.u.-.-.~ / / / / ] o.+.1.1.0.4.2.2.0.2.1.0.0.0.0.y.! X.1.1.~ o.o.o.o.=.0.Q ] o.o.o.o.o.o.X./ q.q.q.g.@.>.>.1.1.1.>.>.1.1.1.1.1.1.1.1.1.>.1.1.>.>.>.>.1.1.1.1.>.>.1.1.1.1.1.1.1.1.1.1.1.1.1.1.1.1.1.1.1.1.1.1.1.1.1.2.2.2.1.1.1.1.1.1.1.1.1.1.1.1.1.1.1.1.1.1.1.1.1.1.1.1.1.1.1.1.1.1.1.1.1.1.1.>.1.2.2.1.1.>.1.>.>.>.1.1.1.>.@.0.Q _ _ ] ] o.+.+.o.[ X.X.X.X.4.+.X.o.q.@.~ ~ ~ ~ g.:.0.0.0.0.0.2.2.=.] / ~ ~ ~ ~ ! ~ ~ o.o.=.=.=.1.2.0.2.2.0.0.0.0.0.0.0.0.0.0.0.0.0.0.",
"0.0.0.0.0.0.0.0.0.0.0.0.0.2.0.0.2.1.1.u.u.u.0.u.-.-./ / / / / ] X.=.1.1.2.2.4.2.0.2.1.0.0.0.0.y.! X.1.1./ o.o.o.o.=.0.Q X.o.o.+.+.+.X.X./ q.q.q.g.@.>.>.1.1.1.1.1.>.1.>.>.>.>.>.1.>.1.1.>.1.1.1.1.>.>.1.1.1.1.1.1.1.1.1.1.1.1.1.1.1.1.1.1.1.1.1.1.1.1.1.1.1.1.1.1.1.1.1.1.1.1.1.1.1.1.1.1.1.1.1.1.1.1.1.1.1.1.1.1.1.1.1.1.1.1.1.1.>.>.1.1.1.2.1.2.2.1.1.1.>.>.>.>.:.1.1.1.@.0.Q _ _ ] ] o.o.+.[ [ X.X.X.X.4.+.X.] 1.@.~ ~ ~ ~ j.:.0.0.0.0.2.2.2.=.] / ~ ~ ~ ! ! ! ! o.o.=.=.=.1.2.0.2.2.0.0.0.0.0.0.0.0.0.0.0.0.0.0.",
"0.0.0.0.0.0.0.0.0.0.0.0.0.2.0.0.8.1.1.u.u.u.0.u.-.-./ / / / / ] o.=.1.1.2.2.0.2.0.2.1.0.0.0.0.y.! X.1.1.~ o.+.+.o.=.0.Q X.o.o.o.X.X.X.X./ q.q.q.g.=.>.>.>.1.1.1.1.1.1.2.1.1.>.>.1.1.>.>.>.1.1.1.1.1.1.1.1.1.1.1.1.1.1.1.1.1.1.1.1.1.1.1.1.1.1.1.1.1.1.1.1.1.1.1.1.1.1.1.1.1.1.1.1.1.1.1.1.1.1.1.1.1.1.1.1.1.1.1.1.1.1.1.1.1.1.1.>.>.>.>.1.1.1.1.>.1.1.1.1.1.>.>.>.:.1.1.1.=.0.~ / / ] ] o.+.+.o.[ X.X.X.X.1.+.X.] 9.@.~ ~ ~ ~ j.:.0.0.0.0.0.2.2.=.] / ~ ~ ~ ! ! ~ ~ o.o.:.=.=.1.2.0.2.2.0.0.0.0.0.0.0.0.0.0.0.0.0.0.",
"0.0.0.0.0.0.0.0.0.0.0.0.0.2.0.0.8.2.1.u.u.u.q.y.%.%./ / / / / ] o.=.1.1.2.2.0.2.0.2.1.0.0.0.0.y.! X.1.1.! o.o.+.o.=.0.Q ] o.o.o.X.X.X.X./ q.q.q.g.=.1.>.>.1.1.1.2.>.1.2.1.1.>.>.1.>.1.1.1.1.1.1.1.1.1.1.1.1.1.1.1.1.1.1.1.1.1.1.1.1.1.1.1.1.1.1.1.1.1.1.1.1.1.1.1.1.1.1.1.1.1.1.1.1.1.1.1.1.1.1.1.1.1.1.1.1.1.1.1.1.1.1.1.1.1.1.1.1.1.>.1.1.>.1.1.1.1.1.1.1.>.>.>.:.1.1.1.=.0.~ / / X.X.o.+.+.o.[ X.X.X.X.1.+.X.] 1.@.~ ~ ~ ~ j.:.0.0.0.0.0.2.2.=.] / ~ ~ ~ ! ! ~ ~ o.o.:.=.=.1.2.0.2.2.0.0.0.0.0.0.0.0.0.0.0.0.0.0.",
"0.0.0.0.0.0.0.0.0.0.0.0.0.2.0.0.8.1.1.u.u.u.q.y.%.%./ / / / / ] o.=.1.1.2.2.0.2.0.8.1.0.0.0.0.y.! X.1.1.! X.+.+.o.=.0.Q ] o.o.+.+.o.X.X./ q.q.q.g.=.>.>.>.1.1.1.1.1.1.2.>.>.1.1.1.1.>.1.1.1.1.1.1.1.1.1.1.1.1.1.1.1.1.1.1.1.1.1.1.1.1.1.1.1.1.1.1.1.1.1.1.1.1.1.1.1.1.1.1.1.1.1.1.1.1.1.1.1.1.1.1.1.1.1.1.1.1.1.1.1.1.1.1.>.>.1.1.1.1.1.1.1.2.2.1.>.>.>.1.1.1.1.>.:.1.1.1.=.0.~ / / ] ] o.+.+.o.[ X.X.X.X.1.+.X.] 9.@.~ ~ ~ ~ j.:.0.0.0.0.2.2.2.=.] / ~ / / ! ~ ! ! o.o.=.=.=.1.2.0.2.2.0.0.0.0.0.0.0.0.0.0.0.0.0.0.",
"0.0.0.0.0.0.0.0.0.0.0.0.0.2.0.0.2.1.1.u.u.u.0.y.%.%./ / / / / ] o.#.1.1.0.0.2.8.0.8.7.0.0.0.0.y.! X.1.1.! X.+.+.o.=.0.Q ] o.o.o.o.X.X.X./ q.q.q.g.=.>.>.>.1.1.1.1.1.1.1.>.>.1.1.1.2.1.1.1.>.>.>.>.1.1.1.1.1.1.1.1.1.1.1.1.1.1.1.1.1.1.1.1.1.1.1.1.1.1.1.1.1.1.1.1.1.1.1.1.1.1.1.1.1.1.1.1.1.1.1.1.1.1.1.1.1.1.1.1.1.1.1.1.1.>.1.1.1.1.1.1.1.2.2.>.1.1.1.1.1.1.1.>.:.1.1.1.=.0.~ / ` ] ] o.+.+.o.[ X.X.X.X.7.+.X.) 1.@.~ ~ ~ ~ j.:.0.0.0.0.0.2.2.=.] / ~ ~ ~ / ~ ~ ~ o.o.=.=.=.1.2.0.2.2.0.0.0.0.0.0.0.0.0.0.0.0.0.0.",
"0.0.0.0.0.0.0.0.0.0.0.0.0.2.0.0.2.1.1.u.u.u.0.y.%.%./ / / / / ] o.=.>.>.2.2.0.8.0.2.7.0.0.0.0.y.! X.1.1.! o.o.+.o.=.0.Q X.o.o.o.o.o.o.X./ q.q.q.g.=.1.1.>.>.>.1.>.1.1.>.2.2.1.1.1.1.1.2.1.1.1.1.1.1.1.1.1.1.1.1.1.1.1.1.1.1.1.1.1.1.1.1.1.1.1.1.1.1.1.1.1.1.1.1.1.1.1.1.1.1.1.1.1.1.1.1.1.1.1.1.1.1.1.1.1.1.1.1.1.1.1.1.1.1.>.1.1.1.1.1.>.>.>.1.>.1.1.2.1.>.1.1.:.1.1.1.1.=.q.! ` ` ] ] o.+.+.o.X.] ] ] ] 4.+.X.] 9.@.~ ~ ~ ~ j.:.0.0.0.0.0.2.2.=.] / ~ ~ ~ ! ~ ~ ~ o.o.=.=.=.7.2.0.8.8.0.0.0.0.0.0.0.0.0.0.0.0.0.0.",
"0.0.0.0.0.0.0.0.0.0.0.0.0.2.0.0.2.1.1.u.u.u.0.y.%.%./ / / / / ] o.=.>.>.2.2.0.8.0.8.7.0.0.0.0.y.! X.1.1.! o.o.+.o.=.0.Q X.o.o.+.o.o.o.X./ q.q.q.g.=.>.>.:.>.1.1.1.>.1.>.2.2.1.1.1.2.1.1.1.1.1.1.1.>.1.1.1.1.1.1.1.1.1.1.1.1.1.1.1.1.1.1.1.1.1.1.1.1.1.1.1.1.1.1.1.1.1.1.1.1.1.1.1.1.1.1.1.1.1.1.1.1.1.1.1.1.1.1.1.1.1.1.1.1.1.1.1.1.1.1.1.1.1.1.1.>.2.2.>.>.:.:.1.1.1.1.1.=.0.! / / ] ] o.+.o.+.X.X.X.X.X.2.+.X.) 1.@.~ ~ ~ ~ j.:.0.0.0.0.0.2.2.=.] / ~ ~ ~ ! ~ ~ ~ o.o.=.=.=.7.2.0.8.8.0.0.0.0.0.0.0.0.0.0.0.0.0.0.",
"0.0.0.0.0.0.0.0.0.0.0.0.0.2.0.0.2.1.1.u.u.u.0.y.o.o./ / / / / ] o.=.1.1.0.0.2.2.0.2.1.0.0.0.0.y.! X.2.1.! o.o.o.o.=.0.Q X.o.o.o.+.+.o.X./ q.q.q.g.@.>.>.:.>.1.1.>.1.>.1.2.2.>.>.1.1.>.1.1.1.1.1.1.>.1.1.1.1.1.1.1.1.1.1.1.1.1.1.1.1.1.1.1.1.1.1.1.1.1.1.1.1.1.1.1.1.1.1.1.1.1.1.1.1.1.1.1.1.1.1.1.1.1.1.1.1.1.1.1.1.1.1.1.1.1.1.1.1.1.1.1.1.1.1.>.2.2.1.>.:.>.>.>.>.1.1.1.=.0.! / / X.X.o.+.o.o.X.X.X.X.X.2.+.X._ 9.@.~ ~ ~ ~ j.:.0.0.0.0.0.2.2.=.] / ~ ~ ~ ~ ~ ~ ~ o.o.=.=.=.7.2.0.8.8.0.0.0.0.0.0.0.0.0.0.0.0.0.0.",
"0.0.0.0.0.0.0.0.0.0.0.0.0.2.0.0.2.1.1.u.u.u.q.y.%.=./ / / / / ] o.=.1.1.8.2.0.2.0.1.1.0.0.0.0.y.! X.1.1.! o.o.o.o.=.0.Q o.o.o.o.+.+.o.X./ q.q.q.h.@.1.1.:.:.>.>.>.1.>.>.1.1.1.1.>.>.>.>.2.2.1.1.1.>.1.1.1.1.1.1.1.1.1.1.1.1.1.1.1.1.1.1.1.1.1.1.1.1.1.1.1.1.1.1.1.1.1.1.1.1.1.1.1.1.1.1.1.1.1.1.1.1.1.1.1.1.1.1.1.1.1.1.1.1.1.1.1.>.>.1.1.1.1.2.1.1.2.1.>.:.>.>.>.>.1.1.1.=.0.~ / / X.X.o.+.o.+.X.] ] ] ] 2.+.X.) 1.@.~ ~ ~ ~ j.:.0.0.0.0.2.2.2.=.] / ~ ~ ~ ! ~ ! ! o.o.=.=.=.7.2.0.8.8.0.0.0.0.0.0.0.0.0.0.0.0.0.0.",
"0.0.0.0.0.0.0.0.0.0.0.0.0.2.0.0.2.1.1.u.u.u.0.y.%.%./ / / / / ] o.=.1.1.2.2.0.2.0.1.1.0.0.0.0.q.! X.1.1.! o.o.o.o.=.0.Q X.o.o.o.+.+.X.X./ q.q.q.h.=.1.>.>.>.>.>.>.1.1.1.>.>.>.>.1.1.1.>.1.1.1.1.1.1.1.1.1.1.1.1.1.1.1.1.1.1.1.1.1.1.1.1.1.1.1.1.1.1.1.1.1.1.1.1.1.1.1.1.1.1.1.1.1.1.1.1.1.1.1.1.1.1.1.1.1.1.1.1.1.1.1.1.1.1.1.1.1.>.>.1.>.>.1.1.1.1.1.1.>.:.:.:.:.>.>.1.1.=.0.W / / X.X.o.o.o.+.X.] ] ] ] 1.o.] ] 1.@.! ! ! ! j.:.0.0.0.0.0.2.2.=.] / ~ ~ ~ ! ~ ~ ~ o.o.=.=.=.1.2.4.2.2.0.0.0.0.0.0.0.0.0.0.0.0.0.0.",
"0.0.0.0.0.0.0.0.0.0.0.0.0.8.0.0.8.7.1.u.u.u.q.y.#.#./ / / / / ] o.=.1.1.2.2.0.2.0.1.1.0.0.0.0.y.! o.1.-.! o.o.o.o.=.0.Q X.o.o.o.o.+.X.X./ q.q.q.h.:.1.>.>.1.1.1.1.1.1.1.>.>.>.>.1.1.1.1.1.1.1.1.1.1.1.1.1.1.1.1.1.1.1.1.1.1.1.1.1.1.1.1.1.1.1.1.1.1.1.1.1.1.1.1.1.1.1.1.1.1.1.1.1.1.1.1.1.1.1.1.1.1.1.1.1.1.1.1.1.1.1.1.1.1.1.1.1.1.1.1.1.1.1.1.1.1.1.1.>.:.>.>.>.:.1.1.1.=.0.W _ _ ] ] o.o.o.X.] X.X.X.X.1.o.] ` 1.@.! ! ! ~ j.:.0.0.0.0.0.2.2.=.] / ~ ~ ~ ! ~ ~ ~ o.o.=.=.=.1.2.0.2.2.0.0.0.0.0.0.0.0.0.0.0.0.0.0.",
"0.0.0.0.0.0.0.0.0.0.0.0.0.8.0.0.2.7.1.u.u.u.q.y.o.#./ / / / / ] o.:.>.1.2.2.4.2.0.1.1.0.0.0.0.y.! o.1.-.! o.o.o.o.:.0.Q X.+.+.o.+.+.o.X./ q.q.q.h.:.1.1.>.1.1.1.1.1.2.1.2.2.1.1.>.1.1.1.1.1.1.1.1.1.1.1.1.1.1.1.1.1.1.1.1.1.1.1.1.1.1.1.1.1.1.1.1.1.1.1.1.1.1.1.1.1.1.1.1.1.1.1.1.1.1.1.1.1.1.1.1.1.1.1.1.1.1.1.1.1.1.1.1.1.1.>.1.1.1.1.1.1.1.2.1.>.1.1.>.:.>.>.>.1.1.1.1.=.0.W _ _ ] ] o.+.+.X.] X.X.X.X.1.+.] ` 1.@.! ~ ~ ~ j.:.0.0.0.0.2.2.2.=.] / / / / ! ~ ! ~ o.o.=.=.=.1.2.0.2.2.0.0.0.0.0.0.0.0.0.0.0.0.0.0.",
"0.0.0.0.0.0.0.0.0.0.0.0.0.8.0.0.2.7.1.u.u.u.q.y.o.o./ / / / / ] o.=.1.1.0.4.2.2.0.1.1.0.0.0.0.y.! o.1.-.~ o.o.o.o.:.0.Q X.o.o.+.+.+.X.X./ q.q.q.h.:.1.1.>.1.1.1.2.2.1.2.2.1.>.>.1.1.1.1.>.>.>.>.1.1.1.1.1.1.1.1.1.1.1.1.1.1.1.1.1.1.1.1.1.1.1.1.1.1.1.1.1.1.1.1.1.1.1.1.1.1.1.1.1.1.1.1.1.1.1.1.1.1.1.1.1.1.1.1.1.>.>.1.>.1.1.1.1.1.1.1.>.>.1.1.>.1.1.1.1.:.>.>.1.1.1.1.1.=.0.W ] ] ] ] o.+.+.X.] X.X.X.X.1.o.] ` 1.@.! ~ ~ ~ j.:.0.0.0.0.0.2.2.=.] / ~ ~ ~ / ~ ~ ~ o.o.=.=.=.1.2.0.2.2.0.0.0.0.0.0.0.0.0.0.0.0.0.0.",
"0.0.0.0.0.0.0.0.0.0.0.0.0.2.0.0.2.7.1.u.u.u.q.y.%.%./ / / / / ] o.=.1.1.2.2.0.2.0.7.1.0.0.0.0.y.! o.2.1.~ o.o.o.o.:.0.Q ] o.o.o.X.X.X.X./ q.q.q.g.@.>.>.1.1.>.>.1.1.1.1.2.2.2.1.1.1.1.1.1.1.1.1.1.1.1.1.1.1.1.1.1.1.1.1.1.1.1.1.1.1.1.1.1.1.1.1.1.1.1.1.1.1.1.1.1.1.1.1.1.1.1.1.1.1.1.1.1.1.1.1.1.1.1.1.1.1.1.1.1.1.1.1.1.1.1.1.1.>.1.1.>.>.1.1.1.1.1.1.1.1.1.1.:.1.1.1.1.=.0.W _ _ ] ] o.+.+.X.] X.X.X.] 1.o.] ] 4.@.! ~ ! ! g.:.0.0.0.0.0.2.2.=.] / ~ ~ ~ ! ! ~ ~ o.o.1.=.=.7.2.0.8.8.0.0.0.0.0.0.0.0.0.0.0.0.0.0.",
"0.0.0.0.0.0.0.0.0.0.0.0.0.2.0.0.2.1.1.u.u.u.q.y.%.%./ / / / / ] o.=.1.1.2.2.0.2.0.7.1.0.0.0.0.y.! o.1.1.~ +.o.o.o.1.0.Q ] o.o.o.X.X.X.X./ q.q.q.g.@.>.>.1.>.1.1.1.1.1.1.2.2.1.1.1.1.1.1.1.1.1.1.1.1.1.1.1.1.1.1.1.1.1.1.1.1.1.1.1.1.2.2.1.1.1.1.1.1.1.1.1.1.1.1.1.1.1.1.1.1.1.1.1.1.1.1.1.1.1.1.1.1.1.1.1.1.1.1.1.1.1.1.1.1.1.1.1.1.1.1.1.1.1.1.>.>.>.>.1.1.1.1.>.>.>.>.1.=.0.W _ _ ] ] o.+.+.o.[ X.X.X.] 1.+.X.] 1.@.! ~ ! ! j.:.0.0.0.0.0.2.2.=.] / ~ ~ / ! ! ~ ~ o.X.=.=.=.7.2.0.8.8.0.0.0.0.0.0.0.0.0.0.0.0.0.0.",
"0.0.0.0.0.0.0.0.0.0.0.0.0.2.0.0.4.1.1.u.u.u.0.y.%.%./ / / / / ] o.=.1.1.0.0.2.2.0.7.1.0.0.0.0.y.! o.1.1.! o.+.o.o.1.0.Q ] o.o.o.X.o.X.] / q.q.q.h.@.>.1.1.1.1.1.1.>.1.1.1.1.>.>.>.1.1.1.1.1.1.1.1.1.1.1.1.1.1.1.1.1.1.>.1.1.1.1.1.1.1.1.1.1.1.1.1.1.1.1.1.1.1.1.1.1.1.1.1.1.1.1.1.1.1.1.1.1.1.1.1.1.1.1.1.1.1.1.1.1.1.1.1.1.1.1.1.1.1.>.1.1.1.1.1.1.1.1.>.1.>.>.>.>.>.>.>.=.0.W ] ] ] ] o.+.+.o.[ X.X.X.X.1.@.X.] 1.@.! ! ! ! y.1.0.0.0.0.0.2.2.=.] / ~ ~ ~ ~ ~ ~ ~ o.X.=.=.=.7.2.0.8.8.0.0.0.0.0.0.0.0.0.0.0.0.0.0.",
"0.0.0.0.0.0.0.0.0.0.0.0.0.2.0.0.2.1.1.u.u.u.q.w.%.%./ / / / / ] X.=.1.1.2.2.0.2.0.1.1.0.0.0.0.y.! o.1.1.~ o.o.o.o.1.0.Q X.o.o.+.+.+.X.X./ q.q.q.h.=.>.1.1.1.>.>.1.>.1.>.>.>.>.>.>.1.>.1.1.>.1.1.>.1.1.1.1.1.1.1.1.1.1.1.1.1.1.1.1.1.1.1.1.1.1.1.1.1.1.1.1.1.1.1.1.1.1.1.1.1.1.1.1.1.1.1.1.1.1.1.1.1.1.1.1.1.1.1.1.1.1.1.1.1.1.1.>.1.1.1.>.>.1.1.1.1.1.1.1.1.1.>.=.>.:.:.:.=.0.W _ _ ] ] o.+.+.o.[ X.X.X.X.1.@.X.] 1.@.! ! ! ! u.1.0.0.0.0.2.2.2.=.] / ~ ~ ~ ! ~ ! ! o.o.=.=.=.7.2.0.8.8.0.0.0.0.0.0.0.0.0.0.0.0.0.0.",
"0.0.0.0.0.0.0.0.0.0.0.0.0.2.0.0.2.1.1.u.u.u.q.q.#.#./ / / / / ] o.=.>.>.8.8.4.2.0.1.1.0.0.0.0.q.! o.1.1.~ o.o.o.o.>.0.Q X.o.o.+.+.+.o.X./ q.q.q.h.=.1.1.1.1.1.1.1.1.1.1.1.1.1.1.1.1.1.1.1.1.1.1.1.1.1.1.1.1.1.2.2.2.2.2.2.2.2.2.2.2.2.2.2.2.2.2.2.2.1.1.1.1.1.1.1.1.1.1.1.2.2.2.2.2.2.2.2.2.2.2.2.2.2.1.2.1.2.1.1.1.1.1.1.1.1.1.1.1.1.1.2.2.1.1.1.1.1.1.1.1.1.1.1.1.>.>.1.:.y.W _ _ ] ] o.+.+.o.[ X.X.X.X.1.+.] ] 1.@.! ! ! ~ u.2.0.0.0.0.0.2.2.=.] / ~ ~ ~ ~ ~ ~ ~ o.X.=.=.=.1.2.4.2.2.0.0.0.0.0.0.0.0.0.0.0.0.0.0.",
"0.0.0.0.0.0.0.0.0.0.0.0.0.2.0.0.2.1.1.u.u.u.0.q.#.#./ / / / / ] o.=.1.1.8.8.4.2.0.1.1.0.0.0.0.q.! X.1.1.~ o.o.o.+.>.0.Q X.o.o.+.o.o.+.o./ u.u.u.q./ / / / / / / / / / / / / / / / / / / / / / / / / / / / / / ! ! ! ! Q Q Q Q Q Q Q Q Q Q Q Q Q Q Q Q Q Q Q Q Q Q Q Q Q Q W W W W W W W W W W W W W W W W W W W W W W W W W W W W W W W I I I I I I I I I I I I I I I I I I ] W ] ] +.+.+.o.+.o.] X.X.X.X.1.+.X.) 1.@.~ ! ! ~ u.1.0.0.0.0.0.2.2.=.] / ~ ~ ~ ~ ~ ~ ~ o.X.=.=.=.1.2.0.2.2.0.0.0.0.0.0.0.0.0.0.0.0.0.0.",
"0.0.0.0.0.0.0.0.0.0.0.0.0.2.0.0.2.1.1.u.u.u.q.w.%.%./ / / / / ] o.=.1.1.2.2.0.2.0.1.1.0.0.0.0.q.! o.1.1.! o.o.o.o.:.0.Q X.o.o.+.o.o.@.o.` %.%.%.V J F F F A F F F F F F F A F F F F F F F F F F F F F F F F J J J J J J J J J J J J J J J J J J J J J J J J J J J J J J J J J J J J J J J J J J J J J J J J J J J J J J J J J J J J J L L L L L L L L L L L L L J J L L L L P W X.X.@.@.+.o.o.@.X.X.X.X.X.1.+.X./ 1.@.! ! ! ! u.1.0.0.0.0.2.2.2.=.] / ~ ~ ~ ! ~ ! ! o.] =.=.=.1.2.0.2.2.0.0.0.0.0.0.0.0.0.0.0.0.0.0.",
"0.0.0.0.0.0.0.0.0.0.0.0.0.2.0.0.2.1.1.u.u.u.0.q.o.o./ / / / / ] o.=.1.1.0.0.2.2.0.1.1.0.0.0.0.q.~ o.1.1.~ o.o.o.o.:.0.Q X.o.o.o.o.o.+.o.o.Q Q Q Q Q Q Q Q Q Q Q Q Q Q Q Q Q Q Q Q Q Q Q Q Q Q Q Q Q Q Q Q Q ! ! ! ! Q ! ! ! ! ! ! ! ! ! ! ~ ~ ~ ~ ~ ~ ~ ~ ~ ~ ~ ~ ~ ~ ~ ~ / ~ ~ ~ ~ ~ ~ ~ ~ ~ / / / / / / / / / / / / / / / / / / / / / / / / / / / / / / / / / / / / / / / / / o.o.@.@.+.o.o.@.] X.X.X.X.1.+.X./ 1.@.! ! ! ! u.1.0.0.0.0.0.2.2.=.] / ~ ~ ~ ~ ! ~ ~ o.] =.=.=.1.2.0.2.2.0.0.0.0.0.0.0.0.0.0.0.0.0.0.",
"0.0.0.0.0.0.0.0.0.0.0.0.0.2.0.0.2.1.1.t.u.u.q.y.%.%./ / / / / ] o.=.1.1.2.2.0.2.0.7.1.0.0.0.0.r.! o.1.1.! o.o.o.o.:.1.W ] o.o.o.o.o.+.o.o.X.X.X.] ] ] ] ] ] ] ] ] ] ] ] X.X.X.X.] X.X.] ] X.X.X.X.X.X.X.] X.X.X.X.X.X.X.X.X.X.X.X.X.X.X.X.X.X.X.X.X.X.X.X.X.X.X.X.X.X.X.X.X.X.X.X.X.X.X.X.X.X.X.X.X.X.X.X.X.X.X.X.X.X.X.X.X.X.X.X.X.X.X.X.X.X.X.X.X.X.X.X.X.X.X.X.X.X.X.X.X.X.o.o.o.@.@.+.o.o.+.] X.X.X.X.1.+.X./ 1.@.! ! ! ! u.1.0.0.0.0.0.2.2.=.] / ~ / / ! ~ ~ ~ o.X.=.=.=.1.2.0.2.2.0.0.0.0.0.0.0.0.0.0.0.0.0.0.",
"0.0.0.0.0.0.0.0.0.0.0.0.0.2.0.0.2.1.1.u.u.u.0.y.%.%./ / / / / ] o.=.1.1.2.2.0.2.0.1.1.0.0.0.0.r.! o.1.1.~ o.+.+.o.:.1.W ] o.o.o.o.o.@.+.+.o.o.o.o.o.o.o.X.o.o.o.o.o.o.X.+.o.+.o.o.o.o.o.o.o.o.o.o.o.o.o.o.o.o.o.o.o.o.o.o.o.o.o.o.o.o.o.+.o.o.o.o.o.o.o.o.o.o.o.o.o.o.o.o.o.o.o.o.o.+.o.o.o.o.o.o.o.o.o.o.o.o.o.o.o.o.o.o.o.o.o.o.o.o.o.o.o.o.o.o.o.o.o.o.o.X.o.X.o.o.o.o.o.+.+.+.+.+.+.+.o.+.o.] ] ] ] ] 1.o.] / 1.@.! ! ! ! u.1.0.0.0.0.0.2.2.=.] / ~ / / ! ~ ~ ~ o.X.=.=.=.1.2.0.2.2.0.0.0.0.0.0.0.0.0.0.0.0.0.0.",
"0.0.0.0.0.0.0.0.0.0.0.0.0.2.0.0.2.1.1.u.u.u.0.y.%.%./ / / / / ] o.@.1.1.0.4.2.2.0.1.1.0.0.0.0.r.! o.1.1.~ o.+.+.o.:.1.W / o.o.o.o.o.+.+.o.o.o.o.+.+.+.+.+.+.+.+.+.+.+.+.+.+.@.@.+.+.+.o.+.+.+.+.+.o.o.o.+.@.o.o.o.o.o.+.+.+.o.+.+.o.+.@.+.+.o.o.o.o.+.o.+.+.+.o.+.+.+.+.o.+.+.+.+.+.+.+.o.+.+.+.+.+.+.o.o.o.+.o.+.o.o.o.o.o.o.o.o.o.o.o.+.+.o.o.+.o.o.o.+.o.o.o.o.o.+.+.+.o.+.o.o.o.o.o.+.o.o.X.] / / / / 2.+.X./ 1.@.! ! ! ~ u.1.0.0.0.0.0.2.2.=.] / ~ ~ ~ / ~ ~ ~ o.X.=.=.=.1.2.0.2.2.0.0.0.0.0.0.0.0.0.0.0.0.0.0.",
"0.0.0.0.0.0.0.0.0.0.0.0.0.2.0.0.2.1.1.i.i.i.0.y.%.%./ / / / / ] X.=.1.1.2.2.4.2.0.1.1.0.0.0.0.0.! o.1.1.~ o.o.o.o.:.1.W / _ _ X.] ] X.+.+.+.+.+.+.+.+.+.+.+.+.+.+.+.+.+.+.+.@.@.+.+.+.+.o.o.o.o.o.+.+.+.o.o.+.+.+.+.+.+.+.+.o.+.+.o.@.@.+.+.o.+.+.+.+.+.@.@.o.+.+.+.+.+.+.+.+.+.+.+.o.+.o.@.+.+.+.+.+.+.+.o.+.+.+.+.+.+.+.+.+.+.+.+.+.+.+.+.+.+.+.+.+.+.+.+.+.+.+.+.@.+.+.o.+.+.+.+.+.+.o.X.X./ / / / / / 1.#.X.) 1.@.! ! ! ! u.1.0.0.0.0.2.2.2.=.] / ~ / / ! ~ ! ~ o.X.=.=.=.1.2.0.2.2.0.0.0.0.0.0.0.0.0.0.0.0.0.0.",
"0.0.0.0.0.0.0.0.0.0.0.0.0.2.0.0.2.1.1.i.i.i.0.y.%.%./ / / / / ] o.=.1.1.8.8.4.2.0.1.1.0.0.0.0.r.~ o.1.1.~ o.o.o.o.:.1.W ~ _ _ / / / X.X.o.o.o.o.o.o.o.o.+.o.o.+.o.o.o.o.o.+.o.o.o.o.o.o.o.o.o.o.o.o.o.o.o.o.o.o.o.o.o.+.o.o.o.o.o.o.o.o.o.o.o.o.o.+.o.o.o.o.o.+.o.o.o.o.o.+.+.o.o.o.o.o.o.o.o.o.o.o.o.o.o.X.o.o.o.o.o.o.o.o.o.o.X.X.o.X.o.o.o.o.o.o.o.o.X.X.X.X.o.o.o.X.X.X.X.X.o.o.X.X.] / / / ~ / / / / 1.+.X./ 1.@.! ! ! ! u.1.0.0.0.0.4.2.2.=.] / ~ ~ ~ ! ! ~ ~ o.X.:.=.=.1.8.4.8.8.0.0.0.0.0.0.0.0.0.0.0.0.0.0.",
"0.0.0.0.0.0.0.0.0.0.0.0.0.8.0.0.8.7.1.i.i.i.0.y.%.%./ / / / / ] o.=.1.1.8.8.4.2.0.1.1.0.0.0.0.0.Q o.1.1.~ o.o.o.o.:.=.I ! / / ~ / / / _ ] X.X.X.X.X.X.X.X.X.X.X.X.X.X.X.X.X.X.X.X.X.X.X.X.X.X.X.X.X.X.X.X.X.X.X.X.X.X.X.X.X.X.X.X.X.X.X.X.X.X.X.X.X.X.X.X.X.X.X.X.X.X.X.X.X.X.X.X.X.X.X.X.X.X.X.X.X.X.X.X.X.X.X.X.X.X.X.X.X.X.X.X.X.X.X.X.X.X.X.X.X.X.X.X.X.X.X.o.o.o.o.X.X.X.X.X.X.X.X./ / / ~ ~ ~ ! ! ! >.+.o./ 1.@.! ! ! ! u.1.0.0.0.0.4.2.2.=.] / ~ ~ ~ ~ ~ ~ ~ o.X.=.=.=.7.2.0.8.8.0.0.0.0.0.0.0.0.0.0.0.0.0.0.",
"0.0.0.0.0.0.0.0.0.0.0.0.0.8.0.0.2.7.1.i.i.i.0.q.o.o./ / / / / ] o.=.1.1.2.2.0.2.0.1.1.0.0.0.0.q.! o.1.1.~ o.o.o.o.1.o.J R W W W Q W Q ! Q ~ ~ ~ / ~ ~ ~ ~ ~ / / ~ ~ ~ ~ ~ ~ ~ ~ ~ ~ ~ / / / / / / / / / ~ ~ ~ ~ ~ ~ ~ ~ ~ ~ ~ ~ ~ ~ ~ ~ ~ ~ ~ ~ ~ ~ ~ ~ ~ ~ ~ ~ ~ ~ ~ ~ ~ ! ~ ! ! ! ! ! ! ! ! ! ~ ~ ! ! Q Q Q Q ^ ! ! ! ! ~ ~ ! ! ! ! ~ Q Q Q Q Q Q Q Q Q Q Q Q Q Q Q Q Q Q Q Q W W W W W W R I I W R R R >.#.] ) 1.@.! ! ! ! u.1.0.0.0.0.2.2.2.=.] / ~ ~ ~ ! ~ ! ! o.o.=.=.=.7.2.0.8.8.0.0.0.0.0.0.0.0.0.0.0.0.0.0.",
"0.0.0.0.0.0.0.0.0.0.0.0.0.8.0.0.2.7.1.i.i.i.0.q.o.o./ / / / / ] o.=.1.1.0.0.2.2.0.1.1.0.0.0.0.0.~ o.2.-.! o.o.o.o.:.y./ ` [ [ ] [ [ $.$.q.q.q.q.q.q.y.y.y.y.y.y.y.y.y.y.y.y.y.y.y.y.y.4.4.4.4.4.4.4.4.4.q.u.u.u.u.u.u.u.u.u.u.u.u.u.u.u.u.u.u.u.u.u.u.y.0.0.q.q.q.q.q.q.y.f.a.p.p.p.p.p.p.a.a.f.a.a.f.f.f.f.f.f.f.p.p.p.p.y.y.y.y.y.y.y.a.a.g.g.g.g.g.g.g.g.g.g.h.h.h.h.h.h.h.h.g.g.h.h.y.q.q.q.9.u.u.u.u.y.o.] ) 1.@.! ! ! ! u.1.0.0.0.0.0.2.2.=.] / ~ ~ ~ ~ ~ ~ ~ o.X.=.=.=.7.2.0.8.8.0.0.0.0.0.0.0.0.0.0.0.0.0.0.",
"0.0.0.0.0.0.0.0.0.0.0.0.0.2.0.0.1.7.1.i.i.i.0.q.o.o./ / / / / ] o.=.1.1.2.2.0.2.0.1.1.0.0.0.0.0.~ o.1.=.! o.o.o.o.=.0.2.1.1.1.1.1.2.2.0.r.y.y.y.t.t.y.y.t.t.t.t.t.t.t.t.r.r.r.r.y.y.y.y.y.y.y.y.y.y.y.y.y.y.y.y.y.y.y.y.y.y.y.y.y.y.y.y.y.y.y.y.y.y.y.y.y.y.y.y.y.y.y.y.y.y.y.y.y.y.y.y.y.y.y.r.r.r.r.r.r.r.r.r.r.r.r.r.r.y.y.r.r.r.r.r.r.r.r.r.r.r.r.r.r.r.r.r.4.0.0.0.0.0.0.4.2.2.4.4.1.>.:.:.=.:.:.:.:.@.o.] / 1.@.! ! ! ~ u.1.0.0.0.0.4.2.2.=.] / ~ ~ ~ ! ~ ~ ~ o.X.=.=.=.1.2.0.2.2.0.0.0.0.0.0.0.0.0.0.0.0.0.0.",
"0.0.0.0.0.0.0.0.0.0.0.0.0.2.0.0.1.1.1.i.i.i.0.q.o.o./ / / / / ] o.=.1.1.2.2.0.2.0.1.1.0.0.0.0.0.~ o.1.=.! o.o.o.o.#.@.+.o.o.o.o.o.o.+.=.=.:.:.:.=.:.>.>.:.>.:.:.:.>.1.>.>.>.>.>.1.1.1.1.1.1.>.>.1.1.1.1.1.1.1.1.1.1.1.1.1.1.1.1.1.1.1.1.1.1.1.1.1.1.1.1.1.1.1.1.1.1.1.1.1.1.1.1.1.1.1.1.1.1.1.1.1.1.1.1.1.1.1.1.1.1.1.1.1.1.1.1.1.>.>.>.>.>.>.>.1.1.1.1.1.1.1.1.>.>.1.1.1.1.:.>.:.:.:.:.=.=.=.=.=.=.@.=.@.@.=.] 1.1.@.! ! ! ~ u.1.0.0.0.0.4.2.2.=.] / ~ ~ ~ ! ~ ~ ~ o.X.=.=.=.1.2.0.2.2.0.0.0.0.0.0.0.0.0.0.0.0.0.0.",
"0.0.0.0.0.0.0.0.0.0.0.0.0.2.0.0.7.1.1.i.i.i.0.q.o.o./ / / / / ] o.=.1.1.0.0.4.4.0.1.1.0.0.0.0.0.~ X.2.1.! +.o.o.o.+.=.=.=.:.:.:.:.:.:.>.:.:.:.:.>.>.1.1.1.1.>.>.>.1.1.>.>.>.>.>.1.1.1.1.1.1.1.1.1.1.1.1.1.1.1.1.1.1.1.1.1.1.1.1.1.1.1.1.1.1.1.1.1.1.1.1.1.1.1.1.1.1.1.1.1.1.1.1.1.1.1.1.1.1.1.1.1.1.1.1.1.1.1.1.1.1.1.1.1.1.1.1.1.1.1.1.1.1.>.>.1.1.1.1.1.1.1.>.>.>.1.1.1.1.:.:.:.:.:.:.:.:.:.:.=.=.=.=.=.@.=.] q.1.@.! ! ! ~ u.1.0.0.0.0.0.2.2.=.] / ~ ~ ~ / ~ ~ ~ o.] =.=.=.1.2.0.2.2.0.0.0.0.0.0.0.0.0.0.0.0.0.0.",
"0.0.0.0.0.0.0.0.0.0.0.0.0.2.0.0.1.1.1.i.i.i.q.q.o.o./ / / / / ] o.=.1.1.4.4.0.4.0.1.1.0.0.0.0.0.~ o.1.1.~ @.o.o.o.@.=.=.:.=.=.:.=.=.:.:.>.>.>.>.>.>.1.1.1.1.1.1.1.>.>.>.>.>.>.>.1.1.1.1.1.1.1.1.1.1.1.1.1.1.1.1.1.1.1.1.1.1.1.1.1.1.1.1.1.1.1.1.1.1.1.1.1.1.1.1.1.1.1.1.1.1.1.1.1.1.1.1.1.1.1.1.1.1.1.1.1.1.1.1.1.1.1.1.1.1.1.1.1.1.1.1.1.1.1.>.>.1.1.1.>.1.1.>.>.>.1.1.1.1.1.>.:.:.:.:.:.=.:.:.:.=.=.=.=.@.=.] q.=.@.! ! ! ~ u.1.0.0.0.0.2.2.2.=.] / ~ ~ ~ ! ~ ! ! o.X.=.=.=.1.2.0.2.2.0.0.0.0.0.0.0.0.0.0.0.0.0.0.",
"0.0.0.0.0.0.0.0.0.0.0.0.0.2.0.0.1.1.1.i.i.i.0.q.o.o./ / / / / ] o.=.1.1.4.4.2.2.0.1.1.0.0.0.0.0.~ o.8.=.! +.+.+.+.=.=.:.:.:.:.:.=.=.=.=.:.:.:.:.>.:.:.:.1.1.>.>.>.1.1.1.1.1.1.1.1.>.1.1.1.1.1.1.1.1.1.1.1.1.1.1.1.1.1.1.1.1.1.1.1.1.1.1.1.1.1.1.1.1.1.1.1.1.1.1.1.1.1.1.1.1.1.1.1.1.1.1.1.1.1.1.1.1.1.1.1.>.1.1.1.1.1.1.1.1.1.1.1.1.1.1.1.1.>.>.>.>.1.1.1.1.>.>.:.:.:.:.:.:.1.:.=.=.:.:.:.=.:.>.:.@.@.@.=.=.@.X.q.1.@.! ! ! ! u.1.0.0.0.0.0.2.2.=.] / ~ ~ ~ ! ~ ~ ~ o.X.:.=.=.1.8.4.8.8.0.0.0.0.0.0.0.0.0.0.0.0.0.0.",
"0.0.0.0.0.0.0.0.0.0.0.0.0.2.0.0.1.7.1.i.i.i.0.q.o.o./ / / / / ] o.=.1.1.4.4.2.2.0.1.1.r.r.r.r.0.~ o.8.=.! +.+.+.+.=.=.=.:.>.>.:.=.=.:.=.:.1.1.1.>.>.:.1.>.1.1.1.1.>.>.1.>.>.>.>.1.1.1.1.1.1.1.1.1.1.1.1.1.1.2.1.1.1.1.1.1.1.1.1.1.1.1.1.1.1.1.1.1.1.1.1.1.1.1.1.1.1.1.1.1.1.1.1.1.1.1.1.1.1.1.1.1.1.1.1.1.1.1.1.1.1.1.1.1.1.1.1.1.1.1.>.>.1.>.>.1.1.2.2.>.1.>.>.:.1.1.1.1.1.:.:.=.=.:.:.:.=.:.>.:.@.@.@.=.=.@.X.q.=.@.! ! ! ! u.1.0.0.0.0.0.2.2.=.] / ~ ~ ~ ! ~ ~ ~ o.X.1.=.=.7.2.0.8.8.0.0.0.0.0.0.0.0.0.0.0.0.0.0.",
"0.0.0.0.0.0.0.0.0.0.0.0.0.8.0.0.1.7.1.i.i.i.q.q.o.o./ / / / / ] o.=.1.1.2.2.0.2.0.1.1.0.r.0.r.0.~ o.8.1./ o.o.o.o.@.=.=.:.:.:.:.:.:.:.:.:.:.:.:.>.:.>.>.1.1.1.1.1.1.1.1.>.>.1.1.1.2.1.1.1.>.>.>.>.1.1.1.1.1.1.1.1.1.1.1.1.1.1.1.1.1.1.1.1.1.1.1.1.1.1.1.1.1.1.1.1.1.1.1.1.1.1.1.1.1.1.1.1.1.1.1.1.1.1.1.>.1.1.1.1.1.1.1.1.1.1.>.1.>.>.1.1.1.1.1.1.1.1.1.1.1.>.>.>.1.:.:.:.:.=.:.=.=.:.:.:.:.:.>.:.@.=.=.=.=.@./ u.9.+.~ ~ ~ ~ u.1.0.0.0.0.2.2.2.=.] / / / / ! ~ ! ! o.o.=.=.=.7.2.0.8.8.0.0.0.0.0.0.0.0.0.0.0.0.0.0.",
"0.0.0.0.0.0.0.0.0.0.0.0.0.8.0.0.1.7.1.i.i.i.0.q.o.o./ / / / / ] o.=.1.1.0.0.2.2.0.1.1.0.r.r.r.0.~ +.8.=./ +.+.+.+.=.@.@.:.:.:.=.:.:.:.:.:.:.:.:.>.:.1.1.1.1.>.>.>.1.1.1.1.1.1.1.2.2.1.1.1.1.1.1.1.1.1.1.1.1.1.>.1.1.1.1.1.1.1.1.1.1.1.1.1.1.1.1.1.1.1.1.1.1.1.1.1.1.1.1.1.1.1.1.1.1.1.1.1.1.1.1.1.1.1.1.1.1.1.1.1.1.1.1.1.1.1.>.>.1.1.>.1.1.1.1.1.>.1.1.1.>.>.>.>.1.:.:.:.:.:.1.:.:.:.:.:.:.>.>.:.@.=.=.=.=.=.] q.1.o.~ ~ ! ~ u.1.0.0.0.0.0.2.2.=.] / ~ ~ ~ / ~ ~ ~ o.X.=.=.=.7.2.0.8.8.0.0.0.0.0.0.0.0.0.0.0.0.0.0.",
"0.0.0.0.0.0.0.0.0.0.0.0.0.8.0.0.1.7.1.i.i.i.0.q.o.o./ / / / / ] o.=.1.1.2.2.0.2.0.1.1.0.0.0.r.0.~ +.8.%.~ +.+.+.+.@.=.=.:.>.>.>.:.:.=.:.1.1.1.1.1.1.>.>.>.>.1.1.1.1.1.1.1.1.1.1.>.1.1.1.1.1.1.1.1.1.1.1.1.1.1.1.1.1.1.1.1.1.1.1.1.1.1.1.1.1.1.1.1.1.1.1.1.1.1.1.1.1.1.1.1.1.1.1.1.1.1.1.1.1.1.1.1.1.1.1.1.1.1.1.1.1.1.1.1.1.1.1.1.1.1.1.1.1.1.1.1.1.1.1.1.1.:.:.1.:.1.1.1.1.1.:.:.:.:.:.=.:.>.>.:.=.=.=.=.#.=.] q.9.+.~ ~ ~ ~ u.1.0.0.0.0.4.2.2.=.] / ~ ~ ~ ! ! ! ! o.X.=.=.=.1.8.4.8.8.0.0.0.0.0.0.0.0.0.0.0.0.0.0.",
"0.0.0.0.0.0.0.0.0.0.0.0.0.8.0.0.1.7.1.i.i.i.q.q.o.o./ / / / / ] o.=.1.1.2.2.0.2.0.1.1.0.0.0.0.0.~ +.8.#.! @.@.@.@.=.=.=.:.:.:.>.:.:.=.:.:.:.:.:.:.1.1.1.1.>.1.1.1.>.1.>.1.1.1.1.>.1.1.1.1.1.1.1.1.1.1.1.1.1.1.1.1.1.1.1.1.1.1.1.1.1.1.1.1.1.1.1.1.1.1.1.1.1.1.1.1.1.1.1.1.1.1.1.1.1.1.1.1.1.2.1.1.1.1.1.1.1.1.1.1.1.1.1.1.1.>.1.1.1.1.1.>.>.1.1.1.1.1.1.1.1.>.>.>.:.:.:.:.:.>.:.:.:.:.:.=.:.>.:.:.=.=.=.=.=.=.` e.q.+.~ ~ ~ ~ u.1.0.0.0.0.4.2.2.=.] / ~ ~ / ! ! ! ! o.] =.=.=.1.2.0.2.2.0.0.0.0.0.0.0.0.0.0.0.0.0.0.",
"0.0.0.0.0.0.0.0.0.0.0.0.0.8.0.0.1.7.1.i.i.i.0.q.o.o./ / / / / ] o.=.1.1.0.0.2.2.0.1.1.0.0.q.q.0.~ +.8.%./ @.@.@.@.=.=.=.>.>.>.>.>.>.:.=.1.1.1.1.1.:.>.>.:.>.1.1.1.1.>.>.1.1.1.1.1.1.>.1.1.1.1.1.1.1.1.1.1.1.1.1.1.1.1.1.1.1.1.1.1.1.1.1.1.1.1.1.1.1.1.1.1.1.1.2.1.1.1.1.1.1.1.1.1.1.1.1.1.1.1.1.1.1.1.1.1.1.2.1.1.1.1.1.1.1.1.>.1.1.1.1.>.>.>.1.1.1.1.1.1.>.1.1.1.1.>.>.>.:.1.=.=.=.=.=.=.:.>.:.=.=.=.=.:.=.#.` q.8.#.~ ~ ~ ~ u.1.0.0.0.0.0.2.2.=.] / ~ ~ ~ ~ ~ ~ ~ o.] =.=.=.1.2.0.2.2.0.0.0.0.0.0.0.0.0.0.0.0.0.0.",
"0.0.0.0.0.0.0.0.0.0.0.0.0.8.0.0.1.7.1.i.i.i.q.q.o.o./ / ` ` ` ] o.=.1.1.2.2.0.2.0.1.1.0.q.q.q.0.~ +.8.=./ @.@.@.@.=.=.=.:.:.:.:.:.:.=.:.:.:.:.:.:.>.>.>.>.>.1.1.1.1.>.>.1.1.1.1.1.1.1.1.1.1.1.1.1.1.1.1.1.1.1.1.1.1.1.1.1.1.1.1.1.1.1.1.1.1.1.1.1.1.1.1.1.1.1.1.1.1.1.1.1.1.1.1.1.1.1.1.1.1.1.1.1.1.1.1.1.1.1.1.1.1.1.1.1.1.1.1.1.1.1.1.>.>.>.1.1.>.1.>.>.>.>.>.:.:.:.:.:.:.:.:.:.:.=.=.=.=.:.=.=.=.=.=.=.=.@.` e.q.+.! ! ! ! u.1.0.0.0.0.8.2.2.=.] / ~ ~ ~ ! ~ ! ! o.X.=.=.=.1.2.0.2.2.0.0.0.0.0.0.0.0.0.0.0.0.0.0.",
"0.0.0.0.0.0.0.0.0.0.0.0.0.8.0.0.1.7.1.i.i.i.q.q.[ [ / / / / / ] o.=.1.1.2.2.2.2.0.1.1.0.0.r.0.0.~ +.8.=./ @.@.@.@.+.X.X.o.o.o.o.o.o.o.o.o.o.o.o.+.@.@.@.@.@.@.@.@.@.@.@.=.=.=.=.=.=.@.=.=.+.+.+.+.o.o.=.@.@.@.=.=.=.=.=.o.o.+.=.@.=.@.=.=.=.=.=.=.=.=.+.o.o.o.=.#.#.#.+.+.+.+.+.+.+.+.+.+.+.o.o.o.o.o.o.#.+.+.+.+.+.+.+.+.o.o.o.+.o.o.o.X.X.o.o.X.X.X.X.X.X.X.X.X.X.X.X.X.] X.X.X.X.] ] ] ] ] ] _ / / / / X.@.` q.1.#.! ! ! ~ u.1.0.0.0.0.0.2.2.=.] / ~ ~ ~ ~ ~ ~ ~ o.] =.=.=.1.8.0.8.8.0.0.0.0.0.0.0.0.0.0.0.0.0.0.",
"0.0.0.0.0.0.0.0.0.0.0.0.0.8.0.0.1.7.1.i.i.i.q.q.[ [ / / / / / ] o.=.1.1.2.2.2.2.0.1.1.0.q.r.0.0.~ +.8.=./ +.+.+.+.1.U J J J J J J J J J L J J J J J J J J J J J J J J J J J J J F F F F F F F F F J J A F F F A A A A A F J F V V V V V V V V V V V V V F F F V V V V V V V V V V V V V V V V S S S S V V V V V V V V V V V V V V V V V V V V V V V V V V V V V V V V V V B V V B B B B B B B B B L L L L 0.+.` e.0.+.! ! ! ! u.1.0.0.0.0.0.2.2.=.] / ~ ~ ~ ~ ~ ~ ~ o.o.=.=.=.7.8.0.8.8.0.0.0.0.0.0.0.0.0.0.0.0.0.0.",
"0.0.0.0.0.0.0.0.0.0.0.0.0.8.0.0.1.7.1.i.i.i.q.q.[ [ / / / / / ] o.:.1.1.2.2.0.2.0.2.1.0.q.q.0.0./ +.8.=./ @.@.@.@.1.X.J U I I R R R R R R R R R U E U U W W W W W W W W W W W W W W W W W W W W W R R W W W W W W W W W W R W Q Q Q Q Q Q ! ! ! ! ! ! Q W W W Q ! ! ! ! ! ! ! ! ! ! ! ! ! ! Q W W W W Q ! ! ! ! ! ! ! ! ! Q W W ~ ~ ~ ~ ~ ~ ~ ~ ~ ~ ~ ~ ~ ~ ~ ~ ~ ~ ! ! ! Q Q ~ ~ ~ ! ! ! ! ! ! Q  . . .X.t.+./ y.0.#.! ! ! ! u.1.0.0.0.0.2.2.2.=.] / ~ ~ ~ ! ~ ! ~ o.o.=.=.=.7.2.0.8.8.0.0.0.0.0.0.0.0.0.0.0.0.0.0.",
"0.0.0.0.0.0.0.0.0.0.0.0.0.8.0.0.1.7.1.i.i.i.0.q.[ [ / / / / / ] o.=.1.1.0.0.2.2.0.2.1.0.0.0.0.0./ +.8.=./ @.@.@.@.>.=.W _ / / / / / / ] ] ] ] ] _ _ ] ] ] X.] ] ] ] _ _ _ _ ] X._ ] ] ] ] ] ] ] ] / ] X.] ] ] ] ] ] ] ] ] ] _ ] ] ] ] ] ] ] ] ] ] ] ] _ ] ] ] ] ] ] ] ] ] ] ] ] ] ] ] ] ] ] ] ] ] ] ] ] ] ] ] ] ] ] ] ] ] ] _ ] ] ] ] ] ] ] ] _ ] ] ] ] ] ] ] ] ] ] ] ] ] / ] ] ] ] ] ] ] _ / / ~ :.:.:.:.t.+./ e.0.+.! ! ! ! u.1.0.0.0.0.0.2.2.=.] / ~ ~ ~ ~ ! ~ ~ o.o.=.=.=.7.2.0.8.8.0.0.0.0.0.0.0.0.0.0.0.0.0.0.",
"0.0.0.0.0.0.0.0.0.0.0.0.0.8.0.0.1.7.1.i.i.i.0.q.[ [ / / / / / ] o.=.1.1.2.2.0.4.0.1.1.0.q.0.0.0./ +.2.=./ @.@.@.@.>.=.W X.X.X.X.X.X.X.X.X.o.o.o.X.X.o.o.o.o.o.o.o.X.X.o.o.o.X.X.o.o.o.o.o.o.o.o.o.o.o.o.o.o.o.o.o.o.o.o.o.o.o.o.o.o.o.o.o.o.o.o.o.o.o.o.o.o.o.o.o.o.o.o.o.o.o.o.o.o.o.o.o.o.o.o.o.o.o.o.o.o.o.o.o.o.o.o.o.o.o.o.o.o.o.o.o.o.o.o.o.o.o.o.o.o.o.o.o.o.o.o.o.o.o.o.o.o.o.o.+.X.X.X./ =.=.=.=.y.+./ 0.1.o.! ! ! ! u.1.0.0.0.0.4.2.2.=.] / ~ / / ! ~ ~ ~ o.o.1.=.=.7.2.0.8.8.0.0.0.0.0.0.0.0.0.0.0.0.0.0.",
"0.0.0.0.0.0.0.0.0.0.0.0.0.8.0.0.1.7.1.u.u.u.0.q.o.o./ / / / / ] o.=.1.1.2.2.0.4.0.1.1.0.q.q.0.0.~ +.2.=./ @.@.@.@.>.=.Q X.o.o.o.o.o.o.o.o.+.+.+.o.o.+.+.o.o.+.+.+.o.o.o.o.o.o.o.o.o.o.o.o.o.o.o.o.o.o.+.+.+.o.o.o.o.o.o.o.o.o.o.o.o.o.o.o.o.o.o.o.o.o.o.o.o.o.o.o.o.o.o.o.o.o.+.o.o.+.o.o.o.o.o.o.o.o.o.o.o.+.o.o.o.o.o.o.o.o.o.o.o.o.o.o.o.o.o.+.+.+.+.o.o.o.o.o.o.o.o.o.o.o.+.+.+.@.+.+.o.X.X./ ] ] ] ] 2.@./ w.0.o.! ! ! ! j.:.0.0.0.0.4.2.2.=.] / ~ / / ! ~ ~ ~ o.o.=.=.=.7.2.0.8.8.0.0.0.0.0.0.0.0.0.0.0.0.0.0.",
"0.0.0.0.0.0.0.0.0.0.0.0.0.8.0.0.1.7.1.i.i.i.0.q.o.o./ / / / / ] o.=.1.1.0.0.4.4.0.1.1.0.y.y.0.0.! o.2.=.! o.o.o.o.>.=.Q ] o.o.o.o.o.+.+.+.+.+.+.+.+.+.+.+.+.+.+.+.o.o.o.o.o.o.o.o.o.o.o.o.o.o.o.o.o.o.o.o.#.o.o.o.o.o.o.o.o.o.o.o.o.o.o.o.o.o.o.o.o.o.o.+.o.o.o.o.o.o.o.o.o.o.o.o.o.o.o.o.o.o.o.o.o.o.o.+.+.o.o.o.o.o.o.o.o.o.o.o.o.o.o.o.o.o.o.o.o.o.o.o.o.o.o.o.o.o.o.o.o.o.o.o.o.+.+.o.o.o.o.] ` ` ` ` 4.@.` y.q.+.Q Q Q Q j.:.0.0.0.0.0.2.2.=.] / ~ ~ ~ / ~ ~ ~ o.o.=.=.=.7.2.0.8.8.0.0.0.0.0.0.0.0.0.0.0.0.0.0.",
"0.0.0.0.0.0.0.0.0.0.0.0.0.8.0.0.1.7.1.a.a.a.0.q.o.o./ / / / / ] o.:.1.1.2.2.0.2.0.1.1.0.r.r.0.0.! +.2.=.! o.o.o.o.>.$.Q X.o.o.+.o.o.o.o.o.o.+.+.o.o.o.o.o.o.o.o.o.o.o.o.o.o.o.o.o.o.o.o.o.o.o.o.o.o.o.o.o.o.+.o.o.o.o.o.o.o.o.o.o.+.o.o.o.o.o.o.o.o.o.o.+.+.o.o.o.o.o.o.o.o.o.o.o.o.o.+.o.o.o.o.o.o.o.+.o.o.o.o.o.o.o.o.o.+.o.o.o.o.o.o.o.o.o.o.o.o.o.o.o.o.o.o.o.o.o.o.o.o.+.+.+.+.+.+.+.o.+.o.X.` ` ` ` 4.@.` y.0.o.Q Q Q Q j.:.0.0.0.0.2.2.2.=.] / ~ / / ! ~ ! ! o.o.=.=.=.7.2.0.8.8.0.0.0.0.0.0.0.0.0.0.0.0.0.0.",
"0.0.0.0.0.0.0.0.0.0.0.0.0.8.0.0.1.7.1.a.f.f.0.q.o.o./ / / / / ] o.=.1.1.2.2.2.2.0.1.1.0.0.0.0.0./ +.8.=.! o.o.o.o.>.o.! ] o.o.o.o.o.o.+.@.+.@.+.+.+.o.o.o.o.o.o.o.o.o.o.+.+.+.+.o.o.o.o.o.+.+.+.+.+.+.+.+.+.+.+.+.+.+.+.+.+.+.+.+.+.+.+.+.+.+.+.+.+.+.+.+.+.+.+.+.+.+.+.+.+.o.o.o.o.o.+.+.+.+.+.+.+.+.o.o.o.+.+.+.+.+.+.+.+.+.+.+.+.+.+.+.+.+.+.o.o.o.o.+.+.o.o.o.o.o.o.o.o.@.+.+.+.+.+.o.+.+.o.X.` ` ` ` 4.@.] y.q.+.! ! ! ! j.:.0.0.0.0.0.2.2.=.] / ~ ~ ~ ! ! ~ ~ o.o.=.=.=.7.2.0.8.8.0.0.0.0.0.0.0.0.0.0.0.0.0.0.",
"0.0.0.0.0.0.0.0.0.0.0.0.0.8.0.0.1.7.1.a.f.f.0.q.o.o./ / / / / ] o.=.1.1.2.2.2.2.0.1.1.0.0.0.0.0./ +.8.=.! o.o.o.o.>.o.! X.o.o.o.o.o.o.+.+.o.o.o.X.X.] ] ] ] ] ] ] ] ] ] X.X.X.X.] ] ] ] ] X.X.X.X.X.X.X.X.X.X.X.X.X.X.X.X.X.X.X.X.X.X.X.X.X.X.X.X.X.X.X.X.X.X.X.X.X.X.X.X.X.] ] ` ` X.X.X.X.X.X.X.X.X.] ` ] X.X.X.X.X.X.X.X.X.X.X.X.X.] ] ] X.X.` ` ` ` ] X.` ` ` ` ` ` ` ` X.X.+.+.o.o.+.o.+.o.X.` ` ` ` 4.@.] y.0.o.! ! ! ! j.:.0.0.0.0.0.2.2.=.] / ~ ~ ~ ~ ~ ~ ~ o.o.=.=.=.7.2.0.8.8.0.0.0.0.0.0.0.0.0.0.0.0.0.0.",
"0.0.0.0.0.0.0.0.0.0.0.0.0.8.0.0.1.7.1.a.f.f.0.0.] ] / / / / / ] o.:.1.1.2.2.0.2.0.1.1.0.0.0.y.0./ +.8.=.! o.o.o.o.>.o.! X.o.o.+.+.+.+.+.X._ _ / ~ ~ ! ! ! ! ! ! ! ! ! ! ~ ~ ~ ~ ! ! ! ~ / / / / / / / / / / / / / / / / / / / / / / / / / / / / / / / / / / / / / / / / / / / / / / / / / / / / / / / / / / / / / / / / / / / / / / / / / / / ] _ / / / _ ] / / / / / / / / ] ~ o.o.+.+.o.+.+.o.X.` ` ` ` 4.@./ y.q.+.Q Q Q Q j.:.0.0.0.0.2.2.2.=.] / ~ ~ ~ ! ~ ! ! o.o.=.=.=.7.2.0.8.8.0.0.0.0.0.0.0.0.0.0.0.0.0.0.",
"0.0.0.0.0.0.0.0.0.0.0.0.0.8.0.0.1.7.1.a.f.f.0.0.] ] / / / / / ] o.=.1.1.0.0.2.2.0.1.1.0.q.q.y.0.~ +.8.=.! o.o.o.o.>.o.! ] o.o.+.o.o.+.+./ q.q.q.t.r.y.y.y.y.t.t.t.t.t.t.y.y.y.y.t.t.t.t.t.t.t.t.t.t.t.t.t.t.t.t.t.t.t.y.y.y.y.y.y.y.y.y.y.y.y.y.y.y.y.y.t.t.t.t.t.t.t.t.t.t.t.t.t.t.t.t.t.t.t.y.t.t.y.t.t.t.y.t.t.t.t.t.t.t.t.t.t.t.t.t.t.t.t.t.t.t.t.t.t.t.t.t.t.t.t.t.t.t.t.! X.X.o.o.+.o.+.o.X.` ` ` ` 4.@./ e.0.o.Q Q Q Q j.:.0.0.0.0.0.2.2.=.] / ~ ~ ~ ~ ~ ~ ~ o.o.=.=.=.7.2.0.8.8.0.0.0.0.0.0.0.0.0.0.0.0.0.0.",
"0.0.0.0.0.0.0.0.0.0.0.0.0.8.0.0.1.7.1.a.a.a.0.0.] ] / / / / / ] o.=.1.1.2.2.0.2.0.1.1.0.0.0.r.0.~ +.8.=.! o.o.o.o.>.o.! X.o.o.+.+.+.+.X.~ f.f.f.q.:.:.:.:.:.:.:.:.:.:.:.:.:.:.:.:.:.:.:.:.:.:.:.:.>.>.1.>.>.>.>.1.1.1.1.:.1.:.:.:.:.:.:.:.1.1.1.:.:.:.:.1.1.1.1.1.1.1.1.1.1.1.1.:.1.1.:.1.1.:.:.:.:.:.:.:.1.1.1.1.1.1.:.>.>.>.>.:.:.:.:.:.:.:.:.:.:.:.:.:.:.:.:.:.=.:.:.:.=.0.Q ] ] o.o.o.+.+.o.X.` ` ` ` 4.@./ y.0.+.Q Q Q Q j.:.0.0.0.0.4.2.2.=.] / ~ ~ ~ ! ~ ~ ~ o.o.=.=.=.7.2.0.8.8.0.0.0.0.0.0.0.0.0.0.0.0.0.0.",
"0.0.0.0.0.0.0.0.0.0.0.0.0.8.0.0.1.7.1.a.a.a.0.0.] ] / / / / / ] o.=.1.1.2.2.0.2.0.1.1.0.0.0.0.0.~ +.8.=.! o.o.o.o.>.o.! X.o.o.o.o.o.@.+.~ f.f.f.1.1.1.1.>.>.>.1.1.1.1.1.1.1.1.1.1.1.1.1.1.1.1.1.1.1.1.1.1.1.1.1.1.1.1.1.1.1.1.1.1.1.1.1.1.1.1.1.1.1.1.1.1.1.1.1.1.1.1.1.1.1.1.1.1.1.1.1.1.1.1.1.1.1.1.1.1.1.1.1.1.1.1.1.1.1.1.1.1.1.1.1.1.1.1.1.1.>.>.>.>.>.>.>.1.>.>.>.>.:.0.Q ] _ o.o.o.+.+.o.X./ / / / 4.@._ 9.1.;.Q Q Q Q j.:.0.0.0.0.4.2.2.=.] / ~ ~ ~ ! ~ ~ ~ o.o.=.=.=.7.2.0.8.8.0.0.0.0.0.0.0.0.0.0.0.0.0.0.",
"0.0.0.0.0.0.0.0.0.0.0.0.0.8.0.0.1.7.1.a.a.a.0.0.] ] / / / / / ] o.=.1.1.0.0.2.2.0.1.1.0.0.0.0.0.~ +.8.%.! o.o.o.o.>.o.! X.o.o.o.+.o.+.X.Q h.h.h.1.>.1.>.>.>.>.>.1.1.1.1.1.1.1.1.1.1.1.1.1.1.1.1.1.1.1.1.1.1.1.1.1.1.1.1.1.1.1.1.1.1.1.1.1.1.1.1.1.1.1.1.1.1.1.1.1.1.1.1.1.1.1.2.1.1.1.1.1.1.1.1.1.1.1.1.1.1.2.1.1.1.1.1.1.1.1.1.1.1.1.1.1.1.2.1.1.1.1.1.1.1.1.>.1.>.>.>.>.:.0.Q _ _ X.X.o.+.+.o.o.` ` ` ` 4.@./ 0.1.+.Q Q Q Q j.:.0.0.0.0.0.2.2.=.] / ~ ~ ~ / ~ ~ ~ o.o.=.=.=.7.2.0.8.8.0.0.0.0.0.0.0.0.0.0.0.0.0.0.",
"0.0.0.0.0.0.0.0.0.0.0.0.0.8.0.0.1.7.1.i.i.i.0.0.] ] / / / / / ] o.:.1.1.2.2.0.2.0.1.1.0.0.0.0.0.~ +.8.#.~ +.+.+.+.1.o.! X.o.o.+.o.o.+.X.Q h.h.h.1.1.1.1.>.>.1.1.1.1.1.1.1.1.1.1.1.1.1.1.1.1.1.1.1.1.1.1.1.1.1.1.1.1.1.1.1.1.1.1.1.1.1.1.1.1.1.1.1.1.1.1.1.1.1.1.1.1.1.1.1.1.1.2.1.1.1.2.1.1.1.1.1.1.1.1.1.1.1.1.1.1.1.1.1.1.1.1.1.1.1.1.1.1.1.2.1.1.1.1.1.1.>.>.>.1.1.1.1.>.0.W ] ] X.X.o.+.+.o.o.` ` ` ` 4.@._ 9.>.+.Q Q Q Q j.:.0.0.0.0.2.2.2.=.] / ~ ~ ~ ! ~ ! ~ o.o.=.=.=.7.2.0.8.8.0.0.0.0.0.0.0.0.0.0.0.0.0.0.",
"0.0.0.0.0.0.0.0.0.0.0.0.0.8.0.0.1.8.1.a.f.f.q.9.] ] / / / / / ] o.=.1.1.2.2.2.2.0.1.1.0.0.0.0.7.~ +.8.o.~ @.@.@.@.1.o.! X.o.o.+.o.+.X.X.^ h.h.h.1.>.>.>.:.1.1.1.1.>.1.1.2.1.2.2.1.1.1.>.1.1.1.1.1.1.1.1.1.1.1.1.1.1.1.1.1.1.1.1.1.1.1.1.1.1.1.1.1.1.1.1.1.1.1.1.1.1.1.1.1.1.1.1.1.1.1.1.1.1.1.1.1.1.1.1.1.1.1.1.1.1.1.1.1.1.1.1.1.1.1.1.2.1.2.2.1.1.>.>.1.1.>.>.1.>.1.1.1.>.0.R ] ] X.X.o.+.+.+.o.` ` ` ` 4.@./ 0.>.+.Q Q Q Q j.:.0.0.0.0.0.2.2.=.] / ~ ~ ~ ! ! ~ ~ o.o.1.=.=.7.2.0.8.8.0.0.0.0.0.0.0.0.0.0.0.0.0.0.",
"0.0.0.0.0.0.0.0.0.0.0.0.0.8.0.0.1.8.1.i.d.f.0.9.] ] / / / / / ] o.=.1.1.2.2.2.2.0.1.1.0.0.0.0.7.~ +.8.o.~ @.@.@.@.1.o.! X.o.o.+.o.o.X.X.^ h.h.h.1.>.>.>.>.1.1.1.1.1.>.>.1.1.1.2.1.1.1.>.>.1.1.1.1.1.1.1.1.1.1.1.1.1.1.1.1.1.1.1.1.1.1.1.1.1.1.1.1.1.1.1.1.1.1.1.1.1.1.1.1.1.1.1.2.2.1.1.1.1.1.1.1.1.1.1.2.1.1.1.1.1.1.1.1.1.1.1.1.1.1.1.2.2.1.1.2.1.1.1.1.1.>.>.1.>.1.1.1.>.q.R ] ] X.X.o.+.+.o.o.` ` ` ` 2.@./ 9.>.+.Q Q Q Q j.:.0.0.0.0.0.2.2.=.] / ~ ~ ~ ! ! ~ ~ o.o.=.=.=.7.2.0.8.8.0.0.0.0.0.0.0.0.0.0.0.0.0.0.",
"0.0.0.0.0.0.0.0.0.0.0.0.0.8.0.0.1.7.1.i.d.d.q.0.] ] / / / / / ] o.:.1.1.2.2.0.2.0.1.1.0.0.0.0.1.~ +.0.o.~ @.@.@.@.1.o.! X.o.o.+.o.+.X.X.Q h.h.h.1.>.1.>.1.1.1.1.1.1.1.1.>.>.2.2.1.1.1.1.1.1.1.1.1.1.1.1.1.1.1.1.1.1.1.1.1.1.1.1.1.1.1.1.1.1.1.1.1.1.1.1.1.1.1.1.1.1.1.1.1.1.1.1.1.1.2.1.1.1.1.1.1.1.1.1.1.1.1.1.1.1.1.1.1.1.1.1.1.>.1.1.1.2.>.>.1.>.>.>.1.1.:.:.>.>.:.:.1.>.0.U ] ] X.X.X.+.o.o.o.` ` ` ` 4.@./ 9.>.+.Q Q Q Q g.:.0.0.0.0.2.2.2.=.] / / / / ! ! ! ! o.o.=.=.=.7.2.0.8.8.0.0.0.0.0.0.0.0.0.0.0.0.0.0.",
"0.0.0.0.0.0.0.0.0.0.0.0.0.8.0.0.1.7.1.a.a.a.0.0.] ] ~ ~ / / / ] o.=.1.1.0.0.2.2.0.1.1.y.y.y.0.1.~ +.0.o.~ @.@.@.@.>.o.! X.o.o.+.+.+.o.X.^ h.h.h.1.1.1.1.1.1.1.1.>.1.>.1.1.1.1.1.1.1.1.1.1.1.1.1.1.1.1.1.1.1.1.1.1.1.1.1.1.1.1.1.1.1.1.1.1.1.1.1.1.1.1.1.1.1.1.1.1.1.1.1.1.1.1.1.1.1.1.1.1.1.1.1.1.1.1.1.1.1.1.1.1.1.1.1.1.1.1.1.1.1.1.>.1.>.>.1.1.>.>.>.1.1.:.:.>.>.:.:.1.>.0.U ] ] o.o.o.+.o.o.X./ / / / 4.@.` 9.=.#.Q Q Q Q g.:.0.0.0.0.0.2.2.=.X./ ~ ~ ~ / ! ~ ~ o.X.=.=.=.7.2.0.8.8.0.0.0.0.0.0.0.0.0.0.0.0.0.0.",
"0.0.0.0.0.0.0.0.0.0.0.0.0.8.0.0.1.7.1.i.i.i.0.0.] ] / / / / / ] o.=.1.1.2.2.4.2.0.1.1.y.y.y.y.1.~ +.0.o.~ @.@.@.@.>.o.! X.o.o.+.+.+.o.X.^ h.h.h.4.1.1.1.>.1.1.1.1.>.1.>.>.>.1.1.2.2.1.1.1.1.1.1.1.1.1.1.1.1.1.1.1.1.1.1.1.1.1.1.1.1.1.1.1.1.1.1.1.1.1.1.1.1.2.1.1.1.1.1.1.1.1.1.1.1.1.1.1.1.1.1.1.1.1.1.1.1.1.1.>.1.1.1.1.1.1.1.>.1.1.1.1.1.1.>.>.1.1.1.1.1.:.:.>.>.1.1.1.>.0.U ] ] o.o.o.+.+.o.X./ / / / 4.@.` 0.1.#.! Q Q Q g.:.0.0.0.0.4.2.2.=.] / ~ / / ! ! ! ! o.o.=.=.=.7.2.0.8.8.0.0.0.0.0.0.0.0.0.0.0.0.0.0.",
"0.0.0.0.0.0.0.0.0.0.0.0.0.8.0.0.1.7.1.i.i.i.0.9.] ] / / / / / ] o.=.1.1.2.2.4.2.0.1.1.y.y.y.y.7./ +.0.o./ @.@.@.@.>.o.! X.o.o.o.+.+.X.X.^ h.h.h.4.>.1.1.1.1.>.1.1.1.1.1.1.1.>.>.2.2.1.1.1.1.1.1.1.1.1.1.1.1.1.1.1.1.1.1.1.1.1.1.1.1.1.1.1.1.1.1.1.1.1.1.1.1.1.1.1.1.1.1.1.1.1.1.1.1.1.2.1.1.1.1.1.1.1.1.1.1.1.1.1.>.>.1.>.1.1.1.1.>.1.1.1.1.1.>.1.1.1.1.1.>.:.:.>.>.1.1.1.>.0.U ] ] o.o.o.+.+.o.X./ / / / 4.@.` 9.1.#.! Q Q Q g.:.0.0.0.0.4.2.8.=.] / ~ / / ! ! ! ! o.o.=.=.=.7.2.0.8.8.0.0.0.0.0.0.0.0.0.0.0.0.0.0.",
"0.0.0.0.0.0.0.0.0.0.0.0.0.8.0.0.1.7.1.i.i.i.0.9.] ] / / / / / ] o.=.1.1.0.0.2.2.0.1.1.y.y.y.y.8./ +.0.o./ @.@.@.@.>.o.! X.o.o.+.o.o.o.X.^ j.j.j.4.1.1.1.1.>.1.2.1.1.>.>.>.>.1.1.1.1.1.>.>.1.1.1.1.1.1.1.1.1.1.1.1.1.1.1.1.1.1.1.1.1.1.1.1.1.1.1.1.1.1.1.1.1.1.1.1.1.1.1.1.1.1.1.1.1.1.1.1.1.1.1.1.1.1.1.1.1.1.1.1.>.>.1.>.1.1.1.1.1.1.1.1.1.>.1.1.1.1.1.>.>.>.>.>.>.1.1.1.>.0.R ] ] o.o.o.+.o.o.o./ / / / 4.@.` 9.1.#.Q Q Q Q j.:.0.0.0.0.0.2.2.=.] / ~ ~ ~ ~ ! ~ ~ #.o.=.=.=.7.2.0.8.8.0.0.0.0.0.0.0.0.0.0.0.0.0.0.",
"0.0.0.0.0.0.0.0.0.0.0.0.0.8.0.0.1.7.1.i.i.i.0.9.] ] / / / / / ] o.:.1.1.2.2.0.2.0.1.1.y.y.y.y.9./ +.0.o./ +.+.+.+.1.o.! X.o.o.+.o.o.o.X.^ j.j.j.4.>.>.>.>.1.1.1.1.1.1.1.>.>.1.1.1.1.>.1.1.>.>.>.>.1.1.1.1.1.1.1.1.1.1.1.1.1.1.1.1.1.1.1.1.1.1.1.1.1.1.1.1.1.1.1.1.1.1.1.1.1.1.1.1.1.1.2.1.1.1.1.1.1.1.1.1.1.1.1.1.1.1.1.1.1.1.1.1.1.1.1.1.1.1.>.1.1.1.1.>.1.>.>.>.:.1.1.>.>.0.W ] ] o.o.o.o.+.o.o./ / / / 4.@.` 0.1.+.Q Q Q Q g.:.0.0.0.0.2.2.2.=.] / ~ / / ! ! ! ! o.o.=.=.=.7.2.0.8.8.0.0.0.0.0.0.0.0.0.0.0.0.0.0.",
"0.0.0.0.0.0.0.0.0.0.0.0.0.8.0.0.1.7.1.i.i.i.0.9.] ] / / / / / ] o.=.1.1.2.2.2.2.4.1.1.r.r.y.0.7.~ +.0.o./ +.+.+.+.2.o.! X.o.o.+.+.+.o.X.Q j.j.j.1.1.1.1.1.>.>.>.>.1.1.1.1.1.1.1.1.1.1.1.1.1.1.1.1.1.1.1.1.1.1.1.1.1.1.1.1.1.1.1.1.1.1.1.1.1.1.1.1.1.1.1.1.1.1.1.1.1.1.1.1.1.1.1.1.1.1.1.1.1.1.1.1.1.1.1.1.1.1.1.1.1.1.1.1.1.1.1.1.1.1.1.1.1.>.1.1.>.>.>.1.1.1.1.>.:.1.1.1.>.0.W / / X.X.o.o.+.o.X./ / / / 4.@.` 9.1.+.Q Q Q Q g.:.0.0.0.0.0.2.2.=.] / ~ ~ ~ ! ! ~ ~ o.o.1.=.=.7.2.0.8.8.0.0.0.0.0.0.0.0.0.0.0.0.0.0.",
"0.0.0.0.0.0.0.0.0.0.0.0.0.8.0.0.1.7.1.i.i.i.0.9.] ] / ~ / / / ] +.=.1.1.2.2.2.2.0.1.1.r.y.y.q.7.~ +.0.#./ +.+.+.+.2.o.! X.o.o.o.+.+.X.X.Q j.h.h.1.1.1.1.1.>.1.>.>.1.1.1.1.1.1.1.2.1.1.1.2.1.1.1.1.1.1.1.1.1.1.1.1.1.1.1.1.1.1.1.1.1.1.1.1.1.1.1.1.1.1.1.1.1.1.1.1.1.1.1.1.1.1.1.1.1.1.1.1.1.1.1.1.1.1.1.1.1.1.1.1.1.1.1.1.1.1.1.1.1.1.1.1.1.1.1.1.>.>.>.>.1.>.>.>.:.>.>.1.>.0.W / / o.o.o.+.o.o.X./ / / / 4.@.` 0.1.#.Q Q Q Q g.:.0.0.0.0.0.2.2.=.] / ~ ~ ~ ~ ~ ~ ~ o.o.=.=.=.7.2.0.8.8.0.0.0.0.0.0.0.0.0.0.0.0.0.0.",
"0.0.0.0.0.0.0.0.0.0.0.0.0.8.0.0.1.7.1.i.i.i.0.9.] ] / / / / / ] +.1.1.1.2.2.0.2.0.1.1.r.y.r.r.7./ +.0.#./ +.+.+.+.2.o.! X.o.o.+.+.+.X.X.Q h.h.h.4.1.1.1.:.>.>.>.>.1.1.1.1.1.>.>.>.1.1.1.1.1.1.1.1.1.1.1.1.1.1.1.1.1.1.1.1.1.1.1.1.1.1.1.1.1.1.1.1.1.1.1.1.1.1.1.1.1.1.1.1.1.1.1.1.1.1.1.1.1.1.1.1.1.1.1.1.1.1.1.1.1.1.1.1.1.1.1.1.1.1.1.1.1.1.1.>.>.1.1.1.1.>.>.>.:.1.>.1.>.0.W / / o.o.o.+.o.o.X./ / / / 4.@.` 9.=.#.Q Q Q Q j.:.0.0.0.0.2.2.2.=.] / ~ ~ ~ ! ~ ~ ~ o.o.=.=.=.7.2.0.8.8.0.0.0.0.0.0.0.0.0.0.0.0.0.0.",
"0.0.0.0.0.0.0.0.0.0.0.0.0.8.0.0.1.7.1.i.i.i.0.9.] ] ~ ~ / / / ] +.=.1.1.0.0.2.2.0.1.1.r.y.y.r.1.~ o.0.#./ +.+.+.+.2.o.! X.o.o.o.o.+.@.X.Q j.j.j.1.1.1.1.1.1.1.1.1.1.1.1.1.1.>.>.1.>.>.1.1.1.1.1.1.1.1.1.1.1.1.1.1.1.1.1.1.1.1.1.1.1.1.1.1.1.1.1.1.1.1.1.1.1.1.1.1.1.1.1.1.1.1.1.1.1.1.1.1.1.1.1.1.1.1.1.1.1.1.1.1.1.1.1.1.1.1.1.1.1.1.1.1.1.1.1.>.>.1.1.1.1.>.>.>.>.1.1.1.>.0.W / / o.o.X.+.o.+.X./ / / / 4.@.` 0.1.#.Q Q Q Q j.:.0.0.0.0.0.2.2.=.] / ~ ~ ~ ~ ~ ~ ~ @.o.=.=.=.7.2.0.8.8.0.0.0.0.0.0.0.0.0.0.0.0.0.0.",
"0.0.0.0.0.0.0.0.0.0.0.0.0.8.0.0.2.8.1.i.i.i.0.1.] ] / ~ / / / ] o.=.1.1.2.2.0.2.2.1.1.r.r.r.0.1.! o.0.#./ +.+.+.+.2.o.! X.o.o.+.+.+.@.X.Q j.j.j.1.>.1.1.>.1.1.1.1.1.>.1.1.1.>.>.>.1.1.1.1.1.>.>.>.1.1.1.1.1.1.1.1.1.1.1.1.1.1.1.1.1.1.1.1.1.1.1.1.1.1.1.1.1.1.1.1.1.1.1.1.1.1.1.1.1.1.1.2.1.1.1.1.1.1.1.1.1.1.1.1.1.1.1.1.1.1.1.1.1.1.1.1.1.1.1.>.1.1.1.1.>.:.:.:.>.1.1.1.>.0.W / / X.X.X.+.+.+.o.` / / / 4.@./ 9.1.+.Q Q Q Q j.:.0.0.0.0.4.2.2.=.] / ~ ~ ~ ! ~ ! ! o.o.=.=.=.7.2.0.8.8.0.0.0.0.0.0.0.0.0.0.0.0.0.0.",
"0.0.0.0.0.0.0.0.0.0.0.0.0.2.0.0.1.7.1.i.i.i.0.t./ / / ~ / / / ] o.=.1.1.2.2.0.2.2.1.1.r.r.r.q.1.! o.0.#./ +.+.+.+.2.[ ! X.+.o.o.o.o.@.X.Q j.j.j.1.>.1.1.>.1.>.>.1.1.>.1.1.1.2.1.>.1.1.1.1.1.1.1.1.1.1.1.1.1.1.1.1.1.1.1.1.1.1.1.1.1.1.1.1.1.1.1.1.1.1.1.1.1.1.1.1.1.1.1.1.1.1.1.1.1.1.1.1.1.1.1.1.1.1.1.1.1.1.1.1.1.1.1.1.1.1.1.1.1.>.1.1.1.>.>.1.1.1.1.1.1.:.:.1.>.1.1.1.>.0.W / / o.X.o.+.o.+.o.` / / / 4.@.` 9.1.o.! ! ! ! j.:.0.0.0.0.4.2.2.=.] / ~ ~ ~ ! ~ ! ! o.o.=.=.=.7.2.0.8.8.0.0.0.0.0.0.0.0.0.0.0.0.0.0.",
"0.0.0.0.0.0.0.0.0.0.0.0.0.2.0.0.1.1.:.f.a.a.0.i./ / / ~ / / / ] o.=.1.1.0.0.2.2.4.1.1.y.r.y.0.1.! o.0.#.! X.X.X.X.2.o.! ] o.o.o.o.o.X.X.Q j.j.j.1.>.>.>.:.1.1.1.1.2.>.1.>.>.2.2.1.1.1.1.1.1.1.1.1.1.1.1.1.1.1.1.1.1.1.1.1.1.1.1.1.1.1.1.1.1.1.1.1.1.1.1.1.1.1.1.1.1.1.4.1.1.1.1.1.1.1.1.1.1.1.1.1.1.1.1.1.1.1.1.1.1.1.1.1.1.1.1.1.>.>.1.1.1.1.1.1.1.1.1.1.1.>.>.:.>.1.1.1.>.0.W ] ] o.o.o.+.o.o.o.` ` / / 4.@.` 7.=.+.Q Q Q Q g.1.0.0.0.0.0.2.2.=.X./ ~ ~ ~ / ~ ~ ~ #.o.=.=.=.7.2.0.8.8.0.0.0.0.0.0.0.0.0.0.0.0.0.0.",
"0.0.0.0.0.0.0.0.0.0.0.0.0.2.0.0.1.1.:.f.f.f.0.i./ / / ~ / / / ] o.:.1.1.2.2.0.2.0.1.1.y.y.y.q.1.! o.0.#./ +.+.+.+.2.o.! X.o.o.+.o.o.X.X.Q j.j.j.1.>.>.>.:.1.1.1.1.2.>.1.1.1.1.1.1.1.1.>.1.1.1.1.1.1.1.1.1.1.1.1.1.1.1.1.1.1.1.1.1.1.1.1.1.1.1.1.1.1.1.1.1.1.1.1.1.1.1.1.1.1.1.1.1.1.1.1.1.1.1.1.1.1.1.1.1.1.1.1.1.1.1.1.1.1.1.1.1.1.1.>.>.>.1.1.1.1.1.1.1.1.1.1.>.>.1.1.1.>.0.W ] ] o.o.o.o.o.o.o.` ` ` ` 4.@.` 9.1.+.! ! ! ! u.1.0.0.0.0.2.2.2.=.] / ~ ~ ~ ! ~ ! ! o.o.=.=.=.7.2.0.8.8.0.0.0.0.0.0.0.0.0.0.0.0.0.0.",
"0.0.0.0.0.0.0.0.0.0.0.0.0.2.0.0.1.1.:.g.g.g.0.i./ / / / / / / X.o.=.1.1.2.2.2.2.0.1.1.y.y.y.y.1.! o.0.o./ +.+.+.+.2.o.! X.o.o.o.o.o.o.] Q j.j.j.1.1.1.1.:.1.>.1.1.1.1.>.2.2.2.1.1.1.1.>.>.1.1.1.1.1.1.1.1.1.1.1.1.1.1.1.1.1.1.1.1.1.1.1.1.1.1.1.1.1.1.1.1.1.1.1.1.1.1.1.1.1.1.1.1.1.1.1.1.1.1.1.1.1.1.1.1.1.1.1.1.1.1.1.1.1.1.1.1.1.1.1.1.1.>.1.1.1.1.1.>.>.1.1.>.:.1.1.1.>.0.R ] ] o.o.o.o.o.o.o./ / / / 4.@./ 7.=.o.^ Q ^ Q u.1.0.0.0.0.0.2.2.=.] / ~ ~ ~ ! ~ ~ ~ o.o.=.=.=.7.8.0.8.8.0.0.0.0.0.0.0.0.0.0.0.0.0.0.",
"0.0.0.0.0.0.0.0.0.0.0.0.0.2.0.0.1.1.:.g.f.f.0.i./ / / / / / / X.o.=.1.1.2.2.2.2.0.1.1.y.r.r.y.1.! o.0.o./ +.+.+.+.2.o.! X.o.o.o.o.o.o.o.Q j.j.j.1.>.1.1.:.1.>.>.1.1.>.1.1.1.2.1.>.1.1.1.1.1.1.1.1.>.1.1.1.1.1.1.1.1.1.1.1.1.1.1.1.1.1.1.1.1.1.1.1.1.1.1.1.1.1.1.1.1.1.1.1.1.1.1.1.1.1.1.1.1.1.1.1.1.1.1.1.1.1.1.1.1.1.1.1.1.1.1.>.1.1.1.>.>.1.>.1.1.1.1.1.1.1.1.>.:.1.1.1.>.0.R ] X.o.o.o.o.+.o.X./ / / / 4.@./ 9.1.#.Q Q Q Q u.1.0.0.0.0.0.2.2.=.] / ~ ~ ~ ! ~ ~ ~ +.o.=.=.=.7.8.0.8.8.0.0.0.0.0.0.0.0.0.0.0.0.0.0.",
"0.0.0.0.0.0.0.0.0.0.0.0.0.8.0.0.1.7.1.f.f.f.0.t./ ~ / ~ / / / X.o.:.1.1.2.2.0.2.0.1.1.y.r.r.r.1.! o.0.o./ +.+.+.+.2.] ! X.o.o.o.+.+.o.X.Q j.j.j.1.>.1.1.:.1.>.>.>.1.1.>.1.>.1.1.>.>.>.>.1.1.1.1.1.1.1.1.1.1.1.1.1.1.1.1.1.1.1.1.1.2.1.1.1.1.1.1.1.1.1.1.1.1.1.1.1.1.1.1.1.1.1.1.1.1.1.1.1.1.1.1.1.1.1.1.1.1.1.1.>.1.1.1.1.1.1.1.1.1.1.1.1.1.>.1.1.1.1.1.>.>.>.>.1.:.>.1.>.>.0.R X.X.X.X.o.+.+.o.X./ / / / 4.@./ 7.=.#.Q Q Q Q u.1.0.0.0.0.2.2.2.=.] / / / / ! ! ! ! o.o.=.=.=.7.2.0.8.8.0.0.0.0.0.0.0.0.0.0.0.0.0.0.",
"0.0.0.0.0.0.0.0.0.0.0.0.0.8.0.0.1.7.1.f.f.f.0.u./ / / / / / / ] +.=.1.1.0.0.2.4.8.1.1.y.r.r.r.1.! o.0.o./ +.+.+.+.2.] ! ] o.o.o.o.o.o.] Q j.j.j.1.>.1.1.:.1.>.>.>.1.1.1.2.2.1.>.1.1.1.>.1.1.1.1.1.1.1.1.1.1.1.1.1.1.1.1.1.1.1.1.1.1.1.1.1.1.1.1.1.1.1.1.1.1.1.1.1.1.1.1.1.1.1.1.1.1.1.1.1.1.1.1.1.1.1.1.1.1.1.1.1.1.1.1.1.1.1.1.1.1.1.1.2.1.>.1.1.1.1.1.1.1.>.>.1.:.>.1.>.>.0.R ] ] X.X.o.+.+.o.X./ / / / 4.@./ 9.1.+.Q Q Q Q u.2.0.0.0.0.0.2.2.=.X./ ~ ~ ~ ! ~ ~ ~ @.o.=.=.=.7.2.4.8.8.0.0.0.0.0.0.0.0.0.0.0.0.0.0.",
"0.0.0.0.0.0.0.0.0.0.0.0.0.8.0.0.2.8.1.d.f.f.0.u.~ ~ / ~ / / / ] o.=.1.1.2.2.0.4.8.1.1.y.y.y.0.1.! o.0.#.~ o.o.o.o.2.] ~ X.o.o.o.o.o.o.X.Q h.h.h.4.>.>.>.:.1.1.1.1.>.1.1.1.1.>.>.1.1.1.>.1.1.1.1.1.1.1.1.1.1.1.1.1.1.1.1.1.1.1.1.1.1.1.1.1.1.1.1.1.1.1.1.1.1.1.1.1.1.1.1.1.1.1.1.1.1.1.1.1.1.1.1.1.1.1.1.1.1.1.1.>.1.1.1.1.1.1.1.1.1.1.>.2.1.1.1.>.>.>.>.1.1.1.1.>.:.1.1.1.>.0.W ] ] X.X.o.+.+.o.X./ / / / 4.@./ 7.=.+.Q Q Q Q u.2.0.0.0.0.4.2.2.=.] / ~ ~ ~ ! ! ! ! o.o.1.1.=.7.2.0.8.8.0.0.0.0.0.0.0.0.0.0.0.0.0.0.",
"0.0.0.0.0.0.0.0.0.0.0.0.0.8.0.0.2.8.1.i.f.f.0.u.~ ~ / ~ / / / ] o.=.1.1.2.2.0.4.2.1.1.y.y.y.r.1.! o.0.#.! [ [ [ [ 2.] ~ X.o.o.o.o.o.X.X.Q h.h.h.4.>.1.1.:.1.1.1.1.1.1.1.1.1.>.>.1.1.1.1.1.1.1.1.1.1.1.1.1.1.1.1.1.1.1.1.1.1.1.1.1.1.1.1.1.1.1.1.1.1.1.1.1.1.1.1.1.1.1.1.1.1.1.1.1.1.1.1.1.1.1.1.1.1.1.1.1.1.1.1.>.1.1.1.1.1.1.1.1.1.1.1.2.2.>.1.>.>.>.>.1.1.1.>.:.1.1.1.1.>.0.W / / X.X.X.+.+.o.X./ / / / 4.@./ 9.>.+.Q Q Q Q u.2.0.0.0.0.4.2.8.=.] / ~ / / ! ! ! ! o.o.=.1.=.7.2.0.8.8.0.0.0.0.0.0.0.0.0.0.0.0.0.0.",
"0.0.0.0.0.0.0.0.0.0.0.0.0.8.0.0.2.8.1.g.f.f.0.u.~ ~ / / / / / ] +.=.1.1.0.4.2.4.2.1.1.y.r.r.r.1.! o.0.#.! o.o.o.o.2.] ~ ] o.o.o.o.o.o.X.Q j.j.j.4.1.1.1.:.1.1.1.1.1.>.1.1.1.1.1.1.2.2.1.1.1.1.1.1.1.1.1.1.1.1.1.1.1.1.1.1.1.1.1.1.1.1.1.1.1.1.1.1.1.1.1.1.1.1.1.1.1.1.1.1.1.1.1.1.1.1.1.1.1.1.1.1.1.1.1.1.1.1.1.1.1.1.1.1.1.1.1.1.1.1.1.1.1.1.1.>.>.1.1.1.1.:.:.>.>.1.1.1.>.0.W / / X.X.o.+.+.o.X./ / / / 4.@./ 7.=.+.Q Q Q Q u.2.0.0.0.0.0.2.2.=.X./ ~ ~ ~ ~ ~ ~ ~ o.o.=.=.=.7.2.0.8.8.0.0.0.0.0.0.0.0.0.0.0.0.0.0.",
"0.0.0.0.0.0.0.0.0.0.0.0.0.8.0.0.2.8.1.f.f.f.0.u.~ ~ / ~ / / / X.o.:.1.1.2.2.4.4.2.1.1.r.r.r.q.1.! o.0.%.! [ [ [ [ 2.] ! X.o.o.o.o.o.X.X.Q j.j.j.4.1.1.1.:.1.1.1.1.1.1.1.>.>.1.1.2.1.1.1.1.1.1.1.1.1.>.1.1.1.1.1.1.1.1.1.1.1.1.1.1.1.1.1.1.1.1.1.1.1.1.1.1.1.2.1.1.1.1.1.1.1.1.1.1.1.1.1.1.1.1.2.2.2.4.1.1.1.1.1.1.1.1.1.1.1.1.1.1.1.1.1.1.1.1.1.1.1.1.1.1.1.:.:.:.:.1.>.1.>.0.W / / X.X.o.+.+.X.X./ / / / 4.@./ 9.:.+.Q Q Q Q u.1.0.0.0.0.2.2.2.=.] / ~ ~ / ! ~ ! ! o.o.=.=.=.7.2.0.8.8.0.0.0.0.0.0.0.0.0.0.0.0.0.0.",
"0.0.0.0.0.0.0.0.0.0.0.0.0.8.0.0.1.7.1.f.f.f.0.u./ ~ / ~ / / / X.o.=.1.1.2.2.2.4.2.1.1.r.r.r.r.1.~ o.0.#.~ o.o.o.o.2.] ! ] o.o.o.o.o.X.X.Q j.j.j.1.2.1.1.>.1.>.>.1.1.>.1.1.1.2.1.1.1.2.1.1.1.1.1.1.1.1.1.1.1.1.1.1.1.1.1.1.1.1.1.1.1.1.1.1.1.1.1.1.1.1.1.1.1.1.1.1.1.1.1.1.1.1.1.1.1.1.1.1.1.1.1.1.1.1.1.1.1.1.1.1.1.1.1.1.1.1.1.1.>.>.1.1.1.1.>.1.1.1.1.>.1.1.1.1.:.1.1.1.>.0.W / / o.o.X.+.o.X.X./ / / / 4.@.] 1.=.@.! ! ! ! u.1.0.0.0.0.8.2.2.=.] / ~ ~ ~ ~ ~ ~ ~ o.o.=.=.=.7.2.0.8.8.0.0.0.0.0.0.0.0.0.0.0.0.0.0.",
"0.0.0.0.0.0.0.0.0.0.0.0.0.8.0.0.1.7.1.f.f.f.0.u.~ ~ / / / / / ] o.=.1.1.2.2.2.4.2.1.1.r.r.r.r.1./ +.0.[ / o.o.o.+.2.] ! ] o.o.o.o.o.o.X.Q j.j.h.+.4.1.1.1.>.1.1.2.2.2.>.>.>.1.>.1.1.2.>.1.>.>.1.>.1.1.1.1.1.1.1.1.1.1.1.1.1.1.1.1.1.1.1.1.1.1.1.1.1.1.1.1.1.1.1.1.1.1.1.1.1.1.1.1.1.2.1.1.1.1.1.1.1.1.1.1.1.1.1.1.1.1.1.1.1.1.1.1.>.>.1.1.1.1.>.1.1.1.1.>.1.1.1.1.:.1.1.>.>.0.W / / o.o.o.o.+.X.X./ / / / 4.@.] 9.1.o.! ! ! ! u.1.0.0.0.0.8.2.2.=.] / ~ ~ ~ ~ ~ ~ ~ o.o.=.=.=.7.2.0.8.8.0.0.0.0.0.0.0.0.0.0.0.0.0.0.",
"0.0.0.0.0.0.0.0.0.0.0.0.0.8.0.0.1.7.1.a.i.i.0.t.~ ~ / ~ / / / ] o.:.1.1.2.2.0.4.2.1.1.r.r.r.r.1./ +.0.o.~ X.X.X.X.2.` ~ X.o.o.o.+.+.o.X.~ k.k.k.+.4.1.1.>.1.>.1.>.1.>.1.1.2.1.1.1.1.1.1.1.>.1.1.>.1.1.1.1.1.1.1.1.1.1.1.1.1.1.1.1.1.1.1.1.1.1.1.1.1.1.1.1.1.1.1.1.1.1.1.1.1.1.1.1.1.1.1.1.1.1.1.1.1.1.1.1.1.1.1.1.1.1.1.1.1.1.1.1.1.>.1.1.1.2.2.1.>.>.>.1.>.1.>.1.:.1.>.1.>.0.W ` ] o.o.o.o.+.o.X./ / / / 4.@.] 7.=.@.! ! ! ! u.1.0.0.0.0.2.2.2.=.] / ~ ~ ~ ! ~ ! ! o.o.=.=.=.7.2.0.8.8.0.0.0.0.0.0.0.0.0.0.0.0.0.0.",
"0.0.0.0.0.0.0.0.0.0.0.0.0.8.0.0.1.7.1.f.g.a.8.t.~ ~ / ~ / / / ] +.=.1.1.0.0.2.8.4.2.2.y.y.y.y.1./ +.0.o./ +.+.+.+.2.` ! X.o.o.o.o.o.o.X.~ k.k.k.+.4.1.1.1.>.1.1.2.2.>.1.>.>.1.1.1.1.1.1.>.1.1.1.1.1.1.1.1.1.1.1.1.1.1.1.1.1.1.1.1.1.1.1.1.1.1.1.1.1.1.1.1.1.1.1.1.1.1.1.1.1.1.1.1.1.1.1.2.1.1.1.1.1.1.1.1.1.1.1.1.1.1.1.1.1.1.1.1.>.>.1.2.2.2.2.>.1.1.1.1.1.1.1.>.:.1.>.1.>.0.W ` ` o.o.o.+.o.o.X./ / / / 2.@.] 9.1.@.! ! ! ! u.1.0.0.0.0.0.2.2.=.X./ ~ ~ ~ ! ~ ~ ~ o.X.=.=.=.7.2.0.8.8.0.0.0.0.0.0.0.0.0.0.0.0.0.0.",
"0.0.0.0.0.0.0.0.0.0.0.0.0.8.0.0.1.7.1.f.d.f.0.u.~ ~ / ~ / / / X.o.=.1.1.2.2.0.0.2.4.2.y.y.y.y.1./ +.0.o./ +.+.+.+.2.] ! X.o.o.o.+.o.X.X.~ k.k.k.o.2.1.1.1.>.1.1.1.>.1.1.1.1.1.1.>.>.1.1.1.>.>.1.>.1.1.1.1.1.1.1.1.1.1.1.1.1.1.1.1.1.1.1.1.1.1.1.1.1.1.1.1.1.1.1.1.1.1.1.1.1.1.1.1.1.1.1.1.1.1.1.1.1.1.1.1.1.1.1.1.1.1.1.1.1.1.1.1.1.>.1.1.1.2.1.1.1.1.1.1.>.>.>.>.=.>.>.1.>.0.W ] ` X.X.o.o.o.o.] ] ] ] ] 0.@.` f.#.o.! ! ! ! u.1.0.0.0.0.2.2.2.=.] / ~ ~ ~ ! ~ ~ ~ o.X.=.=.=.7.2.0.8.8.0.0.0.0.0.0.0.0.0.0.0.0.0.0.",
"0.0.0.0.0.0.0.0.0.0.0.0.0.8.0.0.7.7.1.f.g.g.0.u./ / / ~ / / / X.o.=.1.1.2.2.0.0.2.4.2.y.y.y.y.1./ +.0.o./ +.+.+.+.2.] ! X.+.+.o.+.+.o.X.~ k.k.k.o.2.>.>.>.1.1.1.1.1.1.>.1.1.>.>.1.>.1.1.1.1.1.1.1.1.1.1.1.1.1.1.1.1.1.1.1.1.1.1.1.1.1.1.1.1.1.1.1.1.1.1.1.1.1.1.1.1.1.1.1.1.1.1.1.1.1.1.1.1.1.1.1.1.1.1.1.1.1.1.1.1.1.1.1.1.1.1.2.1.1.1.>.>.1.1.>.1.1.1.1.>.>.>.>.=.>.>.1.>.0.W ` ` X.X.o.+.o.o.] +.+.+.+.t.@./ f.=.X.! ! ! ! u.1.0.0.0.0.2.2.2.=.X./ ~ ~ ~ ! ~ ~ ~ o.X.=.=.=.7.2.0.8.8.0.0.0.0.0.0.0.0.0.0.0.0.0.0.",
"0.0.0.0.0.0.0.0.0.0.0.0.0.2.0.0.1.2.:.f.g.g.0.u./ / / / / / / X.+.=.1.1.0.0.2.8.0.2.1.y.y.y.y.1./ +.0.o./ +.+.+.+.2.] ! ] o.o.o.+.+.o.X.~ k.k.k.o.2.:.:.:.1.1.1.1.1.>.1.>.>.1.1.1.1.1.1.1.1.1.1.1.1.1.1.1.1.1.1.1.1.1.1.1.1.1.1.1.1.1.1.1.1.1.1.1.1.1.1.1.1.1.1.1.1.1.1.1.1.1.1.2.2.1.1.1.1.1.1.1.1.1.1.1.1.1.1.1.1.1.1.1.1.1.1.1.1.1.1.>.>.1.1.1.>.1.1.1.1.>.>.1.:.1.1.1.>.0.W ` ` X.X.o.+.+.o.] +.+.+.+.t.@./ f.=.X.! ! ! ! u.1.0.0.0.0.0.2.2.=.X./ ~ ~ ~ / ~ ~ ~ o.X.=.=.=.7.4.8.0.0.0.0.0.0.0.0.0.0.0.0.0.0.0.0.",
"0.0.0.0.0.0.0.0.0.0.0.0.0.2.0.0.2.2.:.a.i.a.0.u.! ! / / / / / ] o.:.1.1.2.2.0.4.8.1.1.y.y.y.y.1./ +.0.o./ +.+.+.+.2.] ! X.o.o.o.+.+.o.o.~ k.k.k.o.2.:.:.:.1.1.1.>.1.>.>.1.1.1.1.1.1.1.1.>.1.1.1.1.1.1.1.1.1.1.1.1.1.1.1.1.1.1.1.1.1.1.1.1.1.1.1.1.1.1.1.1.1.1.1.1.1.1.1.1.1.1.1.1.1.1.1.1.1.1.1.1.1.1.1.1.1.1.1.1.1.1.1.1.1.1.1.1.1.1.1.>.>.>.1.>.1.1.1.1.>.>.>.1.=.1.1.1.>.0.W ` ` X.X.o.+.o.o.] +.+.+.+.t.+./ f.=.o.Q Q Q Q u.2.0.0.0.0.2.2.2.:.] / / / ~ ! ~ ! ~ o.o.=.=.=.7.4.8.0.0.0.0.0.0.0.0.0.0.0.0.0.0.0.0.",
"0.0.0.0.0.0.0.0.0.0.0.0.0.2.0.0.2.2.:.f.f.f.0.u.~ ~ / ~ / / / ] o.=.1.1.2.2.2.4.2.1.1.y.y.y.y.1./ +.0.o./ +.+.+.+.2.] ! ] o.o.o.o.o.X.X.~ k.k.k.+.2.1.1.:.1.1.1.>.1.1.1.>.>.1.1.1.1.1.1.1.1.1.1.1.1.1.1.1.1.1.1.1.1.1.1.1.1.1.1.1.1.1.1.1.1.1.1.1.1.1.1.1.1.1.1.1.1.1.1.1.1.1.1.1.1.1.1.1.1.1.1.1.1.1.1.1.1.1.1.1.1.1.1.1.1.1.1.1.1.1.2.1.1.>.>.1.1.1.1.>.>.1.1.>.:.1.1.1.>.0.W ` ` X.X.o.o.+.o.] +.+.+.+.t.+./ f.=.+.Q Q Q Q u.2.0.0.0.0.8.2.2.=.] / ~ ~ ~ ~ ~ ~ ~ o.X.1.=.=.7.4.8.0.0.0.0.0.0.0.0.0.0.0.0.0.0.0.0.",
"0.0.0.0.0.0.0.0.0.0.0.0.0.2.0.0.2.2.:.f.f.f.0.u.~ ~ / ~ / / / ] o.=.1.1.2.2.2.4.2.1.1.y.y.y.y.1.~ o.0.[ / o.o.o.o.1.] ! ] o.o.o.o.o.X.X.~ k.k.k.+.2.1.:.>.>.>.1.1.1.1.1.1.1.1.1.1.1.1.1.1.1.1.1.1.1.1.1.1.1.1.1.1.1.1.1.1.1.1.1.1.1.1.1.1.1.1.1.1.1.1.1.1.1.1.1.1.1.1.1.1.1.1.1.1.1.1.1.1.1.1.1.1.1.1.1.1.1.1.1.1.1.1.1.2.1.>.1.1.1.1.2.1.1.>.>.1.>.1.1.1.1.:.:.1.:.1.1.>.>.0.W / / o.o.o.o.+.o.] +.+.+.+.t.+./ f.=.#.Q W Q Q u.2.0.0.0.0.8.2.2.=.] / ~ ~ ~ ~ ~ ~ ~ o.o.1.=.=.7.4.8.0.0.0.0.0.0.0.0.0.0.0.0.0.0.0.0.",
"0.0.0.0.0.0.0.0.0.0.0.0.0.0.8.8.1.7.1.i.i.i.0.u.! ! / ~ / / / ] o.:.1.1.2.2.4.4.2.1.1.y.y.y.y.1.! o.0.[ / [ [ [ [ 0.] ! X.o.o.o.o.o.o.X.~ k.k.k.+.2.:.:.1.:.:.:.>.1.1.1.>.>.1.1.1.1.1.1.1.1.1.1.1.1.1.1.1.1.1.1.1.1.1.1.1.1.1.1.1.1.1.1.1.1.1.1.1.1.1.1.1.1.1.1.1.1.1.1.1.1.1.1.1.1.1.1.1.1.1.1.1.1.1.1.1.1.1.1.1.1.1.1.2.2.1.>.1.1.1.2.1.1.1.1.1.>.>.1.>.1.:.:.1.:.>.>.>.>.0.W ` ` o.o.o.o.+.o.[ #.#.#.#.t.+./ f.=.#.Q Q Q Q u.2.0.0.0.0.2.2.2.=.] / ~ ~ ~ ! ! ! ! o.o.=.=.=.7.4.8.0.0.0.0.0.0.0.0.0.0.0.0.0.0.0.0.",
"0.0.0.0.0.0.0.0.0.0.0.0.0.0.8.8.1.7.1.a.a.a.0.u.~ ~ / ~ / / / X.+.=.1.1.0.0.2.4.2.1.1.y.y.y.y.1.~ o.0.o.~ [ [ [ [ 0.] ~ ] o.o.o.o.+.o.X.~ k.k.k.+.2.:.:.1.1.:.:.>.1.1.1.1.1.>.>.1.1.>.1.1.1.1.1.1.1.1.1.1.1.1.1.1.1.1.1.1.1.1.1.1.1.1.1.1.1.1.1.1.1.1.1.1.1.1.1.1.1.1.1.1.1.1.1.1.1.1.1.1.1.1.1.1.1.1.1.1.1.1.1.1.1.1.1.1.1.1.1.1.1.2.1.1.1.>.1.1.>.>.1.1.>.:.:.1.:.1.>.>.>.0.W ` ` o.o.+.+.o.X.[ +.+.+.+.t.+./ f.=.#.Q Q Q Q u.1.0.0.0.0.0.2.2.=.X./ ~ ~ ~ ! ~ ~ ~ o.X.=.=.=.7.4.8.0.0.0.0.0.0.0.0.0.0.0.0.0.0.0.0.",
"0.0.0.0.0.0.0.0.0.0.0.0.0.0.8.8.1.7.1.a.a.a.0.u.~ ~ / ~ / / / X.o.:.1.1.2.2.0.4.2.1.1.y.y.y.y.1.~ o.0.[ ~ [ o.[ [ 0.] ~ ] o.o.o.o.o.X.X.~ k.k.k.+.2.:.:.1.1.>.:.:.1.1.>.1.1.1.1.1.1.>.1.1.1.1.1.1.1.1.1.1.1.1.1.1.1.1.1.1.1.1.1.1.1.1.1.1.1.1.1.1.1.1.1.1.1.2.1.1.1.1.1.1.1.1.1.1.1.1.1.1.1.1.1.1.1.1.1.1.1.1.1.1.1.1.1.1.1.>.>.1.>.>.1.1.1.1.1.1.1.1.1.1.1.:.:.>.:.>.>.1.>.0.W ` ` o.o.o.+.+.X.[ +.+.+.+.t.+./ f.=.#.Q Q Q Q u.1.0.0.0.0.2.2.2.=.] / ~ ~ ~ ~ ~ ~ ~ o.o.=.=.=.7.4.8.0.0.0.0.0.0.0.0.0.0.0.0.0.0.0.0.",
"0.0.0.0.0.0.0.0.0.0.0.0.0.0.8.8.1.7.1.a.a.a.9.h.Q Q / ~ / / / ] o.:.1.1.2.2.0.0.2.1.1.y.y.y.y.1.~ o.0.o./ o.o.o.o.0.] ~ ] o.o.o.o.o.o.X.~ k.k.k.+.2.:.:.>.1.>.>.>.>.1.1.>.>.1.1.1.1.>.1.1.1.1.1.1.1.1.1.1.1.1.1.1.1.1.1.1.1.1.1.1.1.1.1.1.1.1.1.1.1.1.1.1.1.2.1.1.1.1.1.1.1.1.1.1.1.1.1.1.1.1.1.1.1.1.1.1.1.1.1.1.1.1.1.1.1.>.>.1.>.>.1.1.1.1.1.1.1.1.1.1.>.:.:.>.:.>.>.1.>.0.W ` ` o.o.X.o.o.o.] +.+.+.+.t.+./ f.#.#.Q Q Q Q u.1.0.0.0.0.2.2.2.=.] / ~ ~ ~ ~ ~ ~ ~ o.o.=.=.=.7.4.8.0.0.0.0.0.0.0.0.0.0.0.0.0.0.0.0.",
"0.0.0.0.0.0.0.0.0.0.0.0.0.0.8.8.2.7.1.f.f.f.9.h.! ! / / / / / ] +.=.1.1.0.0.2.0.2.1.1.y.y.y.y.1./ +.0.o./ +.+.+.+.4.] ~ ] o.o.o.o.o.o.o.Q k.k.k.+.2.:.:.:.1.1.>.>.1.>.1.1.2.1.2.1.1.1.1.1.1.1.1.1.1.1.1.1.1.1.1.1.1.1.1.1.1.1.1.1.1.1.1.1.1.1.1.1.1.1.1.1.1.1.1.1.1.1.1.1.1.1.1.1.1.1.1.1.1.1.1.1.1.1.1.1.1.1.1.1.1.1.1.1.1.2.2.1.>.>.1.1.1.>.1.>.1.1.1.1.1.:.:.1.:.1.1.1.>.0.W ` ` X.X.X.o.o.o.] +.+.+.+.t.+./ f.=.o.Q Q Q Q u.1.0.0.0.0.0.2.2.=.X./ ~ ~ ~ / ~ ~ ~ o.o.=.=.=.7.4.8.0.0.0.0.0.0.0.0.0.0.0.0.0.0.0.0.",
"0.0.0.0.0.0.0.0.0.0.0.0.0.0.8.8.2.7.7.i.i.i.0.j.Q Q / ~ / / / ] o.1.1.1.2.2.0.0.2.1.1.y.y.y.y.1./ +.0.o./ +.+.+.+.4.] ~ X.o.o.o.o.o.o.o.^ k.k.k.+.2.:.:.:.1.1.>.1.1.1.1.>.1.2.2.1.1.1.1.1.1.1.1.1.1.1.1.1.1.1.1.1.1.1.1.1.1.1.1.1.1.1.1.1.1.1.1.1.1.1.2.1.1.1.1.1.1.1.1.1.1.1.1.1.1.1.1.1.1.1.1.1.1.1.1.1.1.1.1.1.1.1.1.1.1.2.1.1.1.1.>.1.1.>.1.>.1.1.1.1.1.:.:.1.:.1.1.1.>.0.W ` ` X.X.o.+.o.o.] +.+.+.+.t.+./ s.#.X.Q Q Q Q u.1.0.0.0.0.2.2.2.=.] / ~ ~ ~ ~ ~ ! ! o.o.=.=.=.7.4.8.0.0.0.0.0.0.0.0.0.0.0.0.0.0.0.0.",
"0.0.0.0.0.0.0.0.0.0.0.0.0.0.8.8.2.8.8.f.f.f.9.j.! ! / / / / / X.+.=.1.1.2.2.2.0.2.1.1.y.y.y.y.=./ +.0.o./ +.+.+.+.2.] ~ ] o.o.o.o.o.o.o.Q k.k.k.@.4.1.1.:.1.>.>.1.1.1.1.1.1.>.>.1.1.1.1.1.1.1.1.1.1.1.1.1.1.1.1.1.1.1.1.1.1.1.1.1.1.1.1.1.1.1.1.1.1.1.1.1.1.1.1.1.1.1.1.1.1.1.1.1.1.1.1.1.1.1.1.1.1.1.1.1.1.1.1.1.1.1.1.1.1.1.1.1.1.1.1.1.1.>.>.1.1.1.1.1.1.:.:.1.:.1.1.1.>.0.! / / o.o.o.+.o.o.X.+.+.+.+.t.+./ f.=.+.Q Q Q Q u.1.0.0.0.0.0.2.2.=.] / ~ ~ ~ ! ~ ~ ~ o.o.=.=.=.7.4.8.0.0.0.0.0.0.0.0.0.0.0.0.0.0.0.0.",
"0.0.0.0.0.0.0.0.0.0.0.0.0.0.8.8.1.8.8.a.f.f.9.j.! ! / / / / / X.+.=.1.1.2.2.2.0.2.1.1.y.y.y.y.=./ +.0.o./ +.+.+.+.2.] ~ ] o.o.o.o.o.o.X.Q k.k.k.@.4.1.1.:.1.>.>.1.1.1.1.1.1.>.>.1.2.1.1.1.1.1.1.1.1.>.>.1.1.1.1.1.1.1.1.1.1.1.1.1.1.1.1.1.1.1.1.1.1.1.1.1.1.1.1.1.1.1.1.1.1.1.1.1.1.1.1.1.1.1.1.1.1.1.1.1.1.1.1.1.1.1.1.1.1.1.1.1.1.1.2.1.1.>.1.1.>.>.1.1.>.:.:.>.:.1.1.1.>.0.! / / o.o.o.+.+.o.X.] ] ] ] r.@./ s.#.#.Q Q Q Q u.1.0.0.0.0.0.2.2.=.X./ ~ ~ ~ ! ~ ~ ~ o.o.=.=.=.7.4.8.0.0.0.0.0.0.0.0.0.0.0.0.0.0.0.0.",
"0.0.0.0.0.0.0.0.0.0.0.0.0.0.8.8.1.7.8.i.d.d.0.g.Q Q / ~ / / / X.o.1.1.1.2.2.0.0.2.1.1.y.y.y.y.=./ +.0.o./ o.o.o.o.0.] ~ X.o.o.o.o.o.o.] Q k.k.k.+.2.1.1.:.>.1.1.1.1.1.1.>.>.>.>.1.1.1.1.1.1.1.1.1.1.1.>.1.1.1.1.1.1.1.1.1.1.1.1.1.1.1.1.1.1.1.1.1.1.1.1.1.1.1.1.1.1.1.1.1.1.1.1.1.1.1.1.1.1.1.1.1.1.1.1.1.1.1.1.1.1.1.1.1.1.1.1.1.1.1.>.1.1.1.1.1.>.>.>.1.>.:.:.>.:.1.1.>.>.0.Q ] ] o.o.+.o.+.o.X./ / / / 4.@.` f.#.+.Q Q Q Q u.1.0.0.0.0.2.2.2.=.] / / / / ! ! ! ~ o.o.=.=.=.7.4.8.0.0.0.0.0.0.0.0.0.0.0.0.0.0.0.0.",
"0.0.0.0.0.0.0.0.0.0.0.0.0.0.8.8.1.7.8.a.a.f.9.j.Q Q / / / / / X.+.=.1.1.0.0.2.0.2.1.1.y.y.y.y.=./ +.0.o./ [ [ [ [ 0.] ~ ] o.o.o.o.o.+.] Q k.k.k.+.4.1.1.:.1.>.1.1.1.1.1.1.1.1.1.1.1.1.1.1.1.1.1.1.1.1.1.1.1.1.1.1.1.1.1.1.1.1.1.1.1.1.1.1.1.1.1.1.1.1.1.1.1.1.1.1.1.1.1.1.1.1.1.1.1.1.1.1.1.1.1.1.1.1.1.1.1.1.1.1.1.1.1.1.>.1.1.1.1.1.>.>.>.1.1.1.1.1.1.1.1.:.>.1.:.>.>.1.>.0.Q ] ] X.o.o.o.o.o.X./ / / / 4.@.` s.#.o.Q Q Q Q u.1.0.0.0.0.0.2.2.=.X./ ~ ~ ~ ! ~ ~ ~ o.X.=.=.=.7.4.8.0.0.0.0.0.0.0.0.0.0.0.0.0.0.0.0.",
"0.0.0.0.0.0.0.0.0.0.0.0.0.0.8.8.1.7.7.i.i.i.0.g.Q Q / ~ / / / ] o.:.1.1.2.2.4.0.2.1.1.y.y.y.y.=./ +.0.o./ [ [ [ [ 0./ ~ ] o.o.o.o.o.+.X.~ k.k.k.+.2.:.:.:.1.1.1.1.2.1.1.1.2.2.2.>.1.1.1.1.1.1.1.1.1.1.1.1.1.1.1.1.1.1.1.1.1.1.1.1.1.1.1.1.1.1.1.1.1.1.1.1.1.1.1.1.1.1.1.1.1.1.1.1.1.1.1.1.1.1.1.1.1.1.1.1.1.1.1.1.1.1.1.1.1.1.1.1.1.1.>.1.1.1.>.1.>.>.>.1.>.1.1.1.:.1.1.1.>.0.Q ] ] o.o.o.o.o.o.X./ / / / 4.@.` f.#.#.Q Q Q Q u.1.0.0.0.0.2.2.2.=.] / ~ ~ ~ ! ! ~ ~ o.o.=.=.=.7.4.8.0.0.0.0.0.0.0.0.0.0.0.0.0.0.0.0.",
"0.0.0.0.0.0.0.0.0.0.0.0.0.0.8.8.1.7.7.i.i.i.0.g.Q Q / ~ / / / ] o.:.1.1.2.2.4.0.2.1.1.y.y.y.y.=./ +.0.o./ [ [ [ [ 0./ ~ ] o.+.o.o.o.o.X.^ k.k.k.+.2.:.:.:.>.1.1.1.2.1.>.1.2.2.2.>.>.1.1.1.1.1.1.1.1.1.1.1.1.1.1.1.1.1.1.1.1.1.1.1.1.1.1.1.1.1.1.1.1.1.1.1.1.1.1.1.1.1.1.1.1.1.1.1.1.1.1.1.1.1.1.1.1.1.1.1.1.1.1.1.1.1.1.1.1.1.1.1.1.1.>.>.>.1.1.1.1.1.>.>.>.>.>.>.:.1.1.1.>.0.Q ] ] o.o.o.o.o.o.X./ / / / 2.@.` d.#.+.o.o.o.o.u.1.0.0.0.0.2.2.2.=.] / ~ / / ! ! ~ ~ o.o.=.=.=.7.4.8.0.0.0.0.0.0.0.0.0.0.0.0.0.0.0.0.",
"0.0.0.0.0.0.0.0.0.0.0.0.0.0.8.8.1.7.1.i.i.i.9.g.Q Q ~ / / / / ] +.=.1.1.0.0.2.0.2.1.1.y.y.y.y.1./ +.0.o.~ X.X.X.X.0./ ~ ] o.+.o.o.o.o.X.^ k.k.k.+.2.:.:.:.1.1.1.>.>.1.1.1.1.1.>.1.1.1.1.1.1.1.1.1.1.>.1.1.1.1.1.1.1.1.1.1.1.1.1.1.1.1.1.1.1.1.1.1.1.1.1.1.1.1.1.1.1.1.1.1.1.1.1.1.1.1.1.1.1.1.1.1.1.1.1.1.1.1.1.1.1.1.1.1.1.>.1.1.1.1.2.1.1.1.>.1.1.1.1.>.1.1.1.>.:.1.1.1.>.0.Q X.X.o.o.o.+.o.o.X./ / / / 2.@.` f.=.+.=.=.=.=.y.1.0.0.0.0.0.2.2.=.X./ ~ ~ ~ ~ ~ ~ ~ o.o.=.=.=.7.4.8.0.0.0.0.0.0.0.0.0.0.0.0.0.0.0.0.",
"0.0.0.0.0.0.0.0.0.0.0.0.0.0.8.8.1.7.1.i.i.i.0.g.W W / ~ / / / ] o.1.1.1.2.2.0.0.2.1.1.y.y.y.y.=./ +.0.o./ o.o.o.o.4./ ~ X.o.+.o.+.+.o.X.^ k.k.k.+.2.:.:.:.1.1.1.1.1.>.>.1.1.>.>.1.1.1.1.1.1.1.1.1.1.1.1.1.1.1.1.1.1.1.1.1.1.1.1.1.1.1.1.1.1.1.1.1.1.1.1.1.1.1.1.1.1.1.1.1.1.1.1.1.1.1.1.1.1.1.1.1.1.1.1.1.1.1.1.1.1.1.1.1.1.1.1.1.1.2.2.1.1.>.1.1.1.1.1.1.>.1.1.1.=.1.1.1.>.0.! X.X.o.o.X.+.o.o.] / / / / 2.@.` d.#.+.%.%.%.%.y.1.0.0.0.0.8.2.2.=.] / ~ / / ~ ~ ! ! o.o.=.=.=.7.4.8.0.0.0.0.0.0.0.0.0.0.0.0.0.0.0.0.",
"0.0.0.0.0.0.0.0.0.0.0.0.0.0.2.2.7.7.1.i.i.i.9.g.W W / ~ / / / X.+.=.1.1.8.8.2.0.2.1.1.y.y.y.y.@./ +.0.o./ +.+.+.+.4./ ~ X.o.o.o.o.o.o.X.Q k.k.k.@.2.:.:.>.1.1.1.1.>.1.1.2.2.2.2.2.1.1.1.1.1.2.1.1.1.1.1.1.1.1.1.1.1.1.1.1.1.1.1.1.1.1.1.1.1.1.1.1.1.1.1.1.1.1.1.1.1.1.1.1.1.1.1.1.1.1.1.1.1.1.1.1.1.1.1.1.1.1.1.1.1.1.1.1.1.1.1.1.>.>.1.1.1.1.1.>.>.>.>.2.1.2.1.>.:.>.1.1.>.0.R X.X.X.X.o.+.o.o.X./ / / / 4.@.` f.#.X.=.=.=.=.y.1.0.0.0.0.0.2.2.=.] / ~ ~ ~ ~ ~ ~ ~ o.o.=.=.=.7.4.8.0.0.0.0.0.0.0.0.0.0.0.0.0.0.0.0.",
"0.0.0.0.0.0.0.0.0.0.0.0.0.0.2.2.7.7.1.i.i.i.9.g.W W / / / / / ] +.=.1.1.8.8.2.0.2.1.1.y.y.y.y.+./ +.0.o./ +.+.+.+.4./ ~ X.o.o.o.o.o.X.X.Q k.k.k.+.2.:.:.>.>.1.>.>.1.>.1.1.1.2.2.2.2.1.1.1.1.1.1.1.1.1.1.1.1.1.1.1.1.1.1.1.1.1.1.1.1.1.1.1.1.1.1.1.1.1.1.1.1.1.1.1.1.1.1.1.1.1.1.1.1.1.1.1.1.1.1.1.1.1.1.1.1.1.1.1.1.1.1.1.1.1.1.1.1.1.1.1.1.1.1.>.1.1.1.2.1.2.1.>.:.1.1.1.>.0.R X.X.o.o.o.o.+.o.X./ / / / 4.@.` s.#.X.%.%.%.%.y.1.0.0.0.0.0.2.2.=.] / ~ ~ ~ ~ ~ ~ ~ o.o.=.=.=.7.0.8.0.0.0.0.0.0.0.0.0.0.0.0.0.0.0.0.",
"0.0.0.0.0.0.0.0.0.0.0.0.0.0.2.2.7.7.1.i.i.i.9.f.W W / ~ / / / ] o.1.1.1.2.2.0.0.2.1.1.y.y.y.y.@./ +.0.o._ +.+.+.+.4./ / X.o.o.o.+.+.X.X.Q k.k.k.@.2.1.1.>.>.>.>.>.1.1.1.1.1.>.>.1.1.1.1.1.1.1.1.1.1.1.1.1.1.1.1.1.1.1.1.1.1.1.1.1.1.1.1.1.1.1.1.1.1.1.1.1.1.1.1.1.1.1.1.1.1.1.1.1.1.1.1.2.1.1.1.1.1.1.1.1.1.1.1.1.1.1.1.1.1.1.>.1.1.1.1.1.1.>.1.1.1.1.1.2.1.1.1.1.:.1.1.1.>.0.R ] ] X.X.o.o.o.o.o./ / / / 0.@./ f.=.X.=.=.=.=.y.1.0.0.0.0.2.2.2.=.] / ~ ~ ~ ! ~ ! ! o.o.=.=.=.7.4.8.0.0.0.0.0.0.0.0.0.0.0.0.0.0.0.0.",
"0.0.0.0.0.0.0.0.0.0.0.0.0.0.2.2.7.7.1.a.i.a.9.f.W W ~ / / / / ] +.=.1.1.0.0.2.0.2.1.1.y.y.y.y.@./ +.0.] _ +.+.+.+.4./ ~ ] o.o.o.o.+.o.X.Q k.k.k.@.2.1.1.>.1.1.1.>.1.1.1.>.>.>.>.1.>.1.1.1.1.1.1.1.1.1.1.1.1.1.1.1.1.1.1.1.1.1.1.1.1.1.1.1.1.1.1.1.1.1.1.1.1.1.1.1.1.1.1.1.1.1.1.1.1.1.1.2.1.1.1.1.1.1.1.1.1.1.1.1.1.1.1.1.1.1.1.>.1.1.1.1.1.1.1.1.1.1.1.1.1.>.>.>.:.1.1.1.>.0.R X.X.o.o.o.+.o.o.X./ / / / 0.@./ f.=.X.=.%.%.%.y.1.0.0.0.0.0.2.2.=.X./ ~ ~ ~ ! ~ ~ ~ o.X.=.=.=.7.4.8.0.0.0.0.0.0.0.0.0.0.0.0.0.0.0.0.",
"0.0.0.0.0.0.0.0.0.0.0.0.0.0.2.2.7.7.1.i.i.i.0.f.W W / ~ / / / X.o.:.1.1.2.2.0.0.2.1.1.y.y.y.y.@./ +.0.] _ +.+.+.+.4./ ~ ] o.o.o.o.o.o.X.Q k.k.k.+.2.1.1.>.1.>.1.1.1.1.1.1.1.>.>.1.>.1.1.1.1.>.>.1.1.1.1.1.1.1.1.1.1.1.1.1.1.1.1.1.1.1.1.1.1.1.1.1.1.1.1.1.1.1.1.1.1.1.1.1.1.1.1.1.1.1.1.1.1.1.1.1.1.1.1.1.1.1.1.1.1.1.1.1.1.1.1.1.1.1.1.1.1.>.>.1.1.1.2.>.>.>.>.1.:.1.1.1.>.0.R X.X.o.o.o.+.+.o.X./ / / / 4.@./ u.o.o.=.%.%.%.y.1.0.0.0.0.2.2.2.:.X./ ~ ~ ~ ~ ~ ~ ~ o.o.1.=.=.7.4.8.0.0.0.0.0.0.0.0.0.0.0.0.0.0.0.0.",
"0.0.0.0.0.0.0.0.0.0.0.0.0.0.2.2.7.7.1.i.i.i.0.f.W W / ~ / / / X.o.:.1.1.2.2.0.0.2.1.1.y.y.y.y.@./ +.0.] _ +.+.+.+.4./ ~ ] o.o.o.o.o.X.X.^ j.j.j.@.2.1.1.1.>.1.1.1.>.1.1.1.1.1.1.>.1.>.1.1.>.1.>.1.1.1.1.2.1.1.1.1.1.1.1.1.1.1.1.1.1.1.1.1.1.1.1.1.1.1.1.1.1.1.1.1.1.1.1.1.1.1.1.1.1.1.1.1.1.1.1.1.1.1.1.1.1.1.1.1.1.1.1.1.1.1.>.1.1.1.1.1.1.1.>.1.>.>.1.>.>.>.>.1.:.1.1.1.>.0.R ] ] X.X.o.o.+.o.X./ / / / 4.@./ u.o.o.=.%.%.%.y.1.0.0.0.0.2.2.2.:.X./ ~ ~ ~ ~ ~ ~ ~ o.o.=.=.=.7.4.8.0.0.0.0.0.0.0.0.0.0.0.0.0.0.0.0.",
"0.0.0.0.0.0.0.0.0.0.0.0.0.0.2.2.7.7.1.i.i.i.0.f.Q W / / / / / X.+.=.1.1.0.0.2.0.2.1.>.y.y.y.y.@./ +.0.] _ +.+.+.+.4./ ~ ] o.o.o.o.o.o.X./ k.h.h.@.2.>.>.1.1.>.>.>.1.1.1.1.1.1.1.1.1.1.1.1.1.1.1.1.1.1.1.1.1.1.1.1.1.1.1.1.1.1.1.1.1.1.1.1.1.1.1.1.1.1.1.1.1.1.1.1.1.1.1.1.1.1.1.1.1.1.1.1.1.1.1.1.1.1.1.1.1.1.1.1.1.1.1.1.1.1.1.>.1.1.1.1.2.1.1.>.1.1.1.1.>.1.1.>.:.>.1.1.>.0.R ] ] o.o.o.o.+.o.X./ / / / 2.@./ u.o.X.%.%.%.%.y.1.0.0.0.0.0.2.2.=.X./ ~ ~ ~ / ~ ~ ~ o.X.=.=.=.1.0.2.0.0.0.0.0.0.0.0.0.0.0.0.0.0.0.0.",
"0.0.0.0.0.0.0.0.0.0.0.0.0.0.2.2.7.7.1.i.i.i.9.f.W W / ~ / / / X.o.1.1.1.2.2.0.0.2.1.>.y.y.y.y.+./ +.0.] _ +.+.+.+.0./ / X.o.o.o.+.o.o.X./ k.h.h.+.2.>.>.1.1.1.1.1.1.1.>.1.1.1.1.1.1.1.1.1.1.1.1.1.1.1.1.1.1.1.1.1.1.1.1.1.1.1.1.1.1.1.1.1.1.1.1.1.1.1.1.1.1.1.1.1.1.1.1.1.1.1.1.1.1.1.1.1.1.1.2.2.4.4.1.1.1.1.1.1.1.1.1.1.1.1.>.1.2.1.1.1.2.1.1.>.1.1.1.1.1.1.1.>.:.>.>.1.>.0.W ] ] o.o.o.o.+.o.X./ / / / 2.@./ u.o.X.%.%.%.%.y.1.0.0.0.0.2.2.2.:.] / ~ ~ ~ ~ ~ ! ! o.X.=.=.=.1.0.2.0.0.0.0.0.0.0.0.0.0.0.0.0.0.0.0.",
"0.0.0.0.0.0.0.0.0.0.0.0.0.0.2.2.7.7.1.i.i.i.9.f.W W ~ / / / / ] +.=.1.1.0.0.2.0.2.1.>.y.y.y.y.$./ +.0.] / +.+.+.+.0./ ~ ] o.o.o.o.o.o.X.~ h.k.k.@.4.1.1.:.1.1.>.1.2.2.2.1.>.1.1.1.1.>.1.1.1.1.1.1.1.1.1.1.1.1.1.1.1.1.1.1.1.1.1.1.1.1.1.1.1.1.1.1.1.1.1.1.1.1.1.1.1.1.1.1.1.1.1.1.1.1.1.1.1.1.1.1.1.1.1.1.1.1.1.1.1.1.1.1.1.1.1.>.1.1.1.1.1.1.1.>.>.>.>.1.1.1.1.1.:.1.1.1.>.0.W _ _ X.o.+.+.+.X.X./ / / / 2.@./ u.o.o.%.%.%.%.y.1.0.0.0.0.0.2.2.=.] / ~ ~ ~ ~ ~ ~ ~ o.X.=.=.=.1.0.2.0.0.0.0.0.0.0.0.0.0.0.0.0.0.0.0.",
"0.0.0.0.0.0.0.0.0.0.0.0.0.0.2.2.7.7.1.i.a.a.9.f.W W ~ / / / / X.+.=.1.1.0.0.2.0.2.1.>.y.y.y.y.=./ +.0.] / +.+.+.+.0./ ~ ] o.o.o.o.o.o.X.Q j.j.j.@.4.1.1.:.1.1.1.1.2.2.2.>.>.>.>.1.1.1.1.1.1.1.1.1.1.1.1.1.1.1.1.1.1.1.1.1.1.1.1.1.1.1.1.1.1.1.1.1.1.1.1.1.1.1.1.1.1.1.1.1.1.1.1.1.1.1.1.1.1.1.1.1.1.1.1.1.1.1.1.1.1.1.1.1.1.1.1.1.>.>.1.1.1.1.1.>.>.1.1.1.1.1.1.>.:.1.1.1.>.0.W _ _ X.o.+.+.+.o.X./ / / / 2.@./ u.o.X.=.=.=.=.y.1.0.0.0.0.0.2.2.=.] / ~ ~ ~ ~ ~ ~ ~ o.] =.=.=.1.0.2.0.0.0.0.0.0.0.0.0.0.0.0.0.0.0.0.",
"0.0.0.0.0.0.0.0.0.0.0.0.0.0.2.2.7.7.1.i.i.i.7.f.Q Q ~ ~ / / / ] o.1.1.1.2.2.0.0.2.1.>.y.y.y.y.@./ @.0.] / +.+.+.+.0./ / X.o.o.o.+.+.o.X.~ j.j.j.@.2.1.1.:.1.1.1.1.1.2.2.>.>.1.1.>.>.1.1.1.1.1.1.1.1.1.1.1.1.1.1.1.1.1.1.1.1.1.1.1.1.1.1.1.1.1.1.1.1.1.1.1.1.1.1.1.1.1.1.1.1.1.1.1.1.1.1.1.1.1.1.1.1.1.1.1.1.1.1.1.1.1.1.1.1.1.1.1.1.1.1.1.1.1.>.2.1.1.1.>.1.>.>.>.:.1.1.1.>.0.W ] ] o.o.o.o.o.X.X./ / / / 2.@./ u.o.+.%.%.%.%.u.1.0.0.0.0.2.2.2.=.] / ~ ~ ~ ! ! ! ! o.o.=.=.=.7.4.8.0.0.0.0.0.0.0.0.0.0.0.0.0.0.0.0.",
"0.0.0.0.0.0.0.0.0.0.0.0.0.0.2.2.7.7.1.i.a.i.9.f.W Q ~ / / / / ] +.=.1.1.0.0.2.0.2.1.1.y.y.y.y.@./ o.0.] / o.o.o.o.4./ ~ ] o.o.o.o.o.X.X./ h.h.h.+.2.1.1.:.1.1.1.>.>.1.1.>.>.1.1.1.1.>.1.1.1.1.1.1.1.1.1.1.1.1.1.1.1.1.1.1.1.1.1.1.1.1.1.1.1.1.1.1.1.1.1.1.1.1.1.1.1.1.1.1.1.1.1.1.1.1.1.1.1.1.1.1.1.1.1.1.1.1.1.1.1.1.1.1.1.1.1.1.1.1.1.1.1.>.1.2.1.1.1.1.>.>.>.>.:.1.1.1.>.0.R ] ] o.o.o.o.+.o.X./ / / / 2.@./ u.o.X.%.%.%.%.y.1.0.0.0.0.0.2.2.=.X./ ~ ~ ~ ! ~ ~ ~ o.X.=.=.=.7.4.8.0.0.0.0.0.0.0.0.0.0.0.0.0.0.0.0.",
"0.0.0.0.0.0.0.0.0.0.0.0.0.0.2.2.7.7.1.i.i.i.0.g.W W ~ ~ / / / ] o.:.1.1.2.2.8.0.2.1.7.y.y.y.y.=.~ o.0.] / [ [ [ [ 4./ / ] o.o.o.o.o.X.X./ k.k.k.@.2.1.1.:.1.>.>.>.1.1.>.>.>.1.1.1.1.1.1.>.1.1.1.1.1.1.1.1.1.1.1.1.1.1.1.1.1.1.1.1.1.1.1.1.1.1.1.1.1.1.4.1.1.1.1.1.1.1.1.1.1.1.1.1.1.1.1.1.1.1.1.1.1.1.1.1.1.1.1.1.1.1.1.1.1.1.1.1.1.1.2.>.>.1.>.2.1.>.>.1.1.:.:.>.:.>.>.1.>.0.R ] ] o.o.o.o.o.X.X./ / / / 2.@./ u.o.o.%.%.%.%.y.1.0.0.0.0.2.2.2.=.] / ~ ~ ~ ~ ~ ~ ~ o.o.=.=.=.7.4.8.0.0.0.0.0.0.0.0.0.0.0.0.0.0.0.0.",
"0.0.0.0.0.0.0.0.0.0.0.0.0.0.2.2.7.7.1.i.i.i.0.k.W W ~ ~ / / / X.o.:.1.1.2.2.0.0.2.7.7.y.y.y.y.$./ o.0.] / [ [ [ [ 0./ / ] o.o.o.o.o.o.X./ k.k.k.@.2.1.:.:.1.>.>.>.>.>.1.1.1.1.1.1.1.>.1.1.1.1.1.1.1.1.1.1.1.1.1.1.1.1.1.1.1.1.1.1.1.1.1.1.1.1.1.1.1.1.1.1.1.1.1.1.1.1.1.1.1.1.1.1.1.2.1.1.1.1.1.1.1.1.1.1.1.1.1.1.1.1.1.1.1.1.1.2.1.2.2.1.1.1.1.1.1.1.1.1.1.:.:.>.:.1.1.1.>.0.R X.X.X.X.+.+.o.o.X./ / / / 2.@./ t.o.+.%.%.%.#.y.1.0.0.0.0.2.2.2.=.] / ~ ~ ~ ~ ~ ~ ~ o.o.=.=.=.7.4.8.0.0.0.0.0.0.0.0.0.0.0.0.0.0.0.0.",
"0.0.0.0.0.0.0.0.0.0.0.0.0.0.2.2.7.7.0.i.i.i.9.k.W W ~ / / / / ] +.=.1.1.0.0.2.0.2.7.1.y.y.y.y.$.~ o.r.] / [ [ [ [ 0./ ~ ] o.o.o.o.o.X.X./ k.k.k.@.2.:.:.:.1.1.>.1.1.1.>.1.1.1.1.1.1.1.1.1.1.1.1.1.1.1.1.1.1.1.1.1.1.1.1.1.1.1.1.1.1.1.1.1.1.1.1.1.1.1.1.1.1.1.1.1.1.1.1.1.1.1.1.1.1.4.1.1.1.1.1.1.1.1.1.1.1.1.1.1.1.1.1.1.1.1.1.>.1.1.1.1.1.1.1.>.>.>.>.1.>.1.1.>.:.1.1.1.>.0.R ] ] o.o.o.+.+.o.X./ / / / 4.@./ u.o.+.%.#.#.#.y.1.0.0.0.0.0.2.2.=.X./ ~ ~ ~ / ~ ~ ~ o.o.=.=.=.7.4.8.0.0.0.0.0.0.0.0.0.0.0.0.0.0.0.0.",
"0.0.0.0.0.0.0.0.0.0.0.0.0.0.2.2.7.7.0.i.i.i.9.k.W W ~ ~ / / / ] o.1.1.1.2.2.0.0.2.1.1.y.y.y.y.$./ +.r.] / [ [ [ [ 0./ / X.o.o.o.+.+.X.X./ k.k.k.@.2.:.:.:.1.1.1.1.1.1.>.1.1.1.1.1.1.1.1.1.1.1.1.1.1.1.>.1.1.1.1.1.1.1.1.1.1.1.1.1.1.1.1.1.1.1.1.1.1.1.1.1.1.1.1.1.1.1.1.1.1.1.1.1.1.1.1.1.1.1.1.1.1.1.1.1.1.1.1.1.1.1.1.1.1.1.1.1.1.>.>.>.>.1.2.>.>.>.>.1.1.1.1.1.:.1.1.1.>.0.R ] ] o.o.o.+.o.X.X./ / / / 4.@.` u.X.o.%.%.%.=.y.1.0.0.0.0.2.2.2.=.] / ~ ~ ~ ~ ~ ! ~ o.o.=.=.=.7.4.8.0.0.0.0.0.0.0.0.0.0.0.0.0.0.0.0.",
"0.0.0.0.0.0.0.0.0.0.0.0.0.0.2.2.7.7.0.i.i.i.7.k.W W / / / / / ] +.=.1.1.0.0.2.0.2.1.1.y.y.y.y.o./ +.0.] / [ [ [ [ 0./ / X.o.o.o.+.o.o.X.~ k.k.k.@.2.1.:.:.1.1.1.1.1.>.>.1.1.>.>.1.1.1.1.1.1.1.1.1.1.1.1.1.1.1.1.1.1.1.1.1.1.1.1.1.1.1.1.1.1.1.1.1.1.1.1.1.1.1.1.2.2.2.1.1.1.1.1.1.1.1.1.1.1.1.1.1.1.1.1.1.1.1.1.1.1.1.1.1.1.1.1.1.1.1.>.>.>.2.2.>.1.1.1.1.1.1.1.1.:.1.>.1.>.0.R X.X.o.o.o.+.o.X.X./ / / / 4.@.` u.X.X.=.=.=.=.y.1.0.0.0.0.0.2.2.:.X./ ~ ~ ~ ! ~ ~ ~ o.o.1.=.=.7.4.8.0.0.0.0.0.0.0.0.0.0.0.0.0.0.0.0.",
"0.0.0.0.0.0.0.0.0.0.0.0.0.0.2.2.7.7.0.i.i.i.7.k.W W / / / / / ] +.=.1.1.0.0.2.0.2.1.>.y.y.y.y.o./ +.r.] / [ [ [ [ 0./ / X.o.o.o.+.+.o.X.~ k.k.k.@.2.1.:.:.1.>.1.>.1.>.>.>.>.>.>.1.1.>.1.1.1.1.1.1.1.1.1.1.1.1.1.1.1.1.1.1.1.1.1.1.1.1.1.1.1.1.1.1.1.1.1.1.1.1.1.1.1.1.1.1.1.1.1.1.1.1.1.1.1.1.1.1.1.1.1.1.1.1.1.1.1.1.1.1.1.1.1.1.1.1.1.>.>.2.1.>.1.1.1.1.>.1.1.1.:.1.1.1.>.0.R X.X.X.X.o.+.+.o.X./ / / / 4.@.` u.X.X.%.%.%.%.y.1.0.0.0.0.0.2.2.:.X./ ~ ~ ~ ! ~ ~ ~ o.o.=.=.=.7.4.8.0.0.0.0.0.0.0.0.0.0.0.0.0.0.0.0.",
"0.0.0.0.0.0.0.0.0.0.0.0.0.0.2.2.7.7.0.u.u.u.7.h.W W / ~ / / / ] o.1.1.1.2.2.0.0.2.1.>.y.y.y.y.o./ +.0.] / o.] ] [ 0./ / X.o.o.o.+.+.o.X.~ k.k.k.@.2.:.:.:.1.1.1.1.1.1.1.2.2.1.1.1.1.1.1.1.1.1.1.1.1.1.1.1.1.1.1.1.1.1.1.1.1.1.1.1.1.1.1.1.1.1.1.1.1.1.1.1.1.1.1.1.1.1.1.1.1.1.1.1.1.1.1.1.1.1.1.1.1.1.1.1.1.1.1.1.1.1.1.1.1.1.1.1.1.1.1.1.1.1.1.1.1.1.1.1.1.1.1.>.:.>.1.1.>.0.R X.X.o.o.X.+.o.o.X./ / / / 4.@.` u.X.o.%.%.%.=.y.1.0.0.0.0.2.2.2.:.X./ / ~ ~ ~ ! ! ! o.o.=.=.=.7.4.8.0.0.0.0.0.0.0.0.0.0.0.0.0.0.0.0.",
"0.0.0.0.0.0.0.0.0.0.0.0.0.0.2.2.7.7.0.i.i.i.7.k.W W / / / / / ] +.=.1.1.0.0.2.0.2.1.1.y.y.y.y.o./ +.0.] / o.X.X.o.0./ ~ ] o.o.o.+.o.o.X.~ k.k.k.@.2.>.>.>.>.1.1.1.1.1.1.2.2.2.2.1.1.1.1.1.1.1.1.1.1.1.1.1.1.1.1.1.1.1.1.1.1.1.1.1.1.1.1.1.1.1.1.1.1.1.1.1.1.1.1.1.1.1.1.1.1.1.1.1.1.1.1.1.1.1.1.1.1.1.1.1.1.1.1.1.1.1.1.1.1.1.1.1.1.1.1.1.1.1.1.>.1.1.1.1.1.>.>.>.:.>.>.1.>.0.W X.X.o.o.o.+.o.o.X./ / / / 4.@./ u.X.X.%.%.%.%.y.1.0.0.0.0.0.2.2.=.X./ ~ ~ ~ / ~ ~ ~ o.o.=.=.=.7.4.8.0.0.0.0.0.0.0.0.0.0.0.0.0.0.0.0.",
"0.0.0.0.0.0.0.0.0.0.0.0.0.0.2.2.7.7.0.i.i.i.7.h.W W ~ ~ / / / ] o.:.1.1.2.2.0.0.2.1.>.y.y.y.y.#./ +.0.] _ +.o.o.+.0./ / ] o.o.o.o.o.o.X.~ k.k.k.@.1.1.>.1.1.1.1.1.1.1.1.2.1.1.1.>.1.1.1.1.1.1.1.1.1.1.1.1.1.1.1.1.1.1.1.1.1.1.1.1.1.1.1.1.1.1.1.1.1.1.1.1.1.1.1.1.1.1.1.1.1.1.1.1.1.1.1.1.1.1.1.1.1.1.1.1.1.1.1.1.1.1.1.1.1.1.>.1.1.1.>.1.1.1.1.1.1.1.1.1.1.:.:.1.:.1.1.1.>.0.W / / o.o.+.+.+.+.] / / / / 4.@./ t.o.X.%.%.%.%.y.1.0.0.0.0.2.2.2.=.] / ~ / / ~ ~ ~ ~ o.o.=.=.=.7.4.8.0.0.0.0.0.0.0.0.0.0.0.0.0.0.0.0.",
"0.0.0.0.0.0.0.0.0.0.0.0.0.0.2.2.7.7.0.i.i.i.7.h.W W ~ ~ / / / ] o.:.1.1.2.2.0.0.2.1.>.y.y.y.y.#./ +.0.[ / X.X.X.X.r./ / ] o.o.o.o.o.o.X.~ k.k.k.@.1.1.1.1.>.1.1.1.1.1.1.2.2.>.1.1.1.1.1.1.1.1.1.1.1.1.1.1.1.1.1.1.1.1.1.1.1.1.1.1.1.1.1.1.1.1.1.1.1.1.1.1.1.1.1.1.1.1.1.1.1.1.1.1.1.1.1.1.1.1.1.1.1.1.1.1.1.1.1.1.1.1.1.1.1.1.1.1.1.1.>.1.1.1.1.1.1.1.1.1.1.:.:.1.:.1.1.1.>.0.W ` ` o.o.X.+.+.o.] / / / / 4.@./ t.o.o.%.%.%.%.u.1.0.4.4.4.2.2.2.=.] / ~ / ~ ~ ~ ~ ~ o.o.=.=.=.7.4.8.0.0.0.0.0.0.0.0.0.0.0.0.0.0.0.0.",
"0.0.0.0.0.0.0.0.0.0.0.0.0.0.2.2.7.7.0.i.i.i.7.h.W W ~ / / / / ] +.=.1.1.0.0.2.0.2.1.1.y.y.y.y.o./ +.r.[ _ +.+.+.+.0./ / ] o.o.o.o.o.o.X./ k.k.k.@.1.1.1.>.:.:.:.>.1.1.>.>.>.1.1.>.1.1.1.1.1.1.1.1.1.1.1.1.1.1.1.1.1.1.1.1.1.1.1.1.1.1.1.1.1.1.1.1.1.1.1.1.1.1.1.1.1.1.1.1.1.1.1.1.1.1.1.1.1.1.1.1.1.1.1.1.1.1.1.1.1.1.1.1.1.1.1.1.1.1.1.1.1.1.>.>.1.1.1.>.1.:.=.:.:.1.1.>.>.0.W / / o.o.X.+.+.o.] / / / / 4.+./ t.o.] %.%.%.%.w.1.0.0.0.0.4.2.2.=.X./ ~ ~ ~ ! ~ ~ ~ #.o.=.=.=.7.4.8.0.0.0.0.0.0.0.0.0.0.0.0.0.0.0.0.",
"0.0.0.0.0.0.0.0.0.0.0.0.0.0.2.2.7.7.0.u.u.u.7.h.W W ~ ~ / / / ] o.1.1.1.2.2.0.0.2.1.1.y.y.y.y.o./ +.q.[ _ +.+.+.+.0./ / X.o.o.o.+.+.o.X.~ k.k.k.@.1.1.1.>.:.:.:.:.1.>.1.1.1.>.>.>.1.1.1.1.1.1.1.1.1.1.1.1.1.>.1.1.1.1.1.1.1.1.1.1.1.1.1.1.1.1.1.1.1.1.1.1.1.1.1.1.1.1.1.1.1.1.1.1.1.1.1.1.1.1.1.1.1.1.1.1.1.1.1.1.1.1.1.1.1.1.1.1.1.1.1.1.2.>.1.>.>.>.1.1.>.>.>.>.:.1.1.>.>.0.W / / o.o.X.+.+.o.] / / / / 2.+./ u.o.o.%.%.%.%.1.2.4.4.4.4.8.2.2.=.] / ~ ~ ~ ! ! ! ! o.o.=.=.=.7.4.8.0.0.0.0.0.0.0.0.0.0.0.0.0.0.0.0.",
"0.0.0.0.0.0.0.0.0.0.0.0.0.0.2.2.7.7.0.i.i.i.8.h.W W ~ ~ / / / ] +.=.1.1.0.0.2.0.2.1.1.y.y.y.y.o./ +.0.] _ +.+.+.+.q.! / ] o.o.o.o.o.X.X./ k.k.k.@.1.>.>.1.1.:.:.>.1.1.1.1.1.1.1.>.1.1.1.1.1.1.2.2.2.1.1.1.1.1.1.1.1.1.1.1.1.1.1.1.1.1.1.1.1.1.1.1.1.1.1.1.1.1.1.1.1.1.1.1.1.1.1.1.1.1.1.1.1.1.1.1.1.1.1.1.1.1.1.1.1.1.1.1.1.1.>.>.1.1.1.1.1.1.>.1.1.1.1.1.>.1.1.1.:.1.1.1.>.0.W / / o.o.X.+.+.o.] / / / / 4.@./ u.o.o.=.=.=.%.6.1.4.4.4.4.0.2.2.=.] / ~ ~ ~ ! ~ ~ ~ o.o.=.=.=.7.4.8.0.0.0.0.0.0.0.0.0.0.0.0.0.0.0.0.",
"0.0.0.0.0.0.0.0.0.0.0.0.0.0.2.2.7.7.0.i.i.i.7.h.W W ~ ~ / / / ] +.=.1.1.0.0.2.0.2.1.1.y.y.y.y.X._ +.0.] _ +.+.+.+.q.~ / ] o.o.o.o.o.o.X./ k.k.k.@.1.:.>.1.1.:.:.:.1.1.1.1.1.1.1.>.1.1.1.1.1.2.2.1.2.1.1.1.1.1.1.1.1.1.1.1.1.1.1.1.1.1.1.1.1.1.1.1.1.1.1.1.1.1.1.1.1.1.1.1.1.1.1.1.1.1.1.1.1.1.1.1.1.1.1.1.1.1.1.1.1.1.1.1.1.1.1.1.1.1.1.1.1.1.>.1.1.1.1.1.1.1.1.1.:.1.1.>.>.0.W / / o.o.o.+.+.o.] / / / / 4.@./ u.o.X.=.=.=.%.6.1.4.4.4.4.0.2.2.=.] / ~ ~ ~ ! ~ ~ ~ o.o.=.=.=.7.4.8.0.0.0.0.0.0.0.0.0.0.0.0.0.0.0.0.",
"0.0.0.0.0.0.0.0.0.0.0.0.0.0.2.2.7.7.0.u.i.u.7.h.W W ~ ~ / / / ] o.1.1.1.2.2.0.0.2.1.1.y.y.y.y.o._ +.0.] _ +.+.+.+.r.~ / X.o.o.o.o.o.X.X./ k.k.k.@.1.:.>.1.1.1.1.>.1.>.>.1.1.>.>.1.1.1.1.1.>.>.>.1.1.1.1.1.1.1.1.1.1.1.1.1.1.1.1.1.1.1.1.1.1.1.1.1.1.1.1.1.1.1.1.1.1.1.1.1.1.1.1.1.1.1.1.1.1.1.1.1.1.1.1.1.1.1.1.1.1.1.1.1.>.1.1.>.>.>.1.1.1.1.1.1.>.>.>.>.1.1.>.1.:.1.>.1.>.0.W / / o.o.o.o.o.o.] / / / / 4.@./ u.o.o.=.=.=.=.7.2.4.4.4.4.8.2.2.=.X./ ~ ~ ~ ~ ~ ~ ~ o.o.1.=.=.7.4.8.0.0.0.0.0.0.0.0.0.0.0.0.0.0.0.0.",
"0.0.0.0.0.0.0.0.0.0.0.0.0.0.2.2.7.7.0.i.i.i.9.h.W W ~ / / / / ] +.=.1.1.0.0.2.0.2.1.1.y.y.y.y.o._ +.0.] _ +.+.+.+.r./ / ] o.o.o.o.o.o.X./ k.k.k.@.1.:.:.>.:.:.:.:.>.1.>.1.1.1.1.1.1.1.1.1.>.>.>.1.1.1.1.1.1.1.1.1.1.1.1.1.1.1.1.1.1.1.1.1.1.1.1.1.1.1.1.1.1.1.1.1.1.1.1.1.1.1.1.1.1.1.1.1.1.1.1.1.1.1.1.1.1.1.1.1.1.1.1.1.>.1.1.1.1.1.1.>.1.1.1.1.1.1.1.1.>.1.1.1.:.1.>.>.>.0.W / / o.o.o.o.o.o.] / / / / 4.@./ u.o.o.=.=.=.=.7.2.4.4.4.4.0.2.2.=.] / ~ ~ ~ ~ ~ ~ ~ =.X.=.=.=.7.4.8.0.0.0.0.0.0.0.0.0.0.0.0.0.0.0.0.",
"0.0.0.0.0.0.0.0.0.0.0.0.0.0.2.2.7.7.0.u.u.u.9.h.W W / / / / / ] o.:.1.1.2.2.0.0.2.7.7.y.y.y.y.o._ +.q.] _ o.o.o.+.0.! / X.o.o.o.o.o.o.X.~ k.k.k.@.1.:.:.:.1.1.1.1.1.1.1.>.1.1.1.1.1.1.1.1.1.1.1.1.1.1.1.1.1.1.1.1.1.1.1.1.1.1.1.1.1.1.1.1.1.1.1.1.1.1.1.1.1.1.1.1.1.1.1.1.1.1.1.1.1.1.1.1.1.1.1.1.1.1.1.1.1.1.1.1.1.1.1.1.1.1.1.1.>.1.1.1.1.>.1.1.>.>.>.>.>.>.>.>.:.>.>.1.>.0.W _ / o.o.o.+.+.o.] / / / / 4.@./ u.X.X.=.=.=.=.1.2.4.4.4.4.8.2.2.:.X./ ~ ~ / ~ ~ ! ! o.o.=.=.=.7.4.8.0.0.0.0.0.0.0.0.0.0.0.0.0.0.0.0.",
"0.0.0.0.0.0.0.0.0.0.0.0.0.0.2.2.7.7.0.u.u.u.9.h.W W / / / / / ] o.:.1.1.2.2.0.0.2.7.1.y.y.y.y.o._ @.0.] / X.X.X.X.0.! / ] o.o.o.o.o.X.X.~ k.k.k.@.1.:.:.:.1.1.1.2.1.1.1.>.>.1.1.>.1.>.1.1.1.1.1.1.1.1.1.1.1.1.1.1.1.1.1.1.1.1.1.1.1.1.1.1.1.1.1.1.1.1.1.1.1.1.1.1.1.1.1.1.1.1.1.1.1.1.1.1.1.1.1.1.1.1.1.1.1.1.1.1.1.1.1.1.1.1.1.1.1.2.1.1.1.>.1.1.>.>.1.>.>.>.>.:.:.>.>.1.>.0.W / / o.o.o.o.+.o.] / / / / 4.@./ u.o. .=.=.=.=.1.2.4.4.4.4.8.2.2.:.X./ ~ ~ ~ ~ ~ ! ! o.o.=.=.=.7.4.8.0.0.0.0.0.0.0.0.0.0.0.0.0.0.0.0.",
"0.0.0.0.0.0.0.0.0.0.0.0.0.0.2.2.7.7.0.i.i.i.7.h.W W / / / / / ] +.=.1.1.0.0.2.0.2.7.7.y.y.y.y.o._ +.0.] / o.X.X.X.0.~ / ] o.o.o.o.o.o.X.! k.k.k.@.1.:.:.:.1.>.1.1.2.1.>.1.1.1.1.>.1.1.1.1.1.1.1.1.1.1.1.1.1.1.1.1.1.1.1.1.1.1.1.1.1.1.1.1.1.1.1.1.1.1.1.1.1.1.1.1.1.1.1.1.1.1.1.1.1.1.1.1.1.1.1.1.1.1.1.1.1.1.1.1.1.1.1.1.1.1.1.1.1.1.1.>.>.1.>.1.>.1.1.1.:.1.1.1.:.1.1.1.>.0.W / / o.o.+.+.+.o.] _ / / _ 4.@./ u.X.X.%.%.%.=.1.2.4.4.4.4.0.2.2.=.X./ ~ ~ ~ ~ ~ ~ ~ #.o.=.=.=.7.4.8.0.0.0.0.0.0.0.0.0.0.0.0.0.0.0.0.",
"0.0.0.0.0.0.0.0.0.0.0.0.0.0.2.2.7.7.0.u.u.u.7.j.W W / ~ / / / X.o.1.1.1.2.2.0.4.2.1.1.y.y.y.y.o._ +.0.] X.o.o.o.+.0.! / X.o.o.o.+.+.X.X.! k.k.k.=.1.:.:.:.1.1.1.1.>.1.1.>.>.2.2.1.1.1.1.1.1.1.1.1.1.1.1.1.1.1.1.1.1.1.1.1.1.1.1.1.1.1.1.1.1.1.1.1.1.1.1.1.1.1.1.1.1.1.1.1.1.1.1.1.1.1.1.1.1.1.1.1.1.1.1.1.1.1.1.1.1.1.1.1.1.1.1.1.>.>.1.1.1.1.>.1.>.1.1.:.1.1.1.1.:.1.1.1.>.0.W / / o.o.+.+.+.o.] _ / / _ 4.@./ u.o.o.%.%.%.%.7.2.4.4.4.4.2.2.2.:.X./ ~ ~ ~ ~ ~ ! ! o.o.=.=.=.7.4.8.0.0.0.0.0.0.0.0.0.0.0.0.0.0.0.0.",
"0.0.0.0.0.0.0.0.0.0.0.0.0.0.2.2.7.7.0.u.u.u.7.g.W W ~ ~ / / / ] +.=.1.1.0.0.2.0.2.1.1.y.y.y.y.o._ +.0.` _ o.o.o.o.0.~ / ] o.o.o.o.o.X.X.Q k.k.k.=.1.:.:.:.1.>.>.1.2.1.1.1.>.1.1.1.1.1.>.1.1.1.1.1.1.1.1.1.1.1.1.1.1.1.1.1.1.1.1.1.1.1.1.1.1.1.1.1.1.1.1.1.1.1.1.1.1.1.1.1.1.1.1.1.1.1.1.1.1.1.1.1.1.1.1.1.1.1.1.1.1.1.1.1.1.1.1.1.>.>.1.1.1.1.1.1.1.1.1.1.>.:.:.1.:.1.>.>.>.0.W / / o.o.o.+.+.o.] / / / / 1.@./ u.o.X.%.%.%.%.1.2.0.0.4.4.4.2.2.:.] / ~ ~ ~ ~ ~ ~ ~ o.o.=.=.=.7.4.8.0.0.0.0.0.0.0.0.0.0.0.0.0.0.0.0.",
"0.0.0.0.0.0.0.0.0.0.0.0.0.0.2.2.7.7.0.u.u.u.7.j.W W ~ ~ / / / ] +.=.1.1.0.0.2.0.2.1.1.y.y.y.y.o._ @.0.` / ] [ [ [ 0.~ / ] o.o.o.o.o.o.X./ j.j.j.=.1.:.:.:.1.>.>.1.1.1.1.>.>.1.1.>.1.1.1.1.1.1.1.1.1.1.1.1.1.1.1.1.1.1.1.1.1.1.1.1.1.1.1.1.1.1.1.1.1.1.1.1.1.1.1.1.1.1.1.1.1.1.1.1.1.1.1.1.1.1.1.1.1.1.1.1.1.1.1.1.1.1.1.1.1.1.1.1.>.>.1.1.1.1.1.1.1.1.1.1.>.:.:.1.:.>.>.1.>.0.W / / o.o.o.+.+.o.] o.o.o.o.r.+./ y.o...%.%.%.%.1.2.4.0.4.4.4.2.2.=.] / ~ ~ ~ ~ ~ ~ ~ o.o.=.=.=.7.4.8.0.0.0.0.0.0.0.0.0.0.0.0.0.0.0.0.",
"0.0.0.0.0.0.0.0.0.0.0.0.0.0.2.2.7.7.0.u.u.u.7.g.W W ~ ! / / / X.o.1.1.1.2.2.0.0.2.1.1.y.y.y.y.o._ @.0.` / ] ] ] [ r.~ / X.o.o.o.o.o.o.X./ j.j.j.=.1.1.1.:.1.>.>.1.1.>.1.1.1.1.1.1.1.1.1.1.1.1.1.1.1.1.1.1.1.1.1.1.1.1.1.1.1.1.1.1.1.1.1.1.1.1.1.1.1.1.1.1.1.1.1.1.1.1.1.1.1.1.1.1.1.1.1.1.1.1.1.1.1.1.1.1.1.1.1.1.1.1.1.1.1.1.1.1.1.>.>.1.1.1.>.>.1.1.>.1.>.:.:.1.:.1.>.1.>.0.W / / o.o.X.+.o.o.] +.+.+.+.t.@./ x.X.X.%.%.%.%.1.2.0.0.4.4.2.2.2.=.X./ ~ ~ ~ ! ~ ~ ~ o.o.1.=.=.7.4.8.0.0.0.0.0.0.0.0.0.0.0.0.0.0.0.0.",
"0.0.0.0.0.0.0.0.0.0.0.0.0.0.2.2.7.7.0.i.i.i.7.j.W W ~ ~ / / / X.+.=.1.1.0.0.2.0.2.1.1.t.t.t.t.o._ @.0.` / ] ] [ [ 0.~ / ] o.o.o.o.o.o.X./ j.j.j.=.1.1.1.:.1.1.1.1.>.1.>.1.1.>.>.>.1.1.1.>.1.1.1.1.>.1.1.1.1.1.1.1.1.1.1.1.1.1.1.1.1.1.1.1.1.1.1.1.1.1.1.1.1.1.1.1.1.1.1.1.1.1.1.1.1.1.1.1.1.1.1.1.1.1.1.1.1.1.1.1.1.1.1.1.1.1.1.1.1.1.>.1.1.>.1.>.1.1.>.1.>.:.:.:.:.1.1.1.>.0.W / / o.o.o.+.+.o.] +.+.+.+.t.@./ z.X.+.%.%.%.%.1.2.0.0.4.4.4.2.2.=.] / ~ ~ ~ ~ ~ ~ ~ =.o.=.=.=.7.4.8.0.0.0.0.0.0.0.0.0.0.0.0.0.0.0.0.",
"0.0.0.0.0.0.0.0.0.0.0.0.0.0.2.2.7.7.0.u.u.u.7.g.W W / / / / / ] o.:.1.1.2.2.0.0.2.1.1.t.t.t.t.X._ @.0.` / [ [ [ [ 0./ / ] o.o.o.o.o.o.X./ j.j.j.@.1.:.:.:.1.1.1.1.>.1.1.>.>.>.>.>.>.1.1.1.1.1.1.1.>.1.1.1.1.1.1.1.1.1.1.1.1.1.1.1.1.1.1.1.1.1.1.1.1.1.1.1.1.1.1.1.1.1.1.1.1.1.1.1.1.1.1.1.1.1.1.1.1.1.1.1.1.1.1.1.1.1.1.1.1.1.1.2.1.1.1.>.>.1.>.>.1.>.>.1.1.1.1.>.:.>.1.1.>.0.W ] ] X.X.o.+.+.o.] +.+.+.+.t.@./ z.X.+.%.%.%.=.7.2.0.0.0.0.8.2.2.:.X./ ~ ~ ~ ~ ~ ! ! o.o.=.=.=.7.4.8.0.0.0.0.0.0.0.0.0.0.0.0.0.0.0.0.",
"0.0.0.0.0.0.0.0.0.0.0.0.0.0.2.2.7.7.r.u.u.u.1.n.W W / ~ / / / ] o.:.1.1.2.2.0.0.2.1.1.t.t.t.t.] _ @.0.` ] +.+.+.+.0.~ / ] o.o.o.o.o.@.X./ j.j.j.@.1.:.:.:.1.1.1.1.1.>.>.1.1.1.1.1.1.1.1.1.1.1.1.1.1.1.1.1.1.1.1.1.1.1.1.1.1.1.1.1.1.1.1.1.1.1.1.1.1.1.1.1.1.1.1.1.1.1.1.1.1.1.1.1.1.1.1.1.1.1.1.1.1.1.1.1.1.>.1.1.1.1.1.1.1.1.1.1.1.1.1.1.1.1.>.1.1.>.>.:.1.1.1.>.:.>.1.1.>.0.W ] ] X.X.o.+.+.o.] +.+.+.+.t.@./ z.X.o.%.%.%.=.7.2.0.4.4.4.2.2.2.:.X./ ~ ~ ~ ~ ~ ! ! o.o.=.=.=.7.4.8.0.0.0.0.0.0.0.0.0.0.0.0.0.0.0.0.",
"0.0.0.0.0.0.0.0.0.0.0.0.0.0.2.2.7.7.y.i.i.i.7.k.W W / / / / / ] +.=.1.1.0.0.2.0.2.1.1.t.t.t.t.X._ @.0.] ] +.+.+.+.0./ / ] o.o.o.o.o.X.X./ j.j.j.@.1.:.:.1.1.>.>.>.1.2.2.1.1.>.>.1.1.1.1.>.1.1.1.1.1.1.1.1.1.1.1.1.1.1.1.1.1.1.1.1.1.1.1.1.1.1.1.1.1.1.1.1.1.1.1.1.1.1.1.1.1.1.1.1.1.1.1.1.1.1.1.1.1.1.>.1.1.1.1.1.>.>.>.1.1.1.>.1.>.1.>.1.>.1.1.1.1.>.>.:.>.>.>.1.:.1.1.1.>.0.W X.X.X.X.o.o.+.o.] +.+.+.+.t.@./ z.X.X.%.%.%.=.7.2.0.0.0.0.4.2.2.=.X./ ~ ~ ~ / ~ ~ ~ #.o.=.=.=.7.4.8.0.0.0.0.0.0.0.0.0.0.0.0.0.0.0.0.",
"0.0.0.0.0.0.0.0.0.0.0.0.0.0.2.2.7.7.y.u.u.u.1.x.W W ~ ~ / / / ] o.1.1.1.2.2.0.4.8.1.1.t.t.t.t.] _ @.0.] ] +.+.+.+.0.~ / X.o.o.o.o.o.X.X./ j.j.j.=.1.:.:.1.1.>.>.>.1.2.2.1.1.1.1.2.1.2.1.1.1.1.1.1.1.1.1.1.1.1.1.1.1.1.1.1.1.1.1.1.1.1.1.1.1.1.1.1.1.1.1.1.1.1.1.1.1.1.1.1.1.1.1.1.1.1.1.1.1.1.1.1.1.1.1.1.1.1.1.>.1.1.1.2.1.1.>.1.1.1.1.1.1.1.1.1.1.1.1.>.1.1.1.1.:.>.>.>.>.0.W ] X.X.X.o.+.+.o.] +.+.+.+.t.@./ z.X.X.%.%.%.=.7.2.4.4.4.4.8.2.2.=.X./ / ~ ~ ~ ~ ! ! o.o.=.=.=.7.4.8.0.0.0.0.0.0.0.0.0.0.0.0.0.0.0.0.",
"0.0.0.0.0.0.0.0.0.0.0.0.0.0.2.2.7.7.y.u.u.u.7.h.W W ~ ~ / / / ] +.=.1.1.0.0.2.0.2.7.7.t.t.t.u.] _ +.y.] / X.X.X.X.r.~ / ] o.o.o.+.+.X.X./ j.j.j.@.1.>.>.>.>.1.1.1.1.>.>.>.1.2.1.1.>.>.1.1.1.1.1.1.1.1.1.1.1.1.1.1.1.1.1.1.1.1.1.1.1.1.1.1.1.1.1.1.1.1.1.1.1.1.1.1.1.1.1.1.1.1.1.1.1.1.1.1.1.1.1.1.1.1.1.1.1.1.1.1.1.2.1.1.>.>.1.>.>.1.2.2.1.1.>.1.>.>.>.1.1.>.1.>.:.>.>.>.>.0.W ] ] X.X.o.o.o.o.] +.+.+.+.t.@./ z.X...%.%.%.%.7.2.4.4.4.4.0.2.2.=.X./ ~ ~ ~ ~ ~ ~ ~ o.o.=.1.=.7.4.8.0.0.0.0.0.0.0.0.0.0.0.0.0.0.0.0.",
"0.0.0.0.0.0.0.0.0.0.0.0.0.0.2.2.7.7.y.u.u.u.7.x.W W ~ ~ / / / ] +.=.1.1.0.0.2.0.2.7.7.t.t.t.t.X._ @.q.] _ X.+.o.o.r.~ / ] o.o.o.o.o.o.X./ j.j.j.@.1.>.>.>.>.1.1.1.1.1.1.1.1.1.1.2.1.1.1.1.2.1.1.1.1.1.1.1.1.1.1.1.1.1.1.1.1.1.1.1.1.1.1.1.1.1.1.1.1.1.1.1.1.1.1.1.1.1.1.1.1.1.1.1.1.1.1.1.1.1.1.1.1.1.1.1.1.1.1.1.1.1.1.1.1.>.1.>.1.2.1.2.1.1.1.1.1.1.1.1.1.>.1.>.:.>.>.>.>.0.! ] ] o.o.X.+.o.o.] +.+.+.+.t.@./ z.X.o.%.%.#.#.7.2.4.4.4.4.0.2.2.=.X./ ~ ~ ~ ~ ~ ~ ~ o.o.1.1.=.7.4.8.0.0.0.0.0.0.0.0.0.0.0.0.0.0.0.0.",
"0.0.0.0.0.0.0.0.0.0.0.0.0.0.2.2.7.7.y.t.u.u.1.g.W W ! ~ / / / X.o.1.1.1.2.2.0.0.2.7.7.t.u.u.u.X._ +.0.`  .o.+.+.+.r.~ / X.o.o.o.+.+.o.X./ j.j.j.@.1.1.1.1.1.1.1.>.1.>.1.2.1.1.1.1.1.>.1.1.1.1.1.1.1.1.1.1.1.1.1.1.1.1.1.1.1.1.1.1.1.1.1.1.1.1.1.1.1.1.1.1.1.1.1.1.1.1.1.1.1.1.1.1.1.1.1.1.1.1.1.1.1.1.1.1.1.1.1.1.1.1.1.1.1.1.1.1.>.>.1.1.1.1.>.>.>.>.1.:.1.>.>.1.:.1.1.1.>.0.! ] ] o.o.o.o.+.o.] +.+.+.+.t.@./ z.X.o.} } } } 7.2.4.4.4.4.8.2.2.=.X./ ~ ~ ~ ~ ~ ! ! o.o.1.=.=.7.4.8.0.0.0.0.0.0.0.0.0.0.0.0.0.0.0.0.",
"0.0.0.0.0.0.0.0.0.0.0.0.0.0.2.2.7.7.y.u.u.u.9.g.Q W ~ ~ / / / X.#.=.1.1.0.0.2.4.8.1.1.t.t.t.t.] _ +.0./  .o.+.+.+.r.~ / ] o.o.o.o.o.o.X./ j.j.j.=.1.1.1.>.1.1.1.1.>.1.>.1.>.1.1.>.1.>.1.1.1.1.1.1.1.1.1.1.1.1.1.1.1.1.1.1.1.1.1.1.1.1.1.1.1.1.1.1.1.1.1.1.1.1.1.1.1.1.1.1.1.1.1.1.1.1.1.1.1.1.1.1.1.1.1.1.1.1.1.1.1.1.1.1.1.1.1.1.1.1.>.>.>.1.>.1.>.>.1.1.:.>.1.:.:.1.1.1.>.0.! ] ] o.o.o.o.+.o.] +.+.+.+.t.@./ z.X.] | | | } 7.2.4.4.4.4.4.2.2.=.X./ ~ ~ ~ ~ ~ ~ ~ o.] 1.1.=.7.4.8.0.0.0.0.0.0.0.0.0.0.0.0.0.0.0.0.",
"0.0.0.0.0.0.0.0.0.0.0.0.0.0.2.2.7.7.y.u.u.u.7.p.W W ~ ~ / / / ] +.:.1.1.2.2.0.0.2.1.1.t.t.t.t.[ _ +.r.` X.o.o.+.+.r.~ / ] o.o.o.o.o.o.X./ k.k.k.=.1.1.1.1.1.1.1.>.1.>.1.>.>.1.1.>.1.1.1.2.2.1.1.1.>.1.1.1.1.1.1.1.1.1.1.1.1.1.1.1.1.1.1.1.1.1.1.1.1.2.1.1.1.1.1.1.1.1.1.1.1.1.1.1.1.1.2.1.1.1.1.1.1.1.1.1.1.>.1.1.1.1.1.1.1.>.1.1.1.1.1.>.>.1.1.1.1.1.1.>.:.1.1.:.:.1.1.1.>.0.! ] ] o.o.X.o.+.o.] +.+.+.+.t.@./ z.X.o.%.%.%.%.7.2.0.0.4.4.2.2.2.:.X./ ~ ~ ~ ~ ~ ~ ~ o.o.=.=.=.7.4.8.0.0.0.0.0.0.0.0.0.0.0.0.0.0.0.0.",
"0.0.0.0.0.0.0.0.0.0.0.0.0.0.2.2.7.7.y.u.u.u.7.f.W W ~ ~ / / / ] +.:.1.1.2.2.0.0.2.1.1.t.t.t.t.[ _ +.r.` ] X.X.X.X.y.~ / ] o.o.o.o.o.o.X./ j.j.j.=.1.1.1.1.1.1.1.1.1.>.1.>.>.1.1.>.1.1.1.2.2.1.1.1.1.1.1.1.1.1.1.1.1.1.1.1.1.1.1.1.1.1.1.1.1.1.1.1.1.1.1.1.1.1.1.1.1.1.1.1.1.1.1.1.1.1.1.1.1.1.1.1.1.1.1.1.1.1.1.1.1.1.1.1.>.1.1.>.>.>.1.>.>.1.1.1.1.1.1.:.1.:.:.1.:.1.1.1.>.0.! ] ] o.o.o.o.+.o._ X.X.X.X.0.@./ h.X.X.%.%.%.%.7.2.4.0.4.4.2.2.2.:.X./ ~ ~ ~ ~ ~ ~ ~ o.o.=.=.=.7.4.8.0.0.0.0.0.0.0.0.0.0.0.0.0.0.0.0.",
"0.0.0.0.0.0.0.0.0.0.0.0.0.0.2.2.7.7.y.u.u.u.7.u.Q Q / / / / / ] #.=.1.1.0.0.2.0.8.1.1.t.t.t.t.[ _ +.r.` ` [ [ [ [ y.~ / ] o.o.o.o.o.o.X./ j.j.j.@.1.:.:.>.>.>.1.>.>.1.1.1.1.1.1.1.1.1.1.1.1.1.1.1.1.1.1.1.1.1.1.1.1.1.1.1.1.1.1.1.1.1.1.1.1.1.1.1.1.1.1.1.1.1.1.1.1.1.1.1.1.1.1.1.1.1.1.1.1.1.1.1.1.1.>.1.1.1.1.1.1.1.1.1.1.1.1.>.1.1.>.2.1.1.1.1.1.>.>.:.:.1.1.1.:.>.>.>.>.0.! / / o.o.o.+.+.o./ ] ] ] ] 4.+./ z.X.X.%.%.%.=.7.2.0.0.4.4.4.2.2.=.X./ ~ ~ ~ ~ ~ ~ ~ o.] =.=.=.7.4.8.0.0.0.0.0.0.0.0.0.0.0.0.0.0.0.0.",
"0.0.0.0.0.0.0.0.0.0.0.0.0.0.2.2.7.7.r.t.t.t.1.u.W W ~ ~ / / / ] o.1.1.1.2.2.0.0.8.1.1.t.t.t.t.] _ +.0.` ` [ [ [ [ y./ / X.o.o.o.o.o.X.X./ j.j.j.@.1.:.1.>.1.>.>.>.>.2.2.2.1.1.1.1.1.1.>.1.>.>.1.>.1.1.1.1.1.1.1.1.1.1.1.1.1.1.1.1.1.1.1.1.1.1.1.1.1.1.1.1.1.1.1.1.1.1.1.1.1.1.1.1.1.1.1.1.1.1.1.1.1.1.>.>.1.1.1.1.1.1.1.1.1.>.1.>.1.1.2.2.2.1.1.1.>.>.>.>.>.1.1.>.:.1.1.1.>.0.! / / o.o.o.+.o.o./ ] ] ] ] 4.+./ x.X.+.%.%.%.%.7.2.4.4.4.4.2.2.2.=.X./ / ~ ~ ~ ~ ~ ~ o.o.=.=.=.7.4.8.0.0.0.0.0.0.0.0.0.0.0.0.0.0.0.0.",
"0.0.0.0.0.0.0.0.0.0.0.0.0.0.2.2.7.7.y.u.u.u.9.u.W W ~ ~ / / / ] +.=.1.1.0.0.2.0.8.2.1.t.t.t.t.] _ +.0.` ` ] [ [ ] y./ / ] o.o.o.o.o.o.X./ j.j.j.=.1.>.>.>.>.1.1.1.1.1.1.1.1.1.1.1.1.>.1.1.>.>.>.1.1.1.1.1.1.1.1.1.1.1.1.1.1.1.1.1.1.1.1.1.1.1.1.1.1.1.1.1.1.1.1.1.1.1.1.1.1.1.1.1.1.1.1.1.1.1.1.1.1.1.1.1.1.1.1.1.1.1.1.1.1.1.1.>.1.>.1.1.1.1.1.1.>.>.>.1.>.:.:.>.:.>.1.1.>.0.W ` ` o.o.o.+.o.o./ ] X.X.X.4.@./ x.X.o.%.%.%.=.7.2.4.4.4.4.4.2.2.=.X./ ~ ~ ~ ~ ~ ~ ~ o.] =.=.=.7.4.8.0.0.0.0.0.0.0.0.0.0.0.0.0.0.0.0.",
"0.0.0.0.0.0.0.0.0.0.0.0.0.0.2.2.7.7.y.u.u.u.7.p.W W ! ~ / / / ] +.=.1.1.0.0.2.0.8.2.1.t.t.t.t.] _ +.r.` ` [ [ [ [ y./ / ] o.o.o.o.o.o.X./ j.j.j.=.1.1.1.>.>.1.1.1.>.1.2.1.1.>.>.1.1.1.>.>.1.1.1.1.1.1.1.1.1.1.1.1.1.1.1.1.1.1.1.1.1.1.1.1.1.1.1.1.1.1.1.1.1.1.1.1.1.1.1.1.1.1.1.1.1.1.1.1.1.1.1.1.1.1.1.1.1.1.1.1.1.1.1.1.1.1.1.1.1.2.1.1.1.1.1.>.>.>.>.>.>.1.1.1.:.1.1.1.>.0.W ` ` o.o.o.+.o.o./ ] ] ] X.4.=./ x.X.X.%.%.%.=.7.2.4.4.4.4.4.2.2.=.X./ ~ ~ ~ ~ ~ ~ ~ o.] 1.=.=.7.4.8.0.0.0.0.0.0.0.0.0.0.0.0.0.0.0.0.",
"0.0.0.0.0.0.0.0.0.0.0.0.0.0.2.2.7.7.y.u.u.u.1.y.W W ! ~ / / / X.o.1.1.1.2.2.0.0.8.1.1.t.t.t.t.] / o.0.` ` [ [ [ [ y.! / X.o.o.o.o.+.+.X./ j.j.j.=.4.1.1.>.1.1.1.1.1.1.1.2.2.1.1.1.1.>.1.1.1.1.1.1.1.1.1.1.1.1.1.1.1.1.1.1.1.1.1.1.1.1.1.1.1.1.1.1.1.1.1.1.1.1.1.1.1.1.1.1.1.1.1.1.1.1.1.1.1.1.1.1.1.1.1.1.1.1.1.1.1.1.1.1.1.1.1.>.1.1.>.>.1.1.>.1.1.>.>.>.>.:.:.>.1.>.>.>.>.0.W ` ` o.o.X.o.o.o.] / / / / 4.=./ x.X.X.=.%.%.%.7.2.4.4.4.4.2.2.2.=.X./ ~ ~ ~ ! ~ ~ ~ o.o.1.=.=.7.4.8.0.0.0.0.0.0.0.0.0.0.0.0.0.0.0.0.",
"0.0.0.0.0.0.0.0.0.0.0.0.0.0.2.2.7.7.y.u.u.u.9.p.Q Q ~ ~ / / / X.=.=.1.1.0.0.2.4.8.1.1.t.t.t.t.] / o.0.` ` [ [ [ [ y.! / ] o.o.o.o.o.X.X./ j.j.j.=.1.1.1.1.1.1.1.>.1.1.1.2.2.2.1.>.1.>.>.1.1.>.>.>.1.1.1.1.1.1.1.1.1.1.1.1.1.1.1.1.1.1.1.1.1.1.1.1.1.1.1.1.1.1.1.1.1.1.1.1.1.1.1.1.1.1.1.1.1.1.1.1.1.1.1.1.1.1.1.1.1.1.1.1.1.1.1.2.1.2.1.1.1.1.>.1.1.>.>.1.1.:.:.1.:.>.>.>.>.0.W ` ` o.o.o.o.o.o.] / / / / 4.@./ x.X.+.=.%.%.%.1.2.4.4.4.4.4.2.2.=.X./ ~ ~ ~ ~ ~ ~ ~ o.] 1.=.=.7.4.8.0.0.0.0.0.0.0.0.0.0.0.0.0.0.0.0.",
"0.0.0.0.0.0.0.0.0.0.0.0.0.0.2.2.7.7.0.u.u.u.1.y.W W ! ~ / / / ] +.:.1.1.2.2.0.0.8.7.7.t.u.u.u.] / o.r.` ` o.o.o.[ y.! / X.o.o.o.o.o.X.X./ j.j.j.=.1.1.1.>.1.1.1.1.>.1.2.1.2.1.1.1.1.1.1.1.1.1.1.1.1.1.1.1.1.1.1.1.1.1.1.1.1.1.1.1.1.1.1.1.1.1.1.1.1.1.1.1.1.1.1.1.1.1.1.1.1.1.1.1.1.1.1.1.1.1.1.1.1.1.1.1.1.1.1.1.1.1.1.1.1.1.>.1.1.1.>.1.1.1.>.>.1.>.>.1.>.:.:.>.:.>.>.>.>.0.W ] ] X.X.X.o.o.o.] / / / / 4.@./ x.X.+.=.%.%.%.1.2.4.4.4.4.2.2.2.:.X./ ~ ~ ~ ~ ~ ~ ~ o.o.=.=.=.7.4.8.0.0.0.0.0.0.0.0.0.0.0.0.0.0.0.0.",
"0.0.0.0.0.0.0.0.0.0.0.0.0.0.2.4.7.7.0.u.u.u.1.u.Q W ! ~ / / / ] +.:.1.1.2.2.0.0.2.7.7.t.t.t.t.] / +.r.` ` o.[ [ [ y.! / X.o.o.o.+.+.o.X./ j.j.j.=.1.1.1.>.1.>.>.>.1.1.1.1.1.>.>.1.1.1.1.1.1.1.1.1.1.1.1.1.1.1.1.1.1.1.1.1.1.1.1.1.1.1.1.1.1.1.1.1.1.1.1.1.1.1.1.1.1.1.1.1.1.1.1.1.1.1.1.1.1.1.1.1.1.1.1.1.1.1.1.1.1.1.1.1.1.1.1.>.1.1.1.2.2.>.>.>.1.>.>.>.>.1.1.>.1.>.>.>.>.0.W ] ] o.o.o.o.o.o.] / / / / 4.@./ x.X.+.$.$.$.$.1.2.4.4.4.4.2.2.2.:.X./ ~ ~ ~ ~ ~ ~ ~ o.o.=.=.=.7.4.8.0.0.0.0.0.0.0.0.0.0.0.0.0.0.0.0.",
"0.0.0.0.0.0.0.0.0.0.0.0.0.0.2.2.7.7.y.u.u.u.7.y.Q Q ~ / / / / X.=.=.1.1.0.0.2.0.2.7.7.t.t.t.t.` / o.0.` ] o.o.o.o.y.! / ] o.o.o.o.o.X.X./ j.j.j.:.1.>.>.>.1.1.1.>.1.1.>.1.>.>.>.2.1.2.1.1.1.1.1.1.1.1.1.1.1.1.1.1.1.1.1.1.1.1.1.1.1.1.1.1.1.1.1.1.1.1.1.1.1.1.1.1.1.1.1.1.1.    1.1.1.1.1.1.1.2.2.2.4.1.1.1.1.1.1.>.1.>.>.1.1.>.1.>.>.1.1.1.1.>.1.1.1.>.>.>.1.1.:.:.1.1.1.>.0.W ] ] o.o.o.o.o.o.] / / / ] 0.@./ z.X.X.q.q.q.q.1.2.4.4.4.4.4.2.2.=.X./ ~ ~ ~ / ~ ~ ~ o.] =.=.=.7.4.8.0.0.0.0.0.0.0.0.0.0.0.0.0.0.0.0.",
"0.0.0.0.0.0.0.0.0.0.0.0.0.0.2.2.7.7.0.t.t.t.1.y.W W ~ ~ / / / X.o.1.1.1.2.2.0.0.2.7.7.t.t.t.t.` / o.0./ X.o.o.o.o.y.! / X.o.o.o.o.o.X.X./ j.j.j.:.1.:.:.>.1.1.1.1.>.>.1.>.1.1.1.1.2.1.2.>.1.1.1.1.1.1.1.1.1.1.1.1.1.1.1.1.1.1.1.1.1.1.1.1.1.1.1.1.1.1.1.1.1.1.1.1.1.1.1.1.1.1.1.1.1.1.1.1.1.1.1.1.1.1.1.1.1.1.1.1.1.1.1.1.1.1.>.1.>.>.1.2.2.1.1.1.1.1.>.:.:.1.1.>.:.>.>.>.>.0.W X.X.o.o.X.o.o.o.] / / _ ] 4.@./ x.X./ q.q.q.q.1.2.4.4.4.4.2.2.4.:.X./ ~ ~ ~ ~ ~ ~ ~ o.o.=.=.=.7.4.8.0.0.0.0.0.0.0.0.0.0.0.0.0.0.0.0.",
"0.0.0.0.0.0.0.0.0.0.0.0.0.0.2.2.7.7.r.u.u.u.7.y.Q Q ! / / / / X.#.:.2.1.0.0.2.0.2.7.7.t.t.t.t.] / #.0./ X.o.o.o.o.y.! / ] o.o.o.o.o.o.X./ k.k.k.:.1.:.>.>.1.1.1.1.>.1.1.2.1.1.1.>.1.1.1.1.1.1.1.1.1.1.1.1.1.1.1.1.1.1.1.1.1.1.1.1.1.1.1.1.1.1.1.1.1.1.1.1.1.1.1.1.1.1.1.1.1.1.1.1.1.1.1.1.1.1.1.1.1.1.1.1.1.1.1.1.1.1.1.1.1.1.1.1.1.1.>.>.>.1.1.1.>.>.>.1.1.1.1.>.:.1.1.1.>.0.W X.X.o.o.X.X.X.o.] ] ] ] / 4.@./ h.X./ y.y.q.q.1.2.4.4.4.4.4.2.2.=.X./ ~ / / ~ ~ ~ ~ o.] =.=.=.7.0.8.0.0.0.0.0.0.0.0.0.0.0.0.0.0.0.0.",
"0.0.0.0.0.0.0.0.0.0.0.0.0.0.2.2.7.7.r.u.u.u.7.y.Q Q ! / / / / X.=.:.1.1.0.0.2.0.2.7.7.t.t.t.t.` / o.0./ X.o.o.+.o.y.! / ] o.o.o.o.o.X.X./ k.k.k.:.1.:.:.1.>.1.1.1.>.1.1.1.1.1.2.>.>.1.1.1.1.1.1.1.1.1.1.1.1.1.1.1.1.1.1.1.1.1.1.1.1.1.1.1.1.1.1.1.1.1.1.1.1.1.1.1.1.1.1.1.1.1.1.1.1.1.1.1.1.1.1.1.1.1.1.1.1.1.1.1.1.1.1.1.1.1.1.1.1.1.1.1.1.1.1.1.>.>.>.:.:.1.1.1.:.1.1.1.>.0.W ] ] o.o.X.o.X.o.] ] / ] / 4.@./ x.X./ q.q.q.q.1.2.4.4.4.4.4.2.2.=.X./ ~ / ~ ~ ~ ~ ~ o.] =.=.=.7.0.8.0.0.0.0.0.0.0.0.0.0.0.0.0.0.0.0.",
"0.0.0.0.0.0.0.0.0.0.0.0.0.0.2.2.7.7.0.t.t.t.1.y.W W ! ! / / / X.o.1.1.1.2.2.0.0.2.7.7.t.t.t.t.] _ +.0./ ] X.o.X.X.y.! / X.o.o.o.o.o.o.X./ k.j.j.:.1.1.>.1.2.>.>.1.2.>.>.1.1.1.1.>.>.1.1.1.1.1.1.1.1.1.1.1.1.1.1.1.1.1.1.1.1.1.1.1.>.1.1.1.1.1.1.1.1.1.1.1.1.1.1.1.1.1.1.1.1.1.1.1.1.1.1.1.1.1.1.1.1.1.1.1.>.1.1.1.1.1.1.1.1.>.>.1.1.1.1.>.1.1.>.>.>.>.>.1.1.:.:.1.1.>.>.>.>.0.W ] ] o.o.X.X.o.o.] / / / / 2.@./ h.X...q.q.q.q.1.2.4.4.4.4.2.2.2.:.X./ ~ / ~ ~ ~ ~ ~ o.o.=.=.=.7.0.8.0.0.0.0.0.0.0.0.0.0.0.0.0.0.0.0.",
"0.0.0.0.0.0.0.0.0.0.0.0.0.0.2.2.7.7.y.u.u.u.7.e.Q Q ~ / / / / X.=.=.1.1.0.0.2.0.2.7.1.t.t.t.t.] _ =.0./ ` ] [ ] X.y.! / ] o.o.o.+.+.o.X./ k.j.j.:.1.1.1.1.1.>.>.2.2.>.1.>.>.1.1.1.1.1.1.1.1.1.1.1.1.1.1.1.1.>.1.1.1.1.1.1.1.1.1.1.1.1.1.1.1.1.1.1.1.1.1.1.1.1.1.1.1.1.1.1.1.1.1.1.1.1.1.1.1.1.1.1.1.1.1.1.1.1.1.>.1.1.1.1.1.1.>.1.1.1.>.>.>.:.1.1.:.:.:.1.1.:.:.1.:.>.>.>.>.0.W ] ] o.o.X.o.o.o.] / / / / 4.@./ u.+.` e.q.q.q.1.2.4.4.4.4.4.2.2.=.X./ ~ / ~ ~ ~ ~ ~ o.] =.=.=.7.0.8.0.0.0.0.0.0.0.0.0.0.0.0.0.0.0.0.",
"0.0.0.0.0.0.0.0.0.0.0.0.0.0.2.2.8.7.r.u.t.t.1.u.W W ! ~ / / / X.+.:.1.1.2.2.0.0.2.1.1.u.i.u.u.] _ =.0./ ` ] X.] ] y.! / X.o.o.o.o.o.X.X./ k.k.k.:.1.1.1.1.1.1.1.1.>.>.1.>.>.1.1.1.1.1.1.1.1.1.1.1.1.1.1.1.1.1.1.1.1.1.1.1.1.1.1.1.1.1.1.1.1.1.1.1.1.1.1.1.1.1.1.1.1.1.1.1.1.1.1.1.1.1.1.1.1.1.1.1.1.1.1.1.1.1.1.1.1.1.1.1.1.1.1.1.1.1.>.1.1.1.1.1.1.1.1.:.:.>.>.>.:.>.>.>.>.9.W ] ] o.o.o.o.o.o.] / / / / 4.@./ u.o./ q.q.q.q.1.2.4.4.4.4.2.2.2.=.X./ ~ ~ ~ ! ~ ~ ~ o.o.1.1.=.7.4.8.0.0.0.0.0.0.0.0.0.0.0.0.0.0.0.0.",
"0.0.0.0.0.0.0.0.0.0.0.0.0.0.2.2.8.7.y.u.t.t.1.u.W W ~ ~ / / / X.+.:.1.1.2.2.0.0.2.1.1.u.i.u.u.] _ =.0./ ` X.X.] ] y.! / X.o.o.o.o.o.X.X./ f.f.f.:.1.1.1.1.1.>.>.2.1.1.>.1.1.>.>.1.1.1.1.1.1.1.1.1.1.1.1.1.1.1.1.1.1.1.1.1.1.1.1.1.1.1.1.1.1.1.1.1.1.1.1.1.1.1.1.1.1.1.1.1.1.1.1.1.1.2.1.1.1.1.1.1.1.1.1.1.1.1.1.1.1.1.1.1.>.>.1.1.1.1.>.>.>.:.:.1.1.1.1.>.>.>.>.>.:.>.>.>.>.9.W ] ] o.o.o.o.o.o.] / / / / 4.@./ u.o.` q.q.q.q.1.2.4.4.4.4.4.2.2.=.X./ ~ ~ ~ ! ~ ~ ~ o.o.=.=.=.7.4.8.0.0.0.0.0.0.0.0.0.0.0.0.0.0.0.0.",
"0.0.0.0.0.0.0.0.0.0.0.0.0.0.2.2.7.7.y.u.u.u.9.f.W W ~ / / / / ] =.=.1.1.0.0.2.0.2.1.1.u.u.i.u.] _ =.0./ ] X.X.X.X.y.! / ] o.o.o.+.+.o.X.) h.h.h.:.1.1.1.1.1.1.1.1.>.1.1.1.1.1.1.1.1.2.1.1.1.1.1.1.1.1.1.1.1.1.1.1.1.1.1.1.>.1.1.1.1.1.1.1.1.1.1.1.1.1.1.1.1.1.1.1.1.1.1.1.1.1.1.1.1.1.1.1.1.1.1.1.1.1.1.1.1.1.1.1.1.1.1.1.1.>.1.1.>.>.>.>.1.>.>.:.>.1.>.>.>.1.1.1.:.>.>.>.>.9.W _ _ X.X.X.o.+.o.] ] ] _ _ 4.@./ u.o.] q.q.q.q.1.2.4.4.4.4.4.2.2.=.X./ ~ ~ ~ / ! ~ ~ o.X.=.=.=.7.4.8.0.0.0.0.0.0.0.0.0.0.0.0.0.0.0.0.",
"0.0.0.0.0.0.0.0.0.0.0.0.0.0.2.2.7.7.y.t.t.t.7.y.W W ! ! / / / ] +.1.1.1.2.2.0.0.2.2.1.u.u.i.i.` _ =.0./ X.X.o.X.X.y.! / X.o.o.o.+.+.o.X./ h.h.h.:.1.>.>.1.1.1.1.>.1.1.>.>.>.1.1.1.1.1.2.1.1.1.1.1.1.1.1.1.1.>.1.1.1.1.1.1.1.1.1.1.1.1.1.1.1.1.1.1.1.1.1.1.1.1.1.1.1.1.1.2.1.1.1.1.1.1.1.1.1.1.1.1.1.1.1.1.1.1.1.1.1.1.1.1.1.>.>.1.1.1.1.1.1.1.>.=.:.:.:.1.>.>.>.>.:.:.:.:.>.0.W ] ] X.X.o.o.o.o./ X.X.X.] 2.@./ u.o.] q.q.q.q.1.2.4.4.4.4.2.2.2.=.] / ~ ~ ~ ! ~ ! ! o.X.=.=.=.7.4.8.0.0.0.0.0.0.0.0.0.0.0.0.0.0.0.0.",
"0.0.0.0.0.0.0.0.0.0.0.0.0.0.2.2.7.7.y.u.u.u.9.f.Q Q / / / / / o.#.:.1.1.0.0.2.0.2.1.1.u.u.u.u./ ] #.0./ X.o.o.o.o.y.! / ] o.o.o.o.o.o.X./ h.h.h.:.1.1.1.1.1.1.1.>.1.1.1.1.1.1.1.>.1.>.1.1.1.1.1.1.1.1.1.1.1.1.1.1.1.1.1.1.1.1.1.1.1.1.1.1.1.1.1.1.1.>.1.1.1.1.1.1.1.1.1.1.1.1.1.1.1.1.1.1.1.1.1.1.1.1.1.1.1.1.1.1.1.1.1.1.1.>.>.1.1.1.>.>.>.1.>.1.1.1.1.1.>.:.:.>.:.:.:.:.>.8.W ] ] X.X.o.o.+.o./ ] ] ] ] 2.@./ u.o.X.q.q.q.q.1.2.2.2.2.2.4.2.2.=.] / ~ ~ ~ ! ~ ! ! o.[ =.=.=.7.4.8.0.0.0.0.0.0.0.0.0.0.0.0.0.0.0.0.",
"0.0.0.0.0.0.0.0.0.0.0.0.0.0.2.2.7.7.y.t.t.t.7.y.Q Q ~ ~ / / / o.#.:.1.1.0.0.2.0.2.1.1.u.u.u.u./ ] =.0./ X.o.o.o.o.y.! / ] o.o.o.o.o.X._ / h.h.h.:.>.1.1.>.1.>.>.2.2.1.1.1.1.1.1.>.1.1.1.1.1.1.1.1.1.1.1.1.1.1.1.1.1.1.1.1.1.1.1.1.1.1.1.1.1.1.1.1.1.1.1.1.1.1.1.1.1.1.1.1.1.1.1.1.1.1.1.1.1.1.1.1.1.1.1.1.1.1.1.1.1.1.1.2.2.1.1.1.1.1.>.1.1.1.>.1.1.1.1.>.:.:.:.>.:.:.:.:.>.8.W ] ] X.X.o.o.o.o./ ] ] ] ] 2.@./ u.o./ q.q.q.q.1.2.2.1.1.1.2.2.2.@.] / ~ ! ! ! ! ! ! o.[ =.=.=.7.4.8.0.0.0.0.0.0.0.0.0.0.0.0.0.0.0.0.",
"0.0.0.0.0.0.0.0.0.0.0.0.0.0.2.2.7.7.y.t.t.t.1.q.W W ! ! / / / X.+.1.1.1.2.2.0.0.2.1.1.u.i.i.u./ ] =.r./ X.X.X.o.X.y.! / X.o.o.o.o.o.X.X./ h.h.h.:.1.1.1.>.>.>.>.1.1.>.1.1.1.1.1.1.>.1.1.1.1.1.1.1.1.1.1.1.>.1.1.1.1.1.1.1.1.1.1.1.1.1.1.1.1.1.1.1.1.1.1.1.1.1.1.1.1.1.1.1.1.1.1.1.1.2.1.1.1.1.1.1.1.1.1.1.1.1.1.1.1.1.1.1.2.1.1.1.1.1.>.1.1.1.>.1.>.>.>.>.>.:.:.>.:.:.:.:.>.7.W ] ] X.X.o.X.X.X./ ] ] ] ] 2.@./ u.o./ q.q.q.q.-.2.2.1.1.1.2.1.1.@./ / ~ ! ! Q ! ! ! o.o.=.=.=.7.4.8.0.0.0.0.0.0.0.0.0.0.0.0.0.0.0.0.",
"0.0.0.0.0.0.0.0.0.0.0.0.0.0.2.2.7.7.y.u.u.u.7.9.Q Q / / / / / o.=.=.2.2.0.0.2.0.2.1.1.u.i.i.i./ ] =.0./ ] X.X.X.X.y.! / ] o.o.o.o.o.X.X./ j.j.j.:.1.>.>.>.>.>.>.1.1.>.1.1.1.1.1.1.1.1.1.1.1.1.1.1.1.1.1.1.>.1.1.1.1.1.1.1.1.1.1.1.1.1.1.1.1.1.1.1.1.1.1.1.1.1.1.1.1.1.1.1.1.1.1.1.1.1.1.1.1.1.1.1.1.1.1.1.1.1.1.1.1.1.1.1.>.1.1.1.1.1.1.1.1.1.>.1.:.:.:.>.>.:.:.>.:.:.:.:.>.7.W ] ] X.X.X.o.o.o./ _ _ _ _ 4.@./ u.o./ q.q.q.q.-.1.1.1.1.1.1.1.1.o./ / Q Q Q ! Q Q Q o.[ =.=.=.7.4.8.0.0.0.0.0.0.0.0.0.0.0.0.0.0.0.0.",
"0.0.0.0.0.0.0.0.0.0.0.0.0.0.2.2.8.7.y.u.t.t.1.y.W W ~ ~ / / / X.+.1.1.1.8.8.4.0.2.1.1.i.i.i.i./ ] =.q./ ` ] ] ] ] y.! / ] o.o.o.+.+.X.[ / j.j.j.:.1.:.:.1.>.>.>.>.1.1.1.>.>.1.1.2.1.1.1.>.1.1.1.1.1.1.1.1.1.1.1.1.1.1.1.1.1.1.1.1.1.1.1.1.1.1.1.1.1.1.1.1.1.1.1.1.1.1.1.1.1.1.1.1.1.1.1.1.1.1.1.1.1.1.1.1.1.1.1.>.>.>.1.1.>.2.>.1.1.1.1.1.1.:.1.>.>.>.>.1.:.>.>.:.=.:.:.:.>.7.W X.X.X.X.] X.X.X.] / / / / 4.@./ u.o./ q.q.q.q.-.1.1.1.1.1.1.1.1.o./ ~ ! ! ! Q ! ! ! o.] =.=.=.7.4.8.0.0.0.0.0.0.0.0.0.0.0.0.0.0.0.0.",
"0.0.0.0.0.0.0.0.0.0.0.0.0.0.2.2.8.7.y.u.t.t.7.q.Q Q ! ~ / / / X.+.1.1.1.8.8.4.0.2.1.1.u.i.i.u./ ] =.q./ ` ] ] [ ] y.! / ] o.o.o.o.o.X.[ / j.j.j.:.1.:.:.:.>.>.1.1.1.1.>.1.1.1.1.1.1.1.1.>.1.1.1.1.1.1.1.1.1.1.1.1.1.1.1.1.1.1.1.1.1.1.1.1.1.1.1.1.1.1.1.1.1.1.1.1.1.1.1.1.1.1.1.1.1.1.1.1.1.1.1.1.1.1.1.1.>.1.1.1.1.1.1.1.1.1.>.1.1.1.1.>.>.>.>.>.>.>.>.1.:.>.>.:.:.:.:.:.>.7.W ] ] ] ] ] ] ] ] / / / / / 4.@./ u.o./ 0.0.0.0.-.1.1.1.1.1.1.>.>.o./ ! ! ! ! Q ! ! ! o.] =.=.=.7.4.8.0.0.0.0.0.0.0.0.0.0.0.0.0.0.0.0.",
"0.0.0.0.0.0.0.0.0.0.0.0.0.0.2.2.7.7.y.u.u.u.7.y.Q Q ~ / / / / X.=.=.2.2.0.0.2.0.2.1.1.u.u.u.u./ ] =.q./ ` ] ] ] ] y.! / ] o.o.o.o.o.X.] ) j.j.j.:.1.:.:.:.1.1.1.>.>.1.>.1.1.1.1.>.1.1.>.1.1.1.1.1.1.1.1.1.1.1.1.1.1.1.1.1.1.1.1.1.1.1.1.1.1.1.1.1.1.1.1.1.1.1.1.1.1.1.1.1.1.1.1.1.1.1.1.1.1.1.1.1.1.1.1.1.1.1.>.>.1.1.1.1.1.>.>.1.>.1.1.>.>.:.:.1.>.>.>.1.>.:.:.>.:.:.:.:.>.7.R _ _ / / ` / _ ] / / / / / 4.@./ u.o./ q.q.q.q.-.1.1.1.1.1.1.>.>.X./ ~ Q Q Q ! Q ! ! o.X.=.=.=.7.4.8.0.0.0.0.0.0.0.0.0.0.0.0.0.0.0.0.",
"0.0.0.0.0.0.0.0.0.0.0.0.0.0.2.2.7.7.y.t.t.t.1.9.Q Q ! ! / / / X.o.1.1.1.2.2.0.0.2.1.1.u.u.u.u./ ] =.q./ ` [ ] ] ] y.! / X.o.o.o.o.+.o.] ) j.j.j.:.1.1.1.1.:.>.>.>.1.>.1.1.1.>.>.1.1.1.1.>.1.1.1.1.1.1.1.1.1.1.1.1.1.1.1.1.1.1.1.1.1.1.1.1.1.1.1.1.1.1.1.1.1.1.1.1.1.1.1.1.1.1.1.1.1.1.1.1.1.1.1.1.1.1.1.1.1.1.1.1.1.1.1.1.1.>.1.1.>.1.1.>.>.>.>.:.>.1.1.1.>.:.:.>.=.:.:.:.=.1.U / / / / / / / / / / / / / >.o./ u.] / q.q.q.q.-.1.1.1.1.1.1.:.:.o./ ! ! ! ! Q Q Q Q X.X.=.=.=.7.4.8.0.0.0.0.0.0.0.0.0.0.0.0.0.0.0.0.",
"0.0.0.0.0.0.0.0.0.0.0.0.0.0.2.2.7.7.y.u.u.u.7.y.Q Q ~ / / / / o.=.:.1.1.0.0.2.0.2.1.1.u.u.u.u./ X.=.q./ ` ] ] ] ] y./ / ] o.o.o.o.o.X.] / j.j.j.:.1.1.1.>.>.:.:.>.1.1.1.1.1.>.>.1.1.1.1.1.1.1.1.1.1.1.1.1.1.1.1.1.1.1.1.1.1.1.1.1.1.1.1.1.1.1.1.1.1.1.1.1.1.2.1.1.1.1.1.1.1.1.1.1.1.1.1.1.1.1.1.1.1.1.1.1.1.1.1.1.1.1.1.1.>.1.>.>.1.1.>.1.1.1.1.1.>.>.>.>.>.:.:.>.:.=.=.=.=.=.I / / ~ ~ / / / / ! / / / / =.] / u.` ` 9.9.q.9.-.:.=.:.1.1.1.=.=.] / ! Q Q Q Q W Q Q X.] =.=.=.7.4.8.0.0.0.0.0.0.0.0.0.0.0.0.0.0.0.0.",
"0.0.0.0.0.0.0.0.0.0.0.0.0.0.2.2.7.7.y.t.t.t.7.0.Q Q ~ / / / ` X.=.:.1.1.0.0.2.0.2.1.1.u.u.u.u./ X.=.0./ ] ] ] ] X.t.~ / ] o.o.o.o.o.o.] ) j.j.j.:.1.1.1.>.:.:.:.>.>.1.1.1.1.>.>.>.1.1.1.1.1.1.1.1.1.1.1.1.1.1.1.1.1.1.1.1.1.1.1.1.1.1.1.1.1.1.1.1.1.1.1.1.1.1.1.1.1.1.1.1.1.1.1.1.1.1.1.1.1.1.1.1.1.1.1.1.1.1.1.1.1.1.1.1.1.>.1.>.1.1.1.1.1.1.>.1.>.>.>.>.>.:.:.>.:.=.=.=.=.=.I / / ~ ~ / ~ ~ / ! ~ ~ ~ ~ =.] / u.` ` 9.q.q.9.1.:.:.:.1.1.1.+.+./ ! Q W W W W W W W X.] =.=.=.7.4.8.0.0.0.0.0.0.0.0.0.0.0.0.0.0.0.0.",
"0.0.0.0.0.0.0.0.0.0.0.0.0.0.2.2.7.7.y.t.t.t.1.w.W W ! ! / / / X.o.1.1.1.2.2.0.0.2.1.1.u.u.u.u./ X.=.0./ ] ] [ [ ] y.! / X.o.o.o.o.o.o.X.) j.j.j.:.4.1.1.1.1.>.>.>.>.1.1.1.1.1.1.1.2.1.1.1.1.1.1.1.1.1.1.1.1.1.1.1.1.1.1.1.1.1.1.1.1.1.1.1.1.1.1.1.1.1.1.1.1.1.1.1.1.1.1.1.1.1.1.1.1.1.1.1.1.1.1.1.1.1.1.1.1.1.1.1.>.2.1.2.2.>.>.1.1.>.>.>.>.>.>.1.>.>.>.>.>.:.:.>.:.=.=.=.#.=.I / / ~ ~ ~ ~ ~ ~ Q ! ! ! ! =.] ~ u.` / q.q.q.q.1.:.=.>.1.1.=.] ] / Q W W W W W W W W ] ] =.=.=.7.4.8.0.0.0.0.0.0.0.0.0.0.0.0.0.0.0.0.",
"0.0.0.0.0.0.0.0.0.0.0.0.0.0.2.2.7.7.y.u.u.u.7.0.! ! ~ / / / / X.=.=.2.2.0.0.2.0.2.1.1.u.u.u.u./ X.=.0./ ] X.X.X.X.y.! / ] o.o.o.o.o.o.] ) h.h.h.:.1.1.1.1.1.1.>.>.>.1.1.1.1.1.1.1.2.2.1.1.1.1.1.1.1.1.1.1.1.1.1.1.1.1.1.1.1.1.1.1.1.1.1.1.1.1.1.1.1.1.1.1.1.1.1.1.1.1.1.1.1.1.1.1.1.1.1.1.1.1.1.1.1.1.1.1.1.1.1.1.>.2.2.1.1.>.1.>.1.1.1.>.>.>.>.1.:.:.:.>.>.>.>.:.:.=.=.=.+.o.I Q Q W W ! Q Q Q W Q Q Q Q =.] ! e.` ~ q.q.q.9.=.:.=.>.=.=.o./ / ! W R R R R R W W W ] ] =.=.=.7.4.8.0.0.0.0.0.0.0.0.0.0.0.0.0.0.0.0.",
"0.0.0.0.0.0.0.0.0.0.0.0.0.0.2.2.8.7.y.t.u.t.7.e.Q Q ~ / / / / o.+.1.1.1.2.2.0.0.2.2.1.u.u.u.u./ ` #.r./ X.+.+.+.+.y.! / X.o.o.o.+.+.X.X./ h.j.j.>.4.1.>.1.1.1.1.>.1.>.1.>.>.1.1.1.1.>.1.2.2.>.>.>.1.1.1.1.1.1.1.1.1.1.1.1.2.1.1.1.1.1.1.1.1.1.1.1.1.1.1.1.1.1.1.1.1.1.1.1.1.2.2.1.1.1.1.1.1.1.1.1.1.1.1.1.1.1.1.1.1.1.1.1.1.1.1.1.:.:.1.1.1.>.>.1.:.:.:.>.:.:.:.:.:.=.=.=.+.o.P W W W W W W R W R W W W W o./ Q e./ ~ q.9.q.9.%.=.=.=.=.=.] ~ ~ W W I I I I U W W W ] ] =.=.=.7.4.8.0.0.0.0.0.0.0.0.0.0.0.0.0.0.0.0.",
"0.0.0.0.0.0.0.0.0.0.0.0.0.0.2.2.7.7.y.t.u.u.9.9.! ! ! / / / / o.+.1.1.1.2.2.0.0.2.2.1.u.u.u.u./ ` #.r./ X.X.X.X.X.y.W / ] o.o.o.+.+.X.X./ h.j.j.>.4.1.>.1.1.1.1.1.1.1.>.1.1.>.>.>.>.1.>.2.2.1.1.1.1.>.>.1.1.1.1.1.1.1.1.1.1.1.1.1.1.1.1.1.1.1.1.1.1.1.1.1.1.1.1.1.1.1.1.1.1.1.1.1.1.1.1.1.1.1.1.1.1.1.1.1.1.1.1.1.>.>.>.2.2.>.1.>.:.:.>.1.1.>.>.1.:.:.:.>.:.:.:.:.=.=.=.=.+.X.P I I Y Y R I I R I R R R R _ ! W e.~ ~ 9.9.9.9.=.=.=.#.X.X.T C C s f V I I I I U W W / ] =.=.=.7.4.8.0.0.0.0.0.0.0.0.0.0.0.0.0.0.0.0.",
"0.0.0.0.0.0.0.0.0.0.0.0.0.0.2.2.7.7.y.u.u.u.7.w.! ! ~ / / / ] o.=.=.2.2.0.0.2.0.2.2.1.u.u.u.u./ ` #.r./ X.+.+.+.+.y.! / ] o.o.o.+.+.X.X./ j.j.j.:.1.>.>.>.1.1.1.1.2.>.1.1.1.1.1.>.1.>.1.2.1.1.1.1.1.1.1.1.1.1.1.1.1.1.1.1.1.1.1.1.1.1.1.1.1.1.1.1.1.1.1.1.1.1.1.1.1.1.1.1.1.1.1.1.1.1.1.1.1.1.1.1.1.1.1.1.1.1.1.1.1.1.1.1.2.1.1.1.:.>.>.1.1.1.>.1.:.:.:.>.:.:.:.:.=.=.=.=.o./ L P P P P P P P P K I I I I ! R R q.! Q 3.3.3.3.=.#.#.X.( ( h 8 8 = $ # d d d P U R U / ` #.#.#.7.4.8.0.0.0.0.0.0.0.0.0.0.0.0.0.0.0.0.",
"0.0.0.0.0.0.0.0.0.0.0.0.0.0.2.2.7.7.y.t.t.t.7.9.! Q ! ! / / / X.o.1.1.1.2.2.0.0.2.1.1.u.u.u.u./ ` #.0./ X.X.X.X.X.y.Q / X.o.o.o.o.o.X.X./ j.j.j.:.1.1.1.>.>.>.>.>.2.1.1.1.1.1.1.>.1.>.1.1.1.1.1.1.1.1.1.1.1.1.1.1.1.1.1.1.1.1.1.1.1.1.1.1.1.1.1.1.1.1.1.1.1.1.1.1.1.1.1.1.1.1.1.1.1.1.1.1.1.1.1.1.1.1.1.1.1.1.1.1.1.1.1.1.1.>.1.>.:.:.1.1.1.1.>.1.:.:.:.>.:.=.=.=.=.=.=.=.o.] J P P P P P P P P L P P P P W I L [ I P | | | | ~ / / ( p p * o o . X # + + + a I U U / ` #.#.#.7.4.8.0.0.0.0.0.0.0.0.0.0.0.0.0.0.0.0.",
"0.0.0.0.0.0.0.0.0.0.0.0.0.0.2.2.7.7.y.t.t.t.7.q.Q ! ~ / / / / X.=.:.1.1.0.0.2.0.2.1.1.u.u.u.u./ ` #.0./ X.o.o.o.o.y.Q / ] o.o.o.o.o.X.X.) j.j.j.:.1.>.>.>.>.>.1.>.>.1.>.>.1.2.1.>.>.1.1.1.1.1.1.1.1.1.1.1.1.1.1.1.1.1.1.1.1.1.1.1.1.1.1.1.1.1.1.1.1.1.1.1.1.1.1.1.1.1.1.1.1.1.1.1.1.1.4.1.1.1.1.1.1.1.1.1.1.1.1.1.1.1.1.1.>.1.1.1.1.1.1.1.1.>.:.:.1.1.>.=.:.:.:.=.=.+.+.+.[ P b V V F F A F J L J P P P P W P L &.P P [ [ [ [ W ` T y * * # 8 8 7 < @ @ @ @ ; V I I / ` #.#.#.7.0.8.0.0.0.0.0.0.0.0.0.0.0.0.0.0.0.0.",
"0.0.0.0.0.0.0.0.0.0.0.0.0.0.2.2.7.7.y.t.t.t.7.9.! ! ~ / / / / X.=.:.1.1.0.0.2.0.2.1.1.u.u.u.u./ ` #.0./ X.o.o.o.o.y.! / ] o.o.o.+.+.o.X.) j.j.j.:.1.:.:.>.1.1.1.1.>.1.>.1.1.1.>.1.>.1.1.1.1.1.1.1.1.1.1.1.1.1.1.1.1.1.1.1.1.1.1.1.1.1.1.1.1.2.1.1.1.1.1.1.1.1.1.1.1.1.1.1.1.1.1.1.1.1.1.1.1.1.1.1.1.1.1.1.1.1.>.>.1.1.1.1.1.>.>.1.>.>.1.>.>.1.>.>.:.:.:.=.:.:.:.=.@.o.o.o.o.w > > > 1 1 9 9 e e e i i i i s i i g f x H H H H Z G D 2 @ @ 8 u u 0 0 * o o o # k W W / ` #.#.#.7.0.8.0.0.0.0.0.0.0.0.0.0.0.0.0.0.0.0.",
"0.0.0.0.0.0.0.0.0.0.0.0.0.0.2.2.7.7.y.y.y.y.7.q.Q Q ~ ~ / / / o.o.1.1.1.2.2.0.0.2.1.1.u.u.u.u./ ` #.0./ +.o.o.o.X.y.! / X.o.o.o.+.o.o.X.) j.j.j.:.1.:.:.1.1.1.1.1.>.1.1.1.2.1.1.1.1.1.1.1.1.1.1.1.1.1.1.1.1.1.1.1.1.1.1.1.1.1.1.1.1.1.1.1.1.1.1.1.1.1.1.1.1.1.1.1.1.1.1.1.1.1.1.1.1.1.1.1.1.1.1.1.1.1.1.1.1.>.1.>.1.1.1.1.1.>.1.1.1.1.1.>.>.1.:.>.:.:.:.:.=.:.:.=.+.o.o.o.[ s > 7 7 9 9 > 7 0 0 0 8 8 8 8 7 7 7 7 7 7 7 7 7 7 7 7 8 p 7 7 u q q q 0 > . . . # d W W / ] #.#.#.7.4.8.0.0.0.0.0.0.0.0.0.0.0.0.0.0.0.0.",
"0.0.0.0.0.0.0.0.0.0.0.0.0.0.2.2.7.1.y.u.u.u.7.9.! ! ~ / / / ` o.=.=.2.2.0.0.2.0.2.1.1.u.u.u.u./ ` #.0./ +.o.o.o.o.y.Q / ] o.o.o.o.o.X.X.) j.j.j.:.1.:.:.1.1.1.1.1.>.1.1.1.1.1.1.1.1.1.>.1.1.1.1.1.1.1.1.1.1.1.1.1.1.1.1.1.1.1.1.1.1.1.1.1.1.1.1.1.1.1.1.1.1.1.1.1.1.1.1.1.1.1.1.1.1.1.1.1.1.1.1.1.1.1.1.1.1.1.1.>.1.1.1.2.1.>.1.>.1.1.1.>.>.1.:.>.:.:.:.=.:.:.:.=.@.o.o.o.o.i > > > > > : = = - = : : : : 1 w w v f f n n n n M Z f # @ @ q q q 0 7 # o o o $ x W W ` ` #.#.#.7.4.8.0.0.0.0.0.0.0.0.0.0.0.0.0.0.0.0.",
"0.0.0.0.0.0.0.0.0.0.0.0.0.0.2.2.7.7.y.t.t.t.7.q.Q Q ~ ~ / / ` o.+.1.1.1.4.4.8.0.2.1.1.u.u.u.u./ ] =.0./ o.X.X.X.X.y.! / ] o.o.o.o.o.X.X./ j.j.j.:.1.1.1.1.1.>.>.>.1.1.1.1.1.1.1.1.1.1.1.1.1.1.1.1.1.1.1.1.1.1.1.1.1.1.1.1.1.1.1.1.1.1.1.1.1.1.1.1.1.1.1.1.1.1.1.1.1.1.1.1.1.1.1.1.1.1.1.1.1.1.1.1.1.1.1.1.1.1.1.1.1.1.1.1.1.>.1.1.1.1.>.>.>.1.>.:.>.>.>.:.:.:.:.=.=.@.@.@.] P b F F F F L K P I P W W W W ~ I P %.I P | | | | W ] G + % % $ 7 7 : % @ & & & + F R R _ ] =.=.#.7.4.8.0.0.0.0.0.0.0.0.0.0.0.0.0.0.0.0.",
"0.0.0.0.0.0.0.0.0.0.0.0.0.0.2.2.7.1.y.t.t.t.7.6.Q Q ~ ~ / / ` o.+.1.1.1.4.4.8.0.2.1.1.u.u.u.u./ X.=.0./ o.o.o.o.o.y.! / ] o.o.o.o.o.X.X./ h.j.j.:.1.1.1.1.1.:.:.>.1.1.1.1.1.1.1.1.1.1.1.1.1.1.1.1.1.1.1.1.1.1.1.1.1.1.1.1.1.1.1.1.1.1.1.1.1.1.1.1.1.1.1.1.1.1.1.1.1.1.1.1.1.1.1.1.1.1.1.1.1.1.1.1.1.1.1.1.1.1.1.1.1.1.1.1.1.1.1.1.1.1.1.>.>.1.:.1.:.:.:.>.>.>.>.=.=.@.@.@.o.=.Y W W W W W W R R P R R R R ! U I | E W %.%.%.%./ +./ r $ $ ; # # # # $ + + + a W R R ] ] =.=.#.7.4.8.0.0.0.0.0.0.0.0.0.0.0.0.0.0.0.0.",
"0.0.0.0.0.0.0.0.0.0.0.0.0.0.2.2.7.1.t.u.u.u.7.w.! ! ~ / / _ ` o.=.=.2.2.0.0.2.0.2.1.1.i.i.i.i./ X.=.0./ o.o.o.o.o.y.! / ] o.o.o.+.+.X.X./ j.j.j.:.1.1.1.>.>.:.:.>.1.>.1.1.1.1.1.>.1.2.1.1.1.1.1.1.>.1.1.1.1.1.1.1.1.1.1.1.1.1.1.1.1.1.1.1.1.1.1.1.1.1.1.1.1.1.1.1.1.1.1.1.1.1.1.1.1.1.1.1.1.1.1.1.1.1.1.1.1.1.1.1.1.1.1.1.1.1.>.1.1.1.>.>.>.1.:.1.>.>.>.:.:.>.>.=.=.=.=.=.o.o.I Q Q W W ! Q W Q I / / / / =.W W q.~ Q -.-.-.-./ @.o.X.5 5 O * * * # X 5 5 5 W R W W X.] =.=.=.7.4.8.0.0.0.0.0.0.0.0.0.0.0.0.0.0.0.0.",
"0.0.0.0.0.0.0.0.0.0.0.0.0.0.2.2.7.1.y.y.y.y.1.-.Q Q ! ~ / / / X.o.1.1.1.2.2.0.0.2.1.1.i.i.i.i./ X.=.0./ o.o.o.o.o.y.! / ] o.o.o.+.+.X.X./ j.j.j.:.1.1.1.>.>.:.:.>.1.1.>.>.>.1.1.1.1.1.1.1.1.1.1.1.1.1.1.1.1.1.1.1.1.1.1.1.1.1.1.1.1.1.1.1.1.1.1.1.1.1.1.1.1.1.1.1.1.1.1.1.1.1.1.1.1.1.1.1.1.1.1.1.1.1.1.1.>.1.1.1.1.1.1.1.1.1.>.1.1.1.>.:.:.>.1.1.>.>.>.>.>.>.>.:.=.=.=.=.o.o.R ! ! ~ ~ / ! ! ! R ] ] ] ] 1.~ W q./ ! 9.9.9.9./ =.@.@.o.o.L t t 5 6 V W W W R W W W ] ] =.=.=.7.4.8.0.0.0.0.0.0.0.0.0.0.0.0.0.0.0.0.",
"0.0.0.0.0.0.0.0.0.0.0.0.0.0.2.2.8.7.t.u.u.u.9.q.! ! ~ / / / / X.=.:.2.2.0.0.2.0.2.1.1.i.i.i.i./  .@.0./ +.o.o.o.o.y.! / ] o.o.o.o.o.X.X.) j.j.j.>.4.1.1.1.1.1.1.>.1.>.1.>.>.1.1.1.1.1.1.1.1.1.1.1.1.1.1.1.1.1.1.1.1.1.1.1.1.1.1.1.1.1.1.1.1.1.1.1.1.1.1.1.1.1.1.1.1.1.1.1.1.1.1.1.1.1.1.1.1.1.1.1.1.1.1.1.1.1.1.1.>.>.>.>.>.1.1.1.1.1.>.:.:.1.>.1.:.:.:.>.:.:.:.:.:.=.=.=.o.#.R ! ! ~ ~ ! ! ! ~ W ] ] ] ] 2./ Q e./ ~ 9.9.9.9.] 1.=.=.=.=.=.X.X./ Q W W W W W W W W ] ] =.=.=.7.4.8.0.0.0.0.0.0.0.0.0.0.0.0.0.0.0.0.",
"0.0.0.0.0.0.0.0.0.0.0.0.0.0.2.2.8.7.t.t.t.t.7.9.! ! ~ / / / / X.=.:.2.2.0.0.2.0.2.1.1.i.i.i.i./  .@.0./ +.o.o.o.o.y.! / ] o.o.o.+.o.X.X.) j.j.j.:.4.>.>.1.1.1.1.1.1.1.>.1.1.1.1.1.>.1.1.1.1.1.1.1.1.1.1.1.1.1.1.1.1.1.1.1.1.1.1.1.1.1.1.1.1.1.1.1.1.1.1.1.1.1.1.1.1.1.1.1.1.1.1.1.1.1.1.1.1.1.1.1.1.1.1.1.1.1.1.1.1.1.1.1.1.1.1.>.1.1.>.:.:.1.>.1.:.:.:.>.:.=.=.=.:.=.=.=.#.=.U ~ ~ / / ~ ~ / ~ W X.X.X.X.0.] / g./ / q.9.9.9.X.1.:.:.=.=.=.o.o.] ! W W W W W W Q Q o.] =.=.=.7.4.8.0.0.0.0.0.0.0.0.0.0.0.0.0.0.0.0.",
"0.0.0.0.0.0.0.0.0.0.0.0.0.0.2.2.8.7.y.y.y.y.7.-.Q Q ~ ~ / / / X.o.1.1.1.2.2.0.0.2.1.1.i.i.i.i./ X.=.0./ +.o.o.o.o.y.! / X.o.o.o.o.o.X.X.[ f.f.f.:.1.>.>.>.1.1.1.1.>.1.1.1.1.1.1.1.1.1.1.1.1.1.1.1.1.1.1.1.1.1.1.1.1.1.1.1.1.1.1.1.1.1.1.1.1.1.1.1.1.1.1.1.1.1.1.1.1.1.1.1.1.1.1.1.1.1.1.1.1.1.1.1.1.1.1.1.1.1.>.1.1.1.1.1.1.1.2.1.>.>.>.:.:.>.>.1.>.>.>.:.>.=.=.:.:.=.=.=.#.1.W / / ~ ~ / ~ / / W X.X.X.X.0.X./ h./ / q.9.q.9.] 1.:.>.:.:.:.=.=.] ! Q W W W W W W W X.] =.=.=.7.4.8.0.0.0.0.0.0.0.0.0.0.0.0.0.0.0.0.",
"0.0.0.0.0.0.0.0.0.0.0.0.0.0.2.2.8.7.t.t.t.t.9.=.! ! / / ] / / X.=.=.2.2.0.0.2.0.2.1.1.i.i.i.i./ X.=.0./ +.o.o.o.o.y.! / ] o.o.o.o.o.X.X.[ f.f.f.:.1.>.>.>.>.1.1.>.1.1.1.1.1.1.1.1.1.1.1.1.1.1.1.1.1.1.1.1.1.1.1.1.1.1.1.1.1.1.1.1.1.1.1.1.1.1.1.1.1.1.1.1.1.1.1.1.1.1.1.1.1.1.1.1.1.1.1.1.1.1.1.1.1.1.1.1.1.1.1.1.1.1.1.1.1.1.1.1.1.1.>.:.:.>.>.1.>.>.>.:.>.=.=.=.:.=.=.=.=.1.W ~ ~ / / / / / / ~ X.X.X.X.0.X./ h. ./ q.q.q.q.X.1.>.:.>.1.1.=.=.] / Q W W W W W W W X.] =.=.=.7.4.8.0.0.0.0.0.0.0.0.0.0.0.0.0.0.0.0.",
"0.0.0.0.0.0.0.0.0.0.0.0.0.0.2.2.7.7.y.t.t.t.7.=.! ! ~ ~ / / ` X.+.1.1.1.2.2.0.0.2.1.1.i.u.i.i./ X.=.0./ o.X.X.X.X.y.! / ] o.o.o.o.o.X.X.] f.f.f.:.1.>.>.>.1.1.1.1.1.1.1.2.2.>.>.1.>.1.1.1.1.1.1.1.1.1.1.1.1.1.1.1.1.1.1.1.1.1.1.1.1.1.1.1.1.1.1.1.1.1.1.1.1.1.2.1.1.1.1.1.1.1.1.1.1.1.2.1.1.1.1.1.1.1.1.1.1.1.1.1.1.1.1.1.1.1.1.1.1.1.>.>.>.>.>.1.:.:.:.>.:.=.=.=.:.=.=.=.=.1.W / / / / / / / / ~ X.X.X.X.0.X./ z.X./ q.q.q.q.X.2.>.>.1.1.1.:.:.X./ ! W W W W W Q Q X.] =.=.=.7.4.8.0.0.0.0.0.0.0.0.0.0.0.0.0.0.0.0.",
"0.0.0.0.0.0.0.0.0.0.0.0.0.0.2.2.7.1.y.t.t.t.1.0.Q Q ~ ~ ` ] ] o.+.1.1.1.2.2.0.0.2.1.1.u.u.u.u./ X.=.q.~ [ X.X.X.X.y.! / X.o.o.o.o.o.X.X.] g.g.g.:.1.>.>.>.1.1.1.1.1.1.>.2.1.>.>.1.1.1.1.1.1.1.1.1.1.1.1.1.1.1.1.1.1.1.1.1.1.1.1.1.1.1.1.1.1.1.1.1.1.1.1.1.1.1.1.1.1.1.1.1.1.1.1.1.1.1.1.1.1.1.1.1.1.1.1.1.1.1.1.1.1.1.1.1.1.>.>.1.1.1.1.1.1.1.>.1.>.>.>.>.:.:.:.:.:.:.:.:.:.7.W / / / / / / / / ! X.X.X.X.0.o./ h.X./ q.q.q.q.X.2.1.1.1.1.1.1.1.o./ ! Q Q Q W Q Q Q o.] =.=.=.7.4.8.0.0.0.0.0.0.0.0.0.0.0.0.0.0.0.0.",
"0.0.0.0.0.0.0.0.0.0.0.0.0.0.2.2.7.1.t.t.t.t.9.=.! ! ~ / ` ] / X.=.=.2.2.0.0.2.0.2.1.1.i.i.i.i./ X.@.q.~ [ o.o.o.o.y.! / ] o.o.o.o.o.X.X.] g.g.g.:.1.:.:.>.1.>.>.>.1.2.2.2.2.>.>.>.>.1.1.1.1.1.1.1.1.1.1.1.1.1.1.1.1.1.1.1.1.1.1.1.1.1.1.1.1.1.1.1.1.1.1.1.1.1.1.1.1.1.1.1.1.1.1.1.1.1.1.1.1.1.1.1.1.>.1.1.>.1.1.1.1.1.1.1.1.1.>.1.1.1.>.>.1.1.1.1.>.>.>.>.>.:.:.:.:.:.:.:.:.9.W _ _ _ _ / ] ] / ! +.+.+.+.r.o./ k.X./ q.q.q.q.X.2.1.1.1.1.1.1.1.o./ ! Q Q Q Q Q ! ! o.] =.=.=.7.4.8.0.0.0.0.0.0.0.0.0.0.0.0.0.0.0.0.",
"0.0.0.0.0.0.0.0.0.0.0.0.0.0.2.2.7.1.y.t.t.t.1.9.Q Q ! ~ / / / X.+.1.1.1.2.2.0.0.2.1.1.i.i.i.i./ X.@.q./ [ o.o.o.o.y.! / ] o.o.o.o.o.X.X./ g.g.g.:.1.1.1.>.1.1.>.1.1.2.2.2.2.>.>.1.1.1.1.1.1.1.1.1.1.1.1.1.1.1.1.1.1.1.1.1.1.1.1.1.1.1.1.1.1.1.1.1.1.1.1.1.1.1.1.1.1.1.1.1.1.1.1.1.1.1.1.1.1.1.1.1.1.1.1.1.1.1.1.1.1.1.1.1.1.1.>.1.1.1.>.1.1.1.1.1.>.>.>.>.>.>.>.>.:.:.:.:.:.7.W ] ] ] ] ] X.X.] ~ +.+.+.+.r.o./ h.X./ q.q.q.q.X.2.1.1.1.1.1.1.1.o._ ~ Q Q Q Q Q ! ! o.] =.=.=.7.4.8.0.0.0.0.0.0.0.0.0.0.0.0.0.0.0.0.",
"0.0.0.0.0.0.0.0.0.0.0.0.0.0.2.2.7.1.t.t.t.t.7.%.! ! ~ / _ _ / X.=.:.2.2.0.0.2.0.2.1.1.i.i.i.i./ X.=.q./ [ o.o.o.o.y.! / ] o.o.o.$.$.o.X.) g.g.g.:.1.:.:.>.1.1.1.1.>.1.>.1.1.1.>.1.1.>.1.1.1.1.1.1.1.1.1.1.1.1.1.1.1.1.1.1.1.1.1.1.1.1.1.1.1.1.1.1.1.1.1.1.1.1.1.1.1.1.1.1.1.1.1.1.1.1.1.1.1.1.1.1.1.1.1.1.1.1.1.1.1.1.1.1.1.1.>.>.1.1.1.>.>.>.>.1.>.>.>.>.>.:.:.>.:.:.:.:.:.9.W X.X.X.X.o.o.o.X./ @.@.@.@.y.o./ h.X./ q.q.q.q.X.0.1.1.2.2.1.1.1.+.] ~ Q Q Q ! ! ! ! o.] =.=.=.7.4.8.0.0.0.0.0.0.0.0.0.0.0.0.0.0.0.0.",
"0.0.0.0.0.0.0.0.0.0.0.0.0.0.2.2.7.7.t.t.t.t.7.9.! ! ~ / _ _ / X.=.:.2.2.0.0.2.0.2.1.1.i.i.i.i./ ] =.0./ [ o.o.o.o.y.! / ] o.o.o.o.o.X.] ] g.j.h.:.1.:.:.>.>.1.1.>.1.1.>.1.1.>.>.1.1.>.1.1.1.1.1.1.1.1.1.1.1.1.1.1.1.1.1.1.1.1.1.1.1.1.1.1.1.1.1.1.1.1.1.1.1.1.1.1.1.1.1.1.1.1.1.1.1.1.1.1.1.1.1.1.1.1.1.>.1.1.1.>.1.1.1.1.1.1.>.>.1.1.1.1.1.>.>.:.1.1.>.1.1.1.1.:.:.:.:.:.>.0.U ] ] X.X.o.X.X.X./ +.+.+.+.y.+./ j.X./ q.q.q.q.X.0.1.1.1.1.1.1.1.o.] ~ ! ! ! ! ! ! ! o.] =.=.=.7.4.8.0.0.0.0.0.0.0.0.0.0.0.0.0.0.0.0.",
"0.0.0.0.0.0.0.0.0.0.0.0.0.0.2.2.7.7.y.y.t.t.7.o.! ! ! ~ / / / X.+.1.1.1.2.2.0.0.2.1.1.i.i.i.i./ ] :.0./ ] o.o.o.o.y.! / X.o.o.o.o.o.X.] ] f.j.h.:.>.:.:.1.1.:.:.:.1.1.1.1.1.1.1.1.2.>.1.1.1.1.1.1.1.1.>.1.1.1.1.1.1.1.1.1.1.1.1.1.1.1.1.1.1.1.1.1.1.1.1.1.1.1.1.1.1.1.1.1.1.1.1.1.1.1.1.1.1.1.1.1.1.1.1.1.1.1.1.1.1.1.1.1.1.>.1.1.1.1.1.>.1.1.>.>.:.:.:.>.:.1.1.:.:.>.>.>.>.0.W ] ] X.X.o.o.o.o./ o.o.o.o.y.@./ h.X./ q.q.q.q.X.0.2.1.2.2.2.1.1.@.] ~ ! ! ! Q ! ! ! X.] =.=.=.7.4.8.0.0.0.0.0.0.0.0.0.0.0.0.0.0.0.0.",
"0.0.0.0.0.0.0.0.0.0.0.0.0.0.2.2.7.7.t.t.u.u.8.9.! ! ~ / _ _ / X.=.=.2.2.0.0.2.0.2.1.1.i.i.i.i./ ] :.0./ [ o.o.o.X.y.! ` ] o.o.o.o.o.X.] ] f.j.j.:.>.:.:.1.1.:.:.:.1.1.1.1.1.1.1.2.2.>.>.>.1.1.1.1.1.1.1.1.1.1.1.1.1.1.1.1.1.1.1.1.1.1.1.1.1.1.1.1.1.1.1.1.1.1.1.1.1.1.1.1.1.1.1.1.1.1.1.1.1.1.1.1.1.1.>.1.1.1.1.1.1.1.1.1.1.1.1.1.1.1.1.1.1.1.>.:.1.>.>.:.1.1.1.:.:.:.:.:.>.0.W ] ] X.X.X.o.+.o.` / / / / 4.@./ j.X./ q.q.q.q.X.4.2.2.2.2.2.1.1.+.] / ! ! ! ! ! ! ! o.] =.=.=.7.4.8.0.0.0.0.0.0.0.0.0.0.0.0.0.0.0.0.",
"0.0.0.0.0.0.0.0.0.0.0.0.0.0.2.2.7.1.y.t.t.t.7.o.! ! ~ ~ ] ] ] o.+.1.2.2.2.2.0.0.2.1.1.i.i.i.i./ X.@.0.~ [ o.o.o.o.y.! / X.o.o.o.o.o.X.] ) g.h.h.:.1.1.1.:.>.:.:.>.1.1.2.1.1.1.1.2.1.1.1.1.1.1.1.1.1.1.1.1.1.1.1.1.1.1.1.1.1.1.1.1.1.1.1.1.1.1.1.1.1.1.1.1.1.1.1.1.1.1.1.1.1.1.1.1.1.1.2.1.1.1.1.1.1.1.1.1.1.1.1.1.1.>.>.>.>.2.2.1.>.>.>.1.1.1.1.>.:.:.:.>.:.>.>.1.:.:.:.:.>.0.W ] ] X.X.X.o.o.o.` _ _ _ _ 4.@./ j.X./ q.q.q.q.o.0.4.2.1.1.1.1.1.@.] / ! ! ! Q ! ! ! o.] =.=.=.7.4.8.0.0.0.0.0.0.0.0.0.0.0.0.0.0.0.0.",
"0.0.0.0.0.0.0.0.0.0.0.0.0.0.2.2.7.1.y.t.t.t.1.-.Q Q ~ / / ] ] X.+.1.2.2.2.2.0.0.2.1.1.i.i.i.i./ X.@.0.~ o.o.o.o.o.y.! ` X.o.o.o.o.o.X.] / g.h.h.:.>.>.>.1.1.:.:.>.1.1.2.1.2.1.1.1.1.1.1.1.1.1.1.1.1.1.1.1.1.1.1.1.1.1.1.1.1.1.1.1.1.1.1.1.1.1.1.1.1.1.1.1.1.1.1.1.1.1.1.1.1.1.1.1.1.1.1.1.1.1.1.1.1.1.1.1.1.1.1.1.1.1.1.1.>.2.1.>.1.1.>.1.1.1.1.1.1.1.1.>.:.:.:.1.=.>.>.>.>.0.R ] ] X.X.o.o.o.o.` _ _ _ _ 4.@./ h.X./ q.q.q.q.o.0.2.2.2.2.1.1.1.@.] / ! ~ ~ Q ~ ! ! o.] =.=.=.7.4.8.0.0.0.0.0.0.0.0.0.0.0.0.0.0.0.0.",
"0.0.0.0.0.0.0.0.0.0.0.0.0.0.8.8.7.7.y.t.t.t.9.#.! ! ~ / / / / X.=.=.2.2.0.0.2.0.2.1.1.i.i.i.i.~ X.=.0.~ +.+.+.+.+.y.! ` X.o.o.+.o.o.X.X._ g.g.g.:.1.1.1.1.:.1.1.>.>.>.>.1.1.1.1.>.1.>.1.1.1.1.1.1.1.1.1.1.1.1.1.1.1.1.1.1.1.1.1.1.1.1.1.1.1.1.1.1.1.1.1.1.1.1.1.1.1.1.1.1.1.1.1.1.1.1.1.1.1.1.1.1.1.1.1.1.1.1.1.1.>.>.>.1.2.2.2.1.>.>.1.1.1.>.>.>.>.1.1.:.1.>.>.>.1.1.1.1.>.0.U o.o.o.o.X.o.o.o.] _ _ _ _ 4.@./ j.X./ q.q.q.q.o.0.2.4.2.2.2.2.2.@.] / ! ~ ~ ~ ~ ! ! o.] =.=.=.7.4.8.0.0.0.0.0.0.0.0.0.0.0.0.0.0.0.0.",
"0.0.0.0.0.0.0.0.0.0.0.0.0.0.2.2.7.7.y.y.y.y.7.-.Q Q ! ~ / / / X.+.1.2.2.2.2.0.0.2.1.1.i.i.i.i./ X.:.0.~ o.+.+.+.+.y.! ` X.+.o.+.o.o.X.X._ g.g.g.:.1.>.1.1.>.:.:.>.>.>.1.>.>.1.1.>.1.>.>.1.1.1.1.1.1.1.1.1.1.1.1.1.1.1.1.1.1.1.1.1.1.1.1.1.1.1.1.1.1.1.1.1.1.1.1.1.1.1.1.1.1.1.1.1.1.1.1.1.1.1.1.>.>.1.1.1.>.1.>.1.1.1.1.1.2.1.2.1.>.1.>.1.1.>.1.>.>.1.1.1.:.1.>.1.:.>.>.>.>.9.U o.o.X.X.X.o.o.o.] _ _ _ _ 4.@./ g.X./ q.q.q.q.o.0.2.4.4.4.4.2.2.=.] / ~ ~ ~ ! ! ! ! o.[ =.=.=.7.4.8.0.0.0.0.0.0.0.0.0.0.0.0.0.0.0.0.",
"0.0.0.0.0.0.0.0.0.0.0.0.0.0.2.2.7.1.y.t.t.t.7.o.~ ! ! / / / / X.=.:.2.2.0.0.2.0.2.1.1.i.i.i.i.! X.=.q./ +.+.o.o.o.y.W ] X.o.o.o.+.+.X.] ] g.g.g.:.1.1.1.1.:.:.:.:.1.>.1.1.1.1.1.1.1.1.1.1.1.1.1.1.1.1.1.1.1.1.1.1.1.1.1.1.1.1.1.1.1.1.1.1.1.1.1.1.1.1.1.1.1.1.1.1.1.1.1.1.1.1.1.1.1.1.1.1.1.1.1.1.1.1.1.1.1.>.1.1.1.1.1.1.1.>.1.2.1.>.>.>.>.1.>.1.1.>.1.:.1.>.>.:.1.>.>.>.>.1.U X.X.o.o.X.o.o.o.] _ _ _ _ 4.@./ j.X./ q.q.q.q.o.0.2.4.4.4.4.2.2.=.] / ~ ~ ~ ! ~ ! ! o.X.=.=.=.7.0.8.0.0.0.0.0.0.0.0.0.0.0.0.0.0.0.0.",
"0.0.0.0.0.0.0.0.0.0.0.0.0.0.2.2.7.1.y.t.t.t.9.-.! ! ! / / / / X.=.:.2.2.0.0.2.0.2.1.1.i.i.i.i.! ] =.0./ +.+.+.+.o.y.W ] X.+.+.o.+.+.X._ ] g.g.g.:.1.1.1.1.>.>.>.>.1.1.1.>.1.1.1.1.1.1.1.1.1.1.1.1.1.1.1.1.1.1.1.1.1.1.1.1.1.1.1.1.1.1.1.1.1.1.1.1.1.1.1.1.1.1.1.1.1.1.1.1.1.1.1.1.1.1.1.1.1.1.1.1.1.1.1.1.1.1.1.1.1.1.1.1.1.>.1.1.1.>.1.1.1.1.1.>.>.>.1.>.:.1.1.1.:.>.>.>.>.7.U o.o.X.X.X.o.o.o.` _ _ _ _ 4.@./ f.X./ q.q.q.q.o.0.2.4.4.4.2.2.2.=.X./ ~ ~ ~ ~ ~ ~ ~ o.o.=.=.=.7.0.8.0.0.0.0.0.0.0.0.0.0.0.0.0.0.0.0.",
"0.0.0.0.0.0.0.0.0.0.0.0.0.0.2.2.7.1.y.y.y.y.1.[ ! ! ~ ~ / / ` o.+.1.2.2.2.2.0.0.2.1.1.i.i.i.i.! X.=.0./ +.+.+.+.+.y.W ] X.o.o.o.o.o.X.X.[ j.j.j.:.1.>.>.>.>.>.>.1.2.1.>.>.>.1.1.1.1.1.1.1.1.1.1.1.1.1.1.1.1.1.1.1.1.1.1.1.1.1.2.2.2.4.4.2.2.2.2.2.2.2.2.2.2.2.2.2.2.2.2.2.2.2.2.2.2.2.2.2.1.1.1.1.1.1.1.1.1.1.1.1.1.1.1.1.1.1.1.2.1.1.1.1.1.1.>.>.>.1.>.1.1.>.>.:.1.>.>.1.:.1.W ] ] o.o.o.o.o.o./ _ _ _ _ 4.@./ k.X.] q.q.q.q.o.0.2.4.4.4.2.2.2.:.X./ ~ ~ ~ ~ ~ ~ ~ o.o.=.=.=.7.0.8.0.0.0.0.0.0.0.0.0.0.0.0.0.0.0.0.",
"0.0.0.0.0.0.0.0.0.0.0.0.0.0.2.2.7.1.y.u.t.t.9.-.! ~ ~ / ` ] ] o.=.=.2.2.0.0.2.0.2.1.1.i.i.i.i.~ X.@.0./ o.+.+.+.+.y.W ] X.+.+.+.o.o.X.X.[ h.g.g.:.>.>.>.>.>.>.>.>.1.1.>.>.>.1.1.1.1.1.1.1.1.1.1.1.1.1.1.1.1.1.1.1.1.1.1.1.1.1.1.1.1.1.1.1.1.1.1.1.1.1.1.1.1.1.1.1.1.1.1.1.1.1.1.1.1.1.1.1.1.1.1.1.1.1.1.1.1.1.1.1.1.1.1.1.1.1.1.1.1.1.1.1.1.1.>.>.>.>.>.>.>.>.>.1.1.:.:.:.:.1.W ] ] o.o.o.o.o.o./ _ _ _ _ 4.@./ j.X./ q.q.q.q.o.0.2.4.4.4.2.2.2.=.X./ ~ ~ ~ ~ / / / +.X.=.=.=.7.0.8.0.0.0.0.0.0.0.0.0.0.0.0.0.0.0.0.",
"0.0.0.0.0.0.0.0.0.0.0.0.0.0.2.2.7.7.y.y.y.y.7.[ ! ! ! / _ / ] o.=.1.2.2.2.2.0.0.2.1.1.i.i.i.i.~ X.=.0./ o.o.o.o.o.y.W ] X.o.o.+.o.o.X.X.] j.j.j.>.1.>.1.>.1.1.1.1.1.1.>.>.>.1.1.1.1.1.1.1.1.1.1.1.1.1.1.1.1.1.1.1.1.1.1.1.1.2.2.2.2.2.2.2.2.2.2.2.2.2.2.2.2.2.2.2.2.2.2.2.2.2.2.2.2.2.2.1.1.1.1.1.1.1.1.1.1.1.1.1.1.1.1.1.1.1.1.1.1.1.1.1.1.1.1.1.>.1.1.>.>.1.1.1.1.>.>.>.1.1.W ] ] o.o.o.o.o.o./ _ ] _ _ 4.@./ k.X./ q.q.q.q.o.0.2.4.4.4.2.2.2.=.X./ ~ ~ ~ ~ ~ ~ ~ o.o.1.=.=.7.4.8.0.0.0.0.0.0.0.0.0.0.0.0.0.0.0.0.",
"0.0.0.0.0.0.0.0.0.0.0.0.0.0.2.2.7.7.t.y.y.y.7.-.! ! ! / / / ] X.=.1.2.2.2.2.0.0.2.1.1.i.i.i.i.! X.:.0.! o.o.o.+.+.r.W _ X.o.o.+.o.o.o.X.[ q.q.q.I I I I I I I I I I I I I I I I I I I I I I I I I I I I I I I I I I I I I I I I I I I I I I I I I I I I I I I I I I I I I I I I I I I I W W W W W W W W W W W W W W W W W W W W W W W W W W W W W W W W W W W W R W W W W W 1.R ] ] o.o.o.+.+.o./ _ ] _ _ 4.@./ j.X./ q.q.q.q.o.0.2.4.4.4.2.2.2.=.X./ ~ ~ ~ ~ ~ ~ ~ o.o.=.=.=.7.4.8.0.0.0.0.0.0.0.0.0.0.0.0.0.0.0.0.",
"0.0.0.0.0.0.0.0.0.0.0.0.0.0.2.2.7.1.t.t.t.t.9.[ / / ~ / / / _ o.=.=.2.2.0.0.2.0.2.1.1.u.u.u.u.! X.:.0.~ o.o.o.+.+.0.W _ ] o.o.o.o.o.o.o._ L L L L L L L L L L L L L L L L L L L L L L L L L L L L L L L L L L L L L L L L L L L L L L L L L L L L L L L L L L L L L L L L L L L L L L L L L L L L L L L L L L L L L L L L L L L L L L L L L L L L L L L L L L L L L L L L J K ! o.o.o.o.o.+.o.X./ ] ] ] ] 4.@./ k.X./ f.f.f.f.o.0.2.4.4.4.2.2.2.=.X./ ~ ~ / ~ / ~ ~ o.] =.=.=.7.4.8.0.0.0.0.0.0.0.0.0.0.0.0.0.0.0.0.",
"0.0.0.0.0.0.0.0.0.0.0.0.0.0.2.2.7.1.t.y.y.y.7.=.Q Q ! / / / / X.+.1.2.2.2.2.0.0.2.1.1.u.u.u.u.! X.:.r.~ +.o.+.+.+.0.W / ] o.o.o.+.+.o.+.o.] ] ] ] ] ] _ _ _ ] ] _ _ ] ] ] ] ] ] ] ] ] ] ] ] ] ] ] ] ] ] ] ] ] ] ] ] ] ] ] ] ] ] ] ] ] ] ] ] ] ] ] ] ] ] ] ] ] _ ] ] ] ] ] ] ] ] ] ] ] ] _ _ ` ` / ` / / ` ` ` / / / / / ` / / / ` / / / / / / / / / / / / / / / / / / / / ] ] X.+.+.o.o.+.+.o.X./ ] ] ] ] 4.@./ g.X./ f.f.f.f.o.0.2.4.4.4.4.2.2.:.X./ ~ ~ ~ ~ ~ ~ ~ o.[ =.=.=.7.4.8.0.0.0.0.0.0.0.0.0.0.0.0.0.0.0.0.",
"0.0.0.0.0.0.0.0.0.0.0.0.0.0.2.2.7.1.t.t.t.t.9.] ~ ! ! / ` ] / o.=.:.2.2.0.0.2.0.2.1.1.i.i.i.i.! X.=.0.~ X.@.+.+.+.0.W / ] o.o.o.o.o.+.+.o.o.o.o.X.o.X.X.o.o.o.o.X.o.o.o.X.X.X.X.X.X.X.o.o.o.o.o.o.o.o.X.X.X.X.X.X.X.X.X.o.o.o.o.o.o.o.o.o.X.o.o.o.o.o.o.o.o.o.X.X.X.X.X.X.X.X.X.X.X.X.X.o.o.X.o.X.X.X.X.X.X.X.X.X.X.X.X.X.X.o.o.o.X.X.X.o.o.o.o.o.o.o.o.o.o.o.o.o.] X.X.X.o.o.o.@.@.+.+.+.+.+.o./ ] ] ] ] 4.@./ k.X./ f.f.f.f.o.0.2.4.4.4.2.2.2.:.X./ / ~ ~ ~ ~ ~ ~ o.[ =.=.=.7.4.8.0.0.0.0.0.0.0.0.0.0.0.0.0.0.0.0.",
"0.0.0.0.0.0.0.0.0.0.0.0.0.0.2.2.7.1.t.t.t.t.7.=.! ! ! / / ] ] o.=.:.2.2.0.0.2.0.2.1.1.i.i.i.i.! X.=.0./ X.+.+.+.+.0.W / ] o.o.X.o.o.o.+.o.o.o.+.o.o.o.o.o.o.o.o.o.o.o.o.o.o.o.o.o.o.o.o.o.o.o.o.o.o.o.o.o.o.o.o.o.o.o.o.o.o.o.o.o.o.o.o.o.o.o.+.+.+.o.+.o.o.o.o.o.o.o.o.o.o.+.+.o.o.o.o.o.o.o.o.o.o.o.o.o.o.o.o.o.o.o.o.o.o.o.o.X.X.X.X.o.o.o.o.o.o.o.o.o.o.o.o.X.X.X.o.o.o.o.o.+.+.+.+.+.+.+.o./ ] ] ] ] 4.@.~ u.o./ f.f.f.f.o.0.2.4.4.4.2.2.2.:.X./ / ~ ~ ~ ~ ~ ~ o.[ =.=.=.7.4.8.0.0.0.0.0.0.0.0.0.0.0.0.0.0.0.0.",
"0.0.0.0.0.0.0.0.0.0.0.0.0.0.2.2.7.1.t.y.y.y.7./ ! ! ! ~ / / ] o.+.1.2.2.2.2.0.0.2.1.1.i.i.i.i.! X.=.0.! o.o.o.o.o.0.R / / ] ] ] o.o.o.+.@.+.+.+.+.+.+.+.+.+.+.+.+.+.+.+.+.+.+.+.+.+.+.+.+.+.+.+.+.+.+.+.+.+.+.+.+.+.+.o.+.+.+.+.+.+.+.+.o.@.+.+.+.+.o.+.o.o.+.o.+.+.+.+.o.+.+.+.+.+.+.o.+.+.#.#.+.+.+.+.+.o.+.+.#.+.+.+.+.+.+.+.+.+.+.+.+.+.+.+.+.+.+.+.+.+.+.+.+.+.+.+.+.+.+.+.o.o.+.+.+.+.+.o./ ] ] ] ] 2.@./ u.o./ f.f.f.f.o.0.2.4.4.4.4.2.2.>.X./ / ~ ~ ~ ~ ~ ~ o.o.=.=.=.7.4.8.0.0.0.0.0.0.0.0.0.0.0.0.0.0.0.0.",
"0.0.0.0.0.0.0.0.0.0.0.0.0.0.2.2.7.1.t.t.t.t.9.o.~ ~ ~ / / / _ o.=.=.2.2.0.0.2.0.2.1.1.i.i.i.i.! X.=.0.~ [ o.o.o.o.4.R ~ ~ ` ` / ] ] o.o.+.o.o.o.o.o.o.o.o.o.o.o.o.o.o.o.o.o.o.+.+.o.o.o.o.o.o.o.o.o.o.o.+.o.#.+.+.+.+.o.+.+.o.+.+.o.+.+.o.+.+.o.o.o.o.+.+.+.+.o.+.+.+.@.+.o.+.+.+.+.+.+.+.+.o.+.+.+.+.+.+.o.o.+.+.+.+.+.+.o.o.o.o.o.o.o.o.o.o.o.o.o.o.o.o.o.o.o.o.+.o.o.o.+.+.o.+.+.+.+.o.X.X.] ! ] ] ] ] 2.@./ e.o./ f.f.f.f.o.0.2.4.4.4.2.2.2.=.X./ ~ ~ ~ ~ ~ ~ ~ o.[ =.=.=.7.4.8.0.0.0.0.0.0.0.0.0.0.0.0.0.0.0.0.",
"0.0.0.0.0.0.0.0.0.0.0.0.0.0.2.2.7.7.t.y.y.y.7.o.! ! ! / / / / X.=.1.2.2.2.2.0.0.2.1.1.i.i.i.i.! X.=.0.~ ] o.o.o.o.0.R ! ~ / / / / / _ X.X.o.o.o.o.o.o.o.o.o.+.o.o.o.o.o.o.o.+.+.o.o.o.o.+.o.o.o.o.o.o.o.o.o.+.o.o.o.o.o.o.o.o.o.o.o.o.o.o.o.o.o.o.o.o.o.o.o.o.o.o.o.o.o.o.o.o.o.o.o.o.+.o.o.o.o.o.o.o.o.o.o.o.o.o.o.o.o.o.o.o.o.o.o.o.o.o.o.+.o.o.o.o.o.o.o.+.o.o.o.o.o.o.o.o.o.o.o.X.X.] / / / ! ] ] ] ] 2.@./ u.o./ f.f.f.f.o.0.2.4.4.4.2.2.2.=.X./ ~ ~ ~ ~ ~ ~ ~ o.o.=.=.=.7.4.8.0.0.0.0.0.0.0.0.0.0.0.0.0.0.0.0.",
"0.0.0.0.0.0.0.0.0.0.0.0.0.0.2.2.7.7.t.y.t.y.7.[ ! ! ~ / / / / X.=.1.2.2.2.2.0.0.2.7.7.i.i.i.i.! X.=.0.! ] o.o.o.o.0.P Q ! ! ! ! ! ! / / / ] ] ] ] ] ] ] ] ] X.] ] ] ] ] ] ] X.X.] ] ] ] ] ] ] ] ] ] ] ] ] ] o.] ] ] ] ] o.] [ ] ] ] ] ] ] ] ] ] ] ] ] ] ] ] X.] ] ] ] ] ] ] ] ] ] ] ] X.X.] ] ] ] ] ] ] ] ] ] ] ] X.X.X.X.] ] ] ] ] ] ] ] ] X.] ] ] ] ] X.X.] ] ] ] ] ] ] X.] X.] ] / / / / ~ ~ ! / / / / 2.@./ e.+./ f.f.f.f.o.0.2.0.4.4.2.2.4.=.X./ ~ ~ ~ ~ ~ ~ ~ o.o.=.=.=.7.4.8.0.0.0.0.0.0.0.0.0.0.0.0.0.0.0.0.",
"0.0.0.0.0.0.0.0.0.0.0.0.0.0.2.2.7.1.t.t.t.t.9.%.! ! / / ` ` ` X.=.=.2.2.0.0.2.0.2.7.7.i.i.i.i.! X.=.0.! [ o.o.o.o.1.L P P I I W W W Q Q ! ~ ~ ~ ~ ~ ~ ~ ~ ~ ~ ~ ~ ~ ~ ~ ~ ~ ~ ~ ~ ~ ~ ~ W Y Y Y Y Y Y Y Y I I Y Y Y Y Y Y Y Y R R R Y Y R R R R R R R R R R R R R R R R R R R R R R R R R R R R R R R R R Y R R R R R R R R U U R R R R R R R R Y Y Y Y I W Y Y Y Y I Y Y Y I I I I P P P P P P P W W W W 2.@./ e.o./ f.f.f.f.o.0.2.0.4.4.2.2.2.=.X./ ~ ~ ~ ~ ~ ~ ~ o.X.=.=.=.7.4.8.0.0.0.0.0.0.0.0.0.0.0.0.0.0.0.0.",
"0.0.0.0.0.0.0.0.0.0.0.0.0.0.2.2.7.1.t.y.y.y.1.] ! ! ! / / / / X.+.1.2.2.2.2.0.0.2.7.7.i.i.i.i.! X.=.0.! [ ] ] ] ] g.f.f.x.h.h.b.m.m.m.M.M.C.C.C.C.V.V.V.C.V.V.V.V.V.V.V.V.V.V.V.V.V.V.C.m.n.n.n.n.n.n.n.c.c.n.c.c.c.c.c.n.n.b.n.n.n.n.n.n.n.n.n.n.n.n.n.n.n.n.n.n.n.n.n.x.n.n.n.x.x.c.c.x.x.c.c.c.c.c.c.x.N.n.n.c.c.c.c.c.c.c.c.c.c.c.c.c.c.c.x.x.x.x.x.x.c.x.x.x.x.x.x.x.x.x.x.h.h.h.h.g.f.f.f.f.f.f.f.f.1.@./ e.o.~ f.f.f.f.o.0.2.0.4.4.4.2.2.:.X./ ~ ~ ~ ! ~ ~ ~ o.o.=.=.=.7.4.8.0.0.0.0.0.0.0.0.0.0.0.0.0.0.0.0.",
"0.0.0.0.0.0.0.0.0.0.0.0.0.0.2.2.7.1.t.y.y.y.7.o.! ! ! / ] ` ` o.=.1.2.2.0.0.2.0.2.1.1.u.u.u.u.! X.=.r.! [ o.o.o.o.>.:.@.+.=.=.+.#.#.:.:.2.2.2.2.2.2.2.2.2.2.2.2.2.2.8.8.2.4.4.4.2.2.8.8.0.0.0.0.0.0.0.0.0.0.0.0.0.0.0.0.0.0.0.0.0.0.0.0.0.0.0.0.0.0.0.0.0.0.0.0.0.0.0.0.0.0.0.0.0.0.0.0.0.0.0.0.0.0.0.0.0.0.0.0.0.0.0.0.0.0.0.0.0.0.0.0.0.0.0.0.0.0.0.0.0.0.4.4.0.0.0.0.0.0.0.0.0.0.1.1.1.:.:.:.=.>.>.>.>.@.@./ e.+./ f.f.f.f.o.0.2.0.4.4.2.2.2.=.X./ ~ ~ ~ ~ ~ ~ ~ o.] =.=.=.7.0.8.0.0.0.0.0.0.0.0.0.0.0.0.0.0.0.0.",
"0.0.0.0.0.0.0.0.0.0.0.0.0.0.2.2.7.1.t.y.y.y.7.] ~ ! ! / ] ] ` o.=.1.2.2.0.0.2.0.2.1.1.u.u.u.u.! X.=.r.~ [ o.o.o.o.=.=.@.@.=.=.=.=.=.=.:.>.>.>.>.>.1.1.1.>.>.1.1.1.1.1.1.>.1.1.1.1.1.1.1.1.1.1.1.1.1.1.1.1.1.1.1.1.1.1.1.1.1.1.1.1.>.1.1.1.1.1.1.1.1.1.1.1.1.1.1.1.1.1.>.1.1.1.1.1.1.1.1.1.1.1.1.1.1.1.1.1.1.1.1.1.1.1.1.1.1.1.1.1.1.1.1.1.1.>.>.:.>.>.>.:.:.:.:.:.:.:.:.:.:.:.:.=.=.=.=.=.=.=.=.+.+.+.+.+.+.@./ q.+./ f.f.f.f.+.0.2.4.0.0.8.2.2.=.X./ ~ ~ ~ ~ ~ ~ ~ o.] 1.=.=.7.4.8.0.0.0.0.0.0.0.0.0.0.0.0.0.0.0.0.",
"0.0.0.0.0.0.0.0.0.0.0.0.0.0.2.2.7.1.t.y.y.y.1.[ ! ! ! / / / / X.@.1.2.2.2.2.4.0.2.1.1.u.u.u.i.~ X.:.y.! [ +.+.+.+.=.=.:.:.:.:.:.:.:.:.:.>.>.>.>.>.>.1.1.1.1.>.>.>.>.1.1.1.1.2.2.1.>.1.1.1.2.1.1.1.1.1.1.1.1.1.1.1.1.1.1.1.1.1.1.1.1.1.1.1.1.1.1.1.1.1.1.1.1.1.1.1.1.1.1.1.1.1.1.2.1.1.1.1.1.1.1.1.1.1.1.1.1.1.1.1.1.1.1.1.1.1.1.1.1.1.1.1.1.1.1.>.>.1.1.1.1.>.1.1.1.>.>.>.>.>.>.:.:.:.:.:.>.:.>.=.#.#.=.=.#.@./ q.+.~ f.f.f.f.o.0.2.0.4.4.4.8.8.:.X./ ~ / / ~ ~ ~ ~ o.o.1.=.=.7.4.8.0.0.0.0.0.0.0.0.0.0.0.0.0.0.0.0.",
"0.0.0.0.0.0.0.0.0.0.0.0.0.0.2.2.7.1.t.t.t.t.9.] ~ / / / ] ] ] o.=.:.2.2.0.0.2.0.2.1.1.u.i.i.i.~ X.:.0.~ X.@.@.@.@.=.=.=.:.=.=.=.=.=.=.:.>.>.>.>.>.>.:.:.1.1.1.1.1.1.>.1.1.1.1.2.>.1.1.>.1.1.1.1.2.1.1.1.1.1.1.1.1.1.1.1.1.1.1.1.1.1.1.1.1.1.1.1.1.1.1.1.1.1.1.1.1.1.1.1.1.1.1.1.1.1.1.1.1.1.1.1.1.1.1.1.1.1.1.1.1.1.1.1.1.1.1.1.1.1.1.1.>.>.1.1.:.1.1.1.:.1.:.:.>.1.:.:.:.>.>.>.:.:.:.:.=.>.:.:.:.=.=.=.=.@.@./ q.+.~ f.f.f.f.o.0.2.0.0.0.2.2.2.=.X./ ~ ~ / ~ / ~ ~ o.] 1.=.=.7.4.8.0.0.0.0.0.0.0.0.0.0.0.0.0.0.0.0.",
"0.0.0.0.0.0.0.0.0.0.0.0.0.0.2.2.7.1.t.y.y.y.7.[ ! ! ! / / / / o.=.1.2.2.2.2.0.0.2.1.1.u.u.u.i.~ X.=.0.! X.@.@.@.@.=.=.:.:.=.=.:.:.:.=.:.:.>.>.>.>.:.>.>.1.1.1.>.1.1.1.1.>.>.1.2.1.1.1.1.1.>.1.>.>.1.1.1.1.1.1.1.1.1.1.1.1.1.1.1.1.1.1.1.1.1.1.1.1.1.1.1.1.1.1.1.1.1.1.1.1.1.1.1.1.1.1.1.1.1.1.1.1.1.1.1.1.1.1.1.1.1.1.1.1.1.>.1.1.1.1.1.1.1.1.1.1.1.1.1.1.1.>.>.1.1.>.>.>.>.:.>.:.:.=.=.=.>.:.>.:.=.=.=.=.@.@._ q.+.~ f.f.f.f.o.0.2.0.0.0.2.2.2.:.X./ ~ ~ ~ ! ~ ~ ~ o.o.=.=.=.8.4.8.0.0.0.0.0.0.0.0.0.0.0.0.0.0.0.0.",
"0.0.0.0.0.0.0.0.0.0.0.0.0.0.2.2.7.1.t.y.y.y.7.` ! ! ! / / / / o.=.1.2.2.2.2.0.0.2.1.1.u.u.u.i.~ X.=.0.! X.+.+.+.+.=.=.=.:.:.:.:.=.=.:.1.:.>.1.>.>.:.1.1.1.1.1.>.1.1.1.1.>.>.1.2.1.1.1.1.1.>.>.>.>.1.1.1.1.1.1.1.1.1.1.1.1.1.1.1.1.1.1.1.1.1.2.1.1.1.1.1.1.1.1.1.1.1.1.1.1.1.1.1.1.1.1.1.1.1.1.1.1.1.1.1.1.1.1.1.1.1.1.1.1.1.1.1.1.1.1.1.1.>.1.1.1.1.1.1.1.1.>.>.:.1.:.:.:.1.:.:.=.=.:.:.=.>.:.:.:.=.=.=.=.@.+./ q.+.~ f.f.f.f.o.0.2.0.0.0.2.2.2.=.X./ / ~ ~ ! ~ ~ ~ o.o.=.=.=.7.4.8.0.0.0.0.0.0.0.0.0.0.0.0.0.0.0.0.",
"0.0.0.0.0.0.0.0.0.0.0.0.0.0.2.2.7.1.t.t.t.t.9.o.~ ~ ~ / ] ] ] o.=.:.8.8.4.4.2.0.2.1.1.u.u.u.u.! X.=.0./ X.@.@.@.@.=.=.=.>.>.>.:.:.:.:.:.:.>.1.1.1.:.1.1.1.1.>.>.>.1.1.1.>.>.1.1.1.1.1.1.1.>.1.1.>.1.1.1.1.1.1.1.1.1.1.1.1.1.1.1.1.1.1.1.1.1.2.1.1.1.1.1.1.1.1.1.1.1.1.1.1.1.1.1.1.1.1.1.1.1.1.1.1.1.1.1.1.2.1.1.1.1.1.1.1.1.1.1.1.1.1.1.>.>.1.>.>.>.1.1.1.1.1.1.>.>.:.:.:.1.:.:.=.=.:.:.:.>.:.:.:.@.=.=.=.@.+./ e.+./ f.f.f.f.o.0.2.0.0.0.2.2.2.=.X./ / / ~ ~ ~ ~ ~ o.[ =.=.=.7.4.8.0.0.0.0.0.0.0.0.0.0.0.0.0.0.0.0.",
"0.0.0.0.0.0.0.0.0.0.0.0.0.0.2.2.7.1.y.y.y.y.1./ ! ! ~ / / / / o.+.1.2.2.2.2.0.0.2.1.1.u.u.u.i.Q [ =.7.W ] =.=.=.=.=.:.:.>.:.:.>.>.>.:.:.:.:.:.:.1.1.1.1.1.1.1.1.>.>.>.1.1.1.>.>.>.1.1.1.>.1.1.1.1.1.1.1.1.1.1.1.1.1.1.1.1.1.1.1.1.1.1.1.1.1.1.1.1.1.1.1.1.1.1.1.1.1.1.1.1.1.1.1.1.1.1.1.1.1.1.1.1.1.1.1.1.1.1.1.>.1.1.1.1.>.1.1.1.1.1.>.1.1.1.>.:.>.1.1.:.:.:.:.1.>.>.1.1.:.=.:.=.=.:.:.:.:.>.:.:.=.=.=.=.=.@./ q.+./ f.f.f.f.o.0.2.0.0.0.4.8.8.:.X./ / / ~ ! ~ ~ ~ o.o.=.=.=.7.4.8.0.0.0.0.0.0.0.0.0.0.0.0.0.0.0.0.",
"0.0.0.0.0.0.0.0.0.0.0.0.0.0.2.2.7.1.t.y.t.y.7.] ~ ~ ! / / / / o.=.1.2.2.4.4.2.0.2.1.1.u.i.i.i.W [ =.7.! ] =.=.=.=.=.:.>.>.:.:.:.:.:.:.:.:.:.:.:.>.1.>.>.1.>.>.>.>.>.1.1.1.1.1.1.1.1.1.1.1.>.1.1.>.1.1.1.1.1.1.1.1.1.1.1.1.1.1.1.1.1.1.1.1.1.1.1.1.1.1.1.1.1.1.1.1.1.1.1.1.1.1.1.1.1.1.1.1.1.1.1.1.1.1.1.1.1.1.1.1.1.1.1.1.1.1.1.1.>.>.1.1.1.1.>.:.>.>.>.:.>.1.1.:.1.:.:.:.:.>.:.:.:.:.:.>.:.>.:.=.=.=.=.=.=.@./ q.o./ f.f.f.f.o.0.2.0.0.0.2.2.2.=.X./ ~ ~ ~ ~ ~ ~ ~ o.] =.=.=.7.4.8.0.0.0.0.0.0.0.0.0.0.0.0.0.0.0.0.",
"0.0.0.0.0.0.0.0.0.0.0.0.0.0.2.2.7.1.t.y.t.y.7./ / / ! / / / _ o.=.1.2.2.4.4.2.0.8.7.7.u.i.i.i.W X.=.7.~ X.#.#.#.#.=.:.:.:.>.>.=.=.=.:.:.:.>.>.>.:.1.1.1.:.:.>.>.>.1.1.1.1.1.1.1.1.1.1.1.1.>.>.>.1.1.1.1.1.1.1.1.1.1.1.1.1.1.1.1.1.1.1.1.1.1.1.1.1.1.1.1.1.1.1.1.1.1.1.1.1.1.1.1.1.1.1.1.1.1.1.1.1.1.1.1.1.1.1.1.1.1.1.1.1.1.1.1.>.>.>.1.1.1.1.1.1.:.>.>.:.>.:.:.1.:.1.1.>.>.:.>.:.:.:.:.>.>.>.:.=.@.@.@.=.=.+.~ q.o./ f.f.f.f.o.0.2.0.0.0.2.2.2.=.X./ ~ ~ ~ ~ ~ ~ ~ o.] =.=.=.7.4.8.0.0.0.0.0.0.0.0.0.0.0.0.0.0.0.0.",
"0.0.0.0.0.0.0.0.0.0.0.0.0.0.2.2.7.1.y.y.y.y.1.] ! ! ~ / ] ] / o.+.1.1.1.2.2.0.0.8.7.7.u.u.u.u.W o.=.7.~ X.+.+.+.+.=.:.:.:.>.>.=.:.:.=.=.:.>.>.>.:.1.:.:.>.:.>.>.>.>.1.1.1.1.>.>.1.1.1.1.1.1.1.1.1.1.1.1.1.1.1.1.1.1.1.1.1.1.1.1.1.1.1.1.1.1.1.1.1.1.1.1.1.1.1.1.1.1.1.1.1.1.1.1.1.1.1.1.1.1.1.1.1.1.1.1.1.1.1.1.>.1.1.1.1.1.1.1.1.1.1.1.1.1.>.>.1.1.1.1.:.:.:.:.:.:.1.1.1.:.:.:.:.:.:.:.:.:.:.:.=.=.@.=.=.=.+./ q.X./ f.f.f.f.o.0.2.0.0.0.4.8.8.:.X./ ~ / / ~ ~ ~ ~ o.o.=.=.=.7.4.8.0.0.0.0.0.0.0.0.0.0.0.0.0.0.0.0.",
"0.0.0.0.0.0.0.0.0.0.0.0.0.0.2.2.7.1.t.y.y.y.9./ / / / / ] ] ] o.=.:.8.8.4.4.2.0.8.7.7.t.t.t.t.W o.=.9.~ o.+.+.+.+.=.:.>.>.>.>.:.:.:.:.:.>.>.>.>.>.1.1.1.1.>.1.1.1.1.1.1.1.1.1.1.1.1.1.2.1.1.1.1.1.1.1.2.1.1.1.1.1.1.1.1.1.1.1.1.1.1.1.1.1.1.2.2.1.1.1.1.1.1.1.1.1.1.1.1.1.1.1.1.2.2.1.1.1.1.1.1.1.1.1.1.1.1.1.1.1.1.1.1.1.1.1.1.1.1.1.1.1.1.1.1.1.1.1.1.1.1.1.1.1.1.1.1.1.>.>.>.>.>.>.>.>.>.>.:.=.=.=.=.=.=.=./ q.X./ f.f.f.f.o.0.2.0.0.0.8.2.2.=.X./ ~ / / ~ / ~ ~ o.] =.=.=.7.4.8.0.0.0.0.0.0.0.0.0.0.0.0.0.0.0.0.",
"0.0.0.0.0.0.0.0.0.0.0.0.0.0.2.2.7.1.t.y.y.y.9._ ! ! ! / ] / / o.=.1.2.2.2.2.0.0.2.7.7.t.t.t.t.W o.=.8./ o.#.#.#.#.X.X.o.o.o.o.o.o.o.o.o.o.o.o.o.o.o.o.o.o.o.+.+.+.@.@.@.@.@.@.+.@.@.@.@.+.+.+.+.@.@.+.=.@.=.=.@.@.@.@.=.=.=.=.=.@.@.@.@.=.=.=.=.=.=.=.=.=.=.=.=.=.=.=.=.=.=.=.=.=.=.@.=.=.=.=.=.=.=.=.=.=.=.@.@.@.@.=.=.=.=.@.=.=.=.=.=.@.=.=.=.=.=.=.=.#.=.=.=.=.@.@.@.@.@.@.@.=.=.@.@.@.@.@.@.+.X.X.X.X.o.=./ q.o./ f.f.f.f.o.0.2.0.4.4.2.2.2.:.X./ / ~ ~ ! ~ ~ ~ o.o.=.=.=.7.4.8.0.0.0.0.0.0.0.0.0.0.0.0.0.0.0.0.",
"0.0.0.0.0.0.0.0.0.0.0.0.0.0.2.2.7.1.t.y.y.y.9./ ~ ~ ! / ] / / o.=.1.2.2.2.2.0.0.2.7.7.t.t.t.t.W o.=.8./ o.=.=.=.=.X.V J F F F J J J J J J J J J J J J J J J J J J J L L L L L L K L K K L L L L L L L L L L K L L L L L L K L L L L K K L L K K K K K K L L J L L L L L L L L L J J L L L L L L J J L J L L L L L K P P P K L L K K K K K K K L L P P P L P I I P L L L L L L L L L L L L L L L K U U U U :.+./ q.o./ f.f.f.f.o.0.2.0.4.4.2.2.2.:.X./ / ~ ~ ! ~ / / o.o.=.=.=.7.4.8.0.0.0.0.0.0.0.0.0.0.0.0.0.0.0.0.",
"0.0.0.0.0.0.0.0.0.0.0.0.0.0.2.2.7.1.i.y.t.t.9.] ~ ~ / / ] ] ] o.=.:.0.0.2.2.2.0.2.7.7.t.u.u.u.W o.=.0.~ o.+.+.+.+.q.K ! / / / / / / / / / / / / / / / / / / / / / / / / / / / / / / / / / / / / / / / / / / / / / / / / / / / / / / / / / / / / / / / / / / / / Q Q Q Q Q Q ~ ~ / / / Q ! / / / / / / / / / / / / / / / / / / / / / / / / / / / / / / / / ! Q Q Q ~ ! ! ! ~ ~ ~ ~ ~ ~ ~ ~ ~ ! ~ Q ! ! ! ! 1.+./ q.o./ f.f.f.f.o.0.2.0.4.4.2.2.2.=.X./ / ~ ~ ~ ~ / / o.] =.=.=.7.4.8.0.0.0.0.0.0.0.0.0.0.0.0.0.0.0.0.",
"0.0.0.0.0.0.0.0.0.0.0.0.0.0.2.2.7.1.t.y.y.y.1.! ! ! ! ~ / / / o.#.1.1.1.2.2.0.0.2.7.7.u.i.i.i.W o.=.0.! o.#.#.#.#.0.U ~ ] ] ] ] ] ] ] ] ] ] ] ] ] ] ] ] ] ] ] ] ] ] ] ] _ _ X.X.X.X.X.X.X.X.X.X.X.X.] ] ] ] X.X.X.X.X.X.] X.X.X.X.X.X.X.X.X.X.X.X.X.X.X.X.X.X.X._ _ _ _ _ _ ] ] o.X.X._ ] X.X.X.X.X.X.X.X.] ] X.o._ _ _ _ o.X.] X.X.X.X.X.X.X.] ] ] ] ] ] ] _ _ _ ] ] ] ] ] ] ] ] ] ] ] ] ] ] / / ~ ~ ~ ~ >.@./ q.+./ f.f.f.f.o.0.2.0.4.4.4.2.2.:.X./ / / ~ ! ~ ~ ~ o.o.=.=.=.7.4.8.0.0.0.0.0.0.0.0.0.0.0.0.0.0.0.0.",
"0.0.0.0.0.0.0.0.0.0.0.0.0.0.2.2.7.1.t.y.y.y.9.) / / ~ / ` ] ` o.=.1.2.2.2.2.2.0.2.1.1.t.t.u.u.W o.=.0.! o.#.#.#.#.0.W ] ] X.X.X.o.o.o.o.o.o.o.+.+.+.o.o.X.o.o.o.o.o.o.o.o.o.o.o.o.o.o.o.o.o.o.o.o.o.o.o.o.o.+.+.+.+.+.+.o.o.o.o.o.+.o.o.o.+.+.+.+.+.o.o.o.o.o.o.o.o.o.o.o.o.o.o.o.o.o.o.o.o.+.+.+.+.+.+.o.o.o.+.+.o.o.o.o.o.o.o.o.o.o.o.o.o.o.o.o.o.o.o.o.o.X.X.o.o.o.o.o.o.o.o.o.o.o.o.o.o.X.] / / / / / >.+./ q.+._ q.q.q.q.o.0.2.0.4.4.2.2.2.=.X./ ~ ~ ~ ~ ~ ~ ~ o.[ =.=.=.7.0.8.0.0.0.0.0.0.0.0.0.0.0.0.0.0.0.0.",
"0.0.0.0.0.0.0.0.0.0.0.0.0.0.2.2.7.1.t.y.y.y.9.! ~ ~ ~ / ` ] ` o.=.1.2.2.2.2.2.0.2.1.1.u.u.u.u.W o.=.0.! o.#.#.#.#.0.W ] ] X.X.o.o.o.+.+.+.+.+.@.@.@.+.+.+.+.+.+.+.+.+.+.o.o.+.+.+.+.+.+.+.+.+.+.+.+.+.+.+.+.+.+.+.+.+.+.o.+.o.+.+.+.@.@.+.+.+.o.o.o.+.+.+.+.+.+.+.+.+.+.+.o.+.+.+.+.+.+.+.+.+.+.+.+.+.o.+.+.+.+.+.+.+.+.+.o.+.+.+.o.o.+.+.+.o.+.+.+.+.+.+.o.+.+.+.o.+.+.+.+.+.+.o.o.+.o.o.o.o.[ / / / / / >.+.~ q.+._ q.q.q.q.o.0.2.4.0.0.8.2.2.=.X./ ~ ~ ~ ~ ~ ~ ~ o.[ =.=.=.7.0.8.0.0.0.0.0.0.0.0.0.0.0.0.0.0.0.0.",
"0.0.0.0.0.0.0.0.0.0.0.0.0.0.2.2.7.1.t.y.y.y.1./ ! ! ! ~ / / / o.#.1.1.1.8.2.4.0.2.1.1.u.u.u.i.W o.=.0.! o.#.#.#.#.0.R ] ] ] ] +.o.o.+.o.o.o.o.o.o.o.o.o.o.o.+.+.+.+.+.+.o.o.o.o.+.o.o.o.+.+.+.+.o.o.o.o.o.o.+.+.o.o.o.+.+.o.+.=.=.+.+.+.+.+.+.+.o.o.o.+.o.o.+.o.+.o.+.+.o.+.+.+.+.+.o.o.o.+.+.o.o.o.o.o.o.o.+.+.o.+.+.+.+.+.o.o.o.o.o.o.+.o.+.+.o.o.o.o.+.+.o.o.+.o.o.o.o.o.o.o.+.+.+.+.+.+.o.o.` / / / / :.@./ q.+._ q.q.q.q.o.0.2.0.4.4.4.2.2.:.X./ ~ / / ~ / ~ ~ o.o.=.=.=.7.4.8.0.0.0.0.0.0.0.0.0.0.0.0.0.0.0.0.",
"0.0.0.0.0.0.0.0.0.0.0.0.0.0.2.2.7.1.u.y.y.y.7./ / / ~ / ] ] ] o.=.:.0.0.2.2.8.0.2.1.1.u.u.u.u.W o.=.0.! o.#.#.#.#.0.R X.X.+.o.o.o.o.+.o.o.o.o.o.+.+.+.+.+.+.o.o.+.+.+.+.+.+.+.+.+.+.+.+.+.+.+.+.+.+.+.+.+.+.+.+.+.+.+.o.o.+.+.+.+.@.@.@.+.@.+.+.+.+.+.+.+.+.o.+.+.+.+.+.+.+.+.+.+.+.+.+.+.+.+.+.+.+.+.+.+.+.+.+.+.+.+.+.+.+.+.+.+.+.+.o.+.+.+.+.+.+.+.+.o.o.+.+.o.o.+.+.o.+.+.o.+.+.+.+.+.+.+.o._ +.o.o.o.r.+./ q.+._ q.q.q.q.o.0.2.0.0.0.2.2.2.=.X./ ~ ~ / ~ / ~ ~ o.[ =.=.=.7.4.8.0.0.0.0.0.0.0.0.0.0.0.0.0.0.0.0.",
"0.0.0.0.0.0.0.0.0.0.0.0.0.0.2.2.7.1.t.y.y.y.1./ ! ! ! / ` ` ` o.=.1.2.2.8.8.4.0.2.1.1.u.u.u.u.W o.=.0.! o.#.#.#.#.0.R X.X.o.o.o.+.+.+.+.o.o.o.o.X.X.X.X.X.X.X.X.X.X.X.X.X.X.X.X.X.X.X.X.X.X.X.X.X.X.X.o.X.X.X.X.X.X.X.X.o.o.X.X.X.X.X.X.X.X.X.X.X.X.X.X.X.X.X.X.X.X.X.X.X.X.X.X.o.o.o.X.X.X.X.X.X.X.X.X.X.X.X.X.X.X.X.X.X.X.X.X.X.X.X.X.X.X.X.X.X.X.X.X.X.X.X.X.X.X.X.X.X.X.o.o.+.+.+.+.o.o.+.o._ @.@.@.@.y.+./ q.+._ q.q.q.q.o.0.2.0.0.0.2.2.2.:.X./ / ~ ~ ! ~ ~ ~ o.o.=.=.=.7.4.8.0.0.0.0.0.0.0.0.0.0.0.0.0.0.0.0.",
"0.0.0.0.0.0.0.0.0.0.0.0.0.0.2.2.7.1.t.y.y.y.1.~ ~ ~ ! / ` ` ` o.=.1.2.2.2.2.4.0.2.1.1.u.u.u.u.W o.:.0.! o.#.#.#.#.0.R X.X.o.o.o.+.+.+.+.+.] ] ] X.X.X.X.X.X.X.X. . . .X.X.X.X.X.X.X.X.X.X.X.X.X.X.X.X.X.X.X.X.X.X.X.X.X.X.X.X.X.X.X.X.X.X.X.X.X.X.X.X.X.X.X.X.X.X.X.X. .X.X.X.X.X.X.X.X.X.X.X.X.X.X.X.X.X.X.X.X.X.X.X.X.X.X.X.X.X.X.X.X.X.X.X.X.X.X.X.X.X.X.X.X.X.X. . .] _ X.o.+.+.+.+.o.o.+.o._ @.@.@.@.y.+./ q.+./ q.q.q.q.+.0.2.0.0.0.2.2.2.=.X./ / ~ ~ ! ~ / / o.o.=.=.=.7.4.8.0.0.0.0.0.0.0.0.0.0.0.0.0.0.0.0.",
"0.0.0.0.0.0.0.0.0.0.0.0.0.0.2.2.7.1.u.y.y.y.7./ ~ ~ ~ / ] ] ] o.=.:.0.0.2.2.8.0.2.1.1.u.u.u.u.W o.:.0.! o.#.#.#.#.0.W X.o.+.+.o.o.o.+.@./ / / / / _ _ _ / / / / / / / / / / / / / / / / / / / / / / / / / / / / / / / / / / _ / / / _ _ / / / _ _ _ / / _ _ _ / / / / ] / / _ _ ] ] _ / _ _ / / / / / / / / / / / / / / / / / / ~ ~ ~ ~ ~ ~ / / / / / / / / / / / _ _ _ _ _ / / +.+.@.@.o.o.+.o./ @.;.@.@.t.o./ 0.o./ q.q.q.q.+.0.2.0.0.0.2.2.2.=.X./ / / ~ ~ ~ / / o.[ =.=.=.7.4.8.0.0.0.0.0.0.0.0.0.0.0.0.0.0.0.0.",
"0.0.0.0.0.0.0.0.0.0.0.0.0.0.2.2.7.1.t.y.y.y.1.! ~ ! ! ~ / / / o.=.1.2.2.8.8.4.0.2.1.1.u.u.u.u.W o.:.0.Q o.#.#.#.#.0.W X.X.o.o.+.+.+.o.X.o.z.z.z.i.a.a.a.i.a.l.l.l.g.g.g.g.g.a.a.g.g.g.a.a.a.a.a.a.g.g.g.a.a.a.a.a.a.a.g.g.g.a.i.i.i.a.a.i.i.a.g.g.g.i.i.g.g.g.i.a.a.a.g.g.g.a.a.g.g.g.g.l.z.i.a.a.a.a.i.i.i.i.i.i.i.i.i.i.a.i.i.i.i.i.i.i.i.i.i.a.a.g.g.g.g.g.g.a.g.g.g.g.g.q.! o.o.X.o.o.o.+.X./ @.@.@.@.y.+.~ u.X./ q.q.q.q.+.0.2.0.0.0.2.0.0.:.X./ / / ~ ! ~ ~ ~ o.o.=.1.=.7.4.8.0.0.0.0.0.0.0.0.0.0.0.0.0.0.0.0.",
"0.0.0.0.0.0.0.0.0.0.0.0.0.0.2.2.7.1.t.y.y.y.7./ / / ! / ` ] ` o.=.1.8.8.2.2.8.0.8.1.2.u.u.u.u.W o.:.0.Q o.#.#.#.#.0.W X.o.+.+.o.o.o.o.] [ k.k.k.=.:.=.=.=.:.>.>.>.>.>.>.>.1.1.1.>.1.1.1.>.>.>.>.1.1.1.>.>.>.1.>.1.>.>.1.1.>.>.1.1.1.1.1.1.1.1.1.1.1.1.1.1.1.1.1.1.1.1.1.1.1.>.>.>.>.>.>.>.1.1.1.1.1.>.>.>.1.1.1.1.1.1.1.1.1.>.>.>.>.>.1.>.>.>.>.>.>.>.>.>.>.:.:.:.:.=.=.=.1.1.W X.X.X.X.+.o.+.X.] @.@.@.@.y.+.~ f.X._ q.q.q.q.+.0.2.0.0.0.2.2.2.=.X./ ~ ~ ~ ~ ~ ~ ~ o.[ =.=.=.7.4.8.0.0.0.0.0.0.0.0.0.0.0.0.0.0.0.0.",
"0.0.0.0.0.0.0.0.0.0.0.0.0.0.2.2.7.1.t.y.y.y.7.~ ~ ~ ! / ] ] ] o.=.1.8.8.2.2.8.0.2.1.2.u.u.u.u.W o.:.9.Q o.#.#.#.+.0.W X.o.+.+.o.o.o.o.] o.x.x.x.:.1.1.1.1.1.1.1.>.>.1.>.1.1.1.1.1.1.1.1.1.1.1.1.2.1.1.2.1.1.1.1.1.1.1.1.1.1.1.1.1.1.1.1.1.1.1.1.1.2.1.1.1.1.1.1.1.1.1.1.1.1.1.1.1.1.1.1.1.1.1.1.1.1.1.1.1.1.1.1.1.1.1.1.1.1.1.1.1.1.1.1.1.1.1.1.1.1.2.2.1.>.>.>.1.1.1.1.1.0.=.W ] ] X.X.+.o.+.X._ @.@.@.@.y.+.~ f.X./ q.q.q.q.@.0.2.0.0.0.2.2.2.=.X./ ~ ~ ~ ~ ~ ~ ~ o.[ =.=.=.7.4.8.0.0.0.0.0.0.0.0.0.0.0.0.0.0.0.0.",
"0.0.0.0.0.0.0.0.0.0.0.0.0.0.2.2.7.1.t.y.y.y.1./ ! ~ ! / / / / o.=.1.2.2.8.2.4.0.2.1.1.u.u.u.u.W [ :.0.! o.#.#.#.#.0.W X.o.+.+.o.+.+.o.] o.k.h.h.=.>.>.>.:.1.1.1.>.>.1.1.1.1.1.1.1.1.1.1.1.1.1.1.2.2.2.2.1.1.1.1.1.1.1.1.1.1.1.1.1.1.1.1.1.1.1.1.1.1.1.1.1.1.1.1.1.1.1.1.1.1.1.1.1.1.1.1.1.1.1.1.1.1.1.1.1.1.1.1.1.1.1.1.1.1.1.1.>.1.1.1.1.1.>.1.1.1.1.1.1.1.>.>.:.1.:.:.:.4.=.W ] ] X.X.o.o.+.X./ @.@.@.@.y.+.~ f.X._ q.q.q.q.@.0.2.0.0.0.2.0.0.:.X./ ~ / / ~ / ~ ~ o.o.=.=.=.7.4.8.0.0.0.0.0.0.0.0.0.0.0.0.0.0.0.0.",
"0.0.0.0.0.0.0.0.0.0.0.0.0.0.2.2.7.1.t.y.y.y.7.~ / / / / ] ] ] o.=.:.0.0.2.2.8.0.2.1.1.u.u.u.u.W [ :.0.! o.=.=.=.=.0.W X.o.+.+.+.o.o.o.] %.k.h.h.=.>.>.>.:.>.1.1.>.1.1.2.2.1.1.1.1.1.1.1.1.1.1.1.2.2.2.2.1.1.1.1.1.1.1.1.1.1.1.1.1.1.1.1.1.1.1.1.1.1.1.1.1.1.1.1.1.1.1.1.1.1.1.1.1.1.1.1.1.1.1.1.1.1.1.2.1.1.1.1.1.1.1.1.1.1.1.1.1.1.1.1.1.1.>.1.2.1.2.2.1.>.>.>.1.1.:.:.:.0.=.W X.X.X.X.o.o.+.X.] @.@.@.@.y.#.~ f.X._ q.q.q.q.@.0.2.0.0.0.2.2.2.=.X./ ~ ~ / / / ~ ~ o.[ =.=.=.7.4.8.0.0.0.0.0.0.0.0.0.0.0.0.0.0.0.0.",
"0.0.0.0.0.0.0.0.0.0.0.0.0.0.2.2.7.1.t.y.y.y.7./ ~ ~ ! / ] ] ] o.=.1.2.2.0.0.2.0.2.1.1.u.u.u.u.W [ :.0.! o.=.=.=.=.0.W X.o.+.+.+.o.o.X.] %.h.h.h.=.>.>.>.:.1.1.1.1.1.2.1.1.1.1.1.1.1.1.1.1.1.1.1.1.1.1.1.1.1.1.1.1.1.1.1.1.1.1.1.1.1.1.1.1.1.1.1.1.1.1.1.1.1.1.1.1.1.1.1.1.1.1.1.1.1.1.1.1.1.1.1.1.1.1.1.1.1.1.1.1.1.1.1.1.1.>.>.1.1.1.1.1.1.1.>.1.1.1.1.1.1.>.>.:.:.:.:.1.0.=.W X.X.X.X.o.+.+.o.] @.@.@.@.y.#.~ f.X._ q.q.q.q.@.0.2.0.0.0.2.2.2.=.X./ / ~ ~ ! ~ / / o.o.=.=.=.7.4.8.0.0.0.0.0.0.0.0.0.0.0.0.0.0.0.0.",
"0.0.0.0.0.0.0.0.0.0.0.0.0.0.2.2.7.1.t.y.y.y.7.! ~ ~ ! / ] ] ] o.=.1.2.2.8.8.2.0.2.1.1.u.u.u.u.W [ :.0.! o.=.=.=.=.0.W X.o.+.+.+.o.o.X.] %.h.h.h.=.>.>.>.:.>.1.1.1.>.2.1.1.1.1.1.>.>.>.1.1.1.1.1.1.1.1.1.1.1.1.1.1.1.1.1.1.1.1.1.1.1.1.1.1.1.1.1.1.1.1.1.1.1.1.1.1.1.1.1.1.1.1.1.1.1.1.1.1.1.1.1.1.1.1.1.1.1.1.1.1.1.1.1.1.1.>.1.>.1.1.1.1.1.1.>.1.1.1.1.1.1.>.>.:.:.:.:.1.0.=.W X.X.X.X.o.+.+.+./ @.@.@.@.y.+.~ f.X._ q.q.q.q.o.0.2.0.0.0.2.2.2.=.X./ / ~ ~ ! ~ / / o.o.=.=.=.7.4.8.0.0.0.0.0.0.0.0.0.0.0.0.0.0.0.0.",
"0.0.0.0.0.0.0.0.0.0.0.0.0.0.2.2.7.1.t.y.y.y.7./ / / ~ / ] ] ] o.=.:.0.0.2.2.0.0.2.1.1.t.t.t.t.W o.:.0.! o.=.@.@.=.0.W X.o.+.+.+.+.o.X.] %.h.h.h.=.1.>.>.:.1.1.1.1.>.1.>.>.>.1.1.1.1.>.1.1.>.>.>.1.1.1.1.1.1.1.1.1.1.1.1.1.1.1.1.1.1.1.1.1.1.1.1.1.1.1.1.1.1.1.1.1.1.1.1.1.1.1.1.1.1.1.1.1.1.1.1.1.1.1.1.1.1.1.1.1.1.1.1.1.1.1.>.1.1.1.1.1.1.1.1.1.1.1.1.1.>.>.>.:.:.1.1.1.4.=.Q ] ] X.X.o.+.o.X./ @.@.@.@.y.+./ f.X./ e.e.e.e.o.0.2.0.0.0.2.2.2.=.X./ / / ~ ~ ~ / / o.[ =.=.=.7.4.8.0.0.0.0.0.0.0.0.0.0.0.0.0.0.0.0.",
"0.0.0.0.0.0.0.0.0.0.0.0.0.0.2.2.7.1.t.y.y.y.7.! ! ! ! ~ / ` ` o.=.1.2.2.0.0.2.0.2.1.1.t.t.t.t.W o.:.0.! o.@.+.+.=.0.W X.o.+.+.o.o.o.X.] %.h.h.h.=.1.>.>.:.1.1.1.1.>.>.>.1.1.2.1.1.1.>.1.1.1.1.1.1.>.1.1.1.>.1.1.1.1.1.1.1.1.1.1.1.1.1.1.1.1.1.1.1.1.1.1.1.1.1.1.1.1.1.1.1.1.1.1.1.1.1.1.1.1.1.1.1.1.1.1.1.1.1.1.1.1.1.1.1.1.1.1.>.1.1.1.1.1.1.1.1.>.1.>.>.1.>.>.1.1.1.1.1.4.=.Q ] ] X.X.+.o.+.X./ X.X.X.X.0.=./ f.X./ e.e.e.e.1.0.2.0.0.0.2.0.0.:.X./ / / ~ ! ~ / ~ o.o.=.=.=.7.4.8.0.0.0.0.0.0.0.0.0.0.0.0.0.0.0.0.",
"0.0.0.0.0.0.0.0.0.0.0.0.0.0.2.2.7.1.t.y.y.y.7.~ ~ ~ ! / _ _ _ X.=.:.0.0.2.2.0.0.2.1.1.t.t.t.u.W o.=.0.! X.+.#.=.=.0.W X.o.o.o.o.o.o.X.] %.h.h.h.:.1.>.>.:.>.1.1.1.1.1.1.>.>.1.1.1.>.>.1.1.>.1.1.>.>.1.1.1.1.1.1.1.1.1.1.1.1.1.1.1.1.1.1.1.1.1.1.1.1.1.1.1.1.1.1.1.1.1.1.1.1.1.1.1.1.1.1.1.1.1.1.1.1.1.1.1.1.1.1.1.>.>.1.>.>.1.1.1.1.1.1.1.1.1.1.1.1.1.1.>.>.:.:.>.1.1.1.1.0.=.Q ] ] X.X.o.+.o.o./ _ _ _ _ 1.=.~ f.X._ e.e.e.e.1.0.0.0.0.0.2.2.2.=.X./ ~ ~ ~ / / ~ ~ o.o.=.=.=.7.0.8.0.0.0.0.0.0.0.0.0.0.0.0.0.0.0.0.",
"0.0.0.0.0.0.0.0.0.0.0.0.0.0.2.2.7.1.t.y.y.y.7.! ~ ~ ! / ] ] _ X.=.:.0.0.2.2.0.0.2.1.1.t.t.t.u.Q o.=.0.! X.+.=.=.=.0.W X.o.+.+.o.o.o.o.] %.h.h.h.:.1.1.1.:.>.1.1.1.1.>.>.1.1.>.>.>.1.>.1.1.1.1.1.1.1.1.1.1.1.1.1.1.1.1.1.1.1.1.1.1.1.1.1.1.1.1.1.1.1.1.1.1.1.1.1.1.1.1.1.1.1.1.1.1.1.1.1.1.1.1.1.1.1.1.1.1.1.1.1.1.>.1.1.>.1.1.1.1.1.>.1.>.>.1.>.1.1.1.>.:.:.1.1.:.1.1.1.1.0.=.Q ] ] X.X.o.+.o.[ _ _ _ _ _ 1.o.~ f.X._ e.e.e.e.1.0.0.0.0.0.2.2.2.=.X./ ~ ~ ~ / / ~ ~ o.o.=.=.=.7.0.8.0.0.0.0.0.0.0.0.0.0.0.0.0.0.0.0.",
"0.0.0.0.0.0.0.0.0.0.0.0.0.0.2.2.7.1.t.y.y.y.1.! ! ! ! / ] ] ] o.=.1.2.2.0.0.2.0.2.1.1.u.u.u.u.W o.=.0.! o.+.@.@.=.0.W X.o.+.+.o.o.o.X.] %.h.h.h.=.1.>.>.:.>.1.1.1.1.1.>.>.1.1.1.1.1.1.1.1.2.2.2.1.1.1.1.1.1.1.1.1.1.1.1.1.1.1.1.1.1.1.1.1.1.1.1.1.1.1.1.1.1.1.1.1.1.1.1.1.1.1.1.1.1.1.1.1.1.1.1.1.1.1.1.1.1.1.1.1.1.1.1.1.>.1.1.1.2.1.>.1.1.>.1.1.1.1.1.:.>.>.1.>.:.1.:.1.0.=.Q ] ] X.X.+.+.o.[ _ _ _ _ _ 1.#.~ f.X._ e.e.e.e.1.0.0.0.0.0.2.0.0.:.X./ / / / ! / ~ ~ o.o.=.=.=.7.0.8.0.0.0.0.0.0.0.0.0.0.0.0.0.0.0.0.",
"0.0.0.0.0.0.0.0.0.0.0.0.0.0.2.2.7.1.t.y.y.y.7.! / / ~ / ] ] ] o.=.:.0.0.2.2.0.0.2.1.1.t.t.t.t.W o.:.0.! o.@.=.@.=.0.W X.o.+.+.o.o.o.X.] %.h.h.h.=.1.>.>.:.>.>.1.1.1.1.1.1.2.2.2.2.1.1.1.1.1.2.2.1.1.>.1.1.1.1.1.1.1.1.1.1.1.1.1.1.1.1.1.1.1.1.1.1.1.1.1.1.1.1.1.1.1.1.1.1.1.1.1.1.1.1.1.1.1.1.1.1.1.1.1.1.1.1.1.1.1.1.1.1.1.1.1.1.1.1.1.1.1.2.1.1.1.1.1.:.:.:.:.>.:.:.:.:.0.=.Q ] ] X.X.o.+.o.[ _ _ _ _ _ 1.=.~ f.X._ e.e.e.e.1.0.0.0.0.0.2.2.2.=.X./ ~ ~ ~ ~ ~ ~ ~ #.] =.=.=.7.0.8.0.0.0.0.0.0.0.0.0.0.0.0.0.0.0.0.",
"0.0.0.0.0.0.0.0.0.0.0.0.0.0.2.2.7.1.t.y.y.y.1.! / / ! / ] ] ] o.=.1.2.2.8.8.2.0.8.1.1.u.u.u.u.W o.:.0.! o.=.=.=.=.q.W X.o.+.+.o.X.X.X.] %.k.k.h.=.>.>.>.:.1.1.1.>.1.>.1.1.1.1.1.1.1.1.>.>.1.1.1.1.1.>.1.1.1.1.1.1.1.1.1.1.1.1.1.1.1.1.1.1.1.1.1.1.1.1.1.1.1.1.1.1.1.1.1.1.1.1.1.1.1.1.1.1.1.1.1.1.1.1.1.1.1.1.1.1.1.1.1.1.1.1.1.1.2.2.2.1.1.1.>.1.>.>.1.1.1.>.>.>.:.:.:.:.0.=.Q ] ] X.X.+.+.o.o./ _ _ _ _ 1.=./ f.X./ e.e.e.e.1.0.0.0.0.0.2.2.2.=.X./ ~ ~ ~ ! ~ ~ ~ #.o.=.=.=.7.4.8.0.0.0.0.0.0.0.0.0.0.0.0.0.0.0.0.",
"0.0.0.0.0.0.0.0.0.0.0.0.0.0.2.2.7.1.u.q.q.q.y.! / / ! / ] ] ] o.=.1.2.2.8.8.2.0.8.1.1.u.u.u.u.W o.=.0.! o.=.=.=.@.0.W X.o.+.+.o.o.o.X.] %.h.h.h.=.1.>.>.:.>.1.1.1.1.1.1.1.1.1.1.>.1.1.1.1.2.1.>.1.1.1.1.1.1.1.1.1.1.1.1.1.1.1.1.1.1.1.1.1.1.1.1.1.1.1.1.1.1.1.1.1.1.1.1.1.1.1.1.1.1.1.1.1.1.1.1.1.1.1.1.1.1.1.1.>.1.1.1.1.1.1.1.1.2.2.2.2.1.>.>.1.>.>.>.1.1.>.1.:.:.=.=.=.0.=.W X.X.X.X.o.+.o.+._ _ _ _ _ 1.=./ f.X./ e.e.e.e.1.0.0.0.0.0.2.2.2.:.X./ ~ ~ ~ ! ~ ~ ~ #.o.=.=.=.7.4.8.0.0.0.0.0.0.0.0.0.0.0.0.0.0.0.0.",
"0.0.0.0.0.0.0.0.0.0.0.0.0.0.2.2.7.1.i.y.y.y.s.! / / ~ / ] ] ] o.=.:.0.0.2.2.0.0.8.1.1.u.u.t.u.W o.=.0.! o.=.=.=.@.1.W X.o.o.o.o.+.+.X.] %.k.h.h.=.1.>.>.:.1.1.1.1.1.1.>.>.>.1.1.>.1.1.1.1.1.1.1.1.1.1.1.1.1.1.1.1.1.1.1.1.1.1.1.1.1.1.1.1.1.1.1.1.1.1.1.1.1.1.1.1.1.1.1.1.1.1.1.1.1.1.1.1.1.1.1.1.1.1.1.1.1.1.1.>.1.1.1.1.1.1.1.1.1.2.2.>.>.1.>.1.>.1.1.1.1.>.>.:.:.=.=.=.0.=.W X.X.X.X.o.o.+.+./ _ _ _ _ 1.=.! f.X._ e.e.e.e.1.0.0.0.0.0.2.2.2.:.o./ / ~ ~ ~ ~ ~ ~ #.] =.=.=.7.4.8.0.0.0.0.0.0.0.0.0.0.0.0.0.0.0.0.",
"0.0.0.0.0.0.0.0.0.0.0.0.0.0.2.2.7.1.t.0.0.0.u.~ ~ ~ ! ~ ] ] ] o.=.1.8.8.4.4.8.0.2.1.1.t.t.t.t.W o.=.0.! o.=.=.=.@.4.W X.o.o.o.o.o.o.X.] %.h.h.h.=.1.>.>.:.1.1.1.1.1.1.1.1.1.1.1.>.1.1.1.1.1.1.1.1.1.1.1.1.1.1.1.1.1.1.1.1.1.1.1.1.1.1.1.1.1.1.1.1.1.1.1.1.1.1.1.1.1.1.1.1.1.1.1.1.1.1.1.1.1.1.1.1.1.1.1.1.1.1.1.1.1.1.1.1.1.1.1.1.1.1.1.>.>.>.1.1.>.>.>.1.1.>.>.:.:.=.=.=.0.=.W X.X.X.X.o.o.+.+.] ] ] ] ] 1.=.! f.X._ e.e.e.e.1.0.0.0.0.0.2.0.0.1.o./ / / / ~ / ~ ~ o.o.=.=.=.8.4.8.0.0.0.0.0.0.0.0.0.0.0.0.0.0.0.0.",
"0.0.0.0.0.0.0.0.0.0.0.0.0.0.2.2.7.1.i.q.q.y.s.! / / ! / ] ] _ X.=.1.0.0.2.2.0.0.2.1.1.t.t.t.t.W o.=.0.! X.=.=.=.=.4.W X.X.o.o.o.o.o.X.] %.k.k.k.=.1.>.>.:.>.>.>.>.1.1.1.1.2.1.1.1.>.1.>.1.1.1.1.1.1.1.1.1.1.1.1.1.1.1.1.1.1.1.1.1.1.1.1.1.1.1.1.1.1.1.1.1.1.1.1.1.1.1.1.1.1.1.1.1.1.1.1.1.1.1.1.1.1.1.1.1.>.1.1.1.1.1.1.1.1.1.1.>.1.1.1.1.1.>.1.>.1.2.2.1.1.>.>.1.:.=.=.=.0.=.Q X.X.X.X.o.o.+.o.] ] ] ] ] 1.=.! f.X._ e.e.e.e.1.0.0.0.0.0.2.2.2.=.X./ ~ ~ ~ ~ / / / #.[ =.=.=.7.4.8.0.0.0.0.0.0.0.0.0.0.0.0.0.0.0.0.",
"0.0.0.0.0.0.0.0.0.0.0.0.0.0.2.2.7.1.u.q.q.y.s./ / / ! / ] ] ] o.=.1.0.0.2.2.0.0.2.1.1.t.t.t.t.W o.=.0.W X.=.=.=.=.1.W X.X.o.o.o.o.o.o.] %.h.h.h.=.1.:.:.1.>.>.>.>.>.1.1.1.1.1.>.>.1.>.1.>.>.>.>.>.1.1.1.1.1.1.1.1.1.1.1.1.1.1.1.1.1.1.1.1.1.1.1.1.1.1.1.1.1.1.1.1.1.1.1.1.1.1.1.1.1.1.1.1.1.1.1.1.1.1.>.1.1.1.1.1.1.1.1.1.1.1.>.1.>.>.1.>.>.>.>.1.1.2.2.1.1.:.:.1.:.=.=.=.0.=.Q X.X.X.X.o.o.+.o./ / / / / 1.@.! f.X._ e.e.e.e.1.0.0.0.0.0.2.2.2.=.X./ ~ ~ ~ / / / / #.[ =.=.=.7.4.8.0.0.0.0.0.0.0.0.0.0.0.0.0.0.0.0.",
"0.0.0.0.0.0.0.0.0.0.0.0.0.0.2.2.7.1.t.0.0.0.u.Q ~ ~ ! / ] ] / X.=.1.8.8.4.4.8.0.2.1.1.t.t.t.u.Q o.=.0.W X.=.=.=.=.1.W X.o.o.o.o.o.o.o.] %.k.k.k.=.1.>.>.:.>.>.>.>.>.1.1.1.2.1.1.2.2.1.1.1.1.1.1.1.1.1.1.>.1.1.1.1.1.1.1.1.1.1.1.1.1.1.1.1.1.1.1.1.1.1.1.1.1.1.1.1.1.1.1.1.1.1.1.1.1.1.1.1.1.1.1.1.1.1.1.1.1.1.1.1.1.1.1.1.1.1.>.1.1.1.>.>.>.2.2.1.1.1.1.:.1.1.1.1.:.=.=.=.0.=.Q ] ] X.X.o.o.+.X./ / / / / 1.@.~ f.X._ e.e.e.e.1.0.0.0.0.0.2.0.0.:.X./ / / / ! ~ / ~ o.o.=.=.=.8.4.8.0.0.0.0.0.0.0.0.0.0.0.0.0.0.0.0.",
"0.0.0.0.0.0.0.0.0.0.0.0.0.0.2.2.7.1.u.y.y.y.s.~ / / ~ / ] ] _ o.=.:.0.0.2.2.0.0.2.1.1.t.u.u.u.W o.=.0.W X.=.=.=.=.1.W X.X.o.o.o.o.o.o.] %.h.h.h.=.1.>.>.:.1.1.1.1.>.1.1.1.1.>.>.1.1.1.>.1.1.1.1.1.>.1.1.1.1.1.1.1.1.1.1.1.1.1.1.1.1.1.1.1.1.1.1.1.1.1.1.1.1.1.1.1.1.1.1.1.1.1.1.1.1.1.1.1.1.1.1.1.1.1.1.1.1.1.1.1.1.1.1.1.1.1.>.1.1.1.1.1.1.1.2.>.1.1.1.>.>.1.1.1.:.=.=.=.0.=.Q X.X.X.X.o.o.+.X./ / / / / 1.@./ f.X._ e.e.e.e.1.0.0.0.0.0.2.2.2.=.X./ ~ ~ ~ ~ ~ ~ ~ #.o.=.=.=.7.4.8.0.0.0.0.0.0.0.0.0.0.0.0.0.0.0.0.",
"0.0.0.0.0.0.0.0.0.0.0.0.0.0.2.2.7.1.u.0.0.0.u.Q / / ! / ] ] ] o.=.1.2.8.4.4.8.0.2.1.1.u.u.u.u.W o.:.0.W X.=.=.=.=.1.W X.X.o.o.o.o.o.o.] %.k.k.k.=.1.>.>.1.:.:.:.:.1.1.1.1.1.1.1.1.2.1.1.1.1.1.1.1.1.1.1.1.1.1.1.1.1.1.1.1.1.1.1.1.1.1.1.1.1.1.1.1.1.1.1.1.1.1.1.1.1.1.1.1.1.1.1.1.1.1.1.1.1.1.1.1.1.1.1.1.1.1.1.>.1.1.1.1.1.1.1.1.1.1.1.>.>.2.2.>.1.1.1.>.1.:.:.1.:.=.=.=.0.=.Q ] ] X.X.o.o.+.X.] / / / / 1.@./ f.X._ e.e.e.e.1.0.0.0.0.0.2.2.2.=.X./ ~ ~ ~ ~ ~ ~ ~ o.o.=.=.=.8.4.8.0.0.0.0.0.0.0.0.0.0.0.0.0.0.0.0.",
"0.0.0.0.0.0.0.0.0.0.0.0.0.0.2.2.7.1.u.0.q.0.s.! ~ ~ ! / ] ] _ X.=.1.8.8.4.4.8.0.8.7.7.u.u.u.u.W o.:.0.W o.=.=.=.=.1.W X.X.o.o.o.+.+.o.] %.h.h.h.=.1.>.>.1.1.1.1.:.>.1.1.1.1.>.>.1.1.1.1.2.1.1.1.1.1.1.1.1.1.1.1.1.1.1.>.1.1.1.1.1.1.1.1.1.1.1.1.1.1.1.1.1.1.1.1.1.1.1.1.1.1.1.1.1.1.1.1.1.1.1.1.1.1.1.1.1.1.1.1.1.1.1.1.1.1.1.1.1.1.1.1.>.>.2.1.>.1.1.1.>.1.>.>.1.:.=.=.=.0.=.Q ] ] X.X.o.o.+.X.] _ _ _ _ 1.=.~ f.X._ e.e.e.e.1.0.0.0.0.0.2.2.2.=.X./ ~ ~ ~ ~ / ~ ~ o.o.=.=.=.8.4.8.0.0.0.0.0.0.0.0.0.0.0.0.0.0.0.0.",
"0.0.0.0.0.0.0.0.0.0.0.0.0.0.2.2.7.1.u.y.y.y.s.! / / ~ / ] ] ] o.=.:.0.0.2.2.0.0.8.7.7.t.t.u.u.Q o.:.0.W o.=.=.=.=.1.W X.X.+.o.o.o.o.X.] %.k.k.k.=.>.>.>.1.:.1.>.>.1.1.1.1.>.>.>.>.1.>.1.2.1.1.1.1.1.1.1.1.1.1.1.1.1.1.1.1.1.1.1.1.1.1.1.1.1.1.1.1.1.1.1.1.1.1.1.1.1.1.1.1.1.1.1.1.1.1.1.1.1.1.1.1.1.1.1.1.1.1.1.>.1.1.1.1.1.>.1.>.1.1.>.1.1.1.2.1.1.1.1.>.1.>.>.1.:.=.=.=.0.=.Q ] ] X.X.o.+.+.+./ _ _ _ _ 1.=.~ f.X._ q.q.q.q.1.0.0.0.0.0.2.2.2.=.X./ ~ ~ / / / ~ ~ #.o.=.=.=.7.4.8.0.0.0.0.0.0.0.0.0.0.0.0.0.0.0.0.",
"0.0.0.0.0.0.0.0.0.0.0.0.0.0.2.2.7.1.t.q.q.0.u.! ~ ~ ! / ] ] ] o.=.1.0.0.2.2.8.0.8.7.7.t.t.t.u.W o.:.0.W o.=.=.=.=.1.W X.o.o.o.o.o.o.X.] %.x.x.x.=.>.>.>.1.:.1.1.>.>.1.1.1.1.1.1.1.>.>.1.1.1.1.1.1.1.1.1.1.1.1.1.1.1.1.1.1.1.1.1.1.1.1.1.1.1.1.1.1.1.1.1.1.1.1.1.1.1.1.1.1.1.1.1.1.1.1.1.1.1.1.1.1.1.1.1.1.2.>.1.>.1.1.1.1.1.1.1.1.1.1.1.>.>.1.1.1.1.1.1.>.1.>.>.:.:.=.=.=.0.=.Q X.X.X.X.o.o.+.X./ _ _ _ _ 1.+.~ e.o./ f.f.f.f.1.0.0.0.0.0.2.0.0.:.X./ / / / ~ ~ ~ ~ o.o.=.=.=.8.4.8.0.0.0.0.0.0.0.0.0.0.0.0.0.0.0.0.",
"0.0.0.0.0.0.0.0.0.0.0.0.0.0.2.2.7.1.u.q.q.q.u.! / / ! / ] ] ] o.=.1.0.0.2.2.8.0.8.7.7.u.u.u.u.W o.:.0.W o.=.=.=.=.1.W X.X.o.o.o.o.o.o.] %.k.k.k.=.1.>.>.>.:.>.>.1.1.1.1.1.1.>.>.>.1.1.>.1.1.1.1.1.1.1.>.1.1.1.1.1.1.1.1.1.1.1.1.1.1.1.1.1.1.1.1.1.1.1.1.1.1.1.1.1.1.1.1.1.1.1.1.1.1.1.1.1.1.1.1.1.1.1.1.1.1.1.1.>.1.1.1.1.1.1.>.1.1.1.>.1.1.>.1.1.>.>.>.1.1.>.>.1.:.=.=.=.0.=.Q ] ] X.X.X.o.+.X./ _ _ _ _ 1.o./ q.o./ f.f.f.f.1.0.0.0.0.0.2.2.2.=.X./ ~ / / / / ~ ~ #.o.=.=.=.7.4.8.0.0.0.0.0.0.0.0.0.0.0.0.0.0.0.0.",
"0.0.0.0.0.0.0.0.0.0.0.0.0.0.2.2.7.1.t.q.q.q.s.~ / / ! / ] ] ] o.=.1.0.0.2.2.8.0.8.1.1.u.u.u.u.W o.=.0.W o.=.=.=.=.1.W X.X.o.o.o.o.o.X._ %.x.x.x.=.1.1.1.:.>.>.>.1.1.1.1.1.1.1.1.1.>.1.1.1.1.1.1.1.1.1.>.1.1.1.1.1.1.1.1.1.1.1.1.1.1.1.1.1.1.1.1.1.1.1.1.1.1.1.1.1.1.1.1.1.1.1.1.1.1.1.1.1.1.1.1.1.1.1.1.1.1.1.1.1.1.1.1.1.1.>.1.>.1.1.>.1.2.1.2.1.>.>.1.1.1.>.>.1.:.=.=.=.0.=.Q ] ] X.X.o.o.+.+.] _ _ _ _ 1.o.~ q.o./ f.f.f.f.1.0.0.0.0.0.2.2.2.=.X./ ~ / / / ~ ~ ~ #.o.=.=.=.7.4.8.0.0.0.0.0.0.0.0.0.0.0.0.0.0.0.0.",
"0.0.0.0.0.0.0.0.0.0.0.0.0.0.2.2.7.1.t.0.0.0.u.Q ~ ~ ! / ] ] ] o.=.1.0.0.2.2.8.0.8.1.1.t.t.t.t.W o.:.0.W o.=.=.=.=.1.W X.X.o.X.X.o.o.X.] %.h.h.h.=.1.1.1.:.1.1.1.1.2.>.1.>.>.1.1.1.1.>.1.1.1.1.1.1.1.1.1.1.1.1.1.1.1.1.1.1.1.1.1.1.1.1.1.1.1.1.1.1.1.1.1.1.1.1.1.1.1.1.1.1.1.1.1.1.1.1.1.1.1.1.1.1.1.1.1.1.1.>.1.1.1.1.1.1.1.1.1.>.>.>.1.1.1.2.1.1.>.1.1.1.1.>.>.>.:.=.=.=.0.=.Q ] ] X.X.o.o.+.+./ _ _ _ _ 1.#.~ q.o./ f.f.f.f.1.0.0.0.0.0.2.0.0.:.X./ / / / ~ / ~ ~ o.o.=.=.=.8.4.8.0.0.0.0.0.0.0.0.0.0.0.0.0.0.0.0.",
"0.0.0.0.0.0.0.0.0.0.0.0.0.0.2.2.7.1.u.q.r.r.s.~ / / ~ / ] ] ] o.:.1.0.0.2.2.8.0.8.1.1.t.t.t.t.W o.:.0.W o.=.=.=.=.1.W X.X.o.o.X.o.o.X.] %.x.x.x.=.1.1.1.:.1.1.>.1.1.>.1.>.>.1.>.1.1.>.1.1.1.1.1.1.1.1.1.1.1.1.1.1.1.1.1.1.1.1.1.1.1.1.1.1.1.1.1.1.1.1.1.1.1.1.1.1.1.1.1.1.1.1.1.1.1.1.1.1.1.1.1.1.1.1.1.1.1.1.1.1.1.1.1.1.1.1.1.1.>.>.1.1.1.1.2.1.>.1.>.1.1.1.1.1.:.=.=.=.0.=.Q ] ] X.X.o.o.+.+.] _ _ _ _ 1.+./ q.X./ f.f.f.f.1.0.0.0.0.0.2.2.2.=.o./ ~ ~ ~ / ~ ~ ~ #.o.=.=.=.7.4.8.0.0.0.0.0.0.0.0.0.0.0.0.0.0.0.0.",
"0.0.0.0.0.0.0.0.0.0.0.0.0.0.2.2.7.1.u.0.0.0.u.! / / ! / ] ] _ o.=.1.0.0.2.2.8.0.8.1.1.t.t.t.t.W o.=.0.Q o.=.=.=.=.1.W X.X.+.+.+.X.X.X.] %.z.z.h.=.>.>.>.1.>.1.1.>.1.1.>.1.2.1.1.2.1.1.1.>.1.1.1.1.1.1.1.1.1.1.1.1.1.1.1.1.1.1.1.1.1.1.1.1.1.1.1.1.1.1.1.1.1.1.1.1.1.1.1.1.1.1.1.1.1.1.1.1.1.1.1.1.1.1.1.1.1.1.1.1.1.1.1.1.1.1.1.2.1.2.1.1.1.>.1.1.1.1.1.1.1.>.>.:.:.=.=.=.0.=.Q ] ] X.X.o.o.+.X._ _ _ _ _ 1.#./ q.o./ f.f.f.f.1.0.0.0.0.0.2.2.2.=.X./ ~ ~ ~ ! ~ / / #.o.=.=.=.8.4.8.0.0.0.0.0.0.0.0.0.0.0.0.0.0.0.0.",
"0.0.0.0.0.0.0.0.0.0.0.8.8.0.2.2.7.1.u.0.0.0.s.! / / ! / ] _ _ o.=.1.0.0.2.2.8.0.2.1.1.t.t.t.t.W o.:.0.Q o.=.=.=.=.1.W X.o.o.o.+.o.o.X.] %.x.x.x.=.>.>.>.:.1.1.1.1.1.1.>.1.1.2.1.2.1.1.>.1.1.1.1.1.>.1.1.1.1.1.1.1.1.1.1.1.1.1.1.1.1.1.1.1.1.1.1.1.1.1.1.1.1.1.1.1.1.1.1.1.1.1.1.1.1.1.1.1.2.1.1.1.1.1.1.1.1.1.1.1.1.1.1.1.1.1.>.2.2.>.>.>.>.1.1.>.1.2.2.1.1.>.>.1.:.=.=.=.0.=.Q ] ] X.X.o.o.o.X./ _ _ _ _ 1.+.~ q.o./ f.f.f.f.1.0.0.0.0.0.2.2.2.=.X./ ~ ~ ~ ! ~ / / #.o.=.=.=.8.4.8.0.0.0.0.0.0.0.0.0.0.0.0.0.0.0.0.",
"0.0.0.0.0.0.0.0.0.0.0.8.8.0.2.2.7.1.u.y.y.y.u.! / / ~ / ] ] ] o.:.1.4.0.2.2.8.0.2.1.1.t.t.t.t.W o.:.0.Q o.=.=.=.=.1.W X.o.o.+.o.o.o.X.] %.h.h.h.=.>.>.>.:.1.1.1.>.>.>.1.2.1.>.>.>.>.1.1.1.1.1.1.1.1.1.1.1.1.1.1.1.1.1.1.1.1.1.1.1.1.1.1.1.1.1.1.1.1.1.1.1.1.1.1.1.1.1.1.1.1.1.1.1.1.1.1.1.1.1.1.1.1.1.1.1.1.1.1.1.>.1.>.>.1.>.1.>.1.1.1.1.1.>.1.>.1.1.1.:.1.:.:.1.:.=.=.=.0.=.Q ] ] X.X.o.+.o.] ] _ _ _ _ 1.+.~ q.o./ f.f.g.g.1.0.0.0.0.0.2.2.2.=.X./ ~ ~ ~ ~ ~ / / #.o.=.=.=.7.4.8.0.0.0.0.0.0.0.0.0.0.0.0.0.0.0.0.",
"0.0.0.0.0.0.0.0.0.0.0.8.8.0.2.2.7.1.t.0.0.0.s.! ~ ~ ! / ] ] ] o.=.1.0.0.8.2.8.0.2.1.1.t.t.t.t.W o.=.0.Q o.=.=.=.=.1.W X.o.o.o.o.o.o.X.] -.h.f.f.=.>.>.>.:.1.1.1.>.>.1.1.1.1.1.1.1.1.>.1.1.1.1.1.1.1.1.1.1.1.1.1.1.1.1.1.1.1.1.1.1.1.1.1.1.1.1.1.1.1.1.1.1.1.1.1.1.1.1.1.1.1.1.1.1.1.1.1.1.1.1.1.1.1.1.1.1.1.1.1.1.1.1.1.1.1.1.1.1.1.2.1.>.>.1.>.1.1.1.>.1.1.>.>.1.:.=.=.=.0.=.Q ] ] X.X.o.+.o.X.] _ _ _ _ 1.+.~ q.o./ f.f.f.f.1.0.0.0.0.0.8.0.0.:.X./ / / / ! / ~ ~ o.o.=.=.=.8.4.8.0.0.0.0.0.0.0.0.0.0.0.0.0.0.0.0.",
"0.0.0.0.0.0.0.0.0.0.0.8.8.0.2.2.7.1.t.q.q.y.u.! / / ~ / ] ] ] o.:.1.0.0.2.2.8.0.2.1.2.y.y.y.y.W o.:.0.Q o.=.=.=.=.1.W X.o.o.o.X.o.o.X.] -.h.h.h.=.1.>.>.:.>.1.1.1.1.1.1.>.>.1.1.>.1.1.1.1.1.1.1.1.1.1.1.1.1.1.1.1.1.1.1.1.1.1.1.1.1.1.1.1.1.1.1.1.1.1.1.1.1.1.1.1.1.1.1.1.1.1.1.1.1.1.1.>.1.1.1.1.1.1.1.1.>.1.1.1.1.1.1.1.1.1.1.>.1.2.1.1.2.1.>.1.1.1.>.:.>.>.>.1.:.=.=.=.0.=.Q ] ] X.X.o.+.o.] ] _ _ _ _ 1.o.~ q.o./ f.f.f.f.1.0.0.0.0.0.2.2.2.=.o./ ~ ~ ~ / / ~ ~ +.o.=.=.=.7.0.8.0.0.0.0.0.0.0.0.0.0.0.0.0.0.0.0.",
"0.0.0.0.0.0.0.0.0.0.0.8.8.0.2.2.7.1.t.0.q.0.s.! / / ~ / ] ] ] o.=.1.4.4.2.2.8.0.2.1.2.y.y.y.y.W o.:.0.Q o.=.=.=.=.1.W X.o.o.o.X.o.o.X.] -.h.h.h.=.1.1.>.:.1.1.1.1.>.1.1.1.1.1.1.>.1.1.>.>.1.1.1.1.>.1.1.>.1.>.1.1.1.1.1.1.1.1.1.1.1.1.1.1.1.1.1.1.1.1.1.1.1.1.1.1.1.1.1.1.1.1.1.1.1.1.1.>.>.1.1.>.>.>.1.1.>.1.1.1.1.1.1.1.1.1.1.>.1.1.1.>.>.2.2.1.1.1.1.:.:.:.:.1.:.=.=.=.0.=.Q ] ] X.X.o.+.o.X.] _ _ _ _ 1.+.~ q.o./ f.f.f.f.>.0.0.0.0.0.2.2.2.=.X./ ~ ~ ~ / / ~ ~ +.o.=.=.=.7.0.8.0.0.0.0.0.0.0.0.0.0.0.0.0.0.0.0.",
"0.0.0.0.0.0.0.0.0.0.0.8.8.0.2.2.7.1.t.0.0.0.u.! ~ ~ ! / ] ] ] o.=.1.0.0.2.2.8.0.2.1.2.y.y.y.y.Q o.=.0.Q X.=.=.=.=.1.W X.o.o.X.X.o.o.X.` -.h.h.h.=.1.1.1.>.>.>.>.>.1.1.1.1.1.>.>.1.1.>.1.1.1.1.>.>.1.1.1.1.1.1.1.1.1.1.1.1.>.1.1.1.1.1.1.1.1.1.1.1.1.1.1.1.1.1.1.1.1.1.1.1.1.1.1.1.1.1.1.1.1.1.1.1.1.1.1.1.1.1.1.1.1.1.1.1.1.>.>.1.>.>.1.1.1.1.1.1.1.1.>.1.1.>.>.1.:.=.=.=.0.=.Q ] ] X.X.+.o.o.X.] _ _ _ _ 1.+.~ q.+./ f.f.f.f.>.0.0.0.0.0.2.0.0.:.X./ / / / ! ~ ~ ~ o.o.=.=.=.8.4.8.0.0.0.0.0.0.0.0.0.0.0.0.0.0.0.0.",
"0.0.0.0.0.0.0.0.0.0.0.8.8.0.2.2.7.1.t.q.q.q.s.! / / ~ / ] ] ] o.:.>.0.0.2.2.8.0.1.1.2.t.t.t.t.W o.=.0.Q o.=.=.=.=.1.W X.X.o.o.X.X.X.X.` -.h.h.h.=.1.>.>.1.>.1.1.1.1.1.1.1.>.1.1.>.1.1.1.1.1.2.1.1.1.1.1.1.1.1.1.1.1.1.1.1.1.1.1.1.1.1.1.1.1.1.1.1.1.1.1.1.1.1.1.1.1.1.1.1.1.1.1.1.1.1.1.1.1.1.1.1.1.1.1.1.1.1.1.1.1.1.1.1.1.1.1.1.1.>.1.1.1.>.1.1.1.1.1.>.1.>.>.1.:.=.=.=.0.=.! ] ] X.X.+.o.o.o./ _ _ _ _ 1.+.~ q.X./ f.f.f.f.>.0.0.0.0.0.2.2.2.=.X./ ~ ~ ~ ~ ~ ~ ~ o.] =.=.=.7.4.8.0.0.0.0.0.0.0.0.0.0.0.0.0.0.0.0.",
"0.0.0.0.0.0.0.0.0.0.0.8.8.0.2.2.7.1.t.0.0.0.f.! / / ! / ] ] ] o.=.1.0.0.2.2.8.0.7.1.1.t.t.t.t.W o.=.0.Q X.=.=.=.=.1.W X.o.+.+.+.o.o.X.` -.h.h.h.=.>.1.>.1.>.>.>.>.>.>.>.1.1.>.>.1.1.>.>.1.>.>.>.>.>.2.1.2.1.1.1.1.1.1.1.1.1.1.1.1.1.1.1.1.1.1.1.1.1.1.1.1.1.1.1.1.1.1.1.1.1.1.1.1.1.1.1.1.1.1.1.1.1.1.1.1.>.1.1.1.1.1.1.1.1.1.1.1.1.2.2.1.>.1.>.1.>.>.>.1.1.:.:.1.:.=.=.=.0.=.! ] ] X.X.o.+.o.o./ _ _ _ _ 1.#./ q.X./ f.f.f.f.>.0.0.0.0.0.2.2.2.=.X./ ~ ~ ~ ~ ~ ~ ~ o.[ =.=.=.8.4.8.0.0.0.0.0.0.0.0.0.0.0.0.0.0.0.0.",
"0.0.0.0.0.0.0.0.0.0.0.8.8.0.2.2.7.1.u.0.0.0.h.! / / ! / ] ] ] o.=.1.0.0.2.2.8.0.7.1.2.t.t.t.t.W o.=.0.Q X.=.=.=.=.1.W X.o.o.o.+.o.o.X.` -.h.h.h.=.>.:.:.:.1.1.1.>.>.>.1.>.>.1.1.1.1.1.1.1.>.>.>.>.1.2.1.1.1.1.1.1.1.1.>.1.1.1.1.1.1.1.1.1.1.1.1.1.1.1.1.1.1.1.1.1.1.1.1.1.1.1.1.1.1.1.1.1.1.1.1.1.1.1.1.1.1.1.1.1.1.1.1.1.1.1.1.1.1.1.2.1.1.>.>.1.>.>.1.1.1.:.:.1.:.=.=.=.0.=.! ] ] X.X.o.o.+.o./ _ _ _ _ 1.+.~ q.+./ f.f.f.f.1.0.0.0.0.0.2.2.2.:.X./ ~ ~ ~ ~ ~ ~ ~ o.o.=.=.=.8.4.8.0.0.0.0.0.0.0.0.0.0.0.0.0.0.0.0.",
"0.0.0.0.0.0.0.0.0.0.0.8.8.0.2.2.7.7.i.0.0.0.k.! / / ~ / ] ] ] o.:.>.0.0.2.2.8.0.7.1.2.y.y.y.y.W o.=.0.Q o.=.=.=.=.1.W X.X.o.+.o.o.o.X.` %.g.g.g.=.>.:.:.1.1.1.1.>.>.1.>.1.1.2.1.2.2.2.2.>.1.1.1.1.1.1.1.1.1.1.1.1.1.1.1.1.1.1.1.1.1.1.1.1.1.1.1.1.1.1.1.1.1.1.1.1.1.1.1.1.1.1.1.1.1.1.1.1.1.1.1.1.1.1.1.1.1.>.1.1.1.1.1.1.1.1.1.>.>.2.2.1.1.1.>.>.>.1.1.1.1.:.:.>.:.=.=.=.0.=.Q ] ] X.X.o.o.+.X./ _ _ _ _ 1.+.~ q.+./ f.f.f.f.1.0.0.0.0.0.2.2.2.:.X./ / ~ ~ ~ ~ ~ ~ o.o.=.=.=.7.4.8.0.0.0.0.0.0.0.0.0.0.0.0.0.0.0.0.",
"0.0.0.0.0.0.0.0.0.0.0.8.8.0.2.2.7.7.u.0.0.0.j.! / / ! / ] ] ] o.=.2.0.0.2.2.8.0.7.1.2.y.y.y.y.W o.=.0.Q o.=.=.=.=.1.W X.o.o.o.+.o.o.o.` %.g.g.g.=.>.:.:.1.1.:.:.:.>.2.1.1.1.1.1.2.2.2.1.1.1.1.1.1.1.1.1.1.>.1.1.1.1.1.1.1.1.1.1.1.1.1.1.1.1.1.1.1.1.1.1.1.1.1.1.1.1.1.1.1.1.1.1.1.1.1.1.1.1.1.1.1.1.1.1.1.1.1.1.1.1.1.1.1.1.1.1.1.1.2.1.1.1.1.>.>.1.1.1.:.:.>.>.>.:.=.=.=.0.=.Q ] ] X.X.o.o.+.X._ _ _ _ _ 1.+.~ q.o./ f.f.f.f.1.0.0.0.0.0.2.0.0.:.X./ / / / ! ~ ~ ~ o.[ =.=.=.8.4.8.0.0.0.0.0.0.0.0.0.0.0.0.0.0.0.0.",
"0.0.0.0.0.0.0.0.0.0.0.8.8.0.1.1.7.7.u.0.0.0.k.! / / ~ / ] ] ] o.=.1.0.0.2.2.8.0.1.1.2.y.y.y.y.W o.=.0.! X.=.=.=.=.1.W X.o.o.o.o.o.o.o.` %.g.g.g.=.1.:.:.>.1.:.:.:.1.1.1.>.1.1.1.1.>.>.1.1.1.1.1.1.1.1.1.1.1.1.1.1.1.1.1.1.1.>.1.1.1.1.1.1.1.1.1.1.1.1.1.1.1.1.1.1.1.1.1.1.1.1.1.1.1.1.1.1.1.1.1.1.1.1.1.1.1.1.1.1.1.1.1.1.1.>.>.1.1.1.>.1.2.1.2.1.2.1.1.:.>.>.>.1.:.=.=.=.0.=.Q ] ] X.X.o.o.o.X._ _ _ _ _ 1.+.! q.o./ f.f.f.f.1.0.0.0.0.0.2.2.2.=.X./ ~ ~ ~ / / / / #.[ =.=.=.7.4.8.0.0.0.0.0.0.0.0.0.0.0.0.0.0.0.0.",
"0.0.0.0.0.0.0.0.0.0.0.8.8.0.1.1.7.7.u.0.0.0.h.! / / ~ / ] ] ] o.=.1.0.0.2.2.8.0.1.1.2.y.y.y.y.W o.=.0.! X.=.=.=.=.=.W X.o.o.o.o.o.o.o.` %.g.g.g.=.1.>.:.>.>.:.:.:.1.1.1.>.>.1.1.1.1.>.1.1.1.1.1.1.1.1.1.1.1.1.>.>.>.>.1.1.1.1.1.1.1.1.1.1.1.1.1.1.1.1.1.1.1.1.1.1.1.1.1.1.1.1.1.1.1.1.1.1.1.1.1.1.1.1.1.1.1.1.1.1.1.1.1.1.1.>.1.>.>.1.1.1.2.>.1.1.2.1.1.:.>.1.1.1.:.=.=.=.0.1.Q ] ] X.X.+.o.o.o.] _ _ _ _ 1.+.! q.o./ f.f.f.f.1.0.0.0.0.0.2.2.2.=.X./ ~ ~ ~ / / / / #.[ =.=.=.7.4.8.0.0.0.0.0.0.0.0.0.0.0.0.0.0.0.0.",
"0.0.0.0.0.0.0.0.0.0.0.8.8.0.1.1.7.7.u.0.0.0.h.! / / ! / ] ] ] o.=.2.0.0.2.2.2.0.1.1.2.y.y.y.y.W o.=.0.Q o.=.=.=.=.1.W X.o.o.o.+.o.o.X.` =.h.g.g.=.1.1.>.>.>.:.:.:.1.1.1.1.1.>.>.>.1.1.1.1.>.1.2.>.1.1.1.1.1.1.1.1.1.1.1.1.1.1.1.1.1.1.1.1.1.1.1.1.1.1.1.1.1.1.1.1.1.1.1.1.1.1.1.1.1.1.1.1.1.1.1.1.1.1.1.1.1.1.1.1.1.1.1.1.1.>.1.1.1.1.1.>.>.1.1.1.1.1.1.:.>.>.>.1.:.=.=.=.0.1.Q ] ] X.X.o.o.+.+.] _ _ _ _ 1.+.! q.o./ f.f.f.f.1.0.0.0.0.0.2.0.0.:.X./ / / / ! / / ~ o.[ =.=.=.8.4.8.0.0.0.0.0.0.0.0.0.0.0.0.0.0.0.0.",
"0.0.0.0.0.0.0.0.0.0.0.8.8.0.1.1.8.7.u.0.0.0.j.! / / ~ / ] ] ] o.:.1.0.0.2.2.2.0.1.1.2.y.y.y.y.W o.=.0.Q o.=.=.=.=.>.W X.o.o.o.o.o.o.X.` =.h.g.g.=.1.>.>.>.1.:.:.:.1.1.1.1.>.1.1.1.1.2.1.1.2.1.1.1.1.1.1.1.1.1.1.1.1.1.1.1.1.1.1.1.1.1.1.1.1.1.1.1.1.1.1.1.1.1.1.1.1.1.1.1.1.1.1.1.1.1.1.1.1.1.>.1.1.>.1.1.1.>.>.1.1.2.2.2.1.>.1.>.>.>.1.>.>.1.1.1.1.1.1.:.>.>.>.1.:.=.=.=.0.1.! ] ] X.X.o.o.+.+./ _ _ _ _ 1.+.! q.X.~ f.f.f.f.1.0.0.0.0.0.2.2.2.=.X./ ~ ~ ~ ~ / ~ ~ #.[ =.=.=.7.4.8.0.0.0.0.0.0.0.0.0.0.0.0.0.0.0.0.",
"0.0.0.0.0.0.0.0.0.0.0.8.8.4.7.7.8.7.u.0.0.0.h.! / / ~ / ] ] ] o.=.1.0.0.2.2.2.0.1.1.8.y.y.y.y.W o.=.1.Q o.=.=.=.=.=.W X.o.o.o.o.o.o.X.` %.h.h.h.=.1.:.:.>.:.:.:.>.>.1.1.1.1.>.>.>.1.1.1.1.1.1.1.1.1.1.1.1.1.>.1.1.1.1.1.1.1.1.1.1.1.1.1.1.1.1.1.1.1.1.1.1.1.1.1.1.1.1.1.1.1.1.1.1.1.1.1.1.1.1.>.1.>.>.1.1.1.1.1.1.1.1.1.1.1.1.>.1.1.1.>.1.1.>.>.>.>.>.>.:.1.>.>.1.:.=.=.=.0.1.Q ] ] X.X.+.o.+.X./ ) _ _ ) 1.+.! q.o./ f.f.f.f.1.0.0.0.0.0.2.2.2.=.X./ ~ ~ ~ ~ ~ ~ ~ o.[ =.=.=.8.4.8.0.0.0.0.0.0.0.0.0.0.0.0.0.0.0.0.",
"0.0.0.0.0.0.0.0.0.0.0.8.8.4.7.7.8.7.u.0.0.0.j.! / / ~ / ] ] ] o.=.1.0.0.2.2.2.0.1.1.8.u.u.u.u.W o.=.1.Q o.=.=.=.=.=.W X.X.o.o.o.o.o.X./ %.h.h.h.=.1.:.:.:.>.1.1.>.>.1.1.1.>.1.1.>.1.1.1.1.>.>.1.>.1.>.1.1.>.1.1.1.1.2.1.1.1.1.1.1.>.1.1.1.1.1.1.1.1.1.1.1.1.1.1.1.1.1.1.1.1.1.1.1.1.1.1.1.1.1.>.>.>.>.1.1.1.1.1.1.1.1.1.1.1.1.2.1.1.1.1.1.1.2.1.>.>.>.>.:.1.>.>.1.:.=.=.=.0.1.Q ] ] X.X.+.o.+.X./ _ _ _ _ 2.+.! q.+./ f.f.f.f.1.0.0.0.0.0.2.8.8.:.X./ ~ ~ ~ ~ ~ ~ ~ o.[ =.=.=.8.4.8.0.0.0.0.0.0.0.0.0.0.0.0.0.0.0.0.",
"0.0.0.0.0.0.0.0.0.0.0.8.8.4.7.7.7.1.u.0.0.0.h.! / / ~ / ] ] ] o.:.1.0.0.2.2.2.0.1.1.2.t.t.t.u.W o.:.1.Q o.=.=.=.=.=.W X.X.o.o.o.o.o.X./ %.h.h.h.=.1.:.:.:.>.1.1.1.>.2.1.1.1.1.1.1.1.1.1.1.1.2.1.1.1.1.1.1.1.1.1.1.1.1.1.1.1.1.1.1.1.1.1.1.1.1.1.>.>.1.1.1.1.1.>.1.1.1.1.1.1.1.1.1.1.1.1.1.1.1.1.1.1.1.1.>.1.1.1.1.1.1.1.1.1.1.1.>.1.1.>.1.2.1.1.1.1.1.1.1.1.:.:.1.:.=.=.=.0.1.Q ] ] X.X.o.o.o.X.` ) ) ) ) 1.#.! q.o./ f.f.f.f.1.0.0.0.0.0.2.2.2.:.X./ / ~ ~ ~ ~ ~ ~ o.] =.=.=.7.4.8.0.0.0.0.0.0.0.0.0.0.0.0.0.0.0.0.",
"0.0.0.0.0.0.0.0.0.0.0.8.8.4.7.7.7.1.t.0.0.0.g.! / / ~ / ] ] ] o.=.1.0.0.2.2.2.0.1.1.2.t.t.t.u.W o.:.1.! o.=.=.=.=.=.Q X.o.o.o.o.X.X.X./ %.h.h.h.=.>.1.1.:.1.1.1.>.1.1.1.>.1.1.1.1.>.>.1.>.1.2.2.1.1.1.1.1.1.1.1.1.1.1.1.1.1.>.1.1.1.1.1.1.1.>.1.1.1.1.1.1.1.1.1.1.1.1.1.1.1.1.1.1.1.1.1.1.1.1.1.2.1.1.1.1.1.1.1.1.1.1.1.1.>.1.1.1.1.1.>.1.2.2.2.>.1.1.1.1.1.:.:.1.:.=.=.=.0.1.! ] ] X.X.o.o.+.X.] o.+.o.o.y.+.~ q.o./ g.g.g.g.1.0.0.0.0.0.2.0.0.:.o./ / / / ~ / ~ ~ o.[ =.=.=.8.4.8.0.0.0.0.0.0.0.0.0.0.0.0.0.0.0.0.",
"0.0.0.0.0.0.0.0.0.0.0.8.8.4.7.7.7.1.u.0.0.0.h.! / / / / ] ] ] o.=.1.0.0.2.2.2.0.1.1.2.t.t.t.t.W o.:.1.! o.=.=.=.=.=.W X.o.o.o.o.o.o.X./ %.h.h.h.=.>.>.>.:.1.1.1.>.>.1.1.1.1.1.1.1.1.1.1.1.1.2.2.1.1.1.1.1.1.1.1.1.1.1.1.1.2.1.1.1.1.1.1.1.1.1.1.1.1.1.1.1.1.1.1.1.1.1.1.1.1.1.1.1.1.1.1.1.1.1.1.2.2.1.1.>.1.>.1.>.1.1.1.1.1.>.>.1.>.>.1.1.1.1.1.>.>.>.>.1.1.:.:.1.:.=.=.=.0.1.Q ] ] X.X.o.o.+.+.] $.$.$.$.q.+.~ q.+./ e.e.e.e.1.0.0.0.0.0.2.8.8.=.X./ ~ ~ ~ ~ / ~ ~ +.o.1.=.=.7.4.8.0.0.0.0.0.0.0.0.0.0.0.0.0.0.0.0.",
"0.0.0.0.0.0.0.0.0.0.0.8.8.4.7.7.7.1.u.0.0.0.h.! / / / / ] ] ] o.=.1.0.0.2.2.2.0.1.1.2.t.t.t.t.W o.:.1.! o.=.=.=.=.=.W X.o.o.o.o.+.+.X._ %.h.h.h.=.>.1.>.:.1.1.1.1.1.1.1.>.>.1.1.1.1.1.1.1.1.1.1.1.1.1.>.1.1.1.1.1.1.1.1.1.1.1.1.1.1.1.1.1.1.1.>.>.>.1.1.1.1.>.1.1.1.1.1.1.1.1.1.1.1.1.1.1.1.1.1.1.2.1.1.>.1.1.>.1.1.1.1.1.1.1.1.1.1.1.>.1.1.1.>.1.1.1.2.1.1.:.:.1.:.=.=.=.0.=.! ] ] X.X.o.o.+.+./ @.@.@.@.y.o.~ q.+./ e.e.e.e.1.0.0.0.0.0.2.8.8.=.X./ ~ ~ ~ / / ~ ~ +.o.=.=.=.7.4.8.0.0.0.0.0.0.0.0.0.0.0.0.0.0.0.0.",
"0.0.0.0.0.0.0.0.0.0.0.8.8.4.7.7.7.7.t.0.0.0.h.! / / ~ / ] ] ] o.=.1.0.0.2.2.2.0.1.1.2.y.y.y.y.W o.:.1.! o.=.=.=.=.=.W X.o.o.o.o.o.o.X./ %.h.h.h.=.>.>.>.:.>.>.1.1.1.1.1.>.>.1.1.1.>.1.>.1.>.>.>.>.1.1.1.1.>.1.>.>.>.>.>.>.1.1.1.1.1.1.1.1.1.1.1.1.1.1.1.1.1.1.1.1.1.1.1.1.1.>.>.1.1.1.1.1.1.1.1.1.1.1.>.1.1.1.1.1.>.>.>.>.1.1.1.1.1.1.>.>.>.2.1.1.1.1.1.1.1.:.:.1.:.=.=.=.0.$.! ] ] X.X.o.o.+.o./ $.$.$.$.q.o./ q.+./ e.e.e.e.1.0.0.0.0.0.2.0.0.:.X./ / / / ! ~ ~ ~ o.o.=.=.=.8.4.8.0.0.0.0.0.0.0.0.0.0.0.0.0.0.0.0.",
"0.0.0.0.0.0.0.0.0.0.0.8.8.4.7.7.7.7.u.y.y.y.h.~ / / ~ / ] ] ] o.:.1.0.0.2.2.2.0.1.1.2.y.y.y.y.W o.:.1.Q o.=.=.=.=.=.W X.X.o.o.o.o.o.X./ %.h.h.h.=.1.>.>.>.1.>.>.1.1.1.1.1.1.>.>.1.>.1.>.1.>.>.1.>.1.1.1.1.1.1.1.1.1.1.1.1.1.1.1.1.1.1.1.1.1.1.1.1.1.1.1.1.1.1.1.1.1.1.1.1.1.>.>.1.1.1.1.1.1.1.1.1.1.1.>.1.1.1.1.1.1.1.1.1.1.1.1.>.1.>.>.1.1.2.1.1.1.1.1.1.1.:.:.1.:.=.=.=.0.o.Q ] ] X.X.o.o.+.X./ #.#.#.o.y.o.~ q.X./ e.e.e.e.1.0.0.0.0.0.2.2.2.=.X./ ~ ~ ~ ~ ~ ~ ~ +.X.=.=.=.7.4.8.0.0.0.0.0.0.0.0.0.0.0.0.0.0.0.0.",
"0.0.0.0.0.0.0.0.0.0.0.8.8.4.7.7.7.1.u.0.q.0.h.~ / / ~ / ] ] ] o.=.1.0.0.2.2.2.0.1.1.2.y.y.y.y.W o.:.1.Q o.=.=.=.=.=.W X.o.+.+.+.o.o.X./ %.h.h.h.=.1.>.>.:.>.1.1.1.>.:.1.1.1.1.1.>.>.>.1.>.1.1.1.1.>.1.1.>.1.1.1.1.1.1.1.1.1.1.1.1.1.1.1.1.1.1.1.1.1.1.1.1.1.1.1.1.1.1.1.1.1.1.1.1.1.1.1.1.1.>.1.1.1.1.1.2.1.1.1.1.1.1.1.1.1.>.>.1.2.1.1.1.1.1.1.1.1.1.1.:.:.>.>.1.:.=.=.=.0.o.Q ] ] X.X.o.o.+.X./ o.o.#.o.y.+.~ q.X./ e.e.e.e.1.0.0.0.0.0.2.8.8.=.X./ ~ ~ ~ ~ ~ / / o.[ =.=.=.8.4.8.0.0.0.0.0.0.0.0.0.0.0.0.0.0.0.0.",
"0.0.0.0.0.0.0.0.0.0.0.8.8.4.7.7.7.1.u.0.y.y.g.! / / ~ / ] ] ] o.=.1.0.4.2.2.8.0.1.1.8.y.y.y.y.W o.:.1.Q o.=.=.=.=.=.W X.+.o.o.+.o.o.X./ %.h.h.h.=.1.>.>.:.1.1.1.1.>.>.>.1.1.>.1.1.1.1.2.1.>.1.>.>.>.1.1.1.1.1.1.1.1.1.1.>.1.1.1.1.1.1.1.1.1.1.1.1.1.1.1.1.1.1.1.1.1.1.1.1.1.2.1.1.1.1.1.1.1.1.1.1.1.1.1.1.1.1.1.1.1.1.1.1.>.1.>.2.2.1.>.>.>.1.1.1.1.1.1.:.>.:.:.1.:.=.=.=.0.o.Q ] ] X.X.+.o.+.X._ [ [ [ o.y.+.~ q.+./ e.e.e.e.1.0.0.0.0.0.2.2.2.=.X./ ~ ~ ~ ~ / / / o.[ =.=.=.8.4.8.0.0.0.0.0.0.0.0.0.0.0.0.0.0.0.0.",
"0.0.0.0.0.0.0.0.0.0.0.8.8.4.7.7.7.1.u.y.y.y.h.~ / / ~ / ] ] ] o.1.1.0.0.2.2.8.4.7.7.8.y.y.y.y.W o.:.1.Q o.=.=.=.=.=.W X.o.o.o.+.o.o.X./ %.h.h.h.=.1.>.>.:.1.1.1.1.>.>.>.1.1.1.1.1.2.2.1.1.1.1.1.1.>.1.1.1.1.1.1.1.1.1.1.>.1.1.1.1.1.1.1.1.>.1.1.1.1.>.1.1.1.1.1.1.1.1.1.1.1.2.2.>.>.1.1.1.1.1.1.1.1.1.1.>.1.>.1.1.>.2.2.>.1.1.>.2.1.1.>.1.1.>.2.1.1.1.1.:.:.:.:.>.:.=.=.=.0.o.Q ] ] X.X.o.o.+.X./ o.o.o.o.y.+.~ f.X./ e.e.e.e.1.0.0.0.0.0.2.2.2.=.X./ ~ ~ / / / / / #.[ =.=.=.7.4.8.0.0.0.0.0.0.0.0.0.0.0.0.0.0.0.0.",
"0.0.0.0.0.0.0.0.0.0.0.8.8.4.7.7.7.7.t.0.0.0.g.! / / ~ / ] ] ] o.=.1.0.0.2.2.8.4.7.7.8.y.y.y.y.W o.:.1.Q o.=.=.=.=.=.W X.o.o.o.o.o.o.X./ %.h.h.h.=.1.>.>.:.1.1.1.1.>.>.1.1.1.1.1.1.1.2.2.1.1.1.1.1.1.1.1.1.1.1.1.1.1.1.1.1.1.1.1.1.1.1.1.1.1.1.1.1.1.1.1.1.1.1.1.1.1.1.1.1.1.1.1.1.1.1.1.>.1.1.1.1.2.1.>.>.1.1.1.1.2.2.2.2.2.>.1.1.2.2.1.>.>.1.1.1.1.1.1.>.>.:.:.>.:.:.:.:.0.o.Q ] ] X.X.o.+.+.X._ o.o.o.o.y.o.! f.X./ e.e.e.e.1.0.0.0.0.0.2.0.0.:.X./ / / / ~ ~ ~ ~ o.[ =.=.=.8.4.8.0.0.0.0.0.0.0.0.0.0.0.0.0.0.0.0.",
"0.0.0.0.0.0.0.0.0.0.0.8.8.4.7.7.7.7.u.q.q.q.h.~ / / ~ / ] ] ] o.:.1.0.0.2.2.8.4.7.7.8.y.y.y.y.W o.:.1.Q o.:.:.:.:.=.Q X.o.o.o.o.o.o.X./ %.h.h.h.=.1.:.>.>.:.:.:.:.>.1.1.1.1.>.1.1.1.1.>.2.2.1.1.1.1.>.1.1.2.1.1.1.1.1.2.2.2.2.1.1.1.>.>.1.1.1.1.1.1.1.1.1.1.1.1.1.1.1.1.1.1.1.1.1.1.1.1.1.1.1.1.1.1.1.>.>.1.1.1.1.1.1.1.1.2.2.1.1.2.2.2.>.>.>.1.1.1.1.1.>.>.1.1.>.1.:.:.:.0.o.! ] ] X.X.o.o.+.X._ @.@.@.@.y.o.! f.o./ e.e.e.e.1.0.0.0.0.0.0.2.2.=.X./ ~ / / ~ ~ ~ ~ o.] =.=.=.7.0.8.0.0.0.0.0.0.0.0.0.0.0.0.0.0.0.0.",
"0.0.0.0.0.0.0.0.0.0.0.8.8.4.7.7.7.7.u.q.q.q.h.~ / / / / X.] ] o.:.1.0.0.2.2.2.0.1.1.8.y.y.y.y.Q o.=.1.Q o.:.:.:.:.=.Q X.o.o.o.o.o.o.X./ =.h.h.h.=.1.:.>.1.>.1.1.>.>.1.>.2.1.1.1.1.1.>.1.2.2.1.>.>.1.2.1.1.1.1.1.>.>.>.1.2.2.1.1.1.1.1.1.1.1.1.1.1.1.1.1.1.1.1.1.1.1.1.>.1.1.1.1.>.>.1.1.1.1.1.1.1.1.1.1.1.1.>.1.1.>.>.>.>.1.2.1.1.2.2.1.>.>.>.1.1.1.1.>.>.>.:.1.>.1.1.1.1.0.o.! ] ] X.X.+.o.+.X.] $.$.$.$.q.+.! p.o./ e.e.e.e.1.0.0.0.0.0.0.2.2.=.X./ ~ / / / ~ ~ ~ o.] =.=.=.8.0.8.0.0.0.0.0.0.0.0.0.0.0.0.0.0.0.0.",
"0.0.0.0.0.0.0.0.0.0.0.8.8.4.7.7.7.7.t.0.0.0.h.! / / / / ] ] ] o.=.1.0.0.2.2.2.0.1.1.2.y.y.y.y.Q o.=.1.Q o.:.:.:.:.=.Q X.o.o.o.+.+.o.X./ %.h.h.h.=.1.:.>.>.>.:.:.>.>.>.1.>.1.1.1.1.1.1.>.2.1.1.1.1.1.2.2.1.1.1.>.>.1.1.1.1.>.1.1.1.1.1.1.1.1.>.1.1.1.1.1.1.1.1.1.1.1.1.1.1.1.1.1.1.1.1.1.>.1.1.1.1.1.2.2.1.1.1.1.1.1.1.1.1.1.>.1.1.>.1.2.>.1.1.>.1.1.>.>.>.>.:.1.>.1.1.1.1.0.o.! ] ] X.X.+.o.+.+.] @.$.$.$.y.o.! f.X./ e.e.e.e.1.0.0.0.0.0.2.2.2.:.o./ / / / ! ~ / ~ o.[ =.=.=.7.0.8.0.0.0.0.0.0.0.0.0.0.0.0.0.0.0.0.",
"0.0.0.0.0.0.0.0.0.0.0.8.8.4.7.7.7.7.u.y.y.y.h.~ / / / / ] ] ] o.>.1.0.0.2.2.2.0.1.1.2.y.y.y.y.Q o.=.1.! o.:.:.:.:.=.Q X.o.o.o.o.+.+.X._ 9.u.u.u.=.>.:.:.>.>.:.:.>.1.1.>.1.1.1.1.1.1.>.1.2.1.>.>.>.1.1.1.1.1.1.>.>.>.1.1.1.1.1.1.1.1.1.>.>.>.1.1.1.1.1.1.1.1.1.1.1.1.1.1.1.1.1.1.1.1.1.1.>.1.1.1.2.2.2.2.1.1.1.1.1.1.1.1.1.1.>.1.>.>.2.1.1.2.>.1.1.1.>.>.>.1.1.:.>.1.1.1.1.0.o.! ] ] X.X.o.o.+.X.] $.$.$.$.q.o.! f.X./ e.e.e.e.1.0.0.0.0.0.0.2.2.=.X./ ~ ~ ~ ~ ~ / ~ o.] =.=.=.8.0.8.0.0.0.0.0.0.0.0.0.0.0.0.0.0.0.0.",
"0.0.0.0.0.0.0.0.0.0.0.8.8.4.7.7.7.7.i.0.q.q.k.! / / / / ] ] ] o.=.1.0.0.2.2.2.0.1.1.2.y.y.y.y.W o.=.1.! o.:.:.:.:.=.Q X.o.o.o.o.o.o.X./ q.u.u.u.=.1.:.:.>.>.1.1.1.1.1.1.>.>.1.1.1.1.>.1.>.>.>.>.>.>.2.2.1.1.1.1.1.2.1.>.>.1.1.1.1.1.1.1.1.1.1.1.1.1.1.1.1.1.1.1.1.1.1.1.1.1.>.>.>.1.1.1.1.1.>.1.1.1.1.2.1.1.2.1.>.>.1.2.2.1.1.>.1.1.1.>.1.1.1.1.1.1.1.1.:.1.1.1.>.:.1.1.1.0.o.! ] X.X.X.o.+.o.X./ _ _ _ _ 1.o.! f.X./ q.q.q.e.1.0.0.0.0.0.4.2.2.=.] / ~ ~ ~ ! ~ ~ ~ o.] =.=.=.7.4.8.0.0.0.0.0.0.0.0.0.0.0.0.0.0.0.0.",
"0.0.0.0.0.0.0.0.0.0.0.8.8.4.7.7.7.7.u.0.0.0.n.! / / ~ / ] ] ] o.=.1.0.0.2.2.2.0.1.1.2.y.y.y.y.Q o.=.1.! o.:.:.>.:.=.Q X.o.o.o.o.o.o.X./ q.u.u.u.=.1.:.:.:.>.1.1.1.1.1.1.1.2.>.>.1.>.1.1.1.1.1.1.1.1.1.1.1.1.1.>.>.1.>.>.1.>.1.1.1.1.1.1.1.1.1.1.1.1.1.1.1.1.1.1.1.1.1.>.>.1.1.1.1.1.1.2.1.1.1.>.>.>.1.1.2.2.1.1.>.1.1.1.1.1.>.>.1.1.1.>.2.2.1.>.1.1.>.>.:.1.1.>.>.:.1.1.1.0.o.! ] X.X.X.+.o.+.+._ ) ) ) ) 1.o.! f.X./ q.q.q.e.1.0.4.0.0.0.0.2.2.=.X./ ~ ~ ~ ! ~ ~ ~ o.[ =.=.=.7.4.8.0.0.0.0.0.0.0.0.0.0.0.0.0.0.0.0.",
"0.0.0.0.0.0.0.0.0.0.0.8.8.4.7.7.7.7.i.0.q.0.n.~ / / / / ] ] ] o.>.1.0.0.2.2.2.0.1.1.0.0.0.0.q.Q o.=.1.! o.>.>.>.:.=.Q X.o.o.o.+.o.o.X./ q.p.u.u.=.1.:.:.:.1.1.1.>.>.1.1.1.1.2.2.>.1.>.>.1.1.1.1.1.1.>.1.1.1.1.>.>.>.1.1.1.1.1.>.>.1.1.1.1.1.1.1.1.1.1.1.1.1.1.1.1.1.1.>.1.1.1.1.1.1.1.1.2.1.1.>.>.>.>.1.2.1.1.>.>.1.1.1.1.1.>.1.1.2.>.1.2.2.1.>.1.>.>.>.:.>.1.>.>.:.:.:.1.0.o.! ] ] X.X.+.o.+.X._ _ _ _ _ 1.o.! f.o./ e.e.e.e.>.0.0.0.0.0.0.8.2.=.] / ~ / ~ ~ / ~ ~ o.] =.=.=.8.4.8.0.0.0.0.0.0.0.0.0.0.0.0.0.0.0.0.",
"0.0.0.0.0.0.0.0.0.0.0.8.8.4.7.7.7.7.u.0.0.0.x.! / / / / ] ] ] o.=.1.0.0.2.2.2.0.1.1.0.0.0.q.q.Q o.=.1.! o.>.>.>.:.=.Q X.+.o.o.+.X.X.X./ q.p.p.u.=.1.:.:.1.>.:.:.:.>.1.1.>.2.1.1.1.>.1.1.1.1.1.1.1.1.>.1.1.1.1.1.1.1.1.1.1.1.1.>.>.1.1.1.>.>.1.1.1.1.1.1.1.1.1.1.1.1.1.1.1.1.1.1.>.>.1.1.1.1.1.>.>.>.>.1.1.1.1.1.1.2.1.1.1.1.1.1.1.1.1.1.2.2.1.1.1.>.>.>.:.>.1.1.>.:.:.:.:.0.o.! ] ] X.X.+.+.+.X._ _ _ _ _ 1.@./ f.o./ e.e.e.e.>.0.0.0.0.0.8.0.2.=.] / ~ / / ~ ~ ~ ~ o.[ =.=.=.7.4.8.0.0.0.0.0.0.0.0.0.0.0.0.0.0.0.0.",
"0.0.0.0.0.0.0.0.0.0.0.8.8.4.7.7.7.7.i.0.0.0.n.! / / / / ] ] ] o.:.1.0.0.2.2.2.0.1.1.0.0.0.0.q.W o.=.1.! o.:.:.:.:.=.Q X.o.o.o.o.o.o.X./ q.p.p.p.=.>.:.:.1.1.:.:.:.>.1.1.1.1.1.1.2.1.>.1.>.1.1.1.1.1.>.>.1.1.1.1.1.1.1.1.1.1.1.1.1.1.1.>.1.1.2.1.1.1.1.1.>.>.1.1.1.1.1.1.1.1.1.1.1.1.1.1.1.1.1.1.1.1.1.1.1.>.1.>.2.2.2.2.>.>.1.>.1.>.>.>.1.1.>.>.1.1.1.1.:.1.1.>.1.:.:.:.>.0.o.! ] ] X.X.o.o.o.X.] _ _ _ _ 1.$.~ f.X./ e.e.e.e.>.0.0.0.0.0.0.2.2.=.] / ~ ~ ~ ~ / ~ ~ #.] =.=.=.8.4.8.0.0.0.0.0.0.0.0.0.0.0.0.0.0.0.0.",
"0.0.0.0.0.0.0.0.0.0.0.8.8.4.7.7.7.7.i.0.0.0.b.! / / / / ] ] ] o.:.1.0.0.2.2.2.0.7.1.0.0.0.0.q.W o.=.1.! o.:.:.:.:.=.Q X.X.o.o.+.+.+.X./ q.p.p.p.=.:.>.>.1.1.:.:.:.>.1.1.1.1.1.1.2.2.>.1.1.>.1.2.1.>.1.>.1.1.1.1.2.1.1.1.1.1.1.1.1.1.>.>.1.1.2.2.1.1.1.1.1.1.1.1.1.1.1.1.>.1.1.1.1.1.1.1.1.1.1.1.1.1.1.1.1.1.>.>.1.2.2.2.1.>.1.1.1.>.>.1.1.>.1.1.:.:.:.:.>.:.:.:.1.:.=.=.=.0.$.! ] ] X.X.o.o.o.X._ _ _ _ _ 1.o.! f.X./ e.e.e.e.>.0.0.0.0.0.0.2.2.=.] / ~ ~ ~ ~ / ~ ~ #.] =.=.=.8.4.8.0.0.0.0.0.0.0.0.0.0.0.0.0.0.0.0.",
"0.0.0.0.0.0.0.0.0.0.0.8.8.4.7.7.7.7.u.0.0.0.b.! / / / / ] ] ] o.=.1.0.0.8.8.8.4.7.7.0.0.0.0.0.W o.=.1.! o.:.:.:.:.-.Q X.o.o.o.o.o.o.X./ q.p.p.p.=.>.:.:.1.1.:.:.:.1.1.1.>.>.1.1.1.2.>.1.1.1.1.2.1.>.1.1.>.1.1.1.2.1.1.2.1.1.1.1.1.1.1.1.>.1.1.2.1.1.1.1.1.1.1.1.1.1.1.1.1.1.1.1.1.1.1.1.1.>.1.1.1.1.1.1.1.1.>.1.1.>.>.2.>.1.1.1.1.1.1.>.1.1.1.1.:.1.1.>.1.>.:.:.1.:.=.=.=.0.$.! ] ] X.X.o.o.+.X./ _ _ _ _ 1.o.~ f.X./ e.e.e.e.>.0.0.0.0.0.0.2.2.=.] / ~ ~ ~ ! ~ ~ ~ o.o.=.=.=.7.4.8.0.0.0.0.0.0.0.0.0.0.0.0.0.0.0.0.",
"0.0.0.0.0.0.0.0.0.0.0.8.8.4.7.7.7.7.d.0.0.0.x./ / / / / X.] ] o.:.1.0.0.2.2.8.4.7.7.0.0.0.0.0.Q o.=.1.! o.1.1.:.1.=.Q X.o.o.o.o.o.o.X./ q.p.p.p.=.1.>.>.1.1.:.:.:.1.1.1.>.>.1.1.1.1.1.1.1.>.>.1.1.1.>.1.1.1.1.1.2.1.1.1.>.1.1.1.1.1.1.1.>.>.1.1.1.1.1.1.1.1.>.1.1.1.1.1.1.1.1.1.1.1.1.1.1.1.>.>.>.>.>.1.1.>.1.1.1.1.>.>.>.1.1.1.1.1.1.>.1.1.2.1.:.1.1.>.1.1.:.:.1.:.=.=.=.0.$.! ] ] X.X.o.o.+.X.] _ _ _ _ 1.o.! f.o./ e.e.e.e.>.0.0.0.0.0.0.2.2.#.] / ! ! ! ~ ~ ~ ~ o.o.1.1.1.7.4.8.0.0.0.0.0.0.0.0.0.0.0.0.0.0.0.0.",
"0.0.0.0.0.0.0.0.0.0.0.8.8.4.7.7.7.7.i.0.0.0.x.~ / / / / ] ] ] o.=.1.0.0.2.2.8.4.7.7.0.q.0.0.0.Q o.=.1.~ o.:.:.:.1.+.Q X.o.o.o.o.X.X.X./ q.p.p.p.=.:.>.>.:.>.:.:.:.>.>.>.>.>.1.1.>.>.>.2.2.2.1.1.1.2.2.2.2.2.2.2.1.1.1.1.1.1.1.1.1.1.>.>.1.1.1.1.1.1.1.1.1.1.1.1.1.1.1.1.1.1.1.1.1.1.1.1.1.1.>.>.2.1.1.1.>.1.>.1.1.>.>.>.1.1.1.2.>.1.1.1.1.1.>.>.:.>.>.>.1.1.:.:.1.:.=.=.=.0.o.! ] X.X.X.o.+.+.X./ _ _ _ _ 1.+.! f.X./ e.e.e.e.>.0.0.0.0.0.0.2.2.=.] / ~ ~ ~ ! ~ ~ ~ o.o.1.1.1.7.4.8.0.0.0.0.0.0.0.0.0.0.0.0.0.0.0.0.",
"0.0.0.0.0.0.0.0.0.0.0.8.8.4.7.7.7.7.i.0.0.0.x.~ / / / / ] ] ] +.=.1.0.0.2.2.8.0.7.7.0.0.0.0.0.Q o.=.1.~ o.:.:.:.1.=.Q X.o.o.o.o.X.X.X./ q.p.p.p.=.1.>.>.1.1.:.:.:.>.>.>.>.>.1.1.>.1.1.1.2.2.2.1.2.1.1.1.2.1.2.2.1.1.1.>.1.>.1.1.1.1.1.1.1.>.>.>.>.>.>.1.1.1.1.1.1.1.1.1.>.1.>.>.>.>.1.1.1.1.1.1.1.2.2.1.1.>.1.1.>.1.1.1.1.>.1.1.1.1.1.1.>.1.>.>.:.>.>.>.1.1.:.:.1.:.=.=.=.0.o.! ] X.X.X.+.+.+.o./ _ _ _ _ 1.+.~ f.X./ e.e.e.e.>.0.0.0.0.0.0.2.2.=.] / ~ ~ ~ ! ~ ~ ~ o.o.1.1.1.7.4.8.0.0.0.0.0.0.0.0.0.0.0.0.0.0.0.0.",
"0.0.0.0.0.0.0.0.0.0.0.8.8.4.7.7.7.7.d.0.q.q.b.~ / / / ] ] ] ] +.:.1.0.0.2.2.2.0.1.1.0.0.0.0.0.W o.=.=.~ o.:.1.1.1.=.Q X.o.+.+.+.o.o.X./ q.p.p.p.=.=.1.1.:.1.1.1.>.1.:.>.1.2.1.1.1.>.1.1.1.1.>.>.>.>.1.>.1.1.1.>.>.>.1.1.1.1.>.1.1.2.1.>.>.1.1.1.1.1.1.1.1.1.>.1.1.1.1.1.1.1.1.1.1.1.1.1.>.1.1.1.2.2.>.1.1.>.1.2.1.2.>.>.>.1.1.1.1.>.1.1.1.1.:.>.>.>.1.1.1.1.:.:.>.:.=.=.=.0.o.! ] ] X.X.o.o.+.X./ ] ] ] ] 1.+.~ p.X./ q.e.e.e.1.0.0.0.0.0.0.2.2.=.X./ ~ ~ ~ ~ ! ~ ~ =.o.7.7.7.7.4.8.0.0.0.0.0.0.0.0.0.0.0.0.0.0.0.0.",
"0.0.0.0.0.0.0.0.0.0.0.8.8.4.7.7.7.7.u.0.0.0.x.! / / / / ] ] ] o.=.1.0.0.8.8.2.0.1.1.0.0.0.0.0.Q o.=.=.~ o.:.:.1.1.@.Q X.+.o.+.+.o.o.X./ q.p.p.p.=.=.>.>.:.1.1.1.1.1.>.>.1.2.1.1.>.1.1.>.>.1.1.1.1.1.>.>.1.1.1.>.>.>.1.1.1.>.1.1.1.2.1.1.1.1.2.1.1.>.1.1.1.1.>.1.1.1.1.1.1.1.1.1.1.1.1.1.1.1.1.2.2.2.1.>.>.>.2.1.1.1.1.1.1.>.>.>.>.1.1.1.1.1.:.>.>.1.1.1.1.1.:.:.>.:.=.=.=.0.o.! ] ] X.X.o.o.+.X./ _ _ _ _ 1.+.~ p.X./ q.e.e.e.1.0.0.0.0.0.0.2.2.=.X./ / / / ~ ~ ~ ~ =.#.7.7.7.7.4.8.0.0.0.0.0.0.0.0.0.0.0.0.0.0.0.0.",
"0.0.0.0.0.0.0.0.0.0.0.8.8.4.7.7.7.7.i.0.0.0.x./ / / / ` ] ] ] +.:.1.0.0.2.2.2.0.1.1.0.0.0.0.0.Q o.1.=.~ o.1.1.1.1.=.Q X.o.o.o.+.o.o.X./ q.p.p.p.=.:.>.>.:.>.1.1.1.>.:.>.1.>.1.1.1.1.1.1.1.1.1.1.2.2.2.1.1.1.1.1.1.1.1.1.1.1.1.>.>.1.2.2.2.1.>.1.1.1.1.2.1.1.1.1.>.>.1.>.1.1.>.>.>.>.>.>.>.1.1.>.>.>.>.>.1.1.>.>.1.1.>.>.>.1.>.1.1.1.1.1.1.1.>.1.1.1.1.1.1.1.:.:.1.:.=.=.=.0.o.! ] ] X.X.o.o.+.X.] _ _ _ _ 1.+.! f.o./ e.e.e.e.1.0.0.0.0.0.0.2.2.#.] / ~ ~ ~ / ~ ~ ~ =.#.7.7.7.7.4.8.0.0.0.0.0.0.0.0.0.0.0.0.0.0.0.0.",
"0.0.0.0.0.0.0.0.0.0.0.8.8.4.7.7.7.7.i.0.0.0.k./ / / / ` ] ] ] +.:.1.0.0.2.2.2.0.1.1.0.0.0.q.0.W o.1.=.~ o.1.1.1.1.@.Q X.o.o.o.+.o.o.o./ q.p.p.p.=.:.:.:.:.>.1.1.1.1.=.>.1.1.1.>.1.1.>.>.1.>.1.1.>.1.2.1.1.1.1.1.1.1.1.2.1.1.1.1.1.>.1.1.>.1.1.>.>.>.2.2.1.2.1.1.1.1.1.1.1.1.1.1.>.>.1.>.2.1.1.1.1.1.1.>.1.1.>.1.2.2.>.1.>.1.1.1.1.1.1.1.>.1.>.>.1.1.1.1.1.1.:.:.>.=.=.=.=.0.o.! ] ] X.X.o.o.o.o.` / / / / 1.#.! f.X./ e.e.e.e.1.0.0.0.0.0.0.2.2.#.] / ~ ~ ~ / ~ ~ ~ =.#.7.7.7.7.4.8.0.0.0.0.0.0.0.0.0.0.0.0.0.0.0.0.",
"0.0.0.0.0.0.0.0.0.0.0.8.8.4.7.7.7.7.u.0.0.0.x.~ / / / / X.X.X.+.=.2.0.0.8.8.2.0.1.1.0.0.q.q.q.W o.1.=./ o.1.1.1.:.@.Q X.o.o.o.+.o.o.X./ q.p.p.p.=.>.1.1.>.1.1.1.>.>.>.=.:.:.>.>.1.>.1.>.1.>.1.1.>.1.>.1.1.1.>.>.>.>.1.1.1.1.1.2.>.1.>.>.1.>.1.>.>.>.>.1.1.1.1.1.1.1.1.1.1.1.>.>.>.>.1.1.2.2.2.2.2.1.>.1.>.>.1.1.1.1.>.1.2.2.2.1.1.1.>.:.>.>.>.>.:.>.>.>.1.1.:.:.>.=.=.=.=.0.o.! ] ] X.X.+.o.o.[ / / / / / 1.#.! f.X./ e.q.e.e.1.0.0.0.0.0.0.2.2.=.] / ~ ~ ~ ~ ~ / / =.#.7.7.7.7.4.8.0.0.0.0.0.0.0.0.0.0.0.0.0.0.0.0.",
"0.0.0.0.0.0.0.0.0.0.0.8.8.4.7.7.7.7.i.0.0.0.k./ ` ` / ` ] ] ] +.1.1.0.0.2.2.2.0.1.1.0.0.0.0.0.W o.1.=./ o.:.:.:.:.=.Q X.o.o.o.o.o.o.o./ q.p.p.p.=.>.:.1.>.1.1.1.>.>.>.>.:.:.1.1.1.1.>.1.>.1.1.1.>.1.1.>.1.>.1.>.>.>.>.>.>.1.1.2.1.1.1.1.>.>.1.1.1.1.1.1.1.2.1.1.1.1.1.1.1.1.1.1.1.1.1.1.2.2.2.2.2.1.1.>.>.1.>.1.2.1.1.1.1.2.2.1.1.1.>.:.>.>.1.>.:.>.1.1.1.1.:.:.>.:.=.=.=.0.o.! ] ] X.X.+.+.o.[ / / / / / 1.o.! f.X./ e.q.q.e.1.0.0.0.0.0.0.2.2.+.] / ~ ~ ~ / ~ ~ ~ =.#.7.7.7.7.4.8.0.0.0.0.0.0.0.0.0.0.0.0.0.0.0.0.",
"0.0.0.0.0.0.0.0.0.0.0.8.8.4.7.7.7.7.u.0.0.0.h.~ / / / / ] ] ] +.=.1.0.0.2.2.2.0.1.1.0.0.0.0.0.Q o.1.=.~ o.:.:.:.1.@.Q X.o.o.o.o.o.o.X./ q.a.a.a.=.>.1.1.>.1.1.1.1.1.>.>.=.=.1.1.1.>.>.1.1.>.>.>.1.1.>.1.>.1.1.1.1.1.1.1.>.>.1.2.1.>.1.1.1.2.2.1.1.1.1.>.>.>.1.1.>.1.2.2.1.2.2.1.1.1.1.1.1.>.1.1.1.1.1.>.1.>.1.1.1.>.1.1.1.>.>.1.>.>.>.:.>.>.>.1.:.>.1.1.1.1.:.:.1.=.=.=.=.0.o.! ] ] X.X.o.+.o.[ / / / / / 1.+.! f.X./ e.e.e.e.1.0.0.0.0.0.0.2.2.=.] / ~ ~ ~ ~ / / / =.#.7.7.7.7.4.8.0.0.0.0.0.0.0.0.0.0.0.0.0.0.0.0.",
"0.0.0.0.0.0.0.0.0.0.0.8.8.4.7.7.7.7.i.0.0.0.n.~ / / / / ] ] ] +.=.1.0.0.2.2.2.0.1.1.0.0.0.0.0.Q o.1.=.! X.:.:.:.1.=.Q X.o.o.o.+.o.o.X./ q.a.a.a.=.:.1.1.:.1.1.1.1.1.1.1.=.=.>.>.>.>.>.2.1.>.>.>.1.2.>.1.1.>.1.1.1.1.2.2.1.>.1.1.1.>.1.1.2.1.1.2.2.1.1.>.1.2.1.1.1.1.2.1.>.1.>.>.1.2.1.1.1.>.1.>.2.1.>.>.1.>.1.2.1.1.1.1.>.1.>.>.>.>.>.>.1.>.>.>.:.>.1.1.1.1.:.=.1.=.=.=.=.0.o.! ] ] X.X.o.+.o.o.] / / / / 1.o.! e.o./ e.e.e.e.1.0.0.0.0.0.0.2.2.=.] / ~ ~ ~ ~ ~ / / =.#.7.7.7.7.4.8.0.0.0.0.0.0.0.0.0.0.0.0.0.0.0.0.",
"0.0.0.0.0.0.0.0.0.0.0.8.8.4.7.7.7.7.d.y.y.y.h./ / / / / X.X.X.+.1.1.0.0.2.2.2.0.1.1.0.0.0.0.0.! o.1.=.Q o.1.1.1.1.=.Q X.o.o.+.o.o.o.[ / 9.u.a.a.=.=.>.>.:.1.1.>.1.1.1.1.=.:.>.1.>.1.2.2.2.2.1.1.1.1.1.1.>.1.1.1.>.2.2.2.1.1.1.>.1.2.>.>.>.1.1.1.1.1.1.1.1.1.1.1.1.>.>.1.>.1.1.>.1.2.1.1.>.1.1.1.2.1.1.>.>.1.2.2.1.1.1.2.1.>.>.1.1.1.1.1.1.1.:.:.>.1.1.1.1.>.=.=.1.:.=.=.=.0.o.! ] ] X.X.+.+.+.X.] / / / / 1.o.~ q.+./ q.q.q.e.1.0.0.0.0.0.0.2.2.+.] / ! ~ ~ / ~ ~ ~ =.=.7.7.7.7.4.8.0.0.0.0.0.0.0.0.0.0.0.0.0.0.0.0.",
"0.0.0.0.0.0.0.0.0.0.0.8.8.4.7.7.7.7.u.0.0.0.b.~ / / / / ] ] ] o.=.2.0.0.0.0.2.0.1.1.0.0.0.0.0.! o.1.=.Q o.:.:.:.:.o.Q X.X.o.o.+.o.o.X./ 9.p.p.a.=.:.:.=.>.:.1.1.1.1.1.1.=.:.>.>.>.1.1.1.1.2.2.1.1.>.1.1.>.1.1.>.>.>.2.2.1.>.1.>.2.2.>.>.1.1.1.1.1.1.>.1.1.1.1.>.>.>.1.1.1.>.1.1.1.2.2.>.1.>.1.1.1.1.1.>.1.1.2.2.>.>.2.1.1.>.>.1.1.1.1.1.1.1.1.>.>.>.1.1.>.>.=.=.1.:.=.=.=.0.o.! ] ] X.X.o.+.o.X.] ` / / / 1.o.! q.+./ f.f.f.f.>.0.0.0.0.0.0.2.2.=.] / / / / ~ ~ ~ ~ =.=.7.7.7.7.4.8.0.0.0.0.0.0.0.0.0.0.0.0.0.0.0.0.",
"0.0.0.0.0.0.0.0.0.0.0.8.8.4.7.7.7.8.i.0.0.0.h./ / / / / ] ] ] +.:.1.0.0.2.2.2.0.1.1.0.0.0.0.0.! o.1.=.Q X.:.:.:.:.$.Q X.X.+.o.+.o.o.X./ 9.p.p.p.=.=.=.=.>.:.>.>.1.1.1.1.:.:.>.>.>.>.1.1.1.1.1.1.1.>.>.>.1.1.>.1.2.1.2.2.>.1.>.1.2.>.1.1.>.1.1.>.1.>.1.1.1.1.1.1.>.>.>.>.>.1.1.1.>.>.>.1.1.2.>.1.>.>.1.1.1.1.>.1.>.1.1.1.1.1.1.1.1.>.>.>.>.>.:.1.>.>.>.>.1.1.:.:.1.=.=.=.=.0.o.! ] ] X.X.o.+.X.X./ / / / / 1.o.! q.+./ f.g.g.g.>.0.0.0.0.0.0.2.2.+.] / ! ! ! ~ ~ ~ ~ =.#.7.7.7.7.4.8.0.0.0.0.0.0.0.0.0.0.0.0.0.0.0.0.",
"0.0.0.0.0.0.0.0.0.0.0.8.8.4.7.7.7.8.d.0.0.0.n./ ` ` / ] X.X.X.+.>.1.0.0.2.2.2.0.1.1.0.0.0.0.0.! o.1.=.Q o.:.:.1.1.=.Q X.X.o.+.+.o.o.X./ q.a.p.p.=.=.1.1.:.1.>.>.1.1.1.1.:.:.>.>.>.>.1.1.1.1.>.>.1.1.1.1.>.1.1.1.1.1.2.1.>.1.>.1.2.1.1.1.>.1.1.1.1.1.1.>.>.>.1.>.>.>.1.1.1.1.>.>.1.1.1.>.1.1.2.1.1.1.1.1.>.1.1.>.1.>.2.1.1.1.1.1.>.1.1.1.>.>.:.1.>.>.>.>.1.1.1.1.1.=.=.=.=.0.o.! ] ] X.X.o.+.X.X./ ` ` ` / 1.o.! q.+./ g.g.g.g.>.0.0.0.0.0.0.1.1.+.] / ! ! ! ~ ~ ~ ~ =.#.7.7.7.7.4.8.0.0.0.0.0.0.0.0.0.0.0.0.0.0.0.0.",
"0.0.0.0.0.0.0.0.0.0.0.8.8.4.7.7.7.7.u.0.0.0.j./ / / / / X.X.X.+.=.2.0.0.0.0.2.0.1.1.0.0.0.0.0.Q o.1.=.~ o.:.:.:.:.%.Q X.o.o.o.o.o.o.X./ q.a.a.a.=.=.1.1.:.1.>.>.1.1.1.1.:.:.>.>.1.1.1.:.>.1.1.1.1.1.:.1.1.>.1.1.1.1.>.1.1.>.1.1.1.>.1.>.1.1.1.>.>.>.1.2.1.1.1.1.2.2.2.2.1.1.1.1.1.2.1.1.1.>.1.1.1.1.1.>.1.>.1.1.1.>.>.>.>.1.>.>.1.1.1.:.:.:.1.1.1.>.1.>.:.1.:.:.:.:.=.=.=.0.o.Q ] ] X.X.o.o.+.X./ / / / / 1.o.! q.X.~ g.f.f.f.1.0.0.0.0.0.0.2.2.=.] / ~ / / / / / / =.#.7.7.7.7.4.8.0.0.0.0.0.0.0.0.0.0.0.0.0.0.0.0.",
"0.0.0.0.0.0.0.0.0.0.0.8.8.4.7.7.7.7.d.0.0.0.n./ ] ` / ] X.X.X.+.1.1.0.0.2.2.2.0.1.1.0.0.0.0.0.Q o.1.=.~ o.:.1.:.1.=.Q X.o.o.o.o.o.o.X./ q.a.a.a.=.:.1.1.:.1.1.1.>.>.1.1.:.:.>.>.2.1.1.:.>.1.1.1.1.1.:.1.1.1.>.1.1.1.1.>.>.1.1.1.>.1.>.>.1.>.1.1.1.1.1.1.1.1.1.1.2.2.2.2.1.1.1.1.1.1.1.2.>.1.>.>.>.>.1.2.1.1.>.>.1.>.1.>.>.>.>.1.1.1.1.1.>.1.1.1.1.1.1.1.:.1.:.:.:.=.=.=.=.0.o.Q X.X.X.X.o.o.+.X./ / / / / 1.o.! q.o./ g.f.f.f.1.0.0.0.0.0.0.1.1.o.] / ! ~ ~ / ~ / / =.+.1.1.1.1.0.2.0.0.0.0.0.0.0.0.0.0.0.0.0.0.0.0.",
"0.0.0.0.0.0.0.0.0.0.0.8.8.4.7.7.7.8.d.0.q.0.h./ / / / / X.X.X.+.=.1.0.0.2.2.2.0.1.1.0.0.0.0.0.Q o.1.=.~ o.1.1.1.1.=.Q X.o.o.o.o.o.o.X./ 9.a.a.a.=.:.>.>.:.>.1.1.>.>.>.>.:.:.1.>.>.1.>.:.>.>.1.1.>.1.:.1.1.1.1.1.1.>.>.1.1.1.1.1.1.>.1.1.1.1.>.1.1.1.1.>.1.1.1.2.2.2.1.1.>.>.1.1.1.>.>.1.1.1.1.1.1.1.1.>.1.1.1.1.1.1.1.1.1.>.1.1.1.1.1.1.1.1.1.1.:.:.:.:.1.1.:.:.:.=.=.=.=.0.o.! o.o.X.X.o.o.+.X./ ~ ~ ~ ~ -.#.~ q.+./ g.g.g.f.1.0.0.0.0.0.0.2.2.#.] / ~ / ~ ~ ~ ~ ~ =.o.1.1.1.1.0.2.0.0.0.0.0.0.0.0.0.0.0.0.0.0.0.0.",
"0.0.0.0.0.0.0.0.0.0.0.8.8.4.7.7.7.8.d.0.0.0.m./ / / / / X.X.X.+.=.1.0.0.2.2.2.0.1.1.0.0.0.0.0.Q o.1.=.~ o.1.1.1.1.=.Q X.o.o.o.+.o.o.X./ 9.a.a.a.=.=.1.1.1.1.1.>.>.>.>.>.1.1.>.>.>.1.>.>.>.>.1.1.>.>.:.1.1.1.1.1.1.1.1.>.>.1.1.1.1.1.1.1.>.1.1.1.1.1.2.1.>.>.1.>.1.1.1.1.1.1.1.>.1.1.1.>.1.1.>.1.>.1.1.1.1.1.1.1.>.>.>.>.>.>.1.1.1.>.1.:.1.1.1.1.:.1.1.1.:.:.:.:.=.=.=.=.=.0.o.Q ] ] X.X.o.o.+.X.] ` ` ` / 1.o.! q.+./ g.g.g.g.1.0.0.0.0.0.0.2.2.+.] / / ~ ~ ~ ~ ~ ~ =.o.1.1.1.1.0.2.0.0.0.0.0.0.0.0.0.0.0.0.0.0.0.0.",
"0.0.0.0.0.0.0.0.0.0.0.2.2.0.1.1.7.8.d.0.q.q.n./ / / / ] X.X.X.+.1.1.0.0.2.2.2.0.1.1.0.0.0.0.0.Q o.1.=.~ o.>.1.1.1.=.Q X.o.+.+.o.o.o.o./ q.a.a.a.=.:.>.>.>.>.>.>.>.1.>.>.1.1.1.1.>.>.:.:.1.1.>.>.>.>.:.>.1.1.1.1.>.>.>.1.1.1.1.>.>.1.1.1.1.>.1.1.1.1.1.1.1.1.>.1.1.1.1.>.>.>.>.1.>.>.>.1.1.1.1.>.2.1.2.2.1.1.1.1.>.>.>.>.>.1.>.1.>.>.>.=.>.>.1.1.:.:.:.:.>.>.=.=.:.:.=.=.=.0.o.! ] ] X.X.o.+.o.[ ` ` ` ` / 1.o.! q.+./ g.g.g.g.1.0.0.0.8.8.0.1.1.+.] / ~ ! ! ~ ~ ~ ~ =.+.1.1.1.1.0.2.0.0.0.0.0.0.0.0.0.0.0.0.0.0.0.0.",
"0.0.0.0.0.0.0.0.0.0.0.2.2.0.1.1.1.8.d.0.0.0.m./ / / / / X.X.X.+.=.2.0.0.0.0.2.0.1.1.0.7.7.7.7.W o.1.=./ o.>.1.1.1.=.Q X.o.o.o.o.X.X.o./ e.u.u.u.@.=.>.>.:.>.>.>.>.1.>.>.1.1.:.:.1.:.>.1.1.1.1.:.:.:.>.:.:.>.1.1.>.>.>.1.>.1.1.>.>.>.1.1.>.1.1.1.1.1.1.>.1.1.1.1.1.1.1.>.:.:.:.:.>.>.1.>.1.1.1.1.1.1.1.2.1.1.1.>.:.:.1.1.1.1.1.:.:.=.=.>.>.>.1.1.:.:.:.:.>.>.:.:.=.=.=.=.=.0.o.! ] ] X.X.+.o.o.[ ` / ` ` / 1.o.! q.o./ g.g.g.g.1.0.0.0.0.0.0.2.2.=.] / ~ ~ ~ ~ ~ ~ ~ =.+.1.1.1.1.0.2.0.0.0.0.0.0.0.0.0.0.0.0.0.0.0.0.",
"0.0.0.0.0.0.0.0.0.0.0.2.2.0.1.1.1.8.d.0.0.0.n./ ` ` / ] X.X.X.+.:.1.0.0.2.2.2.0.1.1.0.1.1.1.1.Q o.1.=./ o.1.>.>.1.=.Q X.+.+.o.o.o.o.o./ q.u.u.u.=.:.>.>.:.>.>.>.>.1.:.1.>.>.>.>.>.>.1.1.>.>.>.>.>.>.>.>.=.>.1.1.1.1.1.>.1.1.1.>.1.:.1.1.>.>.>.1.1.1.>.1.1.1.1.1.1.1.1.>.:.>.1.1.>.>.1.>.>.1.>.1.1.1.1.1.1.1.1.1.:.>.1.1.1.1.1.1.1.1.1.>.1.>.1.1.:.:.:.:.>.:.:.:.=.=.=.=.=.0.o.! ] ] X.X.o.+.o.[ ` / / / / 1.o.! q.X./ g.f.f.f.1.0.0.0.2.2.0.1.1.o.] / ! ! ! ~ ! ~ ~ =.+.1.1.1.1.0.2.0.0.0.0.0.0.0.0.0.0.0.0.0.0.0.0.",
"0.0.0.0.0.0.0.0.0.0.0.2.2.0.1.1.1.8.d.0.0.0.n./ ` ` / ] X.X.X.+.:.1.0.0.2.2.2.0.1.1.0.1.1.1.1.Q o.1.=./ o.1.>.>.1.=.Q X.+.o.o.o.o.o.o./ q.u.u.u.=.=.>.>.>.>.>.>.>.1.1.1.>.1.>.>.1.1.1.1.>.>.>.>.>.1.>.>.:.>.1.1.1.1.>.1.1.>.>.>.>.1.1.1.1.1.>.1.1.1.1.>.1.1.1.>.1.1.1.1.:.1.:.:.>.>.1.1.1.1.1.>.>.>.>.>.1.1.1.1.:.>.1.1.1.1.1.1.>.1.>.>.1.1.1.1.:.:.:.:.>.>.:.:.:.=.=.=.=.0.o.! ] ] X.X.o.+.o.[ / / / / / 1.o.! q.+./ g.f.f.f.1.0.0.0.2.2.0.1.1.o.] / ! ! ! ~ ! ~ ~ =.+.1.1.1.1.0.2.0.0.0.0.0.0.0.0.0.0.0.0.0.0.0.0.",
"0.0.0.0.0.0.0.0.0.0.0.2.2.0.1.1.1.8.d.0.0.0.x./ / / / / X.X.X.+.=.2.0.0.0.0.2.0.1.1.0.1.1.1.1.W o.>.=./ o.1.>.>.1.=.! X.o.X.X.o.o.o.o./ q.u.y.y.=.=.=.=.=.:.>.>.>.>.:.1.:.:.1.1.1.1.1.1.1.1.>.>.1.1.1.1.>.:.>.>.>.>.>.>.>.1.>.1.1.>.>.>.>.>.1.1.>.>.1.>.1.1.>.>.1.1.1.>.:.>.1.1.>.>.1.>.1.1.>.>.>.>.>.>.1.1.>.1.:.>.>.1.>.>.1.>.1.>.>.1.>.>.>.>.:.:.:.:.:.>.=.=.:.=.=.=.=.0.o.! ] ] X.X.o.+.o.o./ ` / / / 1.o.! q.o./ g.g.g.g.1.0.0.0.0.0.0.2.2.=.] / ~ ~ ~ ! / ~ ~ =.+.2.1.1.1.0.2.0.0.0.0.0.0.0.0.0.0.0.0.0.0.0.0.",
"0.0.0.0.0.0.0.0.0.0.0.8.8.4.7.7.7.8.i.y.y.y.h./ ` ` / ] X.X.X.+.1.1.0.0.2.2.2.0.1.1.0.1.1.1.1.Q +.>.=./ o.1.>.>.1.=.! X.o.o.o.X.X.X.o./ q.u.u.u.=.=.:.:.:.:.>.>.>.:.:.1.:.:.1.1.1.1.1.1.1.>.>.>.1.1.1.1.:.1.1.1.:.:.:.:.1.:.1.1.>.:.1.1.1.:.:.>.>.>.1.1.>.>.:.>.1.1.>.1.:.>.>.>.1.1.:.1.:.:.:.:.:.:.>.:.:.:.1.:.>.>.>.>.>.>.>.>.1.>.>.>.>.>.>.:.>.>.>.>.=.:.=.=.:.=.=.=.=.0.=.! ] ] X.X.o.+.o.o./ ` / / / 1.+.! q.X./ g.g.g.g.1.0.0.0.2.2.0.1.1.o.] / ! ~ ! / ~ ~ ~ =.+.2.1.1.1.0.2.0.0.0.0.0.0.0.0.0.0.0.0.0.0.0.0.",
"0.0.0.0.0.0.0.0.0.0.0.8.8.4.7.7.7.8.i.0.0.0.j./ / / / / X.X.X.+.=.1.0.0.2.2.2.0.1.1.0.1.1.1.1.! +.>.=./ o.1.1.>.1.=.! X.X.o.o.o.o.o.o./ q.u.u.u.=.=.:.:.:.>.:.:.:.:.=.1.:.:.1.1.1.1.1.1.1.:.:.:.:.:.1.1.>.>.1.1.>.>.1.1.1.>.1.1.>.>.>.>.1.1.:.>.>.1.1.1.>.>.:.>.>.1.>.1.:.1.1.1.>.1.1.1.1.1.1.1.1.1.1.1.>.1.>.>.1.1.1.1.>.>.>.>.1.>.>.1.:.:.>.:.>.:.:.:.=.=.:.:.=.=.=.=.=.8.=.! ] ] X.X.o.+.o.o./ ` ` ` / 1.o.! q.+./ g.g.g.g.1.0.0.0.0.0.0.2.2.@.] / ! ~ ~ ~ / ~ ~ =.+.1.1.1.1.0.2.0.0.0.0.0.0.0.0.0.0.0.0.0.0.0.0.",
"0.0.0.0.0.0.0.0.0.0.0.8.8.4.7.7.7.8.i.0.0.0.h./ / / / / X.X.X.+.=.1.0.0.2.2.2.0.1.1.0.1.1.1.1.Q X.>.=./ o.1.1.1.1.=.Q X.X.+.o.o.o.o.o./ q.u.u.u.=.=.:.:.:.>.:.:.:.:.=.1.:.:.1.1.1.>.:.1.1.:.:.:.:.:.1.1.>.1.1.1.1.>.1.1.>.>.>.>.>.:.>.>.>.>.1.1.>.1.>.>.>.1.:.>.1.>.>.>.:.>.1.1.1.1.1.1.1.1.>.>.>.>.>.>.>.1.>.1.1.>.1.1.>.>.>.:.1.>.>.1.>.>.>.:.>.:.:.:.=.:.:.:.=.:.=.=.=.8.=.! ] ] X.X.o.o.o.X./ / / / / 1.o.Q q.+./ g.g.g.g.1.0.0.0.0.0.0.2.2.@.] / ! ~ ~ ~ / ~ ~ =.+.1.1.1.1.0.2.0.0.0.0.0.0.0.0.0.0.0.0.0.0.0.0.",
"0.0.0.0.0.0.0.0.0.0.0.2.2.0.1.1.7.8.d.y.y.y.j./ / / / ] X.X.X.+.1.1.0.0.2.2.2.0.1.1.0.1.1.1.1.Q X.>.=./ o.1.1.1.1.@.Q X.o.+.+.+.o.o.X./ q.u.u.u.=.:.=.=.=.:.>.>.>.:.:.1.:.:.>.>.>.:.1.:.>.>.1.1.1.>.>.>.:.>.1.1.1.1.1.1.>.=.>.:.1.>.1.1.1.1.:.>.>.>.1.1.1.1.:.1.>.>.>.>.:.>.>.>.>.>.1.1.1.1.>.>.1.1.1.1.>.:.:.>.>.:.:.:.:.:.1.1.:.:.:.1.:.:.>.:.:.:.:.:.=.=.=.=.:.=.=.=.=.8.=.! ] ] X.X.o.o.o.X./ / ` ` / 1.o.Q q.+./ g.g.g.f.1.0.0.0.2.2.0.1.1.+.] / ! ! ! / ! / ~ =.@.1.1.1.1.0.2.0.0.0.0.0.0.0.0.0.0.0.0.0.0.0.0.",
"0.0.0.0.0.0.0.0.0.0.0.2.2.0.1.1.1.2.d.0.0.0.j./ / / / / o.o.o.+.=.2.0.0.0.0.2.0.1.1.0.1.1.1.1.Q o.1.=./ o.1.1.1.1.X.Q X.o.o.o.o.o.o.X./ q.u.u.u.=.>.=.=.:.=.:.:.:.>.>.1.1.1.:.:.:.=.1.:.1.>.>.>.>.:.:.:.>.>.1.1.1.1.1.1.>.:.>.:.1.1.1.1.:.>.>.1.1.1.:.:.1.1.=.:.:.:.:.:.>.>.>.>.>.>.>.1.1.1.>.>.>.>.>.>.>.1.>.1.>.>.1.1.1.1.:.:.=.:.:.1.>.>.:.>.:.=.=.=.:.:.=.=.:.=.=.=.=.8.%.Q ] ] X.X.o.o.X.X.] ~ ~ ~ ~ 1.o.! q.+./ g.f.f.f.1.0.0.0.0.0.0.2.2.=.] / ~ ~ ~ ! ~ ~ ~ =.+.1.1.1.1.0.2.0.0.0.0.0.0.0.0.0.0.0.0.0.0.0.0.",
"0.0.0.0.0.0.0.0.0.0.0.2.2.0.1.1.1.8.d.0.0.0.h./ ` ` / ] X.X.X.+.1.1.0.0.2.2.2.0.1.1.0.-.1.1.1.Q o.1.o./ o.1.1.1.1.o.! X.X.o.o.o.X.X.X./ q.u.u.u.@.=.=.=.=.:.=.=.=.:.:.=.:.:.=.=.:.:.:.=.:.1.1.1.1.:.:.:.>.:.:.:.:.:.:.:.:.:.1.>.>.:.1.1.:.1.:.1.1.1.:.>.1.1.:.:.>.>.>.:.:.:.1.1.1.1.1.1.1.1.:.:.:.:.:.:.>.:.:.1.>.:.:.:.:.=.=.:.1.:.:.:.:.:.>.:.:.:.:.:.>.>.=.=.:.=.=.=.=.8.%.Q ] ] X.X.o.o.X.] / ` / / ` 1.o.! q.+./ g.g.g.f.1.0.0.0.2.2.0.1.1.o.] / ! ! ! ~ ! ~ ~ =.+.1.1.1.1.0.2.0.0.0.0.0.0.0.0.0.0.0.0.0.0.0.0.",
"0.0.0.0.0.0.0.0.0.0.0.2.2.0.1.1.1.8.d.y.y.y.g./ ` ` / ] X.X.X.+.1.1.0.0.2.2.2.0.1.1.q.1.1.1.1.! o.1.o./ o.1.1.1.1.o.! X.X.X.X.o.X.X.X./ q.u.u.u.:.>.=.=.:.=.=.=.=.:.:.:.=.=.:.:.:.:.=.:.1.1.1.1.1.1.1.1.>.>.1.1.1.1.1.>.1.:.:.:.:.:.1.1.1.1.>.1.1.1.>.:.:.:.1.:.>.>.>.>.>.>.1.1.1.1.1.1.1.1.>.>.>.>.>.>.>.:.:.1.>.:.1.1.1.:.:.=.:.:.:.=.:.:.>.:.=.:.:.:.:.:.=.=.:.=.=.=.=.8.%.Q ] ] X.X.X.o.X.X./ / / / / 1.o.! q.+./ g.g.g.f.1.0.0.0.2.2.0.1.1.o.] / ! ! ! ~ ! ~ ~ =.+.1.1.1.1.0.2.0.0.0.0.0.0.0.0.0.0.0.0.0.0.0.0.",
"0.0.0.0.0.0.0.0.0.0.0.2.2.0.1.1.1.8.i.0.0.0.h.~ / / / / o.o.o.+.=.2.0.0.4.0.2.4.7.1.y.1.1.1.1.! o.1.o./ o.1.1.1.1.o.Q X.X.X.X.o.o.o.X./ q.y.y.y.@.=.=.=.=.=.=.=.=.=.=.=.=.=.=.=.=.=.=.=.=.=.=.=.=.=.=.=.=.=.=.=.=.=.=.=.=.=.=.=.=.=.=.=.:.=.:.:.:.:.:.=.=.=.=.=.:.:.:.:.:.:.:.:.:.:.:.:.:.:.:.:.:.:.:.:.:.:.=.:.:.=.=.=.=.:.=.=.=.=.=.=.:.:.:.=.=.=.=.=.=.=.=.=.=.=.=.=.=.0.] Q ] ] X.X.o.o.X.X./ ` ` ` / 1.o.! q.+./ g.g.g.g.1.0.0.0.0.0.0.2.2.=.] / ~ ~ ~ ! / ~ ~ =.+.2.1.1.1.0.2.0.0.0.0.0.0.0.0.0.0.0.0.0.0.0.0.",
"0.0.0.0.0.0.0.0.0.0.0.8.8.4.7.7.7.8.a.y.y.y.f./ ] ` / ] X.X.X.+.1.1.0.0.2.2.8.4.7.7.y.1.1.1.1.Q X.>.o.Q X.:.:.:.:.o.Q X.o.X.X.o.X.X.o./ q.u.u.u.@.:.:.:.:.:.:.:.:.:.:.:.:.:.>.>.>.>.>.>.:.:.:.:.:.>.:.>.>.>.:.:.:.:.:.:.:.>.:.>.>.>.>.>.>.>.>.>.>.>.>.>.>.>.>.>.>.>.>.>.>.>.>.>.>.>.>.>.>.>.>.>.>.>.>.>.>.>.>.>.>.>.>.>.>.>.>.>.>.>.>.>.>.>.>.>.>.>.>.>.>.>.>.>.>.>.:.:.:.0.] Q ] ] X.X.o.o.X.] / / / / / 1.X.! q.+./ g.g.g.g.1.0.0.0.2.2.0.1.1.o.] / ! ~ ! / ! ~ ~ =.#.2.2.1.1.0.2.0.0.0.0.0.0.0.0.0.0.0.0.0.0.0.0.",
"0.0.0.0.0.0.0.0.0.0.0.8.8.4.7.7.7.8.i.y.y.y.h.~ / / / / X.X.X.+.=.1.0.0.2.2.2.4.7.7.y.1.1.1.1.! o.>.o./ X.:.:.:.:.o.Q X.o.X.X.o.o.o.o./ &.R R R J J J J J J J J J J J J L L L L L L L L L L L L L L K L L L L L L L L L L L P P P P P P P P P P P P P P P P P P P P P P P P P P I I I I I I I I I I I I I I I I I I I I I I I I I U U R R R R R R R R R R R R R R U U U U Q / ~ X.X.X.X.o.+.X.X./ / ) ) / 0.X.! q.+./ g.g.g.g.1.0.0.0.0.0.0.2.2.+.] / ~ ~ ~ / / ~ ~ =.#.7.7.7.7.4.8.0.0.0.0.0.0.0.0.0.0.0.0.0.0.0.0.",
"0.0.0.0.0.0.0.0.0.0.0.8.8.4.7.7.7.8.i.y.y.y.f./ / / / / X.X.X.+.=.1.0.0.2.2.2.4.7.1.y.1.1.1.1.Q +.>.o./ X.1.1.1.1.o.Q ] o.X.X.o.o.o.X.X.~ I U U R U R R R R R R R I I I U U U U U U U U U U U U U U U I I I I I I I I I I I I I I I I I I I I I I I I I I I I I I I I I I I I I I I P P P P P P P P P P P P P P P P P P P P P P P P P P P P P P K K K K P K K K L L K K K L W / +.+.o.o.o.+.X.] / ] ] [ ] q.X.! q.+.~ f.f.f.f.1.0.0.0.0.0.0.2.2.@.] / ~ ~ ~ ~ / ~ ~ =.#.7.7.7.7.4.8.0.0.0.0.0.0.0.0.0.0.0.0.0.0.0.0.",
"0.0.0.0.0.0.0.0.0.0.0.8.8.4.7.7.7.8.i.y.y.y.h./ / / / ] X.X.X.+.1.1.0.0.2.2.2.0.1.1.y.1.1.1.1.Q +.>.o./ X.:.:.:.:.o.Q _ X.] ] X.o.o.o.o.X.X.X.X.X.X.] ] ] X.X.X.X.] ] ] X.X.X.X.X.X.X.X.X.X.X.X.X.X.X.X.X.X.X.X.X.X.X.X.X.] ] ] ] ] ] ] ] ] ] ] ] ] ] ] _ _ ] _ ] ] _ ] _ _ ] ] ] ] ] ] ] ] ] ] ] ] ] _ _ _ _ _ _ _ _ _ _ _ _ _ _ / / / _ _ _ _ _ _ _ _ / / / / / _ _ _ _ _ ] ] +.+.+.+.o.o.] ] ~ [ [ [ [ y.X.! q.X.~ f.f.f.f.1.0.0.0.8.8.0.1.1.+.] / ! ! ! / ! ~ ~ =.#.7.7.7.7.4.8.0.0.0.0.0.0.0.0.0.0.0.0.0.0.0.0.",
"0.0.0.0.0.0.0.0.0.0.0.8.8.4.7.7.7.8.i.y.y.y.f./ / / / / o.o.o.+.=.2.0.0.0.0.2.0.1.1.y.1.1.1.1.Q o.>.X./ X.=.=.=.=.o.W / ] / / X.o.o.o.o.X.X.X.X.X.X.X.X.X.X.X.X.X.X.X.X.X.X.X.X.X.X.X.X.X.X.X.X.X.X.X.X.X.X.X.X.X.X.X.X.o.X.X.X.X.X.X.X.X.X.X.X.X.X.X.X.X.X.X.X.X.X.X.X.X.X.X.X.X.X.X.X.X.X.X.X.X.X.X.X.X.X.X.X.X.X.X.X.X.X.X.X.X.X.X.X.X.X.X.X.X.X.X.X.X.X.X.X.X.X.X.X.X.X.X.o.o.o.o.o.o.X.] ] / ] ] ] ] q.X.! q.X.~ f.f.f.f.1.0.0.0.0.0.0.2.2.=.] / ~ ~ ~ ! / ~ ~ =.#.7.7.7.7.4.8.0.0.0.0.0.0.0.0.0.0.0.0.0.0.0.0.",
"0.0.0.0.0.0.0.0.0.0.0.8.8.4.7.7.7.8.i.y.y.y.h.~ / / / ] X.X.X.+.1.1.0.0.2.2.2.0.1.1.y.1.1.1.1.Q o.>.o.Q X.=.=.=.=.] W / / / / / ] ] o.X.o.X.X.X.X.o.] ] X.o.X.X.X.X.X.o.X.X.X.X.X.X.X.o.o.o.o.o.o.o.X.o.o.X.o.o.o.o.o.X.o.o.X.X.X.o.X.X.o.o.o.X.X.X.X.o.X.X.X.o.o.o.o.o.X.X.o.o.+.+.X.X.o.X.o.o.o.o.o.o.X.X.o.X.X.o.o.o.o.o.X.X.X.X.X.X.X.X.X.X.X.X.X.X.X.X.X.X.X.o.o.o.o.X.o.o.o.o.o.o.X.] _ ` ! ] ] ] ] q.X.! q.+./ e.e.e.e.1.0.0.0.8.8.0.1.1.o.] / ! ! ! ~ ! ~ / =.#.7.7.7.7.4.8.0.0.0.0.0.0.0.0.0.0.0.0.0.0.0.0.",
"0.0.0.0.0.0.0.0.0.0.0.8.8.4.7.7.7.8.i.y.y.y.f./ / / / ] X.X.X.+.1.1.0.0.2.2.2.0.1.1.y.1.1.1.1.Q o.>.o.~ X.+.+.+.+.) U ! ~ ~ ~ / / / ] ] X.o.o.o.o.o.X.X.o.o.o.o.o.o.o.o.o.o.o.o.o.o.o.o.o.+.o.o.o.o.o.o.o.o.o.X.X.X.X.o.o.o.o.o.o.o.o.o.o.o.o.o.o.o.o.+.o.o.+.o.o.o.o.o.o.o.o.o.o.o.o.o.o.o.+.o.o.o.o.+.X.+.o.o.o.+.+.+.+.o.o.o.o.+.+.X.+.+.o.o.X.o.o.o.o.o.o.o.o.X.o.o.o.X.o.o.X.X.] ] ] / / / Q / / / / 9.X.! q.X./ e.e.e.e.1.0.0.0.8.8.0.1.1.o.] / ! ! ! ~ ! ~ / =.#.7.7.7.7.4.8.0.0.0.0.0.0.0.0.0.0.0.0.0.0.0.0.",
"0.0.0.0.0.0.0.0.0.0.0.8.8.4.7.7.7.8.i.q.q.q.h.~ / / / / o.o.o.+.=.2.0.0.0.0.2.0.1.1.y.1.1.-.-.W o.>.o./ X.o.o.o.o./ I W ! Q Q ! / / / / / / / / ] ] o.o.o.o.o.o.o.o.o.o.o.o.+.+.+.X.+.X.X.o.o.o.o.X.o.+.X.+.X.X.X.] ] o.X.o.X.X.X.+.X.X.X.o.X.X.X.X.o.X.+.+.X.X.o.o.o.X.+.o.X.X.o.o.X.X.o.X.+.X.X.o.X.X.o.X.X.o.X.+.+.+.+.X.X.o.X.X.X.+.+.+.o.o.o.o.o.o.o.+.o.o.o.o.o.o.o.o.] ` / / / / ! ~ ! ! W / / / / 4.] ! 9.X./ e.e.e.e.1.0.0.0.0.0.0.2.2.=.] / ~ ~ ~ ~ / / / =.#.7.7.7.7.4.8.0.0.0.0.0.0.0.0.0.0.0.0.0.0.0.0.",
"0.0.0.0.0.0.0.0.0.0.0.8.8.4.7.7.7.0.f.y.y.y.f./ ] / / ] X.X.X.+.1.1.0.0.2.2.2.0.1.1.y.1.1.-.-.Q o.1.o./ ] o.o.o.o.! I Q W Q Q Q ! ! / ~ / / / / / ] [ [ o.o.o.o.o.o.o.o.o.o.X.X.X.X.X.] ] X.X.] ] o.X.X.X.X.X.X.] ] ] ` X.X.X.X.X.X.X.X.X.X.X.X.X.X.X.X.X.X.X.X.X.X.X.X.X.X.X.X.X.X.X.X.X.X.X.X.X.X.X.X.` ] X.X.X.X.X.X.X.X.X.X.] ] ] X.+.+.X.] o.] [ [ o.@.+.+.o.[ ] ] ] ] ` / / / ! ! ! Q Q Q R W W W ! =._ ! y.X./ e.e.e.e.1.0.0.0.8.8.0.1.1.o.] / ! ! ~ / ~ ~ ~ =.#.7.7.7.7.4.8.0.0.0.0.0.0.0.0.0.0.0.0.0.0.0.0.",
"0.0.0.0.0.0.0.0.0.0.0.8.8.4.7.7.1.8.a.y.y.y.h.~ / / / / o.o.X.+.=.1.0.0.2.2.2.0.1.1.y.1.1.1.1.Q +.>.] ! / X.X.X.X.! J L P P P P P P I Y R R R R W W Q Q ! ! ! ! ! ! ! ! ! ! ! ! ! ! ~ ! ! ! ! ! ! ! ~ / / / / / / / / / / / / / / / / / / / / / / / / / / / / / / / _ / _ _ / / / / / / / / / / / / / / / / / _ / _ _ _ _ / / _ / / / ] _ _ ] ` ` ` ` ` ` ] ] ] ` ` / / / / / ! ! ! W W W W W W R R R W W %._ Q u.X./ e.e.e.e.1.0.0.0.0.0.4.2.2.+.] / ! ! ! ~ / ~ ~ =.#.7.7.7.7.4.8.0.0.0.0.0.0.0.0.0.0.0.0.0.0.0.0.",
"0.0.0.0.0.0.0.0.0.0.0.8.8.4.7.7.1.8.a.y.y.y.g.~ / / / ] o.o.X.+.=.1.0.0.2.2.2.0.1.1.y.1.1.1.1.Q +.>.] ! / X. .X.X.] [ -.-.-.-.1.1.1.7.8.0.r.r.r.t.r.4.4.X.X.X.X.X.X.X.o.X.X.X.X.] ] X.X.X.X.X.X.X.` o.R P P P P P P P I P P P P P P P P P P P P P P P P I I I I P P I P P P P P P P P P P P P P P P P P I I P P P I I I I I P I P P P I I I I I I I I I I I I I I P P P P I P L L L L L J J J J F R R R R %./ Q u.X./ e.e.e.e.1.0.0.0.0.0.0.2.2.+.] / ! ! ! ~ / ~ ~ =.#.7.7.7.7.4.8.0.0.0.0.0.0.0.0.0.0.0.0.0.0.0.0.",
"0.0.0.0.0.0.0.0.0.0.0.8.8.4.7.7.7.0.f.y.y.y.x./ / / / ] o.X.X.+.1.1.0.0.2.2.2.0.1.1.q.=.=.=.=.! o.>.] Q / / / / / y.u.y.u.h.h.g.h.h.x.x.c.n.n.n.n.m.m.m.m.m.m.m.m.m.m.m.m.m.Z.Z.C.Z.C.Z.C.C.C.C.C.C.C.Z.Z.C.Z.A.A.A.A.Z.A.S.G.H.H.G.G.G.G.H.G.G.G.G.H.D.B.B.C.C.C.C.C.Z.C.C.S.S.D.G.G.G.D.G.D.D.D.D.D.G.D.F.N.N.C.V.V.V.V.V.C.V.D.F.F.F.D.D.S.D.G.D.D.D.G.C.N.N.N.N.N.N.N.N.m.m.V.V.N.N.N.N.m.N.m.k.k.k.k.! ~ Q u.X.~ e.e.e.e.1.0.0.0.8.8.0.1.1.o.] / ! ! ! ~ ~ ~ ~ =.#.7.7.7.7.4.8.0.0.0.0.0.0.0.0.0.0.0.0.0.0.0.0.",
"0.0.0.0.0.0.0.0.0.0.0.2.2.0.1.1.1.0.d.y.y.y.g.~ / / / / o.o.o.+.=.2.0.0.0.0.2.0.1.1.q.=.=.=.=.Q o.>.] Q ~ ~ ~ ~ ~ W R R W I I W W W W Q Q Q Q Q ~ ~ / / / / / / _ / / / / / ~ ~ ~ ^ ~ ^ ^ ~ ~ ~ ~ Q ~ ^ ^ ~ Q ~ ~ ~ ~ ~ ^ ~ ^ Q Q ^ ^ ^ ^ ^ Q Q Q ^ ^ ^ ~ ~ ^ ^ / / / ^ ~ ~ ^ ^ ^ ^ ^ ^ ^ ^ ^ ^ ^ ^ ^ Q ~ ^ ~ / ~ / / / / / ~ / ^ ~ ~ ~ ~ ~ ~ ~ ~ / / / ~ / / / / / / / / ~ ^ Q W W W R I I I P I R Y R I ! / W u.X.~ e.e.e.e.>.0.0.0.0.0.0.2.2.=.] / ~ ~ ~ ! ~ ~ ~ #.#.7.7.7.7.4.8.0.0.0.0.0.0.0.0.0.0.0.0.0.0.0.0.",
"0.0.0.0.0.0.0.0.0.0.0.2.2.0.1.1.1.0.f.y.y.y.h./ / / / ] X.X.X.+.>.1.0.0.2.2.2.0.1.1.y.>.>.>.>.Q X.=.~ L I R R R R I I U W W W W Q Q Q Q Q ~ ! ! ~ / / / / / / / / / / / _ _ _ _ _ _ _ / / / / / / / / / / / / / / / / / / ] ] ] X.] ] ] ] _ _ _ ] ] ] ] ] ] ] ] ] ] ] ] ] X.X.X.X.X.X.X.X.X.X.X.X.X.X.X.X.X.X.X.X.X.X.X.X.X.X.X.X.o.o.X.o.o.o.X.o.X.X.X.o.o.X.X.X.X.] ] ] ] / / / / ! ! ! W W Q W Q Q Q Q ! / W p._ / e.e.e.e.>.0.0.0.2.2.0.1.1.o._ / ! ! ! ~ ! ! ! =.o.7.7.7.7.4.8.0.0.0.0.0.0.0.0.0.0.0.0.0.0.0.0.",
"0.0.0.0.0.0.0.0.0.0.0.2.2.0.1.1.1.0.d.y.y.y.f./ / / / / ] X.X.+.:.1.0.0.2.2.2.0.1.1.y.=.=.=.=.W ] o.y.y.g.h.h.h.h.h.h.y.q.y.y.y.y.y.y.i.g.g.g.g.g.g.l.g.l.l.l.l.l.l.g.i.0.0.0.0.0.r.0.i.i.i.i.i.i.i.i.i.i.i.i.i.i.i.i.i.i.;.:.:.:.:.:.:.:.:.:.:.:.:.:.:.:.:.:.:.:.:.:.:.X.W Q Q Q Q Q W Q Q Q W W W W Q W W Q Q Q W W W W W Q Q Q Q Q Q Q Q Q Q Q Q Q Q Q Q Q Q Q Q W W W W W W R R Y I I P P P P P P P P P I L g./ ~ q.q.q.q.>.0.0.0.2.2.0.1.1.o./ ! ! ! ! ! ! ! ! =.o.7.7.7.7.4.8.0.0.0.0.0.0.0.0.0.0.0.0.0.0.0.0.",
"0.0.0.0.0.0.0.0.0.0.0.2.2.0.1.1.1.0.d.0.0.0.g.! / / / / ] ] ] o.=.1.2.2.0.0.2.0.1.1.y.=.%.%.=.W ] o.>.0.q.q.q.q.q.y.y.a.g.h.h.z.g.g.h.x.z.h.h.h.z.z.h.h.h.z.x.x.x.h.z.N.b.b.b.b.m.m.x.c.x.x.x.x.x.c.n.n.n.x.m.m.m.m.m.x.M.C.m.m.m.C.c.c.m.m.c.v.m.m.m.m.m.m.M.N.N.N.N.A.A.A.M.M.m.m.m.N.m.M.C.m.m.m.m.N.A.C.B.Z.Z.Z.Z.Z.Z.C.A.A.A.A.A.A.F.F.F.F.F.N.N.N.N.N.B.B.m.B.A.A.A.N.m.N.n.n.n.n.n.N.m.n.m.m.m.m.m.m.N.N.f.] ~ e.e.e.e.>.0.0.0.2.2.0.=.=.o./ ! ! ! ! Q ! ! ! o.o.7.7.7.7.4.8.0.0.0.0.0.0.0.0.0.0.0.0.0.0.0.0.",
"0.0.0.0.0.0.0.0.0.0.0.2.2.0.1.1.1.0.i.y.y.y.y.~ / / ~ / ] ] ] o.=.=.2.2.0.0.2.0.1.1.y.#.#.#.#.W ` ] _ / / ] ] ] ] ` ] X._ / / / X.X.+.o.+.+.+.+.X.X.+.+.+.X.X.X.X.X.X.] ] X.] X.X.X.o.o.o.o.o.o.o.o.] ` X.X.X.] ] ] ] X.X.X.X.] ] X.o.X.X.X.X.X.X.X.X.X.X.X.X.] X.X.] / / / X.X.X.X.X.X.X.X.X.X.X.X.X.X./ / X.X. . . . . . ./ / ` ` ` / / / / / /  . . .X.X.X.X.X.X. . . .X.X.` ` ` ~ ~ ~ Q ^ ^ Q ^ ^ ^ ^ ^ Q ~ / X.Q u.u.u.u.>.0.0.2.0.0.1.=.=./ ~ Q W W W Q W Q Q +.o.7.7.7.7.4.8.0.0.0.0.0.0.0.0.0.0.0.0.0.0.0.0.",
"0.0.0.0.0.0.0.0.0.0.0.8.8.4.7.7.7.8.u.0.0.0.u.Q ! ! ! ! / / / ] o.=.=.=.1.1.0.0.1.1.y.o.o.o.o.P ! / ^ ~ ! Q Q Q Q Q Q Q ~ ~ ~ ~ / / / / / ~ ~ ~ ~ ~ / / / ~ ~ ~ ~ ~ ~ / / / / / _ _ _ / _ / / / / _ / / / / / / / / / / X.X._ / / ] _ _ _  ._ _ _ _  ._ _ _ _ ` ` / / ] ] X.X.X.X.X.X.X.X.X.X.X.X.X.X.X.] ] X.X.X.@.@.@.@.@.o.o.o.#.o.o.o.o.o.o.o.@.@.@.=.=.@.@.@.@.@.@.@.@.@.o.o.o.o.o.X.X.X.X.X.X.X.X.X._ ] ] _ X.Q u.u.u.u.>.0.0.2.0.0.1.o.o./ ! W W W W W W W W ] o.1.1.1.7.4.8.0.0.0.0.0.0.0.0.0.0.0.0.0.0.0.2.",
"0.0.0.0.0.0.0.0.0.0.0.8.8.4.7.7.7.8.t.0.0.0.q.W Q Q ! ! ~ ~ ~ / ] o.+.+.:.:.2.0.1.1.y.o.o.o.o.Q / / o.9.y.f.f.f.f.h.b.m.h.h.h.g.f.g.f.h.z.z.z.z.z.z.x.x.z.x.x.x.x.x.x.u.i.i.p.p.u.u.p.h.g.g.g.g.g.z.g.g.g.g.g.g.g.g.g.i.0.q.q.q.q.q.u.u.t.t.t.t.t.t.t.t.u.u.t.t.u.u.u.1.=.=.=.=.=.=.=.=.=.=.=.=.=.=.=.=.=.=.=.=.=.Q Q Q Q Q Q Q Q W W W Q Q Q Q Q Q Q Q Q Q Q Q Q Q Q Q Q Q Q Q Q Q Q Q Q Q Q W W W W W W W W R W W P y.y.y.y.>.0.2.0.1.1.=.] ] / Q W W W W R W W W ] ] 1.1.1.7.4.8.0.0.0.0.0.0.0.0.0.0.0.0.0.0.0.2.",
"0.0.0.0.0.0.0.0.0.0.0.8.8.4.7.7.7.1.y.0.0.0.q.W Q Q W ! ! ! ! / ] ] o.o.=.=.=.8.7.1.0.r.r.r.r.t.t.t.y.r.y.t.t.t.t.t.g.z.x.x.x.g.l.l.z.l.z.z.z.z.z.z.z.z.z.z.z.z.z.x.m.n.m.m.x.x.x.x.z.z.x.c.c.c.v.m.m.m.m.m.v.M.M.M.M.V.V.N.N.N.N.C.m.m.M.N.m.m.m.m.m.N.n.n.m.C.F.F.F.F.F.F.F.F.F.F.A.A.A.N.N.A.A.A.A.A.N.C.F.A.F.G.G.G.G.G.A.D.H.P.P.K.H.H.P.L.H.H.H.H.H.J.H.H.P.F.D.D.D.D.D.D.G.G.G.G.H.H.G.G.D.D.D.D.D.D.D.J.J.D.D.S.S.S.S.>.0.2.2.=.=.o.] ] ! W R I I I W R W W [ ] 1.1.1.8.4.8.0.0.0.0.0.0.0.0.0.0.0.0.0.0.0.2.",
"0.0.0.0.0.0.0.0.0.0.0.2.2.0.1.1.1.=.y.-.-.-.-.U R R W R W W W Q ! / / / ] ] =.=.1.8.2.2.2.2.2.1.1.2.1.1.1.2.1.1.1.0.2.1.1.1.1.2.2.2.2.2.2.2.2.2.1.1.2.2.2.2.2.2.2.2.1.1.:.:.1.1.1.1.1.1.1.1.1.1.2.2.:.1.1.1.2.1.1.1.2.1.>.:.:.:.:.1.2.1.1.:.1.1.1.1.1.1.1.1.1.:.=.=.=.#.#.#.#.#.#.#.=.#.=.=.=.=.=.=.=.#.=.=.=.=.=.#.#.#.#.#.#.#.@.@.@.@.+.+.o.o.o.o.o.o.+.;.:.;.@.:.:.:.:.:.:.:.:.:.:.:.@.:.;.X.+.X.X.X.X.X.+.X.o.+.+.>.>.>.>.4.2.2.=.+.+.] ~ ~ ! R I R R R I R R R / ` #.#.#.1.4.8.0.0.0.0.0.0.0.0.0.0.0.0.0.0.2.2.",
"0.0.0.0.0.0.0.0.0.0.0.2.2.0.1.1.1.+.0.=.=.=.9.I R R I R R R R W ! ! / / ] ] X.#.1.8.0.0.0.0.0.0.0.0.0.0.0.0.0.0.0.8.0.0.0.0.0.0.0.0.0.0.0.0.0.0.0.0.0.0.0.0.0.0.0.0.0.0.0.0.0.0.0.0.0.0.0.0.0.0.0.0.0.0.0.0.0.0.0.0.0.0.0.0.0.0.0.0.0.0.0.0.0.0.0.0.0.0.0.0.0.0.0.0.0.0.0.0.0.0.0.0.0.0.0.0.0.0.0.0.0.0.0.0.0.0.0.0.0.0.0.0.0.0.0.0.0.0.0.0.0.0.0.0.0.0.0.0.0.0.0.0.0.0.0.0.0.0.0.0.0.0.0.0.0.0.2.1.1.1.1.2.1.2.1.1.2.1.1.1.1.1.1.=.=.] ] / ! ! W I I I I I I I I I / / #.#.#.7.4.8.0.0.0.0.0.0.0.0.0.0.0.0.0.2.2.0.",
"2.8.2.0.0.0.0.2.2.0.2.2.2.0.1.1.=.o.9.=.=.=.%.I I I I I I I I R W Q ~ ~ / / ` o.=.1.2.2.2.2.2.2.2.0.2.0.0.8.8.8.8.0.0.0.0.0.0.0.0.0.0.4.0.0.0.0.2.0.0.0.0.0.2.2.2.0.0.2.0.0.0.0.0.0.2.0.0.2.2.2.2.0.8.2.0.2.0.0.0.0.0.2.0.8.8.0.0.2.0.0.0.2.0.8.8.8.8.0.2.2.0.0.2.2.2.0.2.2.0.0.2.2.8.8.2.0.2.2.2.2.2.0.2.8.8.2.0.2.2.2.2.2.0.2.0.0.0.2.0.0.2.2.8.2.2.2.2.4.2.2.0.2.2.2.2.0.2.4.4.4.2.2.4.2.2.4.2.4.4.4.4.8.1.2.1.1.2.1.1.1.1.1.=.o.o./ / ~ Q Q R I I P P P P I I I / / #.#.#.7.4.8.0.0.0.0.0.0.0.0.0.0.0.0.0.0.2.2.",
"8.4.0.2.2.2.2.0.0.2.0.2.2.0.1.1.o.X.7.o.o.o.%.P P P P P I I I I I W W W Q Q / / o.=.=.1.1.1.1.1.1.2.:.1.1.:.:.:.:.2.1.1.2.1.1.1.1.1.1.2.1.1.1.1.2.1.2.2.2.1.2.2.2.1.1.2.1.1.2.2.2.1.2.1.1.2.2.2.2.1.2.2.1.2.1.1.1.1.1.2.1.2.2.1.1.2.1.1.1.2.1.2.2.2.2.1.2.2.1.1.2.2.2.1.2.2.1.1.2.2.1.1.2.1.2.2.2.2.2.1.8.1.1.8.1.2.2.2.2.2.1.4.1.1.1.2.1.1.2.2.1.2.0.2.1.1.2.2.1.2.2.2.2.1.2.1.1.1.2.2.1.2.2.1.2.1.1.1.1.1.2.1.2.1.:.1.1.1.1.=.o.o./ / / ! W W R P P I I I P P I I ! / [ [ [ =.0.2.0.0.0.0.0.0.0.0.0.0.0.0.0.2.0.:.",
"2.8.1.0.0.0.0.2.2.0.1.2.2.1.=.=.o.] 1.#.#.#.-.P I I P I P P P I R R W W ! ! ! ] ] o.1.=.=.=.=.1.1.=.1.:.:.1.1.1.1.=.1.1.=.1.1.:.:.:.1.=.1.1.1.1.:.2.1.1.1.2.:.:.:.1.1.:.2.2.1.1.1.2.:.1.1.:.:.:.:.1.1.:.1.:.1.1.1.1.1.:.1.1.1.1.1.:.1.1.1.:.1.1.1.1.1.1.:.:.1.1.:.:.:.1.1.1.1.1.:.:.1.1.:.1.1.1.1.1.1.1.:.1.1.:.1.>.>.>.>.1.1.:.1.1.1.:.2.2.1.1.2.:.1.:.1.1.:.:.2.1.1.1.1.2.:.1.1.1.:.:.2.1.1.2.:.1.1.2.1.1.:.2.:.:.1.o.o.o.o.+.o./ ] ! ! W W W I I P P P P P I I I / ~ o.o.o.1.2.0.2.2.2.2.0.2.0.0.2.0.0.0.0.0.2.1.",
"1.1.1.1.1.1.1.1.1.1.1.1.1.:.=.=.X.` -.o.o.o.[ P P P P P P P P P I I R R W W Q ! / ] X.o.o.o.o.o.o.o.o.o.o.o.o.o.o.o.o.o.o.o.o.o.o.o.o.o.o.o.o.o.o.o.o.o.o.o.o.o.o.o.o.o.o.o.o.o.o.o.o.o.o.o.o.o.o.o.o.o.o.o.o.o.o.o.o.+.o.o.o.o.o.o.o.o.o.o.o.o.o.o.o.o.o.o.o.o.o.o.o.o.o.o.o.o.o.o.o.o.o.o.o.o.o.o.o.o.o.o.o.o.o.o.o.o.o.o.o.o.o.o.o.o.o.o.o.o.o.o.+.o.o.o.+.+.o.o.o.o.o.o.o.o.o.o.o.o.o.o.o.o.o.o.o.o.o.o.o.o.o.o.X.] ] ] ] / / ~ ! W W R I I I P L P P P L P I I ! ! ] ] ] +.1.1.2.2.2.2.1.0.2.2.0.1.1.1.1.2.1.o.",
"=.#.=.+.+.+.+.=.=.+.=.=.=.+.o.o.] / =.] ] ] &.L P P P L P P P P P I I I R R W W ! / / ] ] ] ] ] ] ] ` ] ] ` ` ` ` ] ] ] ] ] ] ] ] ] ] ] ] ] ] ] ] ] ] ] ] ] ] ] ] ] ] ] ] ] ] ] ] ] ] ] ] ] ] ] ] ` ] ] ` ] ` ` ` ` ` ] / ] ] / / ] _ _ _ ] / ] ] ] ] / ] ] / / ] ] ] / ] ] / / ] ] / / ] / ] ] ] ] ] / ] / / ` / ` ` ` ` ` / ` / / / ` / / ` ` / ` ] ] ] / / ] _ / ] / / / / / ] ` ] _ / / / / _ / _ / / / _ / _ / / / / / / ! ! Q W R R I I I P L L P P P L P P P ! ! / / / o.=.=.1.1.1.1.=.1.:.:.1.=.=.=.=.=.=.X.",
"X.] ] X.X.X.X.] ] o.] X.X.X./ / / ! %.o.o.o.] K L L J L L L L L P L P P I I I W W W ! Q Q Q Q ~ ~ Q / ~ ~ / / / / ! / / ! / / ~ ~ ~ / ! / / / / ! / / / / / ~ ~ ~ / / ~ / / ~ ~ ~ / ~ / / ~ ~ ~ ~ / / / / ~ / / / / / ~ / / / / / / / / / ~ / / / / / / / / / / / / / / / / / / ~ ~ / / / ] / / / / / ] / / / / ` / / / / / ` / / / / ~ / / / / / ~ ~ ~ / / ~ / ] / / / / / ~ / / / ~ ~ / / / / ~ / / / / / ~ / / / / ! ! ! ! ! Q W W R R I I I P P P P P P P P I I ! W / / / ] o.=.o.o.o.o.=.o.#.=.o.=.=.=.=.o.o.X."
};
