/* XPM */
static char *_2714d79b7cd49529aca8fb5f5da4cb0WHgknq33UEnAAdCg[] = {
/* columns rows colors chars-per-pixel */
"558 765 226 2 ",
"   c #1E190D",
".  c #221D0E",
"X  c #221E10",
"o  c #262111",
"O  c #2B2513",
"+  c #2E2815",
"@  c #322A16",
"#  c #352C19",
"$  c #392E1A",
"%  c #302615",
"&  c #3C321C",
"*  c #37301A",
"=  c #1D232D",
"-  c #1F2531",
";  c #222936",
":  c #222A38",
">  c #222734",
",  c #3B3934",
"<  c #3D3C3B",
"1  c #3C3629",
"2  c #41361E",
"3  c #44391E",
"4  c #453921",
"5  c #4B3D22",
"6  c #423823",
"7  c #423E37",
"8  c #42413E",
"9  c #4A443A",
"0  c #51472B",
"q  c #6A5A2A",
"w  c #73642E",
"e  c #3B3E48",
"r  c #454543",
"t  c #494946",
"y  c #41454C",
"u  c #4D4D4B",
"i  c #494745",
"p  c #504F4D",
"a  c #524D44",
"s  c #51514F",
"d  c #585448",
"f  c #4B4E54",
"g  c #555452",
"h  c #585756",
"j  c #575855",
"k  c #595956",
"l  c #55575A",
"z  c #55585A",
"x  c #5D5C5B",
"c  c #5A5758",
"v  c #4F504D",
"b  c #605F5E",
"n  c #625E55",
"m  c #635B47",
"M  c #5F605D",
"N  c #61615E",
"B  c #69675F",
"V  c #7A6B4F",
"C  c #656463",
"Z  c #686766",
"A  c #676865",
"S  c #696967",
"D  c #6C6C6A",
"F  c #6A6768",
"G  c #706F6E",
"H  c #6F706D",
"J  c #71716E",
"K  c #71716E",
"L  c #77766B",
"P  c #757572",
"I  c #757472",
"U  c #787776",
"Y  c #777874",
"T  c #797A77",
"R  c #797977",
"E  c #767678",
"W  c #777878",
"Q  c #7E7E7C",
"!  c #7D7C7A",
"~  c #797778",
"^  c #726F70",
"/  c #625F60",
"(  c #8D7838",
")  c #807F7E",
"_  c #817F75",
"`  c #827B69",
"'  c #8C7B51",
"]  c #7F807D",
"[  c #81827E",
"{  c #81817F",
"}  c #8A897E",
"|  c #838278",
" . c #8D8067",
".. c #838380",
"X. c #838581",
"o. c #838681",
"O. c #848481",
"+. c #848482",
"@. c #848782",
"#. c #868683",
"$. c #848681",
"%. c #858582",
"&. c #888786",
"*. c #878884",
"=. c #898A86",
"-. c #8C8D8A",
";. c #898788",
":. c #918F8D",
">. c #908E83",
",. c #8F908C",
"<. c #8F9087",
"1. c #929186",
"2. c #92928D",
"3. c #9A998E",
"4. c #97988E",
"5. c #959592",
"6. c #989694",
"7. c #979892",
"8. c #9B9A94",
"9. c #9D9D9B",
"0. c #A09F95",
"q. c #A09E9D",
"w. c #9FA09C",
"e. c #9EA095",
"r. c #A1A195",
"t. c #A2A29C",
"y. c #A8A69D",
"u. c #AAAA9E",
"i. c #A8A897",
"p. c #B1B19D",
"a. c #A6A591",
"s. c #A3A3A1",
"d. c #A9A7A1",
"f. c #ACACA3",
"g. c #AEAEAB",
"h. c #A7A8A2",
"j. c #B0AEA5",
"k. c #B0AFAB",
"l. c #AFB0A4",
"z. c #AFB0AD",
"x. c #B2B2A5",
"c. c #BAB9A6",
"v. c #B4B3AB",
"b. c #B9B6AC",
"n. c #BBBBAD",
"m. c #B8B8A9",
"M. c #B4B4B3",
"N. c #BCBCB3",
"B. c #BDBDBB",
"V. c #B8B7B5",
"C. c #C0BFAD",
"Z. c #C0BEB3",
"A. c #C0BFBC",
"S. c #BFC0B4",
"D. c #BFC0BE",
"F. c #C3C2AD",
"G. c #C9C8AF",
"H. c #C4C3B4",
"J. c #C8C7B5",
"K. c #C7C8B6",
"L. c #CBCBB5",
"P. c #C4C3BC",
"I. c #C8C6BA",
"U. c #CCCCBB",
"Y. c #C7C8BB",
"T. c #D0CFBC",
"R. c #CFD0B9",
"E. c #D4D3BD",
"W. c #D6D7BC",
"Q. c #C5C5C4",
"!. c #C8C7C3",
"~. c #C7C8C5",
"^. c #CBCBC4",
"/. c #CDCDCB",
"(. c #D1CEC1",
"). c #D4D4C3",
"_. c #D8D6C1",
"`. c #DBDBC4",
"'. c #D2D2CD",
"]. c #D8D7CC",
"[. c #DDDDCA",
"{. c #D7D9C6",
"}. c #D5D5D4",
"|. c #D8D7D5",
" X c #DBDBD3",
".X c #DCDCDB",
"XX c #D7D8D3",
"oX c #CFD0C5",
"OX c #E1DFC7",
"+X c #E1DFCB",
"@X c #E0DFDE",
"#X c #E2DFD2",
"$X c #DFE0CB",
"%X c #DFE0C5",
"&X c #DFE0D4",
"*X c #E2E2C5",
"=X c #E4E3CC",
"-X c #E9E6CD",
";X c #EAEACE",
":X c #E7E8CC",
">X c #E3E3D2",
",X c #EDECD2",
"<X c #E4E5DB",
"1X c #EAEADE",
"2X c #E8E7D4",
"3X c #F1EFD3",
"4X c #EFF0D3",
"5X c #F3F2D5",
"6X c #F4F4DB",
"7X c #F8F6D9",
"8X c #FDFCDC",
"9X c #F8F7D7",
"0X c #EEF0CF",
"qX c #E5E5E4",
"wX c #E7E8E7",
"eX c #E8E8E6",
"rX c #EAE9E9",
"tX c #E8E7E7",
"yX c #F3F3E3",
"uX c #FFFFE3",
"iX c #F2F2ED",
"pX c #FFFFEB",
"aX c #F3F3F3",
"sX c #FFFFF4",
"dX c #FFFFFE",
"fX c #F0EDE1",
/* pixels */
"2.#.#.#.#.#.#.#.#.#.#.#.#.#.#.#.#.#.#.#.#.#.#.#.#.#.#.#.#.#.#.#.#.#.#.#.#.#.#.#.#.#.#.#.#.#.#.#.#.#.#.#.#.#.#.#.#.#.#.#.#.#.#.#.#.#.#.#.#.#.#.#.#.#.#.#.#.#.#.#.#.#.#.#.#.#.#.#.#.#.#.#.#.#.#.#.#.#.#.#.#.#.#.#.#.#.#.#.#.#.#.#.#.#.#.#.#.#.#.#.#.#.#.#.#.#.#.#.#.#.#.#.#.#.#.#.#.#.#.#.#.#.#.#.#.#.#.#.#.#.#.#.#.#.#.#.#.#.#.#.#.#.#.#.#.#.#.#.#.#.#.#.#.#.#.#.#.#.#.#.#.#.#.#.#.#.#.#.#.#.#.#.#.#.#.#.#.#.#.#.#.#.#.#.#.#.#.#.#.#.#.#.#.#.#.#.#.#.#.#.#.#.#.#.#.#.#.#.#.#.#.#.#.#.#.#.#.#.#.#.#.#.#.#.#.#.#.#.#.#.#.#.#.#.#.#.#.#.#.#.#.#.#.#.#.#.#.#.#.#.#.#.#.#.#.#.#.#.#.#.#.#.#.#.#.#.#.#.#.#.#.#.#.#.#.#.#.#.#.#.#.#.#.#.#.#.#.#.#.#.#.#.#.#.#.#.#.#.#.#.#.#.#.#.#.#.#.#.#.#.#.#.#.#.#.#.#.#.#.#.#.#.#.#.#.#.#.#.#.#.#.#.#.#.#.#.#.#.#.#.#.#.#.#.#.#.#.#.#.#.#.#.#.#.#.#.#.#.#.#.#.#.#.#.#.#.#.#.#.#.#.#.#.#.#.#.#.#.#.#.#.#.#.#.#.#.#.#.#.#.#.#.#.#.#.#.#.#.#.#.#.#.#.#.#.#.#.#.#.#.#.#.#.#.#.#.#.#.#.#.#.#.#.#.#.#.#.#.#.#.#.#.#.#.#.#.#.#.#.#.#.#.#.#.#.#.#.#.#.#.#.#.#.#.#.#.#.#.#.#.#.#.#.#.#.#.#.#.#.#.#.#.#.#.#.#.#.#.#.#.#.#.#.#.#.#.#.#.#.#.#.#.#.#.#.#.#.#.#.#.#.#.#.#.#.#.#.#.#.#.#.#.#.#.#.#.#.#.#.#.#.#.#.#.#.#.#.#.#.#.#.#.#.#.#.#.x : ",
"2.#.#.#.#.#.#.#.#.#.#.#.#.#.#.#.#.#.#.#.#.#.#.#.#.#.#.#.#.#.#.#.#.#.#.#.#.#.#.#.#.#.#.#.#.#.#.#.#.#.#.#.#.#.#.#.#.#.#.#.#.#.#.#.#.#.#.#.#.#.#.#.#.#.#.#.#.#.#.#.#.#.#.#.#.#.#.#.#.#.#.#.#.#.#.#.#.#.#.#.#.#.#.#.#.#.#.#.#.#.#.#.#.#.#.#.#.#.#.#.#.#.#.#.#.#.#.#.#.#.#.#.#.#.#.#.#.#.#.#.#.#.#.#.#.#.#.#.#.#.#.#.#.#.#.#.#.#.#.#.#.#.#.#.#.#.#.#.#.#.#.#.#.#.#.#.#.#.#.#.#.#.#.#.#.#.#.#.#.#.#.#.#.#.#.#.#.#.#.#.#.#.#.#.#.#.#.#.#.#.#.#.#.#.#.#.#.#.#.#.#.#.#.#.#.#.#.#.#.#.#.#.#.#.#.#.#.#.#.#.#.#.#.#.#.#.#.#.#.#.#.#.#.#.#.#.#.#.#.#.#.#.#.#.#.#.#.#.#.#.#.#.#.#.#.#.#.#.#.#.#.#.#.#.#.#.#.#.#.#.#.#.#.#.#.#.#.#.#.#.#.#.#.#.#.#.#.#.#.#.#.#.#.#.#.#.#.#.#.#.#.#.#.#.#.#.#.#.#.#.#.#.#.#.#.#.#.#.#.#.#.#.#.#.#.#.#.#.#.#.#.#.#.#.#.#.#.#.#.#.#.#.#.#.#.#.#.#.#.#.#.#.#.#.#.#.#.#.#.#.#.#.#.#.#.#.#.#.#.#.#.#.#.#.#.#.#.#.#.#.#.#.#.#.#.#.#.#.#.#.#.#.#.#.#.#.#.#.#.#.#.#.#.#.#.#.#.#.#.#.#.#.#.#.#.#.#.#.#.#.#.#.#.#.#.#.#.#.#.#.#.#.#.#.#.#.#.#.#.#.#.#.#.#.#.#.#.#.#.#.#.#.#.#.#.#.#.#.#.#.#.#.#.#.#.#.#.#.#.#.#.#.#.#.#.#.#.#.#.#.#.#.#.#.#.#.#.#.#.#.#.#.#.#.#.#.#.#.#.#.#.#.#.#.#.#.#.#.#.#.#.#.#.#.#.#.#.#.#.#.#.#.#.#.#.#.#.#.#.#.#.#.#.#.#.#.x : ",
"2.#.#.#.#.#.#.#.#.#.#.#.#.#.#.#.#.#.#.#.#.#.#.#.#.#.#.#.#.#.#.#.#.#.#.#.#.#.#.#.#.#.#.#.#.#.#.#.#.#.#.#.#.#.#.#.#.#.#.#.#.#.#.#.#.#.#.#.#.#.#.#.#.#.#.#.#.#.#.#.#.#.#.#.#.#.#.#.#.#.#.#.#.#.#.#.#.#.#.#.#.#.#.#.#.#.#.#.#.#.#.#.#.#.#.#.#.#.#.#.#.#.#.#.#.#.#.#.#.#.#.#.#.#.#.#.#.#.#.#.#.#.#.#.#.#.#.#.#.#.#.#.#.#.#.#.#.#.#.#.#.#.#.#.#.#.#.#.#.#.#.#.#.#.#.#.#.#.#.#.#.#.#.#.#.#.#.#.#.#.#.#.#.#.#.#.#.#.#.#.#.#.#.#.#.#.#.#.#.#.#.#.#.#.#.#.#.#.#.#.#.#.#.#.#.#.#.#.#.#.#.#.#.#.#.#.#.#.#.#.#.#.#.#.#.#.#.#.#.#.#.#.#.#.#.#.#.#.#.#.#.#.#.#.#.#.#.#.#.#.#.#.#.#.#.#.#.#.#.#.#.#.#.#.#.#.#.#.#.#.#.#.#.#.#.#.#.#.#.#.#.#.#.#.#.#.#.#.#.#.#.#.#.#.#.#.#.#.#.#.#.#.#.#.#.#.#.#.#.#.#.#.#.#.#.#.#.#.#.#.#.#.#.#.#.#.#.#.#.#.#.#.#.#.#.#.#.#.#.#.#.#.#.#.#.#.#.#.#.#.#.#.#.#.#.#.#.#.#.#.#.#.#.#.#.#.#.#.#.#.#.#.#.#.#.#.#.#.#.#.#.#.#.#.#.#.#.#.#.#.#.#.#.#.#.#.#.#.#.#.#.#.#.#.#.#.#.#.#.#.#.#.#.#.#.#.#.#.#.#.#.#.#.#.#.#.#.#.#.#.#.#.#.#.#.#.#.#.#.#.#.#.#.#.#.#.#.#.#.#.#.#.#.#.#.#.#.#.#.#.#.#.#.#.#.#.#.#.#.#.#.#.#.#.#.#.#.#.#.#.#.#.#.#.#.#.#.#.#.#.#.#.#.#.#.#.#.#.#.#.#.#.#.#.#.#.#.#.#.#.#.#.#.#.#.#.#.#.#.#.#.#.#.#.#.#.#.#.#.#.#.#.#.#.#.#.A : ",
"2.#.#.#.#.#.#.#.#.#.#.#.#.#.#.#.#.#.#.#.#.#.#.#.#.#.#.#.#.#.#.#.#.#.#.#.#.#.#.#.#.#.#.#.#.#.#.#.#.#.#.#.#.#.#.#.#.#.#.#.#.#.#.#.#.#.#.#.#.#.#.#.#.#.#.#.#.#.#.#.#.#.#.#.#.#.#.#.#.#.#.#.#.#.#.#.#.#.#.#.#.#.#.#.#.#.#.#.#.#.#.#.#.#.#.#.#.#.#.#.#.#.#.#.#.#.#.#.#.#.#.#.#.#.#.#.#.#.#.#.#.#.#.#.#.#.#.#.#.#.#.#.#.#.#.#.#.#.#.#.#.#.#.#.#.#.#.#.#.#.#.#.#.#.#.#.#.#.#.#.#.#.#.#.#.#.#.#.#.#.#.#.#.#.#.#.#.#.#.#.#.#.#.#.#.#.#.#.#.#.#.#.#.#.#.#.#.#.#.#.#.#.#.#.#.#.#.#.#.#.#.#.#.#.#.#.#.#.#.#.#.#.#.#.#.#.#.#.#.#.#.#.#.#.#.#.#.#.#.#.#.#.#.#.#.#.#.#.#.#.#.#.#.#.#.#.#.#.#.#.#.#.#.#.#.#.#.#.#.#.#.#.#.#.#.#.#.#.#.#.#.#.#.#.#.#.#.#.#.#.#.#.#.#.#.#.#.#.#.#.#.#.#.#.#.#.#.#.#.#.#.#.#.#.#.#.#.#.#.#.#.#.#.#.#.#.#.#.#.#.#.#.#.#.#.#.#.#.#.#.#.#.#.#.#.#.#.#.#.#.#.#.#.#.#.#.#.#.#.#.#.#.#.#.#.#.#.#.#.#.#.#.#.#.#.#.#.#.#.#.#.#.#.#.#.#.#.#.#.#.#.#.#.#.#.#.#.#.#.#.#.#.#.#.#.#.#.#.#.#.#.#.#.#.#.#.#.#.#.#.#.#.#.#.#.#.#.#.#.#.#.#.#.#.#.#.#.#.#.#.#.#.#.#.#.#.#.#.#.#.#.#.#.#.#.#.#.#.#.#.#.#.#.#.#.#.#.#.#.#.#.#.#.#.#.#.#.#.#.#.#.#.#.#.#.#.#.#.#.#.#.#.#.#.#.#.#.#.#.#.#.#.#.#.#.#.#.#.#.#.#.#.#.#.#.#.#.#.#.#.#.#.#.#.#.#.#.#.#.#.#.#.#.#.#.#.A : ",
"2.#.#.#.#.#.#.#.#.#.#.#.#.#.#.#.#.#.#.#.#.#.#.#.#.#.#.#.#.#.#.#.#.#.#.#.#.#.#.#.#.#.#.#.#.#.#.#.#.#.#.#.#.#.#.#.#.#.#.#.#.#.#.#.#.#.#.#.#.#.#.#.#.#.#.#.#.#.#.#.#.#.#.#.#.#.#.#.#.#.#.#.#.#.#.#.#.#.#.#.#.#.#.#.#.#.#.#.#.#.#.#.#.#.#.#.#.#.#.#.#.#.#.#.#.#.#.#.#.#.#.#.#.#.#.#.#.#.#.#.#.#.#.#.#.#.#.#.#.#.#.#.#.#.#.#.#.#.#.#.#.#.#.#.#.#.#.#.#.#.#.#.#.#.#.#.#.#.#.#.#.#.#.#.#.#.#.#.#.#.#.#.#.#.#.#.#.#.#.#.#.#.#.#.#.#.#.#.#.#.#.#.#.#.#.#.#.#.#.#.#.#.#.#.#.#.#.#.#.#.#.#.#.#.#.#.#.#.#.#.#.#.#.#.#.#.#.#.#.#.#.#.#.#.#.#.#.#.#.#.#.#.#.#.#.#.#.#.#.#.#.#.#.#.#.#.#.#.#.#.#.#.#.#.#.#.#.#.#.#.#.#.#.#.#.#.#.#.#.#.#.#.#.#.#.#.#.#.#.#.#.#.#.#.#.#.#.#.#.#.#.#.#.#.#.#.#.#.#.#.#.#.#.#.#.#.#.#.#.#.#.#.#.#.#.#.#.#.#.#.#.#.#.#.#.#.#.#.#.#.#.#.#.#.#.#.#.#.#.#.#.#.#.#.#.#.#.#.#.#.#.#.#.#.#.#.#.#.#.#.#.#.#.#.#.#.#.#.#.#.#.#.#.#.#.#.#.#.#.#.#.#.#.#.#.#.#.#.#.#.#.#.#.#.#.#.#.#.#.#.#.#.#.#.#.#.#.#.#.#.#.#.#.#.#.#.#.#.#.#.#.#.#.#.#.#.#.#.#.#.#.#.#.#.#.#.#.#.#.#.#.#.#.#.#.#.#.#.#.#.#.#.#.#.#.#.#.#.#.#.#.#.#.#.#.#.#.#.#.#.#.#.#.#.#.#.#.#.#.#.#.#.#.#.#.#.#.#.#.#.#.#.#.#.#.#.#.#.#.#.#.#.#.#.#.#.#.#.#.#.#.#.#.#.#.#.#.#.#.#.#.#.#.#.#.#.A : ",
"2.#.#.#.#.#.#.#.#.#.#.#.#.#.#.#.#.#.#.#.#.#.#.#.#.#.#.#.#.#.#.#.#.#.#.#.#.#.#.#.#.#.#.#.#.#.#.#.#.#.#.#.#.#.#.#.#.#.#.#.#.#.#.#.#.#.#.#.#.#.#.#.#.#.#.#.#.#.#.#.#.#.#.#.#.#.#.#.#.#.#.#.#.#.#.#.#.#.#.#.#.#.#.#.#.#.#.#.#.#.#.#.#.#.#.#.#.#.#.#.#.#.#.#.#.#.#.#.#.#.#.#.#.#.#.#.#.#.#.#.#.#.#.#.#.#.#.#.#.#.#.#.#.#.#.#.#.#.#.#.#.#.#.#.#.#.#.#.#.#.#.#.#.#.#.#.#.#.#.#.#.#.#.#.#.#.#.#.#.#.#.#.#.#.#.#.#.#.#.#.#.#.#.#.#.#.#.#.#.#.#.#.#.#.#.#.#.#.#.#.#.#.#.#.#.#.#.#.#.#.#.#.#.#.#.#.#.#.#.#.#.#.#.#.#.#.#.#.#.#.#.#.#.#.#.#.#.#.#.#.#.#.#.#.#.#.#.#.#.#.#.#.#.#.#.#.#.#.#.#.#.#.#.#.#.#.#.#.#.#.#.#.#.#.#.#.#.#.#.#.#.#.#.#.#.#.#.#.#.#.#.#.#.#.#.#.#.#.#.#.#.#.#.#.#.#.#.#.#.#.#.#.#.#.#.#.#.#.#.#.#.#.#.#.#.#.#.#.#.#.#.#.#.#.#.#.#.#.#.#.#.#.#.#.#.#.#.#.#.#.#.#.#.#.#.#.#.#.#.#.#.#.#.#.#.#.#.#.#.#.#.#.#.#.#.#.#.#.#.#.#.#.#.#.#.#.#.#.#.#.#.#.#.#.#.#.#.#.#.#.#.#.#.#.#.#.#.#.#.#.#.#.#.#.#.#.#.#.#.#.#.#.#.#.#.#.#.#.#.#.#.#.#.#.#.#.#.#.#.#.#.#.#.#.#.#.#.#.#.#.#.#.#.#.#.#.#.#.#.#.#.#.#.#.#.#.#.#.#.#.#.#.#.#.#.#.#.#.#.#.#.#.#.#.#.#.#.#.#.#.#.#.#.#.#.#.#.#.#.#.#.#.#.#.#.#.#.#.#.#.#.#.#.#.#.#.#.#.#.#.#.#.#.#.#.#.#.#.#.#.#.#.#.#.#.#.A : ",
"2.#.#.#.#.#.#.#.#.#.#.#.#.#.#.#.#.#.#.#.#.#.#.#.#.#.#.#.#.#.#.#.#.#.#.#.#.#.#.#.#.#.#.#.#.#.#.#.#.#.#.#.#.#.#.#.#.#.#.#.#.#.#.#.#.#.#.#.#.#.#.#.#.#.#.#.#.#.#.#.#.#.#.#.#.#.#.#.#.#.#.#.#.#.#.#.#.#.#.#.#.#.#.#.#.#.#.#.#.#.#.#.#.#.#.#.#.#.#.#.#.#.#.#.#.#.#.#.#.#.#.#.#.#.#.#.#.#.#.#.#.#.#.#.#.#.#.#.#.#.#.#.#.#.#.#.#.#.#.#.#.#.#.#.#.#.#.#.#.#.#.#.#.#.#.#.#.#.#.#.#.#.#.#.#.#.#.#.#.#.#.#.#.#.#.#.#.#.#.#.#.#.#.#.#.#.#.#.#.#.#.#.#.#.#.#.#.#.#.#.#.#.#.#.#.#.#.#.#.#.#.#.#.#.#.#.#.#.#.#.#.#.#.#.#.#.#.#.#.#.#.#.#.#.#.#.#.#.#.#.#.#.#.#.#.#.#.#.#.#.#.#.#.#.#.#.#.#.#.#.#.#.#.#.#.#.#.#.#.#.#.#.#.#.#.#.#.#.#.#.#.#.#.#.#.#.#.#.#.#.#.#.#.#.#.#.#.#.#.#.#.#.#.#.#.#.#.#.#.#.#.#.#.#.#.#.#.#.#.#.#.#.#.#.#.#.#.#.#.#.#.#.#.#.#.#.#.#.#.#.#.#.#.#.#.#.#.#.#.#.#.#.#.#.#.#.#.#.#.#.#.#.#.#.#.#.#.#.#.#.#.#.#.#.#.#.#.#.#.#.#.#.#.#.#.#.#.#.#.#.#.#.#.#.#.#.#.#.#.#.#.#.#.#.#.#.#.#.#.#.#.#.#.#.#.#.#.#.#.#.#.#.#.#.#.#.#.#.#.#.#.#.#.#.#.#.#.#.#.#.#.#.#.#.#.#.#.#.#.#.#.#.#.#.#.#.#.#.#.#.#.#.#.#.#.#.#.#.#.#.#.#.#.#.#.#.#.#.#.#.#.#.#.#.#.#.#.#.#.#.#.#.#.#.#.#.#.#.#.#.#.#.#.#.#.#.#.#.#.#.#.#.#.#.#.#.#.#.#.#.#.#.#.#.#.#.#.#.#.#.#.#.#.#.#.#.A : ",
"2.#.#.#.#.#.#.#.#.#.#.#.#.#.#.#.#.#.#.#.#.#.#.#.#.#.#.#.#.#.#.#.#.#.#.#.#.#.#.#.#.#.#.#.#.#.#.#.#.#.#.#.#.#.#.#.#.#.#.#.#.#.#.#.#.#.#.#.#.#.#.#.#.#.#.#.#.#.#.#.#.#.#.#.#.#.#.#.#.#.#.#.#.#.#.#.#.#.#.#.#.#.#.#.#.#.#.#.#.#.#.#.#.#.#.#.#.#.#.#.#.#.#.#.#.#.#.#.#.#.#.#.#.#.#.#.#.#.#.#.#.#.#.#.#.#.#.#.#.#.#.#.#.#.#.#.#.#.#.#.#.#.#.#.#.#.#.#.#.#.#.#.#.#.#.#.#.#.#.#.#.#.#.#.#.#.#.#.#.#.#.#.#.#.#.#.#.#.#.#.#.#.#.#.#.#.#.#.#.#.#.#.#.#.#.#.#.#.#.#.#.#.#.#.#.#.#.#.#.#.#.#.#.#.#.#.#.#.#.#.#.#.#.#.#.#.#.#.#.#.#.#.#.#.#.#.#.#.#.#.#.#.#.#.#.#.#.#.#.#.#.#.#.#.#.#.#.#.#.#.#.#.#.#.#.#.#.#.#.#.#.#.#.#.#.#.#.#.#.#.#.#.#.#.#.#.#.#.#.#.#.#.#.#.#.#.#.#.#.#.#.#.#.#.#.#.#.#.#.#.#.#.#.#.#.#.#.#.#.#.#.#.#.#.#.#.#.#.#.#.#.#.#.#.#.#.#.#.#.#.#.#.#.#.#.#.#.#.#.#.#.#.#.#.#.#.#.#.#.#.#.#.#.#.#.#.#.#.#.#.#.#.#.#.#.#.#.#.#.#.#.#.#.#.#.#.#.#.#.#.#.#.#.#.#.#.#.#.#.#.#.#.#.#.#.#.#.#.#.#.#.#.#.#.#.#.#.#.#.#.#.#.#.#.#.#.#.#.#.#.#.#.#.#.#.#.#.#.#.#.#.#.#.#.#.#.#.#.#.#.#.#.#.#.#.#.#.#.#.#.#.#.#.#.#.#.#.#.#.#.#.#.#.#.#.#.#.#.#.#.#.#.#.#.#.#.#.#.#.#.#.#.#.#.#.#.#.#.#.#.#.#.#.#.#.#.#.#.#.#.#.#.#.#.#.#.#.#.#.#.#.#.#.#.#.#.#.#.#.#.#.#.#.#.#.#.A : ",
"2.#.#.#.#.#.#.#.#.#.#.#.#.#.#.#.#.#.#.#.#.#.#.#.#.#.#.#.#.#.#.#.#.#.#.#.#.#.#.#.#.#.#.#.#.#.#.#.#.#.#.#.#.#.#.#.#.#.#.#.#.#.#.#.#.#.#.#.#.#.#.#.#.#.#.#.#.#.#.#.#.#.#.#.#.#.#.#.#.#.#.#.#.#.#.#.#.#.#.#.#.#.#.#.#.#.#.#.#.#.#.#.#.#.#.#.#.#.#.#.#.#.#.#.#.#.#.#.#.#.#.#.#.#.#.#.#.#.#.#.#.#.#.#.#.#.#.#.#.#.#.#.#.#.#.#.#.#.#.#.#.#.#.#.#.#.#.#.#.#.#.#.#.#.#.#.#.#.#.#.#.#.#.#.#.#.#.#.#.#.#.#.#.#.#.#.#.#.#.#.#.#.#.#.#.#.#.#.#.#.#.#.#.#.#.#.#.#.#.#.#.#.#.#.#.#.#.#.#.#.#.#.#.#.#.#.#.#.#.#.#.#.#.#.#.#.#.#.#.#.#.#.#.#.#.#.#.#.#.#.#.#.#.#.#.#.#.#.#.#.#.#.#.#.#.#.#.#.#.#.#.#.#.#.#.#.#.#.#.#.#.#.#.#.#.#.#.#.#.#.#.#.#.#.#.#.#.#.#.#.#.#.#.#.#.#.#.#.#.#.#.#.#.#.#.#.#.#.#.#.#.#.#.#.#.#.#.#.#.#.#.#.#.#.#.#.#.#.#.#.#.#.#.#.#.#.#.#.#.#.#.#.#.#.#.#.#.#.#.#.#.#.#.#.#.#.#.#.#.#.#.#.#.#.#.#.#.#.#.#.#.#.#.#.#.#.#.#.#.#.#.#.#.#.#.#.#.#.#.#.#.#.#.#.#.#.#.#.#.#.#.#.#.#.#.#.#.#.#.#.#.#.#.#.#.#.#.#.#.#.#.#.#.#.#.#.#.#.#.#.#.#.#.#.#.#.#.#.#.#.#.#.#.#.#.#.#.#.#.#.#.#.#.#.#.#.#.#.#.#.#.#.#.#.#.#.#.#.#.#.#.#.#.#.#.#.#.#.#.#.#.#.#.#.#.#.#.#.#.#.#.#.#.#.#.#.#.#.#.#.#.#.#.#.#.#.#.#.#.#.#.#.#.#.#.#.#.#.#.#.#.#.#.#.#.#.#.#.#.#.#.#.#.#.#.#.A : ",
"2.#.#.#.#.#.#.#.#.#.#.#.#.#.#.#.#.#.#.#.#.#.#.#.#.#.#.#.#.#.#.#.#.#.#.#.#.#.#.#.#.#.#.#.#.#.#.#.#.#.#.#.#.#.#.#.#.#.#.#.#.#.#.#.#.#.#.#.#.#.#.#.#.#.#.#.#.#.#.#.#.#.#.#.#.#.#.#.#.#.#.#.#.#.#.#.#.#.#.#.#.#.#.#.#.#.#.#.#.#.#.#.#.#.#.#.#.#.#.#.#.#.#.#.#.#.#.#.#.#.#.#.#.#.#.#.#.#.#.#.#.#.#.#.#.#.#.#.#.#.#.#.#.#.#.#.#.#.#.#.#.#.#.#.#.#.#.#.#.#.#.#.#.#.#.#.#.#.#.#.#.#.#.#.#.#.#.#.#.#.#.#.#.#.#.#.#.#.#.#.#.#.#.#.#.#.#.#.#.#.#.#.#.#.#.#.#.#.#.#.#.#.#.#.#.#.#.#.#.#.#.#.#.#.#.#.#.#.#.#.#.#.#.#.#.#.#.#.#.#.#.#.#.#.#.#.#.#.#.#.#.#.#.#.#.#.#.#.#.#.#.#.#.#.#.#.#.#.#.#.#.#.#.#.#.#.#.#.#.#.#.#.#.#.#.#.#.#.#.#.#.#.#.#.#.#.#.#.#.#.#.#.#.#.#.#.#.#.#.#.#.#.#.#.#.#.#.#.#.#.#.#.#.#.#.#.#.#.#.#.#.#.#.#.#.#.#.#.#.#.#.#.#.#.#.#.#.#.#.#.#.#.#.#.#.#.#.#.#.#.#.#.#.#.#.#.#.#.#.#.#.#.#.#.#.#.#.#.#.#.#.#.#.#.#.#.#.#.#.#.#.#.#.#.#.#.#.#.#.#.#.#.#.#.#.#.#.#.#.#.#.#.#.#.#.#.#.#.#.#.#.#.#.#.#.#.#.#.#.#.#.#.#.#.#.#.#.#.#.#.#.#.#.#.#.#.#.#.#.#.#.#.#.#.#.#.#.#.#.#.#.#.#.#.#.#.#.#.#.#.#.#.#.#.#.#.#.#.#.#.#.#.#.#.#.#.#.#.#.#.#.#.#.#.#.#.#.#.#.#.#.#.#.#.#.#.#.#.#.#.#.#.#.#.#.#.#.#.#.#.#.#.#.#.#.#.#.#.#.#.#.#.#.#.#.#.#.#.#.#.#.#.#.#.#.#.A : ",
"2.#.#.#.#.#.#.#.#.#.#.#.#.#.#.#.#.#.#.#.#.#.#.#.#.#.#.#.#.#.#.#.#.#.#.#.#.#.#.#.#.#.#.#.#.#.#.#.#.#.#.#.#.#.#.#.#.#.#.#.#.#.#.#.#.#.#.#.#.#.#.#.#.#.#.#.#.#.#.#.#.#.#.#.#.#.#.#.#.#.#.#.#.#.#.#.#.#.#.#.#.#.#.#.#.#.#.#.#.#.#.#.#.#.#.#.#.#.#.#.#.#.#.#.#.#.#.#.#.#.#.#.#.#.#.#.#.#.#.#.#.#.#.#.#.#.#.#.#.#.#.#.#.#.#.#.#.#.#.#.#.#.#.#.#.#.#.#.#.#.#.#.#.#.#.#.#.#.#.#.#.#.#.#.#.#.#.#.#.#.#.#.#.#.#.#.#.#.#.#.#.#.#.#.#.#.#.#.#.#.#.#.#.#.#.#.#.#.#.#.#.#.#.#.#.#.#.#.#.#.#.#.#.#.#.#.#.#.#.#.#.#.#.#.#.#.#.#.#.#.#.#.#.#.#.#.#.#.#.#.#.#.#.#.#.#.#.#.#.#.#.#.#.#.#.#.#.#.#.#.#.#.#.#.#.#.#.#.#.#.#.#.#.#.#.#.#.#.#.#.#.#.#.#.#.#.#.#.#.#.#.#.#.#.#.#.#.#.#.#.#.#.#.#.#.#.#.#.#.#.#.#.#.#.#.#.#.#.#.#.#.#.#.#.#.#.#.#.#.#.#.#.#.#.#.#.#.#.#.#.#.#.#.#.#.#.#.#.#.#.#.#.#.#.#.#.#.#.#.#.#.#.#.#.#.#.#.#.#.#.#.#.#.#.#.#.#.#.#.#.#.#.#.#.#.#.#.#.#.#.#.#.#.#.#.#.#.#.#.#.#.#.#.#.#.#.#.#.#.#.#.#.#.#.#.#.#.#.#.#.#.#.#.#.#.#.#.#.#.#.#.#.#.#.#.#.#.#.#.#.#.#.#.#.#.#.#.#.#.#.#.#.#.#.#.#.#.#.#.#.#.#.#.#.#.#.#.#.#.#.#.#.#.#.#.#.#.#.#.#.#.#.#.#.#.#.#.#.#.#.#.#.#.#.#.#.#.#.#.#.#.#.#.#.#.#.#.#.#.#.#.#.#.#.#.#.#.#.#.#.#.#.#.#.#.#.#.#.#.#.#.#.#.#.#.#.A : ",
"2.#.#.#.#.#.#.#.#.#.#.#.#.#.#.#.#.#.#.#.#.#.#.#.#.#.#.#.#.#.#.#.#.#.#.#.#.#.#.#.#.#.#.#.#.#.#.#.#.#.#.#.#.#.#.#.#.#.#.#.#.#.#.#.#.#.#.#.#.#.#.#.#.#.#.#.#.#.#.#.#.#.#.#.#.#.#.#.#.#.#.#.#.#.#.#.#.#.#.#.#.#.#.#.#.#.#.#.#.#.#.#.#.#.#.#.#.#.#.#.#.#.#.#.#.#.#.#.#.#.#.#.#.#.#.#.#.#.#.#.#.#.#.#.#.#.#.#.#.#.#.#.#.#.#.#.#.#.#.#.#.#.#.#.#.#.#.#.#.#.#.#.#.#.#.#.#.#.#.#.#.#.#.#.#.#.#.#.#.#.#.#.#.#.#.#.#.#.#.#.#.#.#.#.#.#.#.#.#.#.#.#.#.#.#.#.#.#.#.#.#.#.#.#.#.#.#.#.#.#.#.#.#.#.#.#.#.#.#.#.#.#.#.#.#.#.#.#.#.#.#.#.#.#.#.#.#.#.#.#.#.#.#.#.#.#.#.#.#.#.#.#.#.#.#.#.#.#.#.#.#.#.#.#.#.#.#.#.#.#.#.#.#.#.#.#.#.#.#.#.#.#.#.#.#.#.#.#.#.#.#.#.#.#.#.#.#.#.#.#.#.#.#.#.#.#.#.#.#.#.#.#.#.#.#.#.#.#.#.#.#.#.#.#.#.#.#.#.#.#.#.#.#.#.#.#.#.#.#.#.#.#.#.#.#.#.#.#.#.#.#.#.#.#.#.#.#.#.#.#.#.#.#.#.#.#.#.#.#.#.#.#.#.#.#.#.#.#.#.#.#.#.#.#.#.#.#.#.#.#.#.#.#.#.#.#.#.#.#.#.#.#.#.#.#.#.#.#.#.#.#.#.#.#.#.#.#.#.#.#.#.#.#.#.#.#.#.#.#.#.#.#.#.#.#.#.#.#.#.#.#.#.#.#.#.#.#.#.#.#.#.#.#.#.#.#.#.#.#.#.#.#.#.#.#.#.#.#.#.#.#.#.#.#.#.#.#.#.#.#.#.#.#.#.#.#.#.#.#.#.#.#.#.#.#.#.#.#.#.#.#.#.#.#.#.#.#.#.#.#.#.#.#.#.#.#.#.#.#.#.#.#.#.#.#.#.#.#.#.#.#.#.#.#.#.#.A : ",
"2.#.#.#.#.#.#.#.#.#.#.#.#.#.#.#.#.#.#.#.#.#.#.#.#.#.#.#.#.#.#.#.#.#.#.#.#.#.#.#.#.#.#.#.#.#.#.#.#.#.#.#.#.#.#.#.#.#.#.#.#.#.#.#.#.#.#.#.#.#.#.#.#.#.#.#.#.#.#.#.#.#.#.#.#.#.#.#.#.#.#.#.#.#.#.#.#.#.#.#.#.#.#.#.#.#.#.#.#.#.#.#.#.#.#.#.#.#.#.#.#.#.#.#.#.#.#.#.#.#.#.#.#.#.#.#.#.#.#.#.#.#.#.#.#.#.#.#.#.#.#.#.#.#.#.#.#.#.#.#.#.#.#.#.#.#.#.#.#.#.#.#.#.#.#.#.#.#.#.#.#.#.#.#.#.#.#.#.#.#.#.#.#.#.#.#.#.#.#.#.#.#.#.#.#.#.#.#.#.#.#.#.#.#.#.#.#.#.#.#.#.#.#.#.#.#.#.#.#.#.#.#.#.#.#.#.#.#.#.#.#.#.#.#.#.#.#.#.#.#.#.#.#.#.#.#.#.#.#.#.#.#.#.#.#.#.#.#.#.#.#.#.#.#.#.#.#.#.#.#.#.#.#.#.#.#.#.#.#.#.#.#.#.#.#.#.#.#.#.#.#.#.#.#.#.#.#.#.#.#.#.#.#.#.#.#.#.#.#.#.#.#.#.#.#.#.#.#.#.#.#.#.#.#.#.#.#.#.#.#.#.#.#.#.#.#.#.#.#.#.#.#.#.#.#.#.#.#.#.#.#.#.#.#.#.#.#.#.#.#.#.#.#.#.#.#.#.#.#.#.#.#.#.#.#.#.#.#.#.#.#.#.#.#.#.#.#.#.#.#.#.#.#.#.#.#.#.#.#.#.#.#.#.#.#.#.#.#.#.#.#.#.#.#.#.#.#.#.#.#.#.#.#.#.#.#.#.#.#.#.#.#.#.#.#.#.#.#.#.#.#.#.#.#.#.#.#.#.#.#.#.#.#.#.#.#.#.#.#.#.#.#.#.#.#.#.#.#.#.#.#.#.#.#.#.#.#.#.#.#.#.#.#.#.#.#.#.#.#.#.#.#.#.#.#.#.#.#.#.#.#.#.#.#.#.#.#.#.#.#.#.#.#.#.#.#.#.#.#.#.#.#.#.#.#.#.#.#.#.#.#.#.#.#.#.#.#.#.#.#.#.#.#.#.#.#.A : ",
"2.#.#.#.#.#.#.#.#.#.#.#.#.#.#.#.#.#.#.#.#.#.#.#.#.#.#.#.#.#.#.#.#.#.#.#.#.#.#.#.#.#.#.#.#.#.#.#.#.#.#.#.#.#.#.#.#.#.#.#.#.#.#.#.#.#.#.#.#.#.#.#.#.#.#.#.#.#.#.#.#.#.#.#.#.#.#.#.#.#.#.#.#.#.#.#.#.#.#.#.#.#.#.#.#.#.#.#.#.#.#.#.#.#.#.#.#.#.#.#.#.#.#.#.#.#.#.#.#.#.#.#.#.#.#.#.#.#.#.#.#.#.#.#.#.#.#.#.#.#.#.#.#.#.#.#.#.#.#.#.#.#.#.#.#.#.#.#.#.#.#.#.#.#.#.#.#.#.#.#.#.#.#.#.#.#.#.#.#.#.#.#.#.#.#.#.#.#.#.#.#.#.#.#.#.#.#.#.#.#.#.#.#.#.#.#.#.#.#.#.#.#.#.#.#.#.#.#.#.#.#.#.#.#.#.#.#.#.#.#.#.#.#.#.#.#.#.#.#.#.#.#.#.#.#.#.#.#.#.#.#.#.#.#.#.#.#.#.#.#.#.#.#.#.#.#.#.#.#.#.#.#.#.#.#.#.#.#.#.#.#.#.#.#.#.#.#.#.#.#.#.#.#.#.#.#.#.#.#.#.#.#.#.#.#.#.#.#.#.#.#.#.#.#.#.#.#.#.#.#.#.#.#.#.#.#.#.#.#.#.#.#.#.#.#.#.#.#.#.#.#.#.#.#.#.#.#.#.#.#.#.#.#.#.#.#.#.#.#.#.#.#.#.#.#.#.#.#.#.#.#.#.#.#.#.#.#.#.#.#.#.#.#.#.#.#.#.#.#.#.#.#.#.#.#.#.#.#.#.#.#.#.#.#.#.#.#.#.#.#.#.#.#.#.#.#.#.#.#.#.#.#.#.#.#.#.#.#.#.#.#.#.#.#.#.#.#.#.#.#.#.#.#.#.#.#.#.#.#.#.#.#.#.#.#.#.#.#.#.#.#.#.#.#.#.#.#.#.#.#.#.#.#.#.#.#.#.#.#.#.#.#.#.#.#.#.#.#.#.#.#.#.#.#.#.#.#.#.#.#.#.#.#.#.#.#.#.#.#.#.#.#.#.#.#.#.#.#.#.#.#.#.#.#.#.#.#.#.#.#.#.#.#.#.#.#.#.#.#.#.#.#.#.#.#.#.A : ",
"2.#.#.#.#.#.#.#.#.#.#.#.#.#.#.#.#.#.#.#.#.#.#.#.#.#.#.#.#.#.#.#.#.#.#.#.#.#.#.#.#.#.#.#.#.#.#.#.#.#.#.#.#.#.#.#.#.#.#.#.#.#.#.#.#.#.#.#.#.#.#.#.#.#.#.#.#.#.#.#.#.#.#.#.#.#.#.#.#.#.#.#.#.#.#.#.#.#.#.#.#.#.#.#.#.#.#.#.#.#.#.#.#.#.#.#.#.#.#.#.#.#.#.#.#.#.#.#.#.#.#.#.#.#.#.#.#.#.#.#.#.#.#.#.#.#.#.#.#.#.#.#.#.#.#.#.#.#.#.#.#.#.#.#.#.#.#.#.#.#.#.#.#.#.#.#.#.#.#.#.#.#.#.#.#.#.#.#.#.#.#.#.#.#.#.#.#.#.#.#.#.#.#.#.#.#.#.#.#.#.#.#.#.#.#.#.#.#.#.#.#.#.#.#.#.#.#.#.#.#.#.#.#.#.#.#.#.#.#.#.#.#.#.#.#.#.#.#.#.#.#.#.#.#.#.#.#.#.#.#.#.#.#.#.#.#.#.#.#.#.#.#.#.#.#.#.#.#.#.#.#.#.#.#.#.#.#.#.#.#.#.#.#.#.#.#.#.#.#.#.#.#.#.#.#.#.#.#.#.#.#.#.#.#.#.#.#.#.#.#.#.#.#.#.#.#.#.#.#.#.#.#.#.#.#.#.#.#.#.#.#.#.#.#.#.#.#.#.#.#.#.#.#.#.#.#.#.#.#.#.#.#.#.#.#.#.#.#.#.#.#.#.#.#.#.#.#.#.#.#.#.#.#.#.#.#.#.#.#.#.#.#.#.#.#.#.#.#.#.#.#.#.#.#.#.#.#.#.#.#.#.#.#.#.#.#.#.#.#.#.#.#.#.#.#.#.#.#.#.#.#.#.#.#.#.#.#.#.#.#.#.#.#.#.#.#.#.#.#.#.#.#.#.#.#.#.#.#.#.#.#.#.#.#.#.#.#.#.#.#.#.#.#.#.#.#.#.#.#.#.#.#.#.#.#.#.#.#.#.#.#.#.#.#.#.#.#.#.#.#.#.#.#.#.#.#.#.#.#.#.#.#.#.#.#.#.#.#.#.#.#.#.#.#.#.#.#.#.#.#.#.#.#.#.#.#.#.#.#.#.#.#.#.#.#.#.#.#.#.#.#.#.#.#.#.#.A : ",
"2.#.#.#.#.#.#.#.#.#.#.#.#.#.#.#.#.#.#.#.#.#.#.#.#.#.#.#.#.#.#.#.#.#.#.#.#.#.#.#.#.#.#.#.#.#.#.#.#.#.#.#.#.#.#.#.#.#.#.#.#.#.#.#.#.#.#.#.#.#.#.#.#.#.#.#.#.#.#.#.#.#.#.#.#.#.#.#.#.#.#.#.#.#.#.#.#.#.#.#.#.#.#.#.#.#.#.#.#.#.#.#.#.#.#.#.#.#.#.#.#.#.#.#.#.#.#.#.#.#.#.#.#.#.#.#.#.#.#.#.#.#.#.#.#.#.#.#.#.#.#.#.#.#.#.#.#.#.#.#.#.#.#.#.#.#.#.#.#.#.#.#.#.#.#.#.#.#.#.#.#.#.#.#.#.#.#.#.#.#.#.#.#.#.#.#.#.#.#.#.#.#.#.#.#.#.#.#.#.#.#.#.#.#.#.#.#.#.#.#.#.#.#.#.#.#.#.#.#.#.#.#.#.#.#.#.#.#.#.#.#.#.#.#.#.#.#.#.#.#.#.#.#.#.#.#.#.#.#.#.#.#.#.#.#.#.#.#.#.#.#.#.#.#.#.#.#.#.#.#.#.#.#.#.#.#.#.#.#.#.#.#.#.#.#.#.#.#.#.#.#.#.#.#.#.#.#.#.#.#.#.#.#.#.#.#.#.#.#.#.#.#.#.#.#.#.#.#.#.#.#.#.#.#.#.#.#.#.#.#.#.#.#.#.#.#.#.#.#.#.#.#.#.#.#.#.#.#.#.#.#.#.#.#.#.#.#.#.#.#.#.#.#.#.#.#.#.#.#.#.#.#.#.#.#.#.#.#.#.#.#.#.#.#.#.#.#.#.#.#.#.#.#.#.#.#.#.#.#.#.#.#.#.#.#.#.#.#.#.#.#.#.#.#.#.#.#.#.#.#.#.#.#.#.#.#.#.#.#.#.#.#.#.#.#.#.#.#.#.#.#.#.#.#.#.#.#.#.#.#.#.#.#.#.#.#.#.#.#.#.#.#.#.#.#.#.#.#.#.#.#.#.#.#.#.#.#.#.#.#.#.#.#.#.#.#.#.#.#.#.#.#.#.#.#.#.#.#.#.#.#.#.#.#.#.#.#.#.#.#.#.#.#.#.@.@.@.#.#.#.#.#.#.#.#.#.#.#.#.#.#.#.#.#.#.#.#.#.#.#.#.#.#.#.#.#.A : ",
"2.#.#.#.#.#.#.#.#.#.#.#.#.#.#.#.#.#.#.#.#.#.#.#.#.#.#.#.#.#.#.#.#.#.#.#.#.#.#.#.#.#.#.#.#.#.#.#.#.#.#.#.#.#.#.#.#.#.#.#.#.#.#.#.#.#.#.#.#.#.#.#.#.#.#.#.#.#.#.#.#.#.#.#.#.#.#.#.#.#.#.#.#.#.#.#.#.#.#.#.#.#.#.#.#.#.#.#.#.#.#.#.#.#.#.#.#.#.#.#.#.#.#.#.#.#.#.#.#.#.#.#.#.#.#.#.#.#.#.#.#.#.#.#.#.#.#.#.#.#.#.#.#.#.#.#.#.#.#.#.#.#.#.#.#.#.#.#.#.#.#.#.#.#.#.#.#.#.#.#.#.#.#.#.#.#.#.#.#.#.#.#.#.#.#.#.#.#.#.#.#.#.#.#.#.#.#.#.#.#.#.#.#.#.#.#.#.#.#.#.#.#.#.#.#.#.#.#.#.#.#.#.#.#.#.#.#.#.#.#.#.#.#.#.#.#.#.#.#.#.#.#.#.#.#.#.#.#.#.#.#.#.#.#.#.#.#.#.#.#.#.#.#.#.#.#.#.#.#.#.#.#.#.#.#.#.#.#.#.#.#.#.#.#.#.#.#.#.#.#.#.#.#.#.#.#.#.#.#.#.#.#.#.#.#.#.#.#.#.#.#.#.#.#.#.#.#.#.#.#.#.#.#.#.#.#.#.#.#.#.#.#.#.#.#.#.#.#.#.#.#.#.#.#.#.#.#.#.#.#.#.#.#.#.#.#.#.#.#.#.#.#.#.#.#.#.#.#.#.#.#.#.#.#.@.@.@.@.#.#.#.#.#.#.#.#.#.#.#.#.#.#.#.#.#.#.#.#.#.#.#.#.#.#.#.#.#.#.#.#.#.#.@.#.#.#.#.#.#.#.#.#.@.@.@.@.#.#.#.#.@.@.#.#.#.#.#.#.#.#.#.#.#.#.#.#.#.#.#.#.#.#.@.@.@.@.#.#.#.#.#.#.#.#.#.O.O.O.#.#.@.@.O.O.#.#.#.#.@.@.O.O.#.#.#.#.#.#.#.#.#.#.O.O.O.O.@.@.@.#.#.#.#.#.#.O.O.O.@.@.@.@.@.@.#.O.O.O.#.#.#.#.#.#.#.#.#.#.#.#.#.#.#.#.#.#.#.#.#.#.#.#.#.#.#.#.A : ",
"2.#.#.#.#.#.#.#.#.#.#.#.#.#.#.#.#.#.#.#.#.#.#.#.#.#.#.#.#.#.#.#.#.#.#.#.#.#.#.#.#.#.#.#.#.#.#.#.#.#.#.#.#.#.#.#.#.#.#.#.#.#.#.#.#.#.#.#.#.#.#.#.#.#.#.#.#.#.#.#.#.#.#.#.#.#.#.#.#.#.#.#.#.#.#.#.#.#.#.#.#.#.#.#.#.#.#.#.#.#.#.#.#.#.#.#.#.#.#.#.#.#.#.#.#.#.#.#.#.#.#.#.#.#.#.#.#.#.#.#.#.#.#.#.#.#.#.#.#.#.#.#.#.#.#.#.#.#.#.#.#.#.#.#.#.#.#.#.#.#.#.#.#.#.#.#.#.#.#.#.#.#.#.#.#.#.#.#.#.#.#.#.#.#.#.#.#.#.#.#.#.#.#.#.#.#.#.#.#.#.#.#.#.#.#.#.#.#.#.#.#.#.#.#.#.#.#.#.#.#.#.#.#.#.#.#.#.#.#.#.#.#.#.#.#.#.#.#.#.#.#.#.#.#.#.#.#.#.#.#.#.#.#.#.#.#.#.#.#.#.#.#.#.#.#.#.#.#.#.#.#.#.#.#.#.#.#.#.#.#.#.#.#.#.#.#.#.#.#.#.#.#.#.#.#.#.#.#.#.#.#.#.#.#.#.#.#.#.#.#.#.#.#.#.#.#.#.#.#.#.#.#.#.#.#.#.#.#.#.#.#.#.#.#.#.#.#.#.O.#.#.#.#.#.#.#.O.O.O.O.#.#.#.#.#...O.#...O.#.#.#.#.O.O.#.#.#.O.O.O.#.#.@.@.@.@.#.#.#.#.#.#.#.#...#.#.#.#.#.#.#.#.#.......O.#.#.#.#.O.O.O.O.O.O.@.O.@.@.#.#.#.#.#.#.@.O.@.@.@.O.#.#.#.#.@.@.O.O.#.#.#.#.#.#.#.#.O.O.O.O.#.#.#.#.O.O.@.@.@.@.#.#.#.#.O.O.#.#.#.......#.#.@.@.@.O.#.#.#.#.@.@.@.O.#.#.#.#.#.#.#.#.#.#.O.O.@.O.@.@.@.#.#.#.#.#.#.O.O.O.@.@.@.@.#.#.#.#.O.O.#.#.#.#.#.#.#.#.#.#.#.#.#.#.#.#.#.#.#.#.#.#.#.#.#.#.#.#.A : ",
"2.#.#.#.#.#.#.#.#.#.#.#.#.#.#.#.#.#.#.#.#.#.#.#.#.#.#.#.#.#.#.#.#.#.#.#.#.#.#.#.#.#.#.#.#.#.#.#.#.#.#.#.#.#.#.#.#.#.#.#.#.#.#.#.#.#.#.#.#.#.#.#.#.#.#.#.#.#.#.#.#.#.#.#.#.#.#.#.#.#.#.#.#.#.#.#.#.#.#.#.#.#.#.#.#.#.#.#.#.#.#.#.#.#.#.#.#.#.#.@.#.#.#.#.#.#.#.#.@.@.@.@.#.#.#.#.#.#.#.#.#.#.#.@.@.@.#.#.#.#.#.#.#.#.#.#.#.#.#.#.#.#.#.#.#.#.#.#.#.#.#.#.#.#.#.#.#.#.#.#.#.#.#.#.@.@.#.#.#.#.#.#.#.#.#.#.#.#.#.#.#.#.#.#.#.#.#.#.#.#.#.#.#.#.#.#.#.#.#.#.#.#.#.#.O.O.#.#.#.#.#.#.#.#.O.#.O.O.#.#.#.#.#.#.#.#.#.#.#.#.#.#.....#.#.#.#.#.#.#.#.#.#.#.#.#.#.#.#.#.#.......#.#.#.#.......#.#.#.#.#.#.....#.#.#.#.........#.#...#.....#.#.#.#.#.#.O.O.#.#.#.#.#.#.....#.#.#.#...#.#.#.#.#.....#...#.#.#.#.#.#...#.#.#.#.#.O.#.#.#.#.#.#.#.#.#.#.#.O.O...#.#...#.O.O.#...#.#.#.#.O.O.O.#.#.#.#.O.O.O.#.@.@.O.@.#.#.#.#.#.#.#.....#.#.#.#.#.#.#.#.#.#.#...O.#.#.@.O.O.O.#.#.#.#.@.@.@.@.#.#.#.#.#.#.#.#.@.@.O.O.#.#.#.#.@.@.O.O.#.#.#.#.#.#.#.#.@.@.O.O.#.#.#.#.O.O.O.@.@.@.#.#.#.#.O.O.#.#.#.#.....#.#.@.@.O.O.#.O.#.#.@.@.O.O.#.#.#.#.#.#.#.#.#.#.#.#.@.@.@.@.#.#.#.#.#.#.#.O.O.@.@.@.#.#.#.@.#.#.#.#.#.#.#.#.#.#.#.#.#.#.#.#.#.#.#.#.#.#.#.#.#.#.#.#.#.#.#.#.D : ",
"2.#.#.#.#.#.#.#.#.#.#.#.#.#.#.#.#.#.#.#.#.#.#.#.#.#.#.#.#.#.#.#.#.@.@.#.#.#.#.#.#.#.#.#.#.#.#.@.#.#.#.#.#.#.#.#.#.#.#.#.#.#.#.#.#.#.#.#.#.#.#.#.@.@.@.@.#.#.#.#.#.#.#.#.#.#.#.#.#.#.#.#.#.#.#.#.#.#.#.#.#.#.@.#.#.#.#.#.#.O.#.#.#.#.#.#.#.#.#.@.#.#.#.#.#.#.#.#.@.@.@.@.#.#.#.#.#.#.#.#.#.#.O.@.#.@.#.#.O.O.#.#.O.#.#.#.#.O.O.#.#.#.#.#.#.#.#.#.#.#.#.#.#.#.#.#.O.#.#.#.#.#.#.#.@.#.O.O.#.#.#.#.#...#.#.#.#.#.#...#.#.#.#...#...#.#.#.#.......#.#.#.#.#.#.#.#.#.#.#.#.#.#.#.#.#.#.#.#.#.......#.#.#.#.#.#.#.#.#.#.#.#.#.....#.#.#.#.#.#.#.#.#.#.#.#.#.#.#.#.#.#.....#.#.#.#.#.#...#.#.#.#.#.#.#.....#.#.#.#...#.....#.#.#.#.#.#.#.#.#.#.O.O.O.O.#.O.#.#.#.#.#.#.#.#.#.#.....#.#.#.#.#.#.#.#.#.#.#.#.........#.#.#.#.........#.#.#.#.#.#.#.#.#.O...#.#.#.#.#.#.#...#.O.#.#.O.O.O.#.#.#.#.O.O.O.#.@.@.O.O.O.#.#.#.#.#.#.......#.#.#.#.#.#.#.#.#.#...O.#.#.@.O.O.O.#.#.#.#.@.@.@.@.O.#.#.#.#.#.#.#.@.@.O.O.O.#.#.#.@.@.O.O.O.#.#.#.#.#.#.#.@.@.@.@.#.#.#.#.O.O.@.@.@.@.#.#.#.O.O.O.#.#.#.#.....#.#.@.@.O.O.O.O.#.#.@.@.O.O.O.#.#.#.O.#.#.#.#.#.#.#.@.@.@.@.O.#.#.#.#.#.#.#.O.O.O.O.#.O.O.O.O.O.O.O.O.O.#.#.#.#.#.#.#.#.#.#.#.#.#.#.#.#.#.#.#.#.#.#.#.#.#.#.D : ",
"2.#.#.#.#.#.#.#.#.#.#.#.#.#.#.#.#.#.#.#.#.#.#.#.#.#.#.O.#.#.#.#.@.#.#.#.O.O.O.O.#.#.#.O.O.O.@.@.#.#.#.#.#.#.#.#.#.#.#.#.#.#.#.#.#.#.O.O.#.#.#.#.@.@.@.@.#.#.#.#.#.#.#.O.#.#.#.#.#.#.#.#.#.#.#.#.#.#.#.#.#.#.#.#.#.#.#.#.#.#.#.#.#.#.O.O.O.O.@.@.O.#.@.@.#.#.#.#.O.O.O.@.#.#.#.#.#.#.O.O.O.O.@.@.#.#.#.#.#.#.#.#.#.#.#.#.#.#.#.#.#.#.#.#.#.#.#.#.#.#.#.#.#.#.#.#.#.#.#.O.#.#.#.#.O.O.O.O.#.#.#.#.#.#.#.#.........#.#.#.#.#.#.#.#.#.#.........#.#.#.#.#.#.#.#.#.O.#.#.#.#.#.#.#.#.#.#.........#.#.#.#.#.#.#.#.#.#.#.#.#.#.#.#.#.#.....#.#.#.#.#.#.#.#.#.O.#.#.#.#.....#.#.#.#.#...#.#.#.#.#.#.#.#...#.#.#.#...#.....#.#.#.#.#.#.#.#.#.....O.#.#.#.#.#.#.#.#.#.#.#.#.#.#.#.#.#.#.#.#.#.......#.#.#.#.#.#.#.#.#.#.#.#.O.#.#.#.#.#.#.#.#.#.#.#.#.#.#.#.#.O.#.#.#.#.#.#.#.#.#.O.#.#.#.#.#.#.#.#.#.#.#.@.#.#.#.#.#.#.#.#.#.O.O.#.#.#.#.....#.#.#.#.O.#.#.#.#.#.#.O.O.O.O.O.O.O.O.O.O.O.O.O.O.O.O.O.O.O.O.O.O.O.O.[ O.O.O.O.O.O.O.O.O.O.O.O.O...O.O.O.O.........................[ [ [ [ [ [ [ [ [ [ ] ] ] ] ] ] ] ] ] ] ] ] ] ] Q Q Q Q Q Q Q Q Q Q Q Q ! T T T T T Y Y Y Y Y Y Y Y Y Y Y P P P P P P P P [ O.O.#.#.#.#.#.#.#.#.#.#.#.#.#.#.#.#.#.#.#.#.#.#.#.#.G : ",
"2.#.#.#.#.#.#.#.#.#.#.#.#.#.#.#.#.#.#.#.#.#.#.#.#.#.#.O.#.#.#.#.@.@.#.#.#.O.O.O.#.#.#.#.O.O.@.@.#.#.#.#.#.#.#.#.#.#.#.#.#.#.#.#.@.#.O.O.#.#.#.#.O.O.@.@.#.#.#.#.#.#.#.O.#.#.#.#.#.#.#.#.#.#.#.#.#.#.#.#.#.#.@.@.#.#.#.#.#.#.#.#.#.#.#.#.O.O.@.@.O.@.@.@.#.#.O.#.O.O.#.#.#.#.#.#.#.#.O.O.#.O.@.@.#.#.#.#.#.#.#.#.#.#.#.#.#.#.#.#.#.#.#.#.#.#.O.#.#.O.#.#.#.#.#.#.#.#.#.O.#.#.O.#.O.O.O.O.#.#.#.#.#.#.#.#.....#...#.#.#.#.#.#.#.#.#.#.....#...#.#.#.#.#.#.#.#...O.#.#.#.#.#.#.#.#.#.#.....#...#.#.#.#.#.#.#.#.#.#.#.#.#.#.#.#.#.#...#.#.#.#.#.#.#.#.#.#...#.#.#.#.....#.#.#.#.....#.#.#.#.#.#.#.#...#.#.#.#.#.#.#...#.#.#.#.#.#.O.O.O.....O.O.O.O.O.O...........................................................................................................[ ............O.Q Q Q Q Q Q Q Q Q Q Q Q Q Q Q Q Q T T T T T T T T T T T T T T T T P P P P P P P P P P P P P P P P H H D D D D D H H H D D D D D D S S S S S S S S S S S S S S S S C C C C C C C C C C C C C C C C C x x x x x x x x x x x x x x x g g g g g g g g g g g g g g g g g g g g g s s s p u u u u u u u t t t t t i t C [ [ O.O.#.#.#.#.#.#.#.#.#.#.#.#.#.#.#.#.#.#.#.#.#.#.#.#.D : ",
"2.#.#.#.#.#.#.#.#.#.#.#.#.#.#.#.#.#.#.#.#.#.#.#.#.#.#.O.O.#.#.#.@.@.@.@.#.#.#.#.#.#.#.#.@.@.@.@.O.O.#.#.O.#.O.O.O.O.#.#.#.#.#.#.@.@.O.O.O.#.#.#.O.O.O.O.#.#.#.#.#.#.O.O.O.#.#.#.#.#.O.#.#.#.#.#.O.O.#.#.#.#.O.O.O.O.#.#.#.#.#.#.#.#.#.O.#.@.@.@.#.@.@.@.O.O.O.O.O.O.O.O.#.#.#.#.#.O.O.O.#.#.#.#.O.O.#.#.O.#.O.O.O.O.#.#.O.#.#.#.#.#.O.O.O.O.O.O.O.O.#.#.#.O...O.O.O.O.O.O.O.O.O.O.O.O.O.O.O.O.O.O...................................................................................................#.#.#.#.[ [ [ [ [ Q Q Q Q Q Q Q Q Q Q Q T T T T T T T T T T T T T T T T P P P P P P P P P P P P P P P P J J J J J J J J J J J H H H J J J D D D D D D D D D D D D D D D D A A A A A A A A A A A A A A A A N N x N N N N N N N N N N M x N x x x x x x x k k k k k k k k k k k k k k k k k k k k k k k k k k k k k k k k k k k k k k k k k k k k k k k k k k k k k k k k k k j j j j k k h k h h h h h h h h h h h h h h h g h h h g g h g g g g g g g g g g g g g g g g g g g g g g g g g g g g g g g g g g g g g s s g s s u u u u u u u u u u u u t t t t t t i i r r r r r 8 8 8 8 v D P [ [ O.O.#.#.#.#.#.#.#.#.#.#.#.#.#.#.#.#.#.#.#.#.#.#.#.#.D : ",
",.#.#.#.#.#.#.#.#.#.#.#.#.#.#.#.#.#.#.#.#.#.#.#.#.#.O.Q ] [ [ [ [ [ [ [ [ [ [ [ [ [ [ [ [ [ [ ] ] [ [ [ [ [ [ [ [ [ [ [ [ [ [ [ [ [ [ [ [ [ [ [ ] ] ] ] [ [ [ [ [ [ [ [ [ [ [ [ [ [ [ [ [ [ [ [ [ [ [ [ [ [ [ [ [ [ [ [ [ [ [ [ [ [ [ [ Q Q Q Q Q Q Q Q Q Q Q Q Q Q Q Q Q T T T T T T T T T T T T U T T T P P P P P P P I P P P P P P P P J J J J J J J J D J J J J H H H H D D D D D D D D D D D D D D D A A A A A A A A A A A A A A A A A N N N N N N x x x x x x x x b x x x x x x x x x x x x x x x x x x x x x x x k x x x k x x x x x x x x x x x x x x x k x x x x x x x x k k k k k k k k k x k x x x k x x x k x x x k x x x k x x k k k k k k k k k k k k k k k k k k k k k k k k k k k k k g k k k k k k k k k k k k k k k k k k g g j k k g k k k g k k k g h k j j g k g g g h g g g g g g g g g g g g g g g g g g g g g g g g g g g g g g g g g g g g g g g g g g g g g g g g g g g g g g g g g g g g g s g g g s g g g s g g g s g g s s s g s s s s s u s s s u u s u u u p u u u u u u u u u t u u u t u u t t t t t t t u t t t t i i i i r r r r 8 < < < < < < < < < g S D J Q [ O.O.#.#.#.#.#.#.#.#.#.#.#.#.#.#.#.#.#.#.#.#.#.#.#.#.D : ",
",.#.#.#.#.#.#.#.#.#.#.#.#.#.#.#.#.#.#.#.#.#.#.#.#.#.O.! A D D D D D D S S S S S S S S S S S S S A A S S C C C C A A A A A A A A A A A A N N N N N N N N N N N N C C C C x x x x x x x x x x x x x x x x k k k k k k k k k k k k k h h h h h h h h h h k k k k k k k k k k k k k k k k k k k k k k k k k k k k k k k k k k k k k k k k k k k k k k k k k k k k k k k k k k k k k k k k k k k k k k k k k k k k k k k k k k k k k k k k k k k k k k k k k k g k k k g k k g g h k h h h k h h h k h g h h h g h h h g g g g g g k g g g g g g g g g g g g g g g g g g g g g g g g g g g g g g g g g g g g g g g g g g g g g g g g g g g g g g g g g g g g g g g g g g g g g g g g g g g g g g g g g g g g g g g g g g g g g g g g g g g g g g g g g g g g g g g g g g g g g g g g g g g g g g g g g g g g g g s g g g g s s s s s s s s s s s s s s s s s s s s s p p p p s s s u s s p u p s u u u p u u u u u u u u u u u u u u u u u u u u u u u u u u u u u u u u u u u u u t t u t t t t t t t t t t t t t i t t i i i i i i i i r r i i r r r r r 8 8 8 7 < < < < , < < , , , , x L L D D J [ [ #.#.#.#.#.#.#.#.#.#.#.#.#.#.#.#.#.#.#.#.#.#.#.#.#.#.D : ",
",.#.#.#.#.#.#.#.#.#.#.#.#.#.#.#.#.#.#.#.#.#.#.#.#.#.O.Q i r i t t t t t t t u u u u u u u u u s u u s s s s s g g s g g g g g g g g g g g g g g g g g g g g g g g g g g g g g g g g g g g g g h g g g h g g g g g g g g g g g g g g g g g g g g g g g g g g g g g g g g g g g g g g g g g g g g g g g g g g g g g g g g g g g g g g g g g g g g g g g g g g g g g g g g g g g g g g g g g g g g g g g g g g g g g g g g g g g g g g g g g g g g g g g g g g g g g g g g g g g g g g g g g s g g g g g g g s g g g s s g s s g g g s g g g s g g g s g g g s s g s s s g s s s g s s s g s s s g s p s g s s s g s s s g s s s g s s s g s p s s s v s g s s s g s s s g s s s g s s s g s s s g s s s g s s s g s s s g s s s s s s s s s u s s s p s s s p s s s u s s s u p s p u p p u u u p u u u u u u p p u u u u u u u u u u u u u u u u u u u u u u u u u u u u u u u u u u u u u t t u u t t t t t t t t t t t t t t t t t t t t t t t t t t t t t t t t t t t t t t t i i i i i i i i i i r r r r r r r r r r r r r r 8 8 8 S A S A A A A A A B B N N N x x x L L L L L a.p.1.| D S J Q ] #.#.#.#.#.#.#.#.#.#.#.#.#.#.#.#.#.#.#.#.#.#.#.#.#.#.D : ",
"-.#.#.#.#.#.#.#.#.#.#.#.#.#.#.#.#.#.#.#.#.#.#.#.#.#.#.Q r r 8 8 r r r r r r i i i i i i t t t t t t u u u u u u u u u u u u u u u p u p p p p p p s s s s s s s s g g s g g g g g g g g g g g g g g g g g g g g g g g g g g g g g g g g s g s s g g g g g s s s s s s s s s s s s s s s s s s s s s s s s s s s s s s s s s s s s s s s p s s s s p s s s p s s s p s s p u s s s s s s s s s s u s s s s s s s s s s s s p s s s p s s s p s s u u s s s u p s p u p s p u u s u u u s u u u p u u u p u u u u u u u u u u u s u u u u u u u u u u u u u u u u u u u u u u u u u u u u u u u u u u u u u u u u u u u u u u u u u u u u u u u u u u u u u u u u u u u u u u u u u u u u u u u u u u u u u u u u u u u u u u u u u u u u u u u u u u u u u u u u L J J J J J J J J J J J J J J J J =.=.=.=.=.=.=.=.=.*.} } =.=.=.=.r.r.r.r.r.r.r.1.1.1.=.=.=.=.=.=.r.r.r.0.r.r.r.r.1.1.1.1.1.1.1.1.1.y.r.y.i.y.y.y.4.4.4.4.3.4.1.1.1.r.r.t.t.t.r.t.4.4.4.4.4.4.4.4.3.3.u.u.u.u.u.u.u.8.8.8.8.8.8.9.8.8.y.y.y.y.t.t.t.8.5.8.8.8.7.8.8.8.8.8.8.8.8.8.8.8.*.*.*.#.[ [ [ [ ] | | Q Q | *XG.i.1.L S J Q ] @.#.#.#.#.#.#.#.#.#.#.#.#.#.#.#.#.#.#.#.#.#.#.#.#.#.D : ",
"-.#.#.#.#.#.#.#.#.#.#.#.#.#.#.#.#.#.#.#.#.#.#.#.#.#.O.T 8 < < < < < < < 8 r 8 8 r r r 8 r r r r i t t i t t t t t t t t t t t t t u u t u u u u u u u u u u u u u u u u u u u u p s p u u p u u u p u u u u u u u u u u u u u u u u u u u u u u u u u u u u u u u u u u u u u u u u u u u u u u u u u u u u u u u u u u u u u u u u u u u u u u u u u u u u u u u u u u u u u u u u u u u u u u u u u u u u u u u u u u u u u u u u u u u u u u t u u u u u u u u u u u u u u u u u u u t H J J J J D D J J J J J G G J J J } } } } } } } } } } } } } } } | 3.4.4.3.3.3.3.*.*.*.=.=.=.=.=.=.0.0.r.r.r.8.0.r.1.1.1.1.1.1.1.1.1.r.r.r.8.8.8.8.<.-.1.1.1.1.1.1.1.t.t.t.t.y.y.y.3.4.3.8.3.3.8.8.3.4.u.f.u.y.y.y.t.4.4.4.4.2.4.4.4.4.y.y.y.t.y.y.y.8.8.9.8.8.8.9.8.8.9.9.9.8.9.9.8.8.1.1.1.-.1.1.-.=.-.-.*.*.*.*.*.) [ [ ] Q [ [ [ Q [ [ ] Q ] [ ] Q Q [ Q Q Q [ Q Q Q Q Q Q Q [ Q Q Q [ Q Q Q [ Q Q Q [ Q Q Q [ Q Q Q ] Q Q Q [ Q Q Q [ Q Q Q [ Q Q Q [ Q Q Q [ Q Q Q [ Q Q Q ] Q Q Q [ Q Q Q Q Q Q Q [ Q Q Q [ Q Q Q [ Q Q Q [ Q Q Q ] Q Q Q Q Q T T ! T T Y P P P J J D D D H D A L *Xc.i.1.C S J Q ] @.#.#.#.#.#.#.#.#.#.#.#.#.#.#.#.#.#.#.#.#.#.#.#.#.#.D : ",
"-.#.#.#.#.#.#.#.#.#.#.#.#.#.#.#.#.#.#.#.#.#.#.#.#.#.[ P < < < < < < < < < < < < < < < < < 8 8 8 r r r r i i i i i i i i i i i i t t t t t t t t t t t t t t t t t t t t t t t t u u t t t t t t t t t t t t t t t t t J J J J J J J J J J J J J J J J =.=.=.=.=.=.=.=.=.=.=.} } } } } } 8.8.3.3.3.3.-.1.-.=.=.-.-.-.1.r.r.r.r.r.r.r.r.1.1.1.4.4.1.1.-.-.-.8.0.r.0.9.r.4.1.1.2.4.4.1.2.4.y.y.y.u.y.y.y.8.8.3.8.8.8.8.8.8.3.y.y.y.t.t.t.t.4.4.5.8.7.4.4.8.4.y.u.u.y.y.y.u.9.8.9.9.9.9.9.9.9.9.9.9.8.8.7.8.4.*.*.-.*.*.*.-.*.*.*.*.*.*.-.-.[ [ [ ..[ [ [ [ [ Q Q J c.n.! Q Q Q Q Q ) Q [ [ [ [ ) [ [ [ [ [ [ [ [ [ [ [ [ [ Q Q Q Q [ [ [ [ [ ] [ Q ] ] ] [ [ [ [ [ [ Q ] [ ] Q [ [ [ [ [ [ [ [ [ [ [ [ [ [ [ [ [ [ [ [ ] [ [ [ [ [ [ [ [ ] [ [ [ [ [ [ [ [ [ ] Q Q [ [ [ Q Q Q Q Q Q Q Q Q Q Q Q Q Q Q Q Q T T T T T T T T T T T T T T T T Y Y Y Y T T Y Y Y T Y P Y Y Y Y P P P P P P P P P P P P P P P P P P P P P P P P J P P P P P P P P D J D J J J D D H J H J J J H D H D D D D D D D D D D D D D D D D D D D D D S D D D S S D D S D D S S S S A A C C C N N x x x x x x g L p.p.i.1.C S J Q ] #.#.#.#.#.#.#.#.#.#.#.#.#.#.#.#.#.#.#.#.#.#.#.#.#.#.D : ",
"-.#.#.#.#.#.#.#.#.#.#.#.#.#.#.#.#.#.#.#.#.#.#.#.#.#.] K 4.1.1.4.| | | | ! ! ! | ] ! 1.4.4.1.4.3.=.=.-.<.1.1.1.4.4.1.y.y.y.y.y.y.3.3.8.8.8.3.4.4.4.1.t.t.t.r.t.t.y.8.8.8.8.8.8.8.8.8.y.u.u.u.u.f.u.9.9.0.9.9.9.9.8.8.8.8.8.5.4.4.4.2.*.-.-.*.-.-.-.*.-.-.-.*.-.-.-.] [ [ [ Q [ [ [ Q [ [ [ Q ] [ [ Q [ [ [ Q [ [ ] Q ] [ Q Q Q [ Q Q Q [ Q Q Q [ Q Q Q [ Q Q Q [ Q Q Q [ Q Q Q [ Q Q Q [ Q Q Q [ Q Q Q [ ] Q ] [ [ Q [ [ [ Q [ [ [ Q ] [ ] Q ] [ ] Q ] [ Q Q Q [ Q Q Q [ Q Q Q [ Q Q Q [ Q Q Q Q Q T Q Q Q T Q Q Q T Q Q Q T Q Q T T T ! T T T ! T T T T T Y D j p.F.P T P P P Y Y P Y T Y Y Y T Y P P Y P P P Y P P P Y P P P Y P P P P P P P P P P P P P P P P P P J J J D J P J J J P J J J J J H J H D D D H D D D D D D D D D D D D D D D D D D D D D D D D D D D D D S D D D D D D D S D D D D D D D D D D D D D D D S S D D D D D S S S D D D D D D D S S D D D D D S D D D S D D D S D D D S D D D S D D D S D D D S S D D D D D D S D S D D D D S S D D D D D D S S D D D S D D S S D D S S S S S S S D S S S S S S S S S S S S S S S S S A A C C C N x x x x x x x x g H a.a.i.1.C S J T Q #.#.#.#.#.#.#.#.#.#.#.#.#.#.#.#.#.#.#.#.#.#.#.#.#.#.D : ",
"-.#.#.#.#.#.#.#.#.#.#.#.#.#.#.#.#.#.#.#.#.#.#.#.#.#.] J #.Q T Y P P P P P P P P P Y Y Y T T T T T Q Q Q Q [ [ [ [ [ [ [ [ [ [ [ [ [ [ [ [ [ [ [ [ [ [ [ [ [ [ [ [ [ [ [ [ [ [ [ [ [ [ [ [ [ [ [ [ [ [ [ [ [ [ [ [ [ [ [ Q Q Q Q Q Q Q Q Q Q Q Q Q Q Q Q Q T T T T T T T T T T T T T T T T T T T T T T T T Y T T T Y T T Y P P Y P P P Y P P P Y P P P Y P P P P P P P P P P P P P P P P P J D J H J J J J J J J J J J J J J J D D D D D D D D D D D D D D D D D D D D D D D D D D S D D D D S D S S D D D D D D D D D D D D S D D D D D D D D D D D D S S A x g a.i.I J C A A S S S D S D D D D D D D D D D D D D D D D S S D D D D D D D D D D S S D D D D D D D D D D D D D D D D D D D D D D D D D D D D D D D D D D D D D D D D D D D D D D D D D D D D D D D D D D D D D S D D D D D D D S S D D D D D S D D D D D S S D D D D D D S S D S D D D S D S S S D D D S D D S S S D S S S D S S S D S S S D S S S D S S S D S S D D D S D D D S D D D S S D D S D D D S S D D S D D D S D D D S D D D S D D S S S D S S S D S S S D S S S S S S S S A C C C N x x x x k x x x g s } 1.3.x C D P ! ] #.#.#.#.#.#.#.#.#.#.#.#.#.#.#.#.#.#.#.#.#.#.#.#.#.#.D : ",
"-.#.#.#.#.#.#.#.#.#.#.#.#.#.#.#.#.#.#.#.#.#.#.#.#.#.Q H [ P D D S D S S S D S S D D D A S D D D D J H D J P P P P P P J J P J H J P J J J P J J J P J D D J D D D J D D D J D D D J D D D D D D D D D D D D D D D D D D D D D D D D D D D D D D D D D D D D D D D D D D D D D D D D D D D D D D D D D S D D D D D D D D D S D D D D D D D D D D D D D D D D S S D D D D S S D D D D D D S S S S S D D D D D D D D D D D D D S S S S D D D D D D D D D D D D D D S S S S D D S S S D D D S S S D S S D S D D S S D D D S D D S S D D D S D D D S D D S S S A x g 1.r.P H C C A A S S S S S D S S S D S S S D S S S D S S S D D S D D D S D D D S D D D S D D D S D D D S D D D D D D D D D D D D D D D D D D D D D D D D D D S S D D D D S D D D D D S S D D D D S D S S D D D D D D D S S D D S S D D S D D D S D D D S D D D S D D S S D D D S D D D S S D S S S D S S S D S S S D S S S D S S S D S S S D S S S D S S S D S S S D S S S D S A D D D S S D D S D D D S D D D S D D D S D D D S D D D S D D D S D D D S D D D S D D D S S D S S S S A C C C C N x x x k x x x g s L T _ x C D P ! ] #.#.#.#.#.#.#.#.#.#.#.#.#.#.#.#.#.#.#.#.#.#.#.#.#.#.D : ",
"-.#.#.#.#.#.#.#.#.#.#.#.#.#.#.#.#.#.#.#.#.#.#.#.#.O.! H Q A C N x x x x x x M N N N N N C C C C C A A A S D D D D D D D D D D D D D D D D D D D D D D D D D D D D D D D D D D D D D D D D D D D D D D D D D D D D D D D D D D D D D D D D D D D D D D D D S D D D D D D D D D D S S D D D D D D S S D D D D D D D D D D S S D D D S D D D S D D D S D D D S D D D S D D D S D D S S S D D S D D D S D D D D D D S S D D D D D D D D D D S S D D D S S D D D D D S S S D D D D D S S D D D S D D D S D S S S D D D S D S D S D S S S S S D D D D D S S S S A x g D >.I J C A A S A S S S D D D D D D S D S S D D D D D D S S D D D D D D D D D D D D S S S S D D D D D D D D S S S S S D D D D D D D D D D D D D D D D D D D D D D D D D D D D D D D D S D D D D D D D S D D D D D D S S D D D D S D S D D D D D D D S S S D D D D D D D D D S S S D D S D D D S D D D S D D D S D D D S S D S S D D D S D D D S S D D S D D D S D D D S D D D S D D S S D D D D D D S S D D D D D D S S D D D D D D S S D D D S D D D S D D D S D D D S S D S S S S A C C C N x x x x x x x x g v M N A b C D P Q ] #.#.#.#.#.#.#.#.#.#.#.#.#.#.#.#.#.#.#.#.#.#.#.#.#.#.D : ",
"-.#.#.#.#.#.#.#.#.#.#.#.#.#.#.#.#.#.#.#.#.#.#.#.#.[ ! D Q C N N x x x x x x x N x x x N N N C C C C A S S S D D D D S D D D D D D S D D D D D D D S D D D D D D D S D D D D D D D S D D D D D D D D D D D D D D D D D D D D D D D S D D D D D D D S D D D D S D D S D D D S S D S S D D D S D D S S D D D S D D D S D D D S D D D S S D S S S D S S S D S S S D S S S D D S D D S S D D D S D D D S D D D S D D S S D D D S S D D S D D D S D D D S D D D S D D S S S D D S D D S S D D D S D D D S D D S S D D D S S D D S D D S S S D D S D D D S D D S C x g C D I P A A A S S S S D D S D D D S S D S S D D D S D D S S D D D S D D D S D D D S S D S D D D D D D D D D D D D S D D D D D D D D D D D S D D D D D D D D D D D D D D D D D D D D D D D D D D D S D D D D D D D S D D D D D D D S D D D D D D D D S D S S D D D D D D D D S D S D D D D D D D D D S S D D D D D D S S D D D D D D D D D D S S D D D D D D D D D D D D D D D D D D D D D D D D D D D D D D D D D D S D D D D D D D S D D D D D D D D D D D D D D D D D D S S S S A A C C C N x x x x k x x x g u g j x N C D Y Q Q #.#.#.#.#.#.#.#.#.#.#.#.#.#.#.#.#.#.#.#.#.#.#.#.#.#.Y : ",
"-.#.#.#.#.#.#.#.#.#.#.#.#.#.#.#.#.#.#.#.#.#.#.#.#.O.! D Q A C N x x x x x x x x x x N N N C C C C A A A S D D D S D D S D D D D D D D D D D D D D D D D D D D D D D D D D D D D D D D D D D D D D D D D D D D D D D D D D D D D D D D D D D D D D D D D D S D D D D D D D S D D D D D D D D D D S S D D S S S D D D D D S S D D D S D D D S D D D S S D D S D D D S S S D S D D S D S D D D D D S D S D D D D D S S D D D S D D D D D D D S D D S S S D D D D D D D D D D D D D S S D D S S S D D D D D S D D D S S S D D D D D D D S D D D D D D D D S S A x g N S I J C C A A S S S D D D D D D D D S D D D D D D D D S S D D S S S D D D D D D D D D D D D D D D D D D D D D D D D D D D D D D D D D D D D D D D D D D D D D D D D D D D D D D D D D D D D D D D D D D D D D D D D D D D D D D D D D D D D D D D D D D D D D D D D D D D D D D D D D D D D D D D D D D D D D D D D D D D D D D D D D D D D D D D D D D D D D D D D D D D D D D D D D D D D D D D D D D D D D D D D D D D D D D D D D D D D D D D D D D D D D D D D D D D D D D S S A C C C N x x x x x x x g s g k x N S D P Q ] #.#.#.#.#.#.#.#.#.#.#.#.#.#.#.#.#.#.#.#.#.#.#.#.#.#.Y : ",
"-.#.#.#.#.#.#.#.#.#.#.#.#.#.#.#.#.#.#.#.#.#.#.#.#.#.! D Q A C N M x x x x x x x M C N x N C C N C A A A S D D S S D D S D D D D D D D S D D D D D D D S D D D D D D D D D D D D D D D D D D D D D D D D D D D D D D D D D D D D D D D D D D D D D D D D D D D S D D D D D D D S D D D D D D D D D D D S D D D D D D D D D D D S D D S S D D D D D D S S S D D D D D S S S D D D D D D S D D D D D D D D D D D D D D D D D D D D D D D D D D D S D D D D D D D D D D D S D D D D D D D S D D D D D D D D S D D D D D S S D D D D D D D S D D D D D D D S S A x g k A I D C C A A S D S S D D D D D D D S D D D D D D D D D D D S D D D S D D D D D D D S D D D D D D D D D D D D D D D D D D D D D D D D D D D D D D D D D D D D D D D D D D D D D D D D D D D D D D D D D D D D D D D D D D D D D D D D D D D D D D D D D D D D D D D D D D D D D D D D D D D D D D D D D D D D D D D D D D D D D D D D D D D D D D D D D D D D D D D D D D D D D D D D D D D D D D D D D H D D D H D D D J D D D J D D D J D D D J D D D D D D D D D D D D D D D D S S A C C N N x x x x x x g s j k x N S D P Q ] #.#.#.#.#.#.#.#.#.#.#.#.#.#.#.#.#.#.#.#.#.#.#.#.#.#.Y : ",
"-.#.#.#.#.#.#.#.#.#.#.#.#.#.#.#.#.#.#.#.#.#.#.#.#.O.! D Q C C N x x x x x x x x x N N M N C C C C A A S S D D D D D D D D D D D D D D D D D D D D D D D D D D D D D D D D D D D D D D D D D D D D D D D D D D D D D D D D D D D D D D D D D D D D D D D D D D D D D D D D D D D D D D D D D D D D D D D D D D D D D D D D D D D D D D D D D D D D D D D D D D D D D D D D D D D D D D D D D D D D D D D D D D D D D D D D D D D D D D D D D D D D D D D D D D D D D D D D D D D D D D D D D D D D D D D D D D D D D D D D D D D D D D D D D D D D D D D D S x g k A P J A A S S D D D D D D D D D D D D D D D D D D D D D D D D D D D D D D D D D D D D D D D D D D D D D D D D D D D D D D D D D D D D D D D D D D D D D D D D D D D D D D D D D D D H D D D J H H J J J H J J J J J J G J G J J J J J G G J J J J J J J H H J J J J J J J J J J J J J J J J J J J J J J J J J J J J J J J J J J J P J J J J J J J J J J J J J J J J J J J J J J J J J J J P P P P P P P P P P P P P P P P P P P P P P J P P P P P P P P P P P J P P J J J J J D D D D S A C C N M x x x x x g g k x x C S D Y Q ] #.#.#.#.#.#.#.#.#.#.#.#.#.#.#.#.#.#.#.#.#.#.#.#.#.#.Y : ",
"-.#.#.#.#.#.#.#.#.#.#.#.#.#.#.#.#.#.#.#.#.#.#.#.#.[ ! H Q C C N x x x M x x x N x x N N N M C C C C A S S D D D D D D D D D D D D D D D D D D D D D D D D D D D D D D D D D D D D D D D D D D D D D D D D D D D D D D D D D D D D D D D D D D D D D D D D D D D D D D D D D D D D D D D D D D D D D D D D D D D D D D D D D D D D D D D D D D D D D D D D D D D D D D D D D D D D D D D D D D D D D D D D D D D D D D D D D D J D D D H H D H J D D D J D D D J D D D J D D D J D D D J D D H J H D H H H D H J J D J J J D J J J D J J J D G J H D D D D S x k x Z U P S S D D D D D J J J J J J J J J J D H J J J J J J G J P J H J P J J J P J J J P J D J P J J J P J J J P J J P P P J P P P J P P P J P P P J P P P J P P J J P P P J P I P J P P P J P P P P P P P P P P P P P P P P P P P P P P P P P P P P P P P P P P P P P P P P P P P P P P P P P P P P P P P P P P P P P P P P P Y P P P Y P I P Y P P P Y P P P Y P P P P P P P Y P P P Y P P P Y P P P Y P P P Y Y P Y Y Y P Y Y Y P Y Y P P Y Y Y P Y Y P P P Y P P P Y P P P P J J D D D S A C C N x x x x x g g k x x C S H T Q ] #.#.#.#.#.#.#.#.#.#.#.#.#.#.#.#.#.#.#.#.#.#.#.#.#.#.Y : ",
"-.#.#.#.#.#.#.#.#.#.#.#.#.#.#.#.#.#.#.#.#.#.#.#.@.O.! H ! C C N M x M M x x x N N N C N C C C C A S S D D D D D D D D D D D D D D D D D D H D D D J D D H J H D J J J H J J J H J J J H J J J J J J J J J J D H J J J J H H J J D D D J J J J J J J J J J J J J J J J J J J J J J J J J J J J J J J J J J J J J J J J J J J J J J J J J J J J J J J J J J J J J J J J J J J J J J J J J J J J J J J P P P P P P P P P P P P P P P P P P P P P P P P P P P P P P P P P P P P P P P P P P P P P P P P P P P P P P P P P P P P P P P P P P P P P P P P J J D D N x x D T P D D D D J J P P P P P P P P P P P P P P P P P P P P P P P P P P P P P P P Y P P P P P P P P P Y Y Y Y Y Y Y Y Y Y Y Y Y Y Y Y Y Y Y Y Y Y Y Y Y Y Y Y Y Y Y Y T Y Y T T T Y T T T T T T T T T T U U U Y T T T T T T T T T T T T T T T T T T T T T T T T T T T T T T T T T T T T T T T T T T T T T T T T T T T T T T T T T T T T T T T T T T ! ! ! ! ! ! ! ! ! ! ! ! ! ! ! ! ! ! ! ! ! ! ! ! ! ! ! ! ! ! Q ! Q Q Q ! ! ! ! ! ! ! ! ! ! ! ! ! ! ! ! ! T T T T T T T T Y Y P P P J D D S A C C N x x x x g g x x x C D J T ] ] #.#.#.#.#.#.#.#.#.#.#.#.#.#.#.#.#.#.#.#.#.#.#.#.#.#.Y : ",
"-.#.#.#.#.#.#.#.#.#.#.#.#.#.#.#.#.#.#.#.#.#.#.#.#.@.Q H ! S C N C N N M N N N N C C C C C A A C A D D D D J J J J P P J P P P J P P P J P P P J P P P J P P P J P P P P P P P P P P P P P P P J P P P P P P P P P P P P P P P P P P P P P P P P P P P P P P P P P P P P P P P P P P P P P P P P P P P P P P P P P P P P P P P P P P P P P P P P P P P P P Y P P P P P P P P P P P P P P P P P P P P P P P P P P P Y P P P T P P P T P P P T Y P P T P P P T P P P T P P P T Y P Y T P P P T P P P T P P P T P P P Y P P Y Y Y P Y T Y P Y T Y P Y Y P J P J C x x D Q T D D D J P P P P Y T Y Y Y T Y Y T T Y P Y T Y Y T T T U T T T T T ! T T T ! T T T ! ! T ! Q ! T ! ! ! ! ! Q Q ! ! Q Q ! Q Q Q ! Q Q Q Q Q Q Q Q Q Q Q Q Q Q Q Q Q Q Q Q Q ) Q Q Q ) Q Q Q ) Q Q Q ) ) Q ) ) ) Q ) ) ) ) Q ) ) Q ) ) ) ) ) ) ) ) ) ) ) ) ) [ ) ) ) [ ) ) ) ..) ) ) ..) ) ) ..) ) [ ..[ ) [ ..[ ) [ ..[ ) [ ..[ ) ....{ ) ......) { ....) ......) ......[ ......[ ......[ ......[ ......) ......[ ......) { ..[ ) ) ..) ) ) ) ) Q ) ) ) Q ) ) Q T ! ! T T T T P P J D D S A C C x N N x k g x x x C D J T ] ] #.#.#.#.#.#.#.#.#.#.#.#.#.#.#.#.#.#.#.#.#.#.#.#.#.#.Y : ",
"-.#.#.#.#.#.#.#.#.#.#.#.#.#.#.#.#.#.#.#.#.#.#.#.#.#.Q J Q S A C C C C C C C C C C A A A A A S S D D D H J P P P P P P P Y P P P P P P P P Y P P Y T Y Y T T T T T T Y Y Y T T T Y Y Y T T T Y Y T T T T T T T T T T T Y T T T T T T T T T T T T T T T T T T T T T T T T T T T T T T T T T T T T T T T T T T T T T T T T T T T T T T T T T T T T T T T T T T T T T T T T T T T T T T T T T T T T T T T T T T T T T T T T T T T T T T T T T T T T T ! ! ! ! ! ! ! ! ! ! ! T ! ! ! T T T T T T T T T T T T T T T T T T T T T T T T T T T T T T T T T T T Y P J A x x D ) Q J J P P Y T T T T T T Q T T T Q ! T T T T T T T Q Q Q ) ) Q ) ) ) ) ) ) ) ) ) [ ) ) ) ..) ) [ ....[ ................................................................................................................%.#...............#.......#.....#.%.......%...{ ................................) ) ) ) ) ) ) ) ) ) ) ) ) ) ) ) ) ! ! ! ! ! ! ! ! ! ! ! ! ! ! ! ! U U U U T U U U T U U U T U U U U U I I I I I I I I I I P P P P P J D D D D D D D D D Q ] ] Q Q Q Q T T Y P J D D S A C M x N N k g x x N C D J T [ ] #.#.#.#.#.#.#.#.#.#.#.#.#.#.#.#.#.#.#.#.#.#.#.#.#.#.Y : ",
"-.#.#.#.#.#.#.#.#.#.#.#.#.#.#.#.#.#.#.#.#.#.#.#.#.#.Q J Q S A A C C C C C C A S A A S D D S D D H D J P P P Y T T T T T T T T T T T T ! T T T ! T T ! ! ! T T ! ! ! T ! ! ! ! Q ! T ! Q ! ! ! ! ! ! Q Q Q ! Q Q Q ! ! Q Q ! Q Q ] ! ! Q Q Q Q Q Q Q Q ] Q Q Q ] Q Q Q ] Q Q Q ] Q ! ] ] ] Q ] ] ] Q ] ] ] Q ] ] ] Q ] ] ] ] ] ] ] ] ] ] ] ] ] ] ] ] ] ] ] ] ] ] ] Q ] ] ] Q ] ] ] ] ] ] ] ] ] ] ] ] ] ] ] ] ] ] ] ] ] ] ] ] ] [ ] ] ] [ ] ] ] [ ] ] ] ] ] ] ] [ ] ] ] [ ] ] ] [ ] ] ] ] ] Q ] ] Q ! Q ] Q ! Q ] Q ! Q [ Q Q Q [ Q Q Q [ Q Q Q [ Q T Q Q T P S C N J ....P P Y T T T Q [ Q Q Q [ ] Q ] [ ] Q ] [ Q Y T T T T ! ! T U T ! T U T ! ! T ! Q ! T ! Q U Y U T U U T T T U T T U U T T T U Y Y Y I Y Y Y I Y Y Y I Y Y Y I P P P G P P P J P P P J P P P G P D D D D D D D D D D D G G D D D D D D D D D D D D D S D D S Z Z Z S Z S S S S S S S Z Z Z A A A A A A A A A A A A A A A A C C C C C C C C C C C C C C C C C C C C C C C C C N N N N N N N N x x x x x x x x x x x x x x x x x x x x k x x x k k k g g g k x ) *.O.[ ] [ [ Q Q T T Y P J D D A C C N N N x j x N N C D P T [ ] #.#.#.#.#.#.#.#.#.#.#.#.#.#.#.#.#.#.#.#.#.#.#.#.#.#.Y : ",
"-.#.#.#.#.#.#.#.#.#.#.#.#.#.#.#.#.#.#.#.#.#.#.#.#.#.] J [ D S A A A A A A A S S D D D D D D D H J P P P Y T T T ! Q Q Q Q ] ] ] ] ] ] ] ] ] ] ] ] ] ] ] ] [ ] ] ] ] ] ] ] [ [ ] [ [ [ [ [ [ [ [ ] [ [ [ [ [ [ [ [ [ [ ] [ [ [ [ [ [ [ [ [ [ [ [ [ [ [ [ [ [ [ [ [ O.[ [ [ [ ] ] ] ] ] ] ] [ ] ] ] [ ] ] ] [ ] ] Q ] Q Q Q ] Q Q Q ] Q Q Q ] Q Q T ! T T T T T T T T T T T T T T T T T Y T T T Y Y T Y Y Y Y Y P Y Y P K K P K K P K K J K K K K J J J D H H H D D D D D D D D D D D D D A A A C C C C C C C C C C ! Q [ [ [ [ [ [ [ [ ......[ [ [ [ Q Q T Y D C C P #...P Y T T Q Q [ ......................[ [ T S C C C C C C C C C C C C C C C C C C C C C C C C C N N N N N N N x x x x x x x x x x x x x x x x x x x x x x x x x x x x x x x x x x k h h h h h h k k k k k h k h h h g g g g g g g g g g g g g g g g g g g g s g g g g s s s s s g g g g g g g g g g g g g g g g g g x x x x x x x x x x x k x x x x x b b b b b b x x x x x x x x x x C C C C C C C C C C C C C C C C C C Z Z Z A A C C C C C C C C N x x P =.*.[ [ O.O...[ [ Q T U P J D D S C C C C N x g b N N A D P T O.] #.#.#.#.#.#.#.#.#.#.#.#.#.#.#.#.#.#.#.#.#.#.#.#.#.#.Y : ",
"-.#.#.#.#.#.#.#.#.#.#.#.#.#.#.#.#.#.#.#.#.#.#.#.#.#.] J [ D D A S D S A S D D D D J D D J P J H P P D D D P P J P Y P P P T P P P T P J K P K K K P K J K P K J K K K J H H H D H H H D D D D D D D D D D S S S S S S A S S S S S S S A A C C C C C C C C C C C C C C C N C N N N N C C C C N N N N N N N N N N M N N M M x M M M x x x x x x x x x x x x x x x x x x x x x x k k k k k k k k k k k k k j j g g g g g g j j g g g g g g g g g g g g g g g g g g g g g g s s g g g s s s s s s u p s u u u u t t P *.[ [ #.#.#...#.#.#.#.#.#.#.#.#.#.[ Q Q T D C C T *.#.Y T T Q [ #.#.#.#.#.#.#.#.#.#.#.#.#.#.[ ! x g g k k k k k k x k k k x x x x x x x x x x x x x x x x C C C C C C C C C C C C C C C C C C Z S S S S S S F S Z Z Z Z Z Z Z D D D D D D D D D D D D D D D D D D J J J J P P J J J J J I P P P J Y U Y Y Y Y Y Y Y Y Y Y U U U Y Y Y Y Y Y Y Y Y Y Y Y Y Y Y Y U Y Y Y Y Y Y Y Y Y P Y Y Y Y Y Y Y Y Y Y Y Y Y Y Y Y Y P Y Y Y Y Y Y Y U Y Y Y Y Y Y Y U Y Y Y Y Y Y Y Y Y Y Y Y Y I P P P J J P J D J D D N P -.*.[ O.#.#.O.O.O.] ! T T P D D D A C C C C x g N N N S J P T #.] #.#.#.#.#.#.#.#.#.#.#.#.#.#.#.#.#.#.#.#.#.#.#.#.#.#.Y : ",
"-.#.#.#.#.#.#.#.#.#.#.#.#.#.#.#.#.#.#.#.#.#.#.#.#.#.] P [ D D D D S S S D D D D D J J J P P P P Y H g s g g g g j k k g g g g g g g g g g g g g g g g g g g g g g g g g g g g g g g g g g s s g s s g s s s s s s s s s s s v v s v v u p u u u u u u u u u u u u u u u u u u u u u u u g g g g s g g g g s s s s s s s s g g g g g g g g g g g g g g g g g x x x x x x x x x x x x x x x x x N N N N N N N N N N N N N N N N N C C C C C C C C C C C C C C C C C D D D D D D D D D D D D D D S A S D S S S C C [ *.[ #.#.#.#.#.#.#.#.#.#.#.#.#.#.#.#...[ ! D S A T -.*.T T Q [ ..#.#.#.#.#.#.#.#.#.#.#.#.#.#.#.] C J J I P P Y Y P Y P Y Y Y P Y Y Y Y Y Y P Y Y Y U Y Y Y Y Y Y Y Y Y P Y Y Y Y Y Y Y Y Y U U Y Y Y Y Y Y Y U Y Y Y Y U Y Y Y U Y Y Y Y Y Y Y Y Y Y U U U U U Y Y Y Y Y Y Y Y U U U U Y U Y U Y Y Y U U Y Y Y T T T T U T T T T U U U T T T U T T U U U U U U U U U T U U U U T T T T T U U T T T T T T T T T T T T T T T T T T T T T T T T T T T T T T T T T T T T T T T T T T T T U U U P P P P P P P D D C P -.*.O.#.#.#.#.#.#.[ Q T T P J D D A C C C C x k N N C S J P T #.] #.#.#.#.#.#.#.#.#.#.#.#.#.#.#.#.#.#.#.#.#.#.#.#.#.#.Y : ",
"-.#.#.#.#.#.#.#.#.#.#.#.#.#.#.#.#.#.#.#.#.#.#.#.#.#.] P ..D D D D S D D D D D P J J P Y P P P T T J g g g g x M M M M N N N N N N N N N N N N N C C C C C C C C C C C C C C C C C D D D D D D D S S D D D D D D D D G G G G G G D D J D G G G J J J P P P P P P P P P I P P P P P P P P I I P P P P P P P P P P P P P P P P P P P P P P P P P P P P P P P I I I P P P P P I I I P P P P P P P P P P P P P P P P P P P P P P P P P P P P P P P P P P P P P P I P P P P Y I I P Y Y P Y P P I P P J J D H D D D C *.*.O.#.#.#.#.#.#.#.#.#.#.#.#.#.#.#.#.#...Q J D S T -.-.Q T [ #.#.#.#.#.#.#.#.#.#.#.#.#.#.#.#.#.] C J P Y P Y Y U T T T U U U U U U U U T T T T T T T T T T T T T T T T T T T T T T T T T T T T T T T T T T T ! T T T T ! T T T ! T T T T T T ! ! Q ! ! ! ! ! ! ! ! ! ! ! ! ! Q Q Q Q Q Q Q Q Q Q Q Q Q Q Q Q Q Q Q Q Q Q Q Q Q Q Q Q Q Q Q ! ! Q Q Q Q ! Q ! ! Q Q Q Q Q ! ! ! Q Q Q Q Q ! ! ! ! ! Q Q Q Q Q Q Q Q Q Q Q Q Q Q Q Q Q Q Q Q Q Q Q Q Q Q Q Q Q Q Q Q Q Q Q Q Q Q Q Q Q Q ! ! T T T P P Y P P J Z P -.*.#.#.#.#.#.#.#...[ Q T P P D D S C C C C x k N C C S J Y Q O.] #.#.@.#.#.#.#.#.#.#.#.#.#.#.#.#.#.#.#.#.#.#.#.#.#.#.Y : ",
"-.#.#.#.#.#.#.#.#.#.#.#.#.#.#.#.#.#.#.#.#.#.#.#.#.O.] P #.J D D D D D D D D J P P P P P Y Y T T T P x A S D J J J P P P P P I I I I I I I I P P I I I P I P P P P P P P P P P P P P P Y Y Y Y Y P Y Y Y Y Y Y Y Y Y Y Y Y Y Y Y Y Y Y Y Y Y Y Y Y Y T Y Y T T T T Y T U U U U U U U U U U U U Y T T T T T T T T T T T T T T T T T T T T T T T T T T T T T T T T T T T T T T T T T T T T T T T T T T T T T T T T T T T T T T T T T T ! ! T T ! ! ! T T T T T T T T Q Q Q T U T Q T T ! T T Y T T P P P P J I D A #.-.O.#.#.#.#.#.#.#.#.#.#.#.#.#.#.#.#.#.#.Q J D S Q :.-.Q Q [ #.#.#.#.#.#.#.#.#.#.#.#.#.#.#.#.#.] C J Y T T T T Q Q Q ! Q Q ! ! Q Q Q Q Q Q Q Q Q Q Q Q Q Q Q Q Q Q Q Q Q Q Q Q Q Q Q Q Q Q Q Q Q Q Q Q Q Q Q ] ] ] Q Q Q Q Q ] ] ] Q Q Q Q Q ] ] ] Q Q Q Q Q Q Q Q Q Q Q Q Q ] ] ] [ [ ] ] ] ] ] ] ] ] ] Q Q Q ] ] ] ] ] ] ] ] ] ] ] Q Q Q Q Q ] ] Q ] Q Q Q Q Q Q Q Q ! ! ! ! Q Q Q Q ! ! ! ! ! U U U T T T T T T T T T T T T U U Y Y Y Y Y Y Y Y Y Y Y Y Y Y Y Y Y I I I I I I I P G G G D D D D D J P P J Z Y ,.*.O.#.#.#.#.#.#.#.[ Q T Y P H D S C C C C x k N C C D J T Q #.] O.#.@.#.#.#.#.#.#.#.#.#.#.#.#.#.#.#.#.#.#.#.#.#.#.#.Y : ",
"-.#.#.#.#.#.#.#.#.#.#.#.#.#.#.#.#.#.#.#.#.#.#.#.#.O.[ P #.P D D D J D D D P J J P T P P Y T T Y T T b S D P P P P Y Y Y Y Y U T T U U U U T T ! T T T ! T ! T T Q Q ! ! ! ! ! ! ! ! ! ! ! ! ! ! ! ! Q Q Q Q Q ! ! ! Q Q Q Q Q ! ! Q Q Q Q Q Q Q Q T Q Q Q Q Q Q Q T Q Q Q Q Q Q Q Q Q Q Q Q Q Q Q Q Q Q Q Q Q Q Q Q Q Q Q Q Q Q T Q Q Q Q Q Q Q Q T Q Q Q Q Q Q Q Q Q Q Q Q Q Q Q Q Q Q Q Q Q Q Q Q Q Q Q Q Q Q Q Q Q Q Q Q Q Q Q Q Q Q ! Q Q Q Q Q Q Q Q Q Q Q Q Q Q Q Q ! Q Q Q Q Q T T T T T T T Y P P Y D S #.:.#.#.#.#.#.#.#.#.#.#.#.#.#.#.#.#.#.#.#...P D D Q 2.-.Q [ ..#.#.#.#.#.#.#.#.#.#.#.#.#.#.#.#.#.] A P Y T T T T Y U U U U T T T T T T U T T T T U Y Y Y Y Y Y Y Y Y Y Y Y Y Y Y Y Y I I I I I I I I I I I I I I P P I G G G J J J J G G G G J J J J J G D D D D D D D D D D D D D D D D D D S S S S S S S S S S S S S S S S A A A A A A A A A A A A A A A A A A A A A A C C C C C C C C C C C C C C C C C C N N b b b b b b b b b b b x b x x x x x x x x x x x x x x x x x x x x h h g g g g s s g C #.P P J A P 2.=.[ #.#.#.#.#.#.#.[ [ Q T P J D D C A A C x k N C C D P T Q #.] #.#.@.#.#.#.#.#.#.#.#.#.#.#.#.#.#.#.#.#.#.#.#.#.#.#.Y : ",
"-.#.#.#.#.#.#.#.#.#.#.#.#.#.#.#.#.#.#.#.#.#.#.#.#.O.[ P #.J J D D D D D J J P P P Y Y T T T T T ! Y N D P Y T T T T T T T T T Q Q T T ! ! ! Q Q Q Q Q Q ! Q T ! Q Q Q Q Q Q Q Q Q Q Q Q Q Q Q Q Q Q Q Q Q Q Q Q Q Q Q Q Q Q Q Q Q Q Q Q Q Q Q Q Q Q Q Q Q Q Q Q Q Q Q Q Q Q Q Q Q Q Q Q Q Q Q Q Q Q Q Q Q Q Q Q ! ! ! ! ! ! ! ! T Q Q Q ! ! ! U T T T T T T T T T T T T T T T T Y Y Y Y Y Y Y Y Y Y Y Y Y Y Y Y I I P P P I I I I I I I P I I I I P J J G J J J J J J J J J J J J J G D D S A A A C C T Y I D S #.-.#.#.#.#.#.#.#.#.#.#.#.#.#.#.#.#.#.#.#...P D D Q 5.2.[ [ #.#.#.#.#.#.#.#.#.#.#.#.#.#.#.#.#.#.] A I T T J M M N N N N N N b b b b b b b b b b b b x x x x x x x x x x x x x x x x x x x x x x k k k k k k k k k k k h k k k k k k g g g g g g g g g g g g g g g g g g s g g g g g s s s s s s s s s s u u u u u u v u u u u u u u u u u u u u u u u u u u u u u t u u u u u u u u v v v u u u u u u u s g g g g g g g g g g g g g g g g g g g g g g g g g g g g g g g g x x x x x h g g g g g s k [ #.P P P Z T 2.-.#.#.#.#.#.#.#.#.#.[ Q T Y P D D A A A C x x C C A D K T Q @.] #.#.#.#.#.#.#.#.#.#.#.#.#.#.#.#.#.#.#.#.#.#.#.#.#.#.Q : ",
"-.#.#.#.#.#.#.#.#.#.#.#.#.#.#.#.#.#.#.#.#.#.#.#.#.O.[ T #.J J J D D D J J J P T Y P T Q T T ! ] Q P C D P Y Y J J J P P P P P P P P P P P P P P P P P I P P P P P J G G G G G G G G G G G G G G G G D D D D D D D D D D D D D D D D D Z Z Z Z S S S S Z Z Z Z S S S S Z C C C C C C C C C C C C C C C C C C C C C C C N N N N N N N N N N N N N N N N N N b b b b b b b b b x x x x b x x x x x x x x x x x x x x x x x x x x x x x x x x x x x x x x x x x x x h h h h h h h h h g g g g g s s s u T ..Y I G D #.=.#.#.#.#.#.#.#.#.*.#.#.#.#.#.#.#.#.*.#...Y J H Q 5.5...[ #.#.#.#.#.#.#.#.#.#.#.#.#.#.#.#.#.#.] A I T ! P g t t t v v s s s s s s s s s s g s g g g g g g g g g g g g j j j j g g g k k x x x x x x x x x x x x x x x x x M x x b N N N N N N N N N N N N C C C C C C C C C C C C C C C C C C S S S S S S S S S S S S S S S S D D D D D D D D D D D D D D D D D D D D D D D D D D D D D D D D D D D D D D D D D D D D D D H D D D D D D H H H G G G G G G G G J J J J J G G G G D D D D S S C x A [ #.P P P D T ,.-.#.#.#.#.#.#.#.#.#.#.Q Q T P H D D S A A x x C A S D K T ] @.] #.#.#.#.#.#.#.#.#.#.#.#.#.#.#.#.#.#.#.#.#.#.#.#.#.#.Q : ",
"-.#.#.#.#.#.#.#.#.#.#.#.#.#.#.#.#.#.#.#.#.#.#.#.#.O.[ Y @.P J H D J D D J P P P Y T T T T Q ! Q ] T C D P U P x g k x x x x x x x x x x x x x x x x x x x x k k x x x x x x x h h h h h h h h h h h h h g g g g g g g g g g g g g g g g g g g g g g g g g g g g g g g g g g g g g p p p s s g g p p s s s s g g g g g g g g g g g g g g g g g g g g g g g g g g g g g g g g g g g k k k k k h h k k k k h k k k h h x x x x x x x x x x x x x x x x x x x k k x x x x x x x x x x k k k k k x x k C #...Y Y I S #.-.#.#.#.#.#.#.#.#.#.#.#.#.#.#.#.#.#.#.#.#.Y J J [ 6.5.O.#.#.#.#.#.#.#.#.#.#.#.#.#.#.#.#.#.#.#.] A P T ! P C Z S D D D D D D D D D D D D D D D G G G G G G G G J J J J J J J J J J J J J J J J J J J J J J J J J J J P P P J J P P P P P P P P P P P P P P P P P P P P P P P P P P Y Y Y Y Y Y Y P P P P P P P P P P P P P Y U U U U P P P P T T T T T T T T T T T T T T T T T T T T T T T T T T T T T T T T T T T T T T T T T T T T T T T T T T T T T T T T T T T T T T T T T T T Y P P I P C C Z Q ..P Y P D T 5.-.#.#.#.#.#.#.#.#.#.#.[ Q T Y P D D S S A x x C S S H P T ] *.] #.#.#.#.#.#.#.#.#.#.#.#.#.#.#.#.#.#.#.#.#.#.#.#.#.#.Q ; ",
"-.#.#.#.#.#.#.#.#.#.#.#.#.#.#.#.#.#.#.#.#.#.#.#.#.O.[ Y *.P J D J J J D J P P P T T T T T Q Q T ] T C D I T Y x s g g g g g g g k k k j g j j k k k x x x x x x x x x x x x x x x x x x x x x x x x x N N N N N N C C C C C C C C C C C C C C A A A A A C A A A A A A A A D D D F F F D D D D D D D D D D D D D D D D D D D D D D D D D D D D D D D D D D D D D D D D D D D D D D D D D D D D D D D D D D D D D D D D D D D D D D D D G G D D D G G G G G D D D D D D D D J J J J D D D D S S S D S #.#.Y T P D #.:.#.#.#.#.#.#.#.#.*.#.#.#.#.#.#.#.#.*.#.#.T J J [ 6.5.O.#.#.#.#.#.#.#.#.#.#.#.#.#.#.#.#.#.#.#.] A I U ! Y C P D Y Y Y T T T T T T T T T T T T T T T T T T T T T ! ! T T T T T T T T T T T ! ! ! ! ! ! ! ! ! ! ! ! ! ! ! ! ! ! ! ! ! ! ! ! ! ! ! Q Q Q Q Q ! ! ! ! ! ! T ! T T ! ! Q Q Q Q Q Q Q T T ! ! ! ! ! ! ! ! ! ! ! Q Q Q Q Q ! ! ! ! Q Q Q Q ! ! ! ! ! ! ! ! ! ! ! ! ! T ! ! ! ! ! ! ! ! ! ! ! ! ! ! ! ! ! ! ! ! ! ! ! ! ! ! T ! ! ! ! ! T T T T T T ! ! T T T T T T Y T T Y P P I J D A S Q ..Y Y P D T 5.2.#.#.#.#.#.#.#.#.#.#.#.[ T T P J D D D S x x Z S S J Y T ] *.] #.#.#.#.#.#.#.#.#.#.#.#.#.#.#.#.#.#.#.#.#.#.#.#.#.#.Q ; ",
"-.#.#.#.#.#.#.#.#.#.#.#.#.#.#.#.#.#.#.#.#.#.#.#.#.#.[ T #.P J J J J J J P P P T T T T Q Q Q ] ] [ T C D Y T U N C A A S S S S D D D D D D D D D D D G G G G G G G G G G G G G G G G G G G G G G G J J J G J J P P P P P P P P P P P P P P P P P P P P P P P I I I P P P P P P P I I P P P P P P P P P P P P P P P P P P P P Y Y Y Y Y Y Y Y Y Y Y Y Y Y Y Y Y Y Y Y Y Y Y Y Y Y Y Y Y Y Y Y U U T T T T U U U U U U U U U U U U U U U U U U U U U U U U U Y Y Y Y Y U U U T T T U I Y I I J H J D S ..*.T Y J D *.:.#.#.#.#.#.#.#.#.#.#.#.#.#.#.#.#.#.#.#.#.T J J [ 6.5...O.O.#.#.#.#.#.#.#.#.#.#.#.#.#.#.#.#.#.] A I T Q P C I P T T T T T T T T T T T T T T T T T T T T T T T ! ! ! ! ! ! T T ! T T T T ! ! ! ! ! ! ! ! ! ! ! ! ! ! T T ! ! ! ! ! ! ! ! ! ! ! ! Q Q Q Q Q ! ! ! ! T T ! ! ! T ! ! Q Q Q Q Q Q Q Q Q ! ! ! ! ! ! ! ! ! ! ! Q Q Q Q Q ! ! ! ! Q Q Q Q ! ! T T ! ! ! ! ! ! ! ! ! ! ! ! ! ! ! ! ! ! ! ! ! ! ! ! ! ! ! ! ! ! ! ! ! ! ! ! ! ! ! ! ! ! T T T T T T T T T T T T T Y Y P P P P P P P H D D Q #.T T P D T 5.2.#.#.O.#.#.#.#.#.#.#.#.[ Q T P J D D D S N x S D D J P Q [ *.[ #.#.#.#.#.#.#.#.#.#.#.#.#.#.#.#.#.#.#.#.#.#.#.#.#.#.Q ; ",
"-.#.#.#.#.#.#.#.#.#.#.#.#.#.#.#.#.#.#.#.#.#.#.#.#.#.O.T #.P P P J J J P P P Y T T T Q [ [ Q [ #.O.T Z P U U U C S H J P P P P T T T Y Y Y Y Y Y Y Y U U U U U U U U U U U U U U U U U U U U U U U U U T T T T T T T T T T T T T T T T T T T T T T T T T T T T T T T T T T T T T T T T T T T T T T T T T T T ! ! T T T ! Q Q Q Q Q Q ! ! Q Q ! Q ! Q Q ! ! ! ! ! Q Q Q Q ! ! ! ! ! ! ! ! ! ! ! ! Q Q Q Q ! ! ! ! ! ! ! ! ! ! ! ! ! ! ! Q ! ! ! ! ! ! ! ! Q Q Q Q Q Q Q Q Q T T T Y I I I I P P J D S ..*.T P P D *.-.#.#.#.#.#.#.#.#.#.#.#.#.#.#.#.#.#.#.#.#.T J J [ 6.5...O.O.#.#.#.#.#.#.#.#.#.#.#.#.#.#.#.#.#.] A I ! Q I C P Y P T T T T T T T T T T T T T T T T T T T T T T ! ! ! ! ! ! T T ! T T T T ! ! ! ! ! ! ! ! ! ! ! ! ! ! ! ! ! T T ! ! ! ! ! ! T T ! Q Q Q Q Q ! T T T T T T T T T T T ! ! ! ! ! ! ! U P P P P P P P P P P P P P U U U I J J J J I I I I J J J J J J J J D D D D D D D D H H H D D D D D D D S S S S S S S S S S S S S S S S S A C C C C A C C C C C C C C N N N N x x x x P P P J D S Q *.T T Y D ! 5.2.#.O.O.#.#.#.#.#.#.#.#.O.[ T P P D D S S N x S D D J P Q #.-.] #.#.#.#.#.#.#.#.#.#.#.#.#.#.#.#.#.#.#.#.#.#.#.#.#.#.Q ; ",
"-.#.#.#.#.#.#.#.#.#.#.#.#.#.#.#.#.#.#.#.#.#.#.#.#.#.O.T *.P P P P P P P P P T T Q Q Q [ [ ....O.#.Q S P T T U C D J Y Y Y T T T T ! ! ! ! ! ! ! Q Q Q Q ! ! Q ! Q Q Q Q Q ! Q Q Q Q Q Q ! Q Q Q ) Q Q Q Q Q Q Q Q Q Q Q Q Q Q Q Q Q Q Q Q Q Q Q Q Q Q Q Q Q Q Q Q Q Q Q Q Q Q Q Q Q Q Q Q Q Q Q Q Q Q Q Q Q Q Q Q Q Q Q Q Q Q Q Q Q Q Q Q Q Q Q Q Q Q Q Q Q Q Q Q Q Q Q Q Q Q Q Q Q Q ) Q Q Q Q Q Q Q Q Q Q Q Q Q Q Q Q Q Q Q Q Q Q Q Q Q Q Q Q Q Q Q Q Q Q Q Q Q Q Q Q ! Y Y Y P I I G G P P J D D ..*.T T P D *.-.#.#.#.#.#.#.#.#.#.#.#.#.#.#.#.#.#.#.#.#.T J J [ 6.5...O.#.#.#.#.#.#.#.#.#.#.#.#.#.#.#.#.#.#.] A P T ! Y A P T T Y S S A S S S S S S S D D S S S C C C C C C C C C C C C C C C C C C N N N N M M M M M M M M M M M M M x x k x x x k k k k k k x x x x x k k k k k k k k k k k k k h h h h h k k j j j g g g g g g g g g g g g g g g g g g g g g g g g s s s s s s s s s g s s s s s u u u u u g g g g g g g g g s s s s s s s s s g g g g g g g g g g g g g g g g g g g g g s u t D #.P P J D D Q *.T T Y D T 5.2.#.#.O.#.#.#.#.#.#.#.#.#.[ Q T P D D D D C x D D D J T Q #.-.[ #.@.#.#.#.#.#.#.#.#.#.#.#.#.#.#.#.#.#.#.#.#.#.#.#.#.Q : ",
"-.#.#.#.#.#.#.#.#.#.#.#.#.#.#.#.#.#.#.#.#.#.#.#.#.#.O.T *.Y P P P P P P P T T T Q [ [ Q ..#.#...#.Q D P T ! U C D P U U T T T T T Q Q ! Q Q Q Q Q Q Q Q Q Q Q Q Q Q Q Q Q Q Q Q Q Q Q Q Q Q Q Q ! ! ! ! ! ! ! ! ! Q Q Q Q Q Q Q ! ! U U T T T T T T T T T U U U T T T P P P P P P P P P P P P P P P P P J J J J J J J J J J J J J J J J J J D D D D D D D D D D D D D D D D D Z Z Z Z Z Z Z Z Z S S S S Z Z Z Z Z C C C C C C / / / C C N N N N b b x x x x x x x x h h g g g g g g s s Y Y I D D D ..*.T T P D *.-.#.#.#.#.#.#.#.#.#.#.#.#.#.#.#.#.#.#.#.#.T J J #.6.5...O.#.#.#.#.#.#.#.#.#.#.#.#.#.#.#.#.#.#.] A P T ! Y A P T T P s u u u u u u u u u s p g g g g g g g g g g g g g g g g g h h h h h h h k h h h h h k h k k x x x x x x x x x x x x x x x x x x x b N b b M N N N N C C C C C C C C C C C C C C C C A A A A A A A A A S S S S Z Z Z Z Z S S S S S S S S D D D D D D D D D D D D D D D D D D D D D D D D D D D D D D D D D D D D D D D D D D D D D D D D D D D D D D D Z Z A x h P #.P P J D D Q *.T T P D T 5.2.#.O.O.#.#.#.#.#.#.#.#.#.[ Q T P D D D D C x D D D J T Q #.-.[ #.#.#.#.#.#.#.#.#.#.#.#.#.#.#.#.#.#.#.#.#.#.#.#.#.#.Q : ",
"-.#.#.#.#.#.#.#.#.#.#.#.#.#.#.#.#.#.#.#.#.#.#.#.#.#.#.T -.T P P P P P P Y T T Q Q [ ..#.#.#.#.#.#.Q D P T ! U C D I U T D C x x x N b b b b / / / b b N N b x x x x x x x x x x x x x x x x x x k k k k k h k k h h h h g h g g g g g g g g g g g g g g g g g g g g g g g g g g g s s s s s s s s s s s s s s s p p u u u u u u u s p p s s s s s s s u u u u u u u u g g g g g g s g s g g g g g g s s g g g g g g g g g g g g g g g g g h h h h h k k k k k h h h h g g g g g g g s b #.Y I J D D ..*.T T P D *.2.#.#.#.#.#.#.#.#.#.#.#.#.#.#.#.#.#.#.#.#.T J J #.6.5...#.#.#.#.#.#.#.#.#.#.#.#.#.#.#.#.#.#.#.] A P T Q Y A P T Y P b N A Z S D D D D D D D D D D D D D D D G G G G G G G J J J J J J J J J J G G G G J J J J J J J J J J J J J J J J J J J J J G G G ^ P P P P P P P P P P P P P P P P P ^ P P P P P P P P P P P P P P P P P P P P I I I I I I I I I I I I I I I I I I P P P P P P I I I I I I I I I I P P I I I I P P P I I P P P P P P P P I I Y Y Y Y I I P J J D G D D D A N x P #.J P J D D Q *.Q T Y D T 5.,.#.#.O.#.#.#.#.#.#.#.#.#...Q T P J D D D C M D D D J T Q #.-.[ #.#.#.#.#.#.#.#.#.#.#.#.#.#.#.#.#.#.#.#.#.#.#.#.#.#.Q : ",
"-.#.#.#.#.#.#.#.#.#.#.#.#.#.#.#.#.#.#.#.#.#.#.#.#.#.#.Q -.T Y Y Y Y Y Y T T Q [ [ [ #.#.#.#.#.#.#.Q D P T ! T C D I U T A u s s p g g g g g g g g g h h h h h h k k k k k k c c x x k c x x x x x x x x x x b b x x x x x C N N N N N N N N C C C C C C C C C C C C C C C C A A A A A C C C C C Z F S S S S S Z Z Z Z Z Z S S S S Z Z Z D D D D D D D D D D D D D D D D D D D D D D D D D D D D D D D D D D D D D D D D D D D D D D D D D D D D D D D D D D D D D D D D Z Z Z A C C b Z #.Y I I D D ..*.T T P D *.2.#.#.#.#.#.#.#.#.#.#.#.#.#.#.#.#.#.#.#.#.T J J #.6.5...#.#.#.#.#.#.#.#.#.#.#.#.#.#.#.#.#.#.#.] A P T Q Y A P T P P C D D D D D D D D D D D J P J P I P J P P P P I I Y Y Y Y Y Y Y Y Y Y Y Y Y Y Y Y Y P Y Y Y Y Y Y Y Y Y U Y P Y U Y Y Y U Y I U U U Y U U U Y U U U Y U U U Y U T U Y U U U Y U U U Y U U U Y U T U Y U T U Y U U U Y U ~ U Y U T U Y U ~ U Y U ~ U Y U ~ U Y T T U Y U ~ U Y U T U Y U T U U U T U Y U T T U T T T T T T T U T T T U U U P P P J P D D D S C b P ..J P J D D [ =.Q T T D T 5.,.#.#.O.#.#.#.#.#.#.#.#.#...Q T P J D D D C x D D D J Y Q #.-.[ #.#.#.#.#.#.#.#.#.#.#.#.#.#.#.#.#.#.#.#.#.#.#.#.#.#.Q : ",
"-.#.#.#.#.#.#.#.#.#.#.#.#.#.#.#.#.#.#.#.#.#.#.#.#.#.#.! -.T T Y Y Y Y Y T Q Q [ [ #.#.#.#.#.#.#.O.Q D P T ! T C D P U T Z N C C A Z Z Z Z Z D F D D D D D D D D D D D D D D D D D D D D D D D D D D D D D D D D D D D D G G G J J J J J J J P J J J J J J J J J J J J P P P J J J J J P P P P P P P P P P P P P P P I I I I I I P P I I P P P P P P P P P P P P P P P P P P P P P P P P P P P I Y Y Y I P P P P Y Y Y Y Y Y Y Y Y Y Y Y T T T T T T T T T T T Y Y P I P P G G G D D C D #.I P P D D #.*.! T P D @.:.#.#.#.#.#.#.#.#.#.#.#.#.#.#.#.#.#.#.#.#.T J J #.6.5...#.#.#.#.#.#.#.#.#.#.#.#.#.#.#.#.#.#.#.] A P T Q U A P T Y P C D G G G J J J J J J J P Y Y Y Y T Y T T T T T T T T T ! T T T T T ! T T T T T T T T T T T U T T T T T T T T T T T T T T T T T ! T T ! T T T ! ! ! ! ! T T T T T T T ~ ~ ! T ! T T T T T U T ! T T T U T ! ! ! ! U T ! T T T T T ! T ! T ~ T ~ T ! T T U U U U ! T U ! ! ! U ! ! U U U T ! ! ! T T T U U T T T T T T T ! ! ~ T ! T T U U T Y P P P J J D D A N ! #.J P J D K [ =.Q ! T D T 2.2.#.#.#.#.#.#.#.#.#.#.#.#...Q T P J D D D C x D D D J T Q #.-.[ #.#.#.#.#.#.#.#.#.#.#.#.#.#.#.#.#.#.#.#.#.#.#.#.#.#.Q : ",
"-.#.#.#.#.#.#.#.#.#.#.#.#.#.#.#.#.#.#.#.#.#.#.#.#.#.#.! -.T T Y U T T T T Q Q [ ..#.#.#.#.#.#.#.O.Q S J T ! T C D Y T U D C D D D G G G G P ^ G P I I I P U Y P T T T T T Y I I I Y T T T T T T T T T T T T P P P P P P P Y T T T T T T T T T T T T T T T T T T T T T T T T T P P T T T T T T T T T T T T T T T T T T T T T T T T T T U T T T T T T T T T T T T T T T T T T T Y Y U Y P Y U Y Y T T U Y Y T Y Y U T T Y T T T Y U U U U T T T T T T T T T T T T Y Y P I P ^ G G D D A J #.P I P G J #.*.! T P D #.:.#.#.#.#.#.#.#.#.#.#.#.#.#.#.#.#.#.#.#.#.T J J ..5.5...#.#.#.#.#.#.#.#.#.#.#.#.#.#.#.#.#.#.#.] A P T Q T A P T T P N D G I J J P J J P P P P Y Y Y P T T T T T T T T U T T ! T T T T T Q T U T Q T T T ! T T T T ! ! ! ! ! U T Q ! U U T ! U ! Q ! ! Q Q Q U ! Q ! ! ! Q Q T ! Q ! ! T ! ! ~ ! Q ! T T ! ! U U T ! ! T Q T U ! ! ! ! T Q ! T ! Q T T ! ! ! ~ T ! T ~ ! Q ! U T T T ! ! T ! ! ! T ! ! ~ T U T ! Q ! T T T T T T Q T T T T Q Q ! ! ! ! T Q T T T T Y P P J J H D S N *.*.K P J D Y [ -.Q ! T D T 2.,.#.#.#.#.#.#.#.#.#.#.#.#...Q T P J D D D C M D D D K T Q #.-.[ #.#.#.#.#.#.#.#.#.#.#.#.#.#.#.#.#.#.#.#.#.#.#.#.#.#.Q : ",
"-.#.#.#.#.#.#.#.#.#.#.#.#.#.#.#.#.#.#.#.#.#.#.#.#.O.@.Q -.! T T T T T T T Q [ ..#.#.#.#.#.#.#.#.O.Q D P T Q ~ A G T T T D A D D D P P P P P I I I Y Y Y U T T T T T T T T T T T T T T T T T T T T T T T T T T T T T T T T T T T T T T T T T T T T T T T T T T T T T T T T T T Q Q Q T T T T T T T T T T T T T T T T T T T T T T T T T T T T T T T T T T T T T T T T T T T T T T ! ! ! ! Q Q Q T T T T T Q Q Q Q T T T T T T T T U U U U T T T T T T T T T T T T U Y P P I P ^ J D D Z T *.P P P G P #.-.! T P D #.:.#.#.#.#.#.#.#.#.#.#.#.#.#.#.#.#.#.#.#.#.T J J ..5.5...#.#.#.#.#.#.#.#.#.#.#.#.#.#.#.#.#.#.#.] A P ! Q T C P T T P C D G I I P P P P P P P Y U Y Y Y T T T T T T T T T T ! Q Q Q T ! ! ! T T T Q Q T T ! ! ! T U ! ! ! ! T T ! ! ! T U ! ! ! ! ! ! ! ! ! ! ! ! ! ! ! ! ! ! ! ! ! ! ! ! ! ! ! ! ! ! ! T ! ! T T U U ! T ! T T ! ! ! ! T ! ! T ! ! U T ! ! ! T T ! T T ! ! ! T T T T ! ! T ! ! ! T ! ! T T U T ! ! ! U T Q Q ! ! ! T T T T Q Q Q Q Q ! T Q Q Q T T P P P P J J D S N 4.*.J P P D | [ -.Q ! T D T 2.,.#.#.#.#.#.#.#.#.#.#.#.#.O.[ ! P J D D D C M D D D P T Q #.-.[ #.#.#.#.#.#.#.#.#.#.#.#.#.#.#.#.#.#.#.#.#.#.#.#.#.#.Q : ",
"-.#.#.#.#.#.#.#.#.#.#.#.#.#.#.#.#.#.#.#.#.#.#.#.#.O.@.Q ,.! T T T T T T Q Q [ #.#.#.#.#.#.#.#.#.O.Q D P T Q ~ A D T T T D S D P J G P I P ^ I P I I Y U U Y T T T T T T T ! Q Q Q Q T T T T ! T T T T T T T Q Q Q Q Q Q Q Q T T T T T T T T T T T T T T T T T T T T T T T T Q Q Q Q Q T T T T ! T T T T T T T T T T T T T T T T T T T T T T T T T T T T T T T T T T T T T T T ! ! T ! ! ! T ! Q T T T ! Q T T Q T T T T T T T ! T U T T T T T Q ! Q ! T Q T T T T T T Y P I P J J D Z 1.4.P P P G ! #.-.! ! P D #.:.#.#.#.#.#.#.#.#.#.#.#.#.#.#.#.#.#.#.#.#.T J P ..5.5...#.#.#.#.#.#.#.#.#.#.#.#.#.#.#.#.#.#.#.] A P ! Q T C P T P P C D G P I P J P P P P P T U U U Y T Y T T T T T T ! U ! Q Q Q T Q ! U ! ! T T Q Q ! T ! ! ~ ~ ! ! ! ! T T ! ! ! ! U ! ! ! ! ! ! ! ! ! ! ! ! T ! ! ! T ! ! ! T ! ! ! T ! ! ! T T ! T U T ! T Y U T T U T T T U T ! T T U T U U U T T U T T T U T T ~ U U T T U U T ~ U T T U U ~ U T U U T ~ U U U T T T T T U T T T Y T T T T T T T Q ! T T T P P P P J J D A N p.1.J P P D 1.-.=.[ ! T D ] 2.,.#.#.#.#.#.#.#.#.#.#.#.#.#.[ T P J D D D C M S D D P T Q #.-.[ #.#.#.#.#.#.#.#.#.#.#.#.#.#.#.#.#.#.#.#.#.#.#.#.#.#.Q : ",
"2.#.#.#.#.#.#.#.#.#.#.#.#.#.#.#.#.#.#.#.#.#.#.#.#.O.O.Q -.! T T T T T T Q Q [ O.#.#.#.#.#.#.#.#.O.Q D P T Q U A D T T T D S D J I I P P P I P Y Y Y U U T T T T T T T T T ! Q Q Q Q ! ! T T T T T T ! T T ! ! ! ! ! T ! ! ! T T T T T T T T T T T T T T T T T T T T T T T T T T T T T T T T T T T T T T T T T T T T T T T T T T T T T T T T T T T T T T T T T T T T T T T T T T T T T T T T T T T T T T T T T T T T T T T T T T T T T T T T T Q T Q ! ! ! T T T T T T Y Y I P J J D Z i.r.P P P G [ #.-.! ! P D #.:.#.#.#.#.#.#.#.#.#.#.#.#.#.#.#.#.#.#.#.#.T J ! *.5.5...#.#.#.#.#.#.#.#.#.#.#.#.#.#.#.#.#.#.#.] A P ! Q T C P T T P C D ^ P P P P P P P P P Y U U T Y T T T T T T T T T T T T ! ! T ! T U T U T ! ! ! ! T T ! T ! ! ! ! ! ! T ! ! ! T T ! ! ! ! ! ! ! U ! ! ! U ! ! ! ! ! U T U T T T ! ! ! ! ! ! ~ U ~ U T T T T T U ~ Y ~ Y ~ T ~ ~ T T T P P T U ~ T T T T T T T T ~ U U U T U Y T U ~ U T Y U U Y T T T T ~ ~ U U T T T U U ~ T T Y T T T T T T T T ! ! T T T T Y P P J J D D C L.r.J P P D r.8.*.[ ! T D [ 2.,.O.#.#.#.#.#.#.#.#.#.#.#.#.Q T P J D D D C x ! Y J P T Q #.-.] #.#.#.#.#.#.#.#.#.#.#.#.#.#.#.#.#.#.#.#.#.#.#.#.#.#.Q : ",
"2.#.#.#.#.#.#.#.#.#.#.#.#.#.#.#.#.#.#.#.#.#.#.#.#.O.O.! -.! T T T T T T Q Q [ ..#.#.#.#.#.#.#.#.O.Q D P T Q ~ A D T T T D S D G I I P P P P P P Y U U Y T T T U T T T T T ! ! T ! ! ! T T ! T T T T T T T ! T T T T T T T T T T T T T U T T T U T T T U T T T U T T T U T T T T T T T U T T T T T T T U T T T U T T T U T T T U T T T U U T T U T T T U U T T U T T T U T T T U U T U Y U T T U U T T U T T T U U T U U U T T U U T U U T ! T T T Q ! T T T T T T T U Y I P P J J D Z n.f.Y P P J 4.-.-.! ! P G #.:.#.#.#.#.#.#.#.#.#.#.#.#.#.#.#.#.#.#.#.#.T J [ 1.5.5...#.#.#.#.#.#.#.#.#.#.#.#.#.#.#.#.#.#.#.] C P ! Q T A P ! T P C D P P J I P P P P Y Y Y U T T Y Y T Y P Y T Y Y T T T T T ! U U Y U Y P U T ~ U ~ T T U T ! T U U T U U U T U U T T T U T T U U U T T U U T T U U T U U U T U U T T T U U ! U Y U T U U T T U Y U T T P U ! ~ Y U U Y P P T Y Y T T U U U T U Y U U Y Y U U Y Y U T U Y Y U U U U T Y Y U U Y P Y U Y P Y T U Y Y T T Y T T T Y T T T T T T T P P I P J D D C :Xl.P P P H x.y.*.[ ! T D <.5.,.O.#.#.#.#.#.#.#.#.#.#.#.O.Q T P J D D D C x 4.*.D P T ) #.-.] #.#.#.#.#.#.#.#.#.#.#.#.#.#.#.#.#.#.#.#.#.#.#.#.#.#.Q : ",
"2.#.#.#.#.#.#.#.#.#.#.#.#.#.#.#.#.#.#.#.#.#.#.#.#.#.#.Q -.T T T T T T T Q Q [ #.#.#.#.#.#.#.#.#.#.Q D P T ! ~ A D T T T D S D J I P P I P P Y P T U T U U U T U T T T T T T T T T T T T T T T T T T T T U T T T T T T T T T T T U Y T U T T T U T U U T U U U U Y U T T T T T T T T U U T U U T T T T T U T T T U T T U T U T T U U T T U U T T T U U U U U U T T U T T T T U U U U T T T T T T T T U U T T T T T T T T U U T T U U T T T T T T T T T T T T T T T T U Y P I P J J D Z P.n.Y Y I P 3.e.-.Q Q Y J *.:.#.#.#.#.#.#.#.#.#.#.#.#.#.#.#.#.#.#.#.#.T J [ 8.5.5...O.O.O.#.#.#.#.#.#.#.#.#.#.#.#.#.#.#.#.] C I ! Q T S P ! T P C D P I I P P P I P P Y U U U U Y Y Y Y Y Y Y Y Y T T T T U T U U Y Y Y Y U U U U U T U U U U U U U U U U U U U U T U U U T U U U U U T U U U U U U U ~ T U U U T T T U U U U Y Y U U U U U Y Y Y Y U T Y Y U T Y Y Y P P P P Y Y U U Y U U Y Y P Y Y Y Y Y P Y Y Y Y Y Y Y Y Y U Y Y Y P U Y P Y Y Y Y P I Y Y Y Y Y Y Y T T T T T T T ! T T T Y P I P P D D C 6Xb.P P P J b.H.*.[ ! T D r.9.,.#.#.#.#.#.#.#.#.#.#.#.#.#.Q T P J D D D C N u.3.D P T ) #.-.[ #.#.#.#.#.#.#.#.#.#.#.#.#.#.#.#.#.#.#.#.#.#.#.#.#.#.#.: ",
"2.#.#.#.#.#.#.#.#.#.#.#.#.#.#.#.#.#.#.#.#.#.#.#.#.#.#.Q -.Q T T T T T T Q Q [ #.#.#.#.#.#.#.#.#.#.Q D P T ! T A D T Q T D S D P I P I P P P Y U Y Y T T U Y T T T Y T T T Y T T T U U T T U T T T Y U T U U T T T Y T T U U U T Y Y T U T Y U U Y Y T T U Y Y T Y P Y T U Y U T T Y T T Y Y U T T T T T Y Y Y T T U T U T Y Y T T Y U T T Y T T Y Y Y T U Y Y T U Y T T T Y U T Y Y Y T Y Y T T T Y U U U Y U T U Y U T U Y T T U Y T T T U T T T T T T T T T T T T U U Y P I I J D S v.Y.Y U I P 9.x.-.Q Q U P *.:.#.#.#.#.#.#.#.#.#.#.#.#.#.#.#.#.#.#.#.#.T J 1.2.5.5...O.O.O.#.#.#.#.#.#.#.#.#.#.#.#.#.#.#.#.] C I ! Q T A P ! T P C D J I P P I I Y Y P Y T U Y Y Y Y P Y Y Y Y Y T Y Y Y T U U T T Y Y Y U U Y U U Y Y U U Y Y U U U Y U T U Y U U U Y U T U Y Y T U Y U U U Y U Y Y Y U T U Y U U U U U ~ U Y Y Y U Y Y Y Y P I U I I Y U Y Y Y U Y P P P P P P Y Y Y Y Y Y I I P P I Y Y P P Y Y Y P Y Y Y I Y Y Y P Y P P P P Y Y P I P I I Y Y Y P Y Y Y P Y T T T T Q T T T T Y P I P J D C iXV.P Y Y J M.[.*.[ ! T D x.t.,.#.#.#.#.#.#.#.#.#.#.#.#.#.Q T P J D D D C x G.p.P P T Q #.-.[ #.#.#.#.#.#.#.#.#.#.#.#.#.#.#.#.#.#.#.#.#.#.#.#.#.#.#.: ",
"2.#.#.#.#.#.#.#.#.#.#.#.#.#.#.#.#.#.#.#.#.#.#.#.#.#.#.Q -.T T T T T T T Q Q [ #.#.#.#.#.#.#.#.#.#.Q D P T Q ! A D T Q T D S D P I I I P P P Y Y Y U T T T U U U T U T T T T T T T T U T T T T T T U T T U T T U U U U Y U U Y T Y Y U Y U Y Y Y Y Y Y Y U Y Y U Y P Y U Y Y Y Y T Y Y Y Y Y Y Y Y Y Y Y Y Y Y Y U Y Y Y Y Y Y Y U Y U Y Y Y Y Y Y Y Y Y Y Y Y U Y Y Y Y Y Y Y U Y Y Y Y Y Y Y U Y Y Y U Y Y Y Y Y Y Y Y Y Y U U Y Y Y T T T T T T T T T T T T ! T T T U Y P Y P P G D M.Q.Y U I P w.H.-.Q Q U Q 8.:.#.#.#.#.#.#.#.#.#.#.#.#.#.#.#.#.#.#.#.#.T J r.y.5.5...O.#.#.#.#.#.#.#.#.#.#.#.#.#.#.#.#.#.#.] C I ! Q T A P T Q Y C H P P P Y Y P Y Y Y T U Y Y Y I Y Y P P Y Y Y Y P P P U Y U Y U Y Y Y Y Y P Y Y P Y Y Y Y I Y Y Y Y Y Y Y Y Y Y Y Y U Y Y Y P Y Y Y Y Y Y Y Y I I Y Y Y Y Y P P P Y Y Y Y Y P I Y Y Y P P I I I I I Y Y P P P P P P P P P P P I I I Y Y P P I I P I P P I I P P P P P P I P I I P P P P P I P P I P I I I I I I I P P P P P P P T T T T T T T T Y Y P P J D C iXV.Y Y Y P M.6X*.[ ! T D L.f.,.#.O.#.#.#.#.#.#.#.#.#.#.#.Q T P J D D D C x F.8.*.Q T [ #.,.[ #.#.#.#.#.#.#.#.#.#.#.#.#.#.#.#.#.#.#.#.#.#.#.#.#.#.#.: ",
"2.#.#.#.#.#.#.#.#.#.#.#.#.#.#.#.#.#.#.#.#.#.#.#.#.#.#.Q -.T T T T T T T ! Q [ ..#.#.#.#.#.#.#.#.#.Q D P T Q ! A D T ! T D D D ^ I Y I I P P Y Y T T Y Y Y T Y P Y T U Y Y T T Y T T T Y T T T Y Y T Y Y Y T U Y U T U P Y T Y Y Y T Y P Y U Y P Y Y P P Y Y Y P P Y P P Y Y P I P Y P P Y Y P I P P P P P Y P P P Y P P P P P P P P P I P Y P P P Y P P P Y P P P P P P P P P P P P P P P P P P P P P I P P P P P P P P P P P P P P P P P Y P P P Y P P P T T T T T T U U Y Y P P J D M.Q.U T I I t.`.-.Q Q U #.x.:.#.#.#.#.#.#.#.#.#.#.#.#.#.#.#.#.#.#.#.#.T J p.m.5.5...#.#.#.#.#.#.#.#.#.#.#.#.#.#.#.#.#.#.#.[ A P ! Q T A P T Q U C J P Y Y U T U Y U U U Y Y Y P J P I I P P P P P P Y P P P Y P I I I I P I Y P P P P I P P Y P P P Y I J P P P I Y Y Y I I Y P I P Y I I I Y I I I Y P I I I J P P P I P I I I P I I P D P I P G P I P P P P P J J P G D G J D D D G G D G J G D G J D D D D D D D G D D D D D D D D D D D D D D D D D D D D D D D D D D D D D D D T T T T T T T T U P P J D C aXV.U Y Y P M.pX*.[ ! T D [.Y.2.#.O.O.#.#.#.#.#.#.#.#.#.#.] T P J D D D C x *XF.4.[ T [ #.1.] #.#.#.#.#.#.#.#.#.#.#.#.#.#.#.#.#.#.#.#.#.#.#.#.#.#.#.: ",
"2.#.#.#.#.#.#.#.#.#.#.#.#.#.#.#.#.#.#.#.#.#.#.#.#.#.#.Q -.T T T T T T T Q Q [ #.#.#.#.#.#.#.#.#.O.Q D P T Q Q A D T T ! D D G I I Y Y Y Y Y U Y T P P P P P P P P P P P P P P P P P P P P P P P P P P P P P P P P P P P P P P P P P P P P P P P P P P P P P P P P P P P P P P P P P P P P P P P P P P P P J P P P P J P P J J J J J J P J J J J J J J J J J J P J J J J J J J J J J J J J J J J J J J J J J J J J J J J J J J J J J J J J J J P P J J J P P P T T T T T U U Y Y I J D M.Q.U ~ U I t. X-.Q Q U *.J.:.#.#.#.#.#.#.#.#.#.#.#.#.#.#.#.#.#.#.#.#.T J i.m.5.5...#.#.#.#.#.#.#.#.#.#.#.#.#.#.#.#.#.#.#.[ Z P ! Q T A P Q Q T A J P Y T T U T T T Y Y Y D D S S S S D D D D S D S D S D D D D D D D D D D D D D D S S S D G G D D D D D D D G D D D D D D D D P P P P P P P P P P P P P P J H J J Y U U U U U Y U U Y Y U U U U U U U ~ Q Q Q Q Q Q Q Q Q Q Q Q Q ) ) ) ) #.#.#.#.#.#.#.#.#.#.#.#.#.#.#.&.&.&.#.-.-.-.-.-.-.-.-.:.:.:.:.-.-.-.-.-.5.5.5.5.5.5.5.5.Y Y T T T T T T U Y P P D C aXV.U U U P M.sX*.| T T D <XK.2.O.O.#.#.#.#.#.#.#.#.#.#.#.[ T P J D D D C x 2X*Xi.-.T ] @.-.] #.#.#.#.#.#.#.#.#.#.#.#.#.#.#.#.#.#.#.#.#.#.#.#.#.#.#.: ",
"2.#.#.#.#.#.#.#.#.#.#.#.#.#.#.#.#.#.#.#.#.#.#.#.#.O.O.Q -.Q T T T T T T Q Q [ #.#.#.#.#.#.#.#.#.O.Q D P T Q Q A D T T Q D D G I I Y U U U Y U U Y J J P J D J J J D J J J D J J J D H J H D D J D D D D D D D D D D D D D D D D D D D D D D D D D D D D D D D D D D D D D D D D D S D D D S S D D S D D S S S D S S S D S S S S S A S S S A S S S A S S S A S S A A A S A A A S A A A S A C D D D D D D D D D D D S D D D S D D D D H J J D J P J J J P I I S T ! T T T T Y U U I J D M.~.U T U P t..X-.Q Q U =.`.-.#.#.#.#.#.#.#.#.#.#.#.#.#.#.#.#.#.#.#.#.T J x.U.5.5...#.#.#.#.#.#.#.#.#.#.#.#.#.#.#.#.#.#.#.[ Z Y ! Q T A P Q Q ~ Z J P T T T Y T T T Y U U 9.n.9.5.5.2.5.5.5.5.7.8.7.7.7.8.8.8.8.9.8.6.8.8.6.5.6.8.6.5.6.8.8.6.8.8.8.6.8.9.8.5.5.6.5.5.6.6.5.5.6.6.6.5.6.6.6.6.6.5.5.5.5.5.5.5.5.5.5.5.5.5.5.5.5.6.5.:.5.5.:.:.:.5.:.:.:.5.5.:.5.5.5.5.5.5.-.-.-.:.-.-.:.:.:.-.:.:.:.-.:.:.:.=.-.-.*.*.*.*.-.=.-.-.*.*.*.*.=.=.-.-.%.%.#.&.#.[ O.#.O...O.#.O.O.O.#.[ x P T T T T ! T U Y Y P D A aXV.U ~ T I t.dX*.[ T T D <XE.2.#.O.O.#.#.#.#.#.#.#.#.#.#.] T P J D D D C N L.8XL.4.T ] @.-.] #.#.#.#.#.#.#.#.#.#.#.#.#.#.#.#.#.#.#.#.#.#.#.#.#.#.#.: ",
":...#.#.#.#.#.#.#.#.#.#.#.#.#.#.#.#.#.#.#.#.#.#.@.O.#.Q -.Q T T T T T T Q Q [ #.#.#.#.#.#.#.#.#.#.Q D P T Q Q A D T T Q D D P Y Y U U U T U T T T Y S H J J J J J J J P P P P Y Y Y Y P P P P Y Y Y Y Y Q Q Q Q Q Q ! Q Q Q Q Q Q Q Q Q Q Q Q ........O.O...O.#...O.O.O.O.O.O.O.O.*.*.*.*.*.*.*.*.*.*.*.*.*.*.*.*.*.*.,.-.-.-.,.-.-.,.,.,.-.,.2.,.,.2.2.5.5.5.5.5.5.5.5.5.5.5.5.5.5.5.5.5.5.5.5.5.5.5.5.5.5.2.2.2.2.2.2.2.2.2.2.2.2.5.5.5.5.5.5.2.2.2.2.2.T C T T ! ! ! T T T U P P D M.^.U T U I s..X-.Q Q U =.2X-.#.#.#.#.#.#.#.#.#.#.#.#.#.#.#.#.#.#.#.#.T J v.=X5.5...#.#.#.#.#.#.#.#.#.#.#.#.#.#.#.#.#.#.#.[ Z P ! Q T A P Q ) T Z P Y T T T T T T T U U I M._.E.[ [ Q ] Q ] ] ] ] ] ] ] ] [ ......................................................................................................................................................................................................] ] ] [ ........[ ] ] ] ................[ ] ] ] ] ] ] ] ] ] ] ] Q b P T T T Q ! T T Y Y P D A aXV.T ! T P t.dX*.[ ! T D <X[.2.#.O.#.#.#.#.#.#.#.#.#.#.#.Q T P J D D D C x *X;X*Xr.T ] @.-.] #.#.O.#.#.#.#.#.#.#.#.#.#.#.#.#.#.#.#.#.#.#.#.#.#.#.#.: ",
"2...#.#.#.#.#.#.#.#.#.#.#.#.#.#.#.#.#.#.#.#.#.#.@.O.O.Q -.Q T T T T T T Q Q [ ..#.#.#.#.#.#.#.#.#.Q D P T Q Q A D T Q Q D D P I U T T U T T T Y T P 2.t.-.-.-.-.-.-.-.-.-.2.-.-.-.2.=.*.=.-.=.*.=.-.=.*.=.-.=.*.=.-.=.#.#.*.#.#.#.*.#.#.#.*.#.#.#.*.#.#.#.*.....[ ........#.#...#.#.#...#.#.#...] [ ] Q [ [ ) Q [ [ [ Q [ [ [ Q [ [ ! T Q Q Q T T Q Q Q Q Q Q Q Q Q Q Q Y T Y Y T T T Y T T T Y T T T Y T T T T T T T T T T T T T T T T T T T T T T T T T C C P T ! Q Q ! T T U Y I D M.^.! T U I q..X-.Q Q U =.qX-.O.#.#.#.#.#.#.#.#.#.#.#.#.#.#.#.#.#.#.#.T J x.6X5.5.O.#.#.#.#.#.#.#.#.#.#.#.#.#.#.#.#.#.#.#.[ A I ! Q T A P Q ) T S P T T T T ! T T T T U J M.`.E.Q ] ] ] Q [ [ [ [ [ [ [ [ [ ......................................................................................................................................................................................................[ [ [ [ ........[ [ [ [ ................[ [ [ [ [ [ [ [ [ [ [ [ Q N P T T T Q Q T T Y P P J Z aXV.T ! T P t.dX*.[ ! T H qXE.2.#.#.#.#.#.#.#.#.#.#.#.#.#.] ! P J D D D C x <XuXW.i.! ] #.-.] #.#.#.#.#.#.#.#.#.#.#.#.#.#.#.#.#.#.#.#.#.#.#.#.#.#.#.: ",
"2.#.#.#.#.#.#.#.#.#.#.#.#.#.#.#.#.#.#.#.#.#.#.#.@.@.@.Q -.Q T T T T T T Q Q [ #.#.#.#.#.#.#.#.#.#.Q D P T Q T A D T Q Q J D P U T T T T T T T T T J 2.l.[ T T T T T T T T ! ! Q Q ! ! Q Q Q Q Q Q Q Q Q Q Q Q Q Q Q Q Q Q Q Q Q Q Q Q Q Q Q Q Q Q Q Q Q Q Q Q Q Q Q Q Q Q Q Q Q Q Q Q Q Q Q Q ] ] ) Q Q [ [ [ [ [ [ [ [ [ [ [ [ [ [ [ [ [ [ [ [ [ [ [ [ [ [ [ [ [ [ [ [ [ [ [ [ [ [ [ [ [ [ ......[ [ ..[ [ [ [ [ [ [ [ ..[ [ [ [ [ [ [ [ ..............) C C Y T T T Q T T T T Y I D M.^.! ! T Y t..X-.Q Q U =.aX-.O.#.#.#.#.#.#.#.#.#.#.#.#.#.#.#.#.#.#.#.T J x.E.5.5.O.#.#.#.#.#.#.#.#.#.#.#.#.#.#.#.#.#.#.#.[ Z P ! Q T A P Q ) ! Z P T T ! ! ! T T T T U P M.`.).[ [ [ [ [ [ [ [ [ [ [ [ [ [ ....................................................................................................................................................................................................[ [ [ [ ............[ [ ..........[ ..[ ..[ [ [ [ [ [ [ [ [ ......) b P Y T T Q Q ! T U Y P J S aXV.T Q ! P t.dX*.[ ! T H qXE.2.#.#...#.#.#.#.#.#.#.#.#.#.Q T P J D D D C M *XsX:Xi.T ] #.-.] #.#.#.#.#.#.#.#.#.#.#.#.#.#.#.#.#.#.#.#.#.#.#.#.#.#.#.: ",
"2.#.#.#.#.#.#.#.#.#.#.#.#.#.#.#.#.#.#.#.#.#.#.#.#.O.@.] ,.] T T T T T T Q Q [ #.#.#.#.#.#.#.#.#...Q D P T Q T A D T Q Q J D P U T T T ! T T T T T D 2.v.2.Q [ ....) [ [ [ [ [ [ [ [ [ ..[ [ [ [ [ [ ........................................[ [ [ ..[ ..........................................................................................................................................[ [ [ ..[ [ [ ..[ [ [ [ [ [ [ [ [ [ [ [ [ ..............) C C Y T T T ! T T T T Y P D M.^.! Q ! Y s.qX-.Q Q U =.aX-.O.#.#.#.#.#.#.#.#.#.#.#.#.#.#.#.#.#.#.#.T J v.,X5.5.O.O.O.#.#.#.#.#.#.#.#.#.#.#.#.#.#.#.#.#.[ S Y ! Q T A P Q Q ! Z P U T Q Q ! Q Q T U ~ P M.[._.....[ [ [ [ [ [ ..[ [ ..[ ..[ ..[ [ [ ..[ ........[ ............................................................................................................................................................................[ ................................[ [ [ [ [ [ [ [ [ [ [ [ [ ......) b P Y T T T Q Q T T T P H S aXV.T Q ! P t.dX*.[ ! T H <X`.2.#.#...#.#.#.#.#.#.#.#.#.#.Q T P J D D D C M *X7X5Xi.T ] #.,.] #.#.#.#.#.#.#.#.#.#.#.#.#.#.#.#.#.#.#.#.#.#.#.#.#.#.#.: ",
"2.#.#.#.#.#.#.#.#.#.#.#.#.#.#.#.#.#.#.#.#.#.#.#.#.O.O.Q ,.Q T T T T T T Q Q [ O.#.#.#.#.#.#.#.#...Q D P T Q T A D T Q Q J D P U T T T ! ! T ! T T J 5.v.2.[ [ ......[ [ [ [ [ [ ..[ [ ..[ [ [ [ [ ..........................................[ [ [ ..............................................................................................................................................[ [ ....[ [ [ ..[ [ [ [ [ [ [ [ [ [ [ [ [ ..............) C C I U T T ! ! T T T Y I D M.^...! ! Y q.qX-.Q Q U =.aX-.O.#.#.#.#.#.#.#.#.#.#.#.#.#.#.#.#.#.#.#.T J x.yX5.5.O.O.O.#.#.#.#.#.#.#.#.#.#.#.#.#.#.#.#.#.[ Z Y ! Q T A P Q Q ! Z P T T ! ! Q Q Q ! T T Y M.[._.....[ [ [ [ [ [ [ [ [ [ [ [ ....[ [ ......[ ......[ ......................................................................................................................................................................[ ......................................[ [ [ [ [ [ [ [ ..[ [ [ [ ......) b I U T T T Q Q T T U P J S aXV.! Q ! P q.dX*.[ ! T H }.E.2.#.#.#.#.#.#.#.#.#.#.#.#.#.] T P J D D D C M <XuX8Xi.T [ #.2.] #.@.#.#.#.#.#.#.#.#.#.#.#.#.#.#.#.#.#.#.#.#.#.#.#.#.#.: ",
"2.#.#.#.#.#.#.#.#.#.#.#.#.#.#.#.#.#.#.#.#.#.#.#.#.O.O.! ,.Q T T T T T T Q Q [ ..#.#.#.#.#.#.#.#...Q D P T Q T A D T Q Q J D P U T Q Q ! ! ! ! T T P 5.v.2.[ ........[ [ [ [ ..[ [ [ [ [ [ [ [ [ ..[ ..........................................[ [ ........................................................................................................................................................[ [ [ [ ..[ [ [ [ [ [ [ [ [ [ [ ..............) C C Y T T ! Q ! Q T T U P D M.^...! ! Y t.qX-.Q Q U =.aX-.O.#.#.#.#.#.#.#.#.#.#.#.#.#.#.#.#.#.#.#.T J x._.5.5.O.O.O.O.#.#.#.#.#.#.#.#.#.#.#.#.#.#.#.#.[ Z Y T Q T A P Q Q ! Z P T T ! Q Q Q Q ! T T P M.[.{.....[ [ [ [ [ [ [ [ [ [ [ [ ......[ ......[ ..............................................................................................................................................................................[ [ ....................................[ [ [ ....[ [ [ [ [ [ ..........) b I U T T T Q Q Q T T Y P S qXN.! Q ! P q.dX*.[ ! T H }.E.2.#.#.#.#.#.#.#.#.#.#.#.#.#.[ Q P J D D D C x qXsX*Xu.T [ #.2.] @.@.#.#.#.#.#.#.#.#.#.#.#.#.#.#.#.#.#.#.#.#.#.#.#.#.#.: ",
"2.#.#.#.#.#.#.#.#.#.#.#.#.#.#.#.#.#.#.#.#.#.#.#.#.#.#.Q -.Q T T T T T T Q Q [ O.#.#.#.#.#.#.#.#...Q D P T Q T A D T Q Q J D Y T ! Q Q Q ! ! ! T T P 5.v.2.[ ........[ [ [ [ ..[ [ [ [ [ [ [ [ [ ..[ ..............................................................................................................................................................................................[ [ ....[ [ [ [ [ [ [ [ ..[ [ [ [ [ [ [ ..............[ C C Y T T ! Q ! Q ! T T Y G M.^...Q ! Y s.tX-.Q Q U =.aX-.#.#.#.#.#.#.#.#.#.#.#.#.#.#.#.#.#.#.#.#.T J v.-X5.5.#.#.#.#.#.#.#.#.#.#.#.#.#.#.#.#.#.#.#.#.[ S Y T Q T A P Q Q ! Z P T T Q ! Q ! ! ! T T P M.[._.....[ [ ..[ [ [ [ [ [ [ [ ..[ ....[ ..[ [ ..................................................................................................................................................................................[ ....................................[ [ ......[ [ [ [ [ [ [ [ ......[ N P T T T T ! ! Q T T Y P D qX^.T Q ! P t.dX*.[ ! T H '._.2.O.#.#.#.#.#.#.#.#.#.#.#.#.[ Q P J D D S C x `.5X5Xu.T [ #.2.] #.#.#.#.#.#.#.#.#.#.#.#.#.#.#.#.#.#.#.#.#.#.#.#.#.#.#.; ",
"2.#.#.#.#.#.#.#.#.#.#.#.#.#.#.#.#.#.#.#.#.#.#.#.#.#.#.] ,.Q T T T T T T Q Q [ #.#.#.#.#.#.#.#.#...Q D P T Q Q A D T Q Q J D Y T ! Q ! Q ! ! T T T P 5.v.2.[ ........[ [ [ [ [ [ [ [ [ [ [ [ [ [ ..[ ............................................[ [ [ ............................................................................................................................................[ [ ......[ [ [ [ [ [ [ ..[ [ [ ..[ [ ................[ C C Y T T T Q Q ! Q T T Y G M.^...Q ! Y s.tX-.Q Q U =.aX:.#.#.#.#.#.#.#.#.#.#.#.#.#.#.#.#.#.#.#.#.T J M.6X5.5.#.#.#.#.#.#.#.#.#.#.#.#.#.#.#.#.#.#.#.#.[ Z Y T Q T A P Q Q ! A P T T ! Q Q ! ! T T T P M.[.=X....[ [ [ [ [ [ ..[ [ [ [ [ [ [ ..[ ..[ [ ........[ ..............................................................................................................................................................................................................[ [ ..[ [ [ [ [ [ [ [ [ [ ......[ N P T T T T ! Q Q ! T T P D qX^.! Q ! P s.dX*.[ Q T J }.E.2.#.#.#.#.#.#.#.#.#.#.#.#.#.[ T P J D D S C x 2XuX8Xu.T [ #.2.] #.#.#.#.#.#.#.#.#.#.#.#.#.#.#.#.#.#.#.#.#.#.#.#.#.#.#.; ",
"2.#.#.#.#.#.#.#.#.#.#.#.#.#.#.#.#.#.#.#.#.#.#.#.#.#.#.Q -.Q T T T T T T T Q [ O.#.#.#.#.#.#.#.....Q D P T Q Q A D T Q Q J D P T ! ! ! Q T ! T T T P 5.m.2.[ ......[ [ [ [ [ [ [ ..[ ..[ ..[ ..[ ..[ ..............................................[ [ ..............................................................................................................................................[ ........[ [ [ ....[ [ [ [ [ [ [ [ ..[ [ [ [ [ [ [ ) C C Y T T T ! ! Q Q T T Y G M.^...Q T Y s.tX-.Q Q T =.aX:.#.#.#.#.#.#.#.#.#.#.#.#.#.#.#.#.#.#.#.#.T J x.,X5.5.#.#.#.#.#.#.#.#.#.#.#.#.#.#.#.#.#.#.#.#.[ S Y T Q T A P Q Q ! A P T Q ! Q ! ! ! T T T P M.[.=X....[ ..[ [ [ [ ....[ [ [ [ [ [ ..[ ....[ ........[ ..............................................................................................................................................................................................................[ [ [ [ [ [ [ [ [ [ [ [ [ [ [ [ [ N P T T T T ! Q Q ! T T P D qX^...Q ! P s.dX*.#.Q ! J }.E.2.#.#.#.#.#.#.#.#.#.#.#.#.#.[ Q P J D D S C x }.pX*Xp.T [ #.,.] #.#.#.#.#.#.#.#.#.#.#.#.#.#.#.#.#.#.#.#.#.#.#.#.#.#.#.: ",
"2.#.#.#.#.#.#.#.#.#.#.#.#.#.#.#.#.#.#.#.#.#.#.#.#.#.#.Q -.Q T T T T T T ! Q [ ..#.#.#.#.#.#.#.....Q D P T Q Q A D T Q Q P D P T ! ! Q Q ! ! T T T P 5.m.4.[ [ [ [ [ [ [ [ [ ..[ ..[ ....................................................................................#...............#...............#...............................................................................................................[ [ [ [ [ [ [ [ [ [ [ [ [ [ [ [ [ C C P T T T ! ! Q Q T T Y G M.^...Q ! Y s.tX-.Q Q T =.aX-.#.#.#.#.#.#.#.#.#.#.#.#.#.#.#.#.#.#.#.#.T J v.=X5.5.#.#.#.#.#.#.#.#.#.#.#.#.#.#.#.#.#.#.#.#.[ S P T Q T Z Y Q Q ! C P T Q Q ! ! ! ! T T T P M.[.=X....[ ....[ [ [ [ ..[ [ [ ....................................................#.#.#...............#.#.......#.#.....#...............#...........#.......................#.#.#.......#.#.....#.#...................................................................[ [ [ [ [ [ [ [ [ [ [ [ [ [ [ [ [ b P T T T T ! ! Q ! T T Y D qX^...Q ! P s.dX*.#.Q ! J '.).2.#.#.#.#.#.#.#.#.#.#.#.#.#.[ Q Y J D D S C M L.dX5Xp.! [ [ 2.] #.#.O.#.#.#.#.#.#.#.#.#.#.#.#.#.#.#.#.#.#.#.#.#.#.#.#.: ",
"2.#.#.#.#.#.#.#.#.#.#.#.#.#.#.#.#.#.#.#.#.#.#.#.#.#.#.Q -.Q T T T T T T Q Q [ O.#.#.#.#.#.#.#.#.#.Q D P T Q T A D T Q Q J D P T ! ! Q ! ! ! ! T T J 4.m.4.[ [ [ [ [ [ [ [ [ [ [ [ [ ........................................................................................................#.....................#.........................................................................................................[ [ [ [ [ [ [ [ [ [ [ [ ..[ ) C C Y T T ! Q T Q Q T T Y J M./.#.Q ! Y s.tX-.Q Q T =.aX-.#.#.#.#.#.#.#.#.#.#.#.#.#.#.#.#.#.#.#.#.T J M.uX5.5.#.......#.#.#.#.#.#.#.#.#.#.#.#.#.#.#.#.[ Z P T Q T S T Q Q ! C P T ! Q Q ! ! ! T T T Y M.>X=X....[ [ [ [ [ [ [ [ [ [ [ ....................................................#.#.............................#...............#.................#.......................#.#...........#.#.........#...........#...................................................[ [ ..[ [ [ [ [ [ [ [ [ [ [ ....[ b P T T T T Q ! Q T T T Y D qX^.%.Q ! P s.dX9...Q ! J }.E.2.#.#.#.#.#.#.#.#.#.#.#.#.#.[ T Y J D D D C x ).8X9Xx.! | #.,.] #.#.#.#.#.#.#.#.#.#.#.#.#.#.#.#.#.#.#.#.#.#.#.#.#.#.#.e ",
"2.#.#.#.#.#.#.#.#.#.#.#.#.#.#.#.#.#.#.#.#.#.#.#.#.#.#.] ,.Q T T T T T T Q Q [ #.#.#.#.#.#.#.#.#.#.Q D P T Q T A D T Q Q J D P T ! ! Q ! ! ! ! T T P 4.m.4.[ [ [ [ [ [ [ ....[ [ [ ....................................................................................#...................#.#.........#...#.....#.#.....................................................................................................[ [ [ [ ..[ [ [ [ [ [ [ [ [ [ [ ) C C Y T T ! Q ! Q Q T T Y J M./.#.Q T Y t.tX-.Q Q T =.aX-.#.#.#.#.#.#.#.#.#.#.#.#.#.#.#.#.#.#.#.#.T J x.6X5.5.#.......#.#.#.#.#.#.#.#.#.#.#.#.#.#.#.#.[ S I T Q T S U Q Q ! C P T T Q Q Q Q ! ! T T Y s.>X=X....[ [ [ [ [ [ ..[ [ [ ......................................................#.#.........#.#.#.#.........#...#.#.............#.................#.#.....................#.#...........#.#.......#.#...........#...................................................[ ....[ [ [ [ ..[ ..[ [ [ [ [ [ [ N P T T T T Q Q Q ! T T Y D qX^...Q ! P s.dX9...Q ! J }.E.2.O.#.#.#.#.#.#.#.#.#.#.#.#.] T P J D D D C x ].pX*Xx.T | #.,.] #.#.#.#.#.#.#.#.#.#.#.#.#.#.#.#.#.#.#.#.#.#.#.#.#.#.#.e ",
":...#.#.#.#.#.#.#.#.#.#.#.#.#.#.#.#.#.#.#.#.#.#.#.#.#.Q -.Q T T T T T T Q Q [ O.#.#.#.#.#.#.#.#.#.Q D P T Q Q Z D T Q Q J D P T ! ! ! ! ! ! ! T ~ J 5.v.4.] [ [ [ [ [ [ ....[ [ [ ....................................................................................#.#.#.......#.......#.......#...#...#...#.#.#.#...................................#...............................................................[ [ [ [ ......[ [ ..[ [ [ [ [ [ ) C C Y T T ! Q Q Q ! T T U J M./.#.Q T Y q.qX-.Q Q U =.aX-.#.#.#.#.#.#.#.#.#.#.#.#.#.#.#.#.#.#.#.#.T J v.,X5.5.#.#.#.#.#.#.#.#.#.#.#.#.#.#.#.#.#.#.#.#.[ S P T Q T S U Q Q ! C P T T T ! Q ! ! ! T T Y s.>X=X....[ [ [ [ [ [ [ [ [ [ [ ....................................................#.....#.....#...#.#.....#...#.........#.........#.#.....#.....#.....#.............#.......#.#.....#.#.....#.......#.....................................................................................[ [ [ [ [ [ [ N P T T T T ! ! Q ! T T Y D qX^.#.Q ! P s.dX9...Q ! J '.).2.#.#.#.#.#.#.#.#.#.#.#.#.#.[ T Y J D D D C x F.dX5Xx.T | #.,.] #.#.#.#.#.#.#.#.#.#.#.#.#.#.#.#.#.#.#.#.#.#.#.#.#.#.#.e ",
"2...#.#.#.#.#.#.#.#.#.#.#.#.#.#.#.#.#.#.#.#.#.#.#.#.#.Q -.Q T T T T T T Q Q [ ..#.#.#.#.#.#.#.#.#.Q D P T Q T A D T Q Q J D P T ! ! ! ! ! ! ! T ~ P 5.v.4.[ [ [ [ [ [ [ [ [ [ ........................................................................................#.#.#...............#...............#.......#.................................................................................................................[ [ ....[ [ [ [ ..[ [ C C Y T T ! Q Q ! ! T T U J M.|.#.Q T Y q.qX-.Q Q T =.aX-.O.#.#.#.#.#.#.#.#.#.#.#.#.#.#.#.#.#.#.#.T J M.uX5.5.#.#.#.#.#.#.#.#.#.#.#.#.#.#.#.#.#.#.#.#.[ S I T Q T S U Q Q ! C P T T ! Q Q ! ! ! T T I q.>X+X....[ [ [ [ [ [ [ ......[ ....................................................#...#.#.#.......#.#.....#...#.......#.#...........#...#.#.#.#.#.#.#.#.#.....................#.....#.............#.#.#.........#.#...................................................................[ ..[ [ [ [ [ [ [ N P T T T ! ! Q Q ! T T Y D qX^.#.! T P s.dX9...Q ! P }.[.2.#.#.#.#.#.#.#.#.#.#.#.#.#.[ Q Y J D D D C x ).8X5Xx.Q [ #.2.Q #.#.#.#.#.#.#.#.#.#.#.#.#.#.#.#.#.#.#.#.#.#.#.#.#.#.#.e ",
"2.#.#.#.#.#.#.#.#.#.#.#.#.#.#.#.#.#.#.#.#.#.#.#.#.O.#.Q -.Q T T T T T T Q Q [ O.#.#.#.#.#.#.#.....Q D P T Q ! A D U ! Q J D P T ! ! Q Q ! Q T T T P 5.v.4.[ [ [ ..[ [ [ [ [ ..............................................................................#...........#.#.#.#.........#.#.#.......................#...................................................................................................................[ ..[ [ ..[ [ ..[ [ S C Y T T ! Q Q Q ! T T U ^ M.|.#.Q T Y s.qX,.Q Q T =.aX-.O.#.#.#.#.#.#.#.#.#.#.#.#.#.#.#.#.#.#.#.T J x.5X5.5.#...#.#.#.#.#.#.#.#.#.#.#.#.#.#.#.#.#.#.[ S I T Q T A U Q Q ! C P T T ! ! ! ! ! ! T ~ I q.>X+X....[ [ [ [ [ [ [ ............................................................#.....#.#.#...#.#...#.#.#.#.#.#.#.#.#.#.............#.#.#.#.#.#.#.#.#.#.#...................#...........#...#.#.#...................................................................................[ ....[ [ [ [ [ ) b I U T T Q Q Q Q ! T T Y D qX^.#.Q T P s.dX9.#.Q ! P }.`.5.#.#.#.#.#.#.#.#.#.#.#.#.#.[ T Y J D D D C M ].pX`.x.Q [ @.2.] #.#.#.#.#.#.#.#.#.#.#.#.#.#.#.#.#.#.#.#.#.#.#.#.#.#.#.e ",
"2.#.#.#.#.#.#.#.#.#.#.#.#.#.#.#.#.#.#.#.#.#.#.#.#.O.#.] ,.Q T T T T T T Q Q [ #.#.#.#.#.#.#.#.#...Q D P T Q ! A D U ! Q J D P T ! ! Q ! Q ! T T T P 5.v.4.[ [ [ [ [ [ [ [ [ ....[ ............................................................#.........#.#.#.#.#.....#...#.#.#.....#...#.....#.#.#.#...#.........#.#...................................#.#.#.#...#.......................................................................[ [ ..[ [ ..[ [ S C Y T T T Q Q Q Q ! T U ^ M.|...Q T Y s.qX,.Q Q T =.aX-.O.#.#.#.#.#.#.#.#.#.#.#.#.#.#.#.#.#.#.#.T J v.-X5.5.#.#...#.#.#.#.#.#.#.#.#.#.#.#.#.#.#.#.#.[ S I T Q T A U Q Q ! C P T T ! ! ! ! ! ! T ~ I q.>X+X....[ [ [ [ [ [ [ ............................................................#.#...#.........#...#.#.#.#.#.#.#...#.#...........#...#.#.#...#.#.#.#...#...................#.#.........#.#.#...#.#.....#...........#.#.#.#...............................................................[ [ [ [ [ ) N P U T T Q Q Q Q Q T T Y D qX^.#.Q ! P s.dX9.#.! T P '.`.5.#.#.#.#.#.#.#.#.#.#.#.#.#.[ T Y J D D D C x }.sX5Xx.T [ @.2.] #.#.#.#.#.#.#.#.#.#.#.#.#.#.#.#.#.#.#.#.#.#.#.#.#.#.#.e ",
"2.#.#.#.#.#.#.#.#.#.#.#.#.#.#.#.#.#.#.#.#.#.#.#.#.O.O.Q -.Q T T T T T T Q Q [ O.#.#.#.#.#.#.#.#.#.Q S P T Q Q A D T Q Q J D P T T ! Q Q Q Q T T T P 5.v.4.[ [ [ [ [ ............[ ..............................................#.#.......#.#.#...#.....#.#.#.#.......#...#.#.......#...#.....#...#.#...#...#...#.#.............#.........#.....#...#.........#...#.......................................................................[ ....[ [ [ [ [ S C Y T T T Q Q Q Q ! T T P M.|.#.Q T Y s.tX,.Q Q U =.aX-.O.#.#.#.#.#.#.#.#.#.#.#.#.#.#.#.#.#.#.#.T J M.8X5.5.#.....#.#.#.#.#.#.#.#.#.#.#.#.#.#.#.#.#.[ C P T Q T S P Q Q ! C P T ! Q ! ! ! ! T T T Y s.>X+X....[ [ [ ..................................#...#.#.................#...........#.#.#.#...#.#.#...#.#.........#...#.#.....#.#.#.#...........#.#.#.....#.#.#.#...#.........#.#.........#.#.#...#.#.............#...#.#.#.#.............................................................[ [ [ [ [ [ [ C P T T T Q Q Q Q T T T Y D qX^.#.Q T P s.dX9.#.! Y P }.`.5.#.O...#.#.#.#.#.#.#.#.#.#.[ T Y J D D D C x E.9X5Xx.Q [ @.2.Q #.#.#.#.#.#.#.#.#.#.#.#.#.#.#.#.#.#.#.#.#.#.#.#.#.#.#.e ",
"2.#.#.#.#.#.#.#.#.#.#.#.#.#.#.#.#.#.#.#.#.#.#.#.#.O.O.Q *.Q T T T T T T Q Q [ ..#.#.#.#.#.#.#.#...Q S P T ! ! A D T Q Q J D P T ! ! Q Q Q ! ! T T P 5.v.4.[ [ [ [ [ ..........[ ..........................................................#...........#.#.#.#.#.......#...#.......#.#.#.#.....#...#.#.#.#...#.#.#.#.............#.#.#.#.#.#.#.#.#.#.#...#.....#.#.#.......#.#.....................................................................[ [ [ [ S C P T T ! Q Q Q Q ! ! T P M.|.#.Q ! Y s.tX,.Q Q U =.aX-.O.#.#.#.#.#.#.#.#.#.#.#.#.#.#.#.#.#.#.#.T J x.pX5.5.#...#.#.#.#.#.#.#.#.#.#.#.#.#.#.#.#.#.#.[ C P T Q T S P Q Q ! A P T Q Q Q Q ! ! T T T Y s.>X+X....[ [ [ [ ................................#.....#...........#.#.......#.......#...#.....#.#...#.#...............#.....#.#...#.#.......#.#.................#.#...#.....#.#.#.....#...#.#.#.#.............#.#...#.#.#.#.....#.#.#.#.#...#...........................................[ [ [ [ ..[ [ [ C P T T T Q Q Q Q ! T T Y D qX^.#.! T P *.dX9.#.Q T P }.`.5.#.#.O.#.#.#.#.#.#.#.#.#.#.[ Q Y J D D D C x ].uX8Xm.Q [ @.2.] #.#.#.#.#.#.#.#.#.#.#.#.#.#.#.#.#.#.#.#.#.#.#.#.#.#.#.e ",
"2.#.#.#.#.#.#.#.#.#.#.#.#.#.#.#.#.#.#.#.#.#.#.#.#.#.#.Q =.Q T T T T T T Q Q [ ..#.#.#.#.#.#.#.#.#.Q S P T Q Q A D T Q Q J D P T ! ! ! ! ! ! ! T ~ P 5.v.4.[ [ [ [ [ ..........[ ................................................#.........#.#.#.#...#.............#.#.#...#.......#.#.#.......#.#...#.#.#.#.#.#.#...............#.#...............#.#.......#.#...#...#.#.#.#.............................................................[ ......[ [ [ ) Z C Y T T T ! ! Q Q ! T U P M.}.#.Q ! Y s.tX-.Q Q T =.aX-.O.#.#.#.#.#.#.#.#.#.#.#.#.#.#.#.#.#.#.#.T J 8.=X5.5.#.#.#.#.#.#.#.#.#.#.#.#.#.#.#.#.#.#.#.#.[ C I T Q T S P Q Q ! A P T ! Q Q Q ! ! T T T Y s.>X+X....[ [ [ [ ......................................#...........#.#.......#.#.........#...#.#.#.....#.....#.#.#.#.#.#.....#.......#.#.#...........#.#.#.#.................#.#.#.....#...#.#.#.#.#.........#.#.......#.......#.#.#.....#.#.#...........................................[ [ [ [ [ [ [ [ C P U T T Q Q Q Q Q T T Y D qX^.#.Q ! P *.dX9.#.Q ! P }.`.5.#.#...#.#.#.#.#.#.#.#.#.#.[ ! Y J D D D C x }.sX-Xm.Q [ *.2.[ #.#.#.#.#.#.#.#.#.#.#.#.#.#.#.#.#.#.#.#.#.#.#.#.#.#.#.e ",
"2.#.#.#.#.#.#.#.#.#.#.#.#.#.#.#.#.#.#.#.#.#.#.#.#.#.#.Q -.Q T T T T T T Q Q [ #.#.#.#.#.#.#.#.#.#.Q S J T Q Q A D T Q Q J D P T ! ! ! ! Q ! ! T ~ P 5.v.4.[ ..[ ..[ ............................................................#.........#.#.#.#.#...#.............#.#.#.#.......#.#.#.....#...#...#.#.#.#.#.#.#.#.............#.#.....#.#.......#.#.......#.....#...#.#.#...............................................................[ ..[ ..[ [ [ [ Z C Y T T T T Q Q Q ! ! T P M.}.#.Q ! Y s.qX-.Q Q T =.aX-.O.#.#.#.#.#.#.#.#.#.#.#.#.#.#.#.#.#.#.#.T J 9.6X2.5.#.#...#.#.#.#.#.#.#.#.#.#.#.#.#.#.#.#.#.[ C I T Q T S P Q Q ! A P T ! ! Q Q ! ! T T T Y s.>X[.....[ [ ......................................#.#.#...........#.#.#.#.....#.......#.#.#.#...#.....#.#...#.#...#.#.................#...........#.#.#.#...#.........#.#...#.#.#.....#.#.#.....#.#.......#.#.......#.#.#.........#.....#.#.#.........................................[ [ [ [ [ [ ..[ [ C P Y T T Q Q Q Q Q T T I D qX^.#.Q ! P *.dX9.#.Q ! J }.`.5.#.#...#.#.#.#.#.#.#.#.#.#.[ T Y J D D D A x R.5X8Xc.! [ *.2...#.#.#.#.#.#.#.#.#.#.#.#.#.#.#.#.#.#.#.#.#.#.#.#.#.#.#.e ",
"2.#.#.#.#.#.#.#.#.#.#.#.#.#.#.#.#.#.#.#.#.#.#.#.#.#.#.Q =.Q T T T T T T Q Q [ O.#.#.#.#.#.#.#.#.#.Q S P T Q Q A D T Q Q J D P T ! Q Q Q Q ! ! T T P 5.v.4.[ ..[ [ [ ............................................................#...........#.#.#.#.#.#.#.#...#.........#.#.........#.#.#.#.....#...........#.....#.#.....................#.#.#.#.#.#...............#.#.#.#...................................................................[ ....[ [ [ Z C Y T T T ! Q Q Q ! ! T P M.|...Q ! Y =.tX2.Q Q T D aX-.O.#.#.#.#.#.#.#.#.#.#.#.#.#.#.#.#.#.#.#.! J 8.uX2.5.#.....#.#.#.#.#.#.#.#.#.#.#.#.#.#.#.#.#.O.A P T Q T D P Q Q ! A P T T ! Q Q ! ! ! T ~ Y s.>X+X....[ [ ........................................#.................#.#.#...#.......#.#...#...........#...#.........#.#.........#.#.#.#.........#.#.#.......#...#.#.#.#.#.#.#.#...#.#...............#.#.#.#.#.#.#.#.#.#.............#.#.#...........................................[ [ [ [ [ [ ..[ [ C P T T T Q Q Q Q Q T T P D qX^.#.Q ! P *.dX9.#.Q ! P Q.`.5.#.#.#.#.#.#.#.#.#.#.#.#.#.[ ! Y J D D D C x ].uX7Xc.Q [ *.2...#.#.O.#.#.#.#.#.#.#.#.#.#.#.#.#.#.#.#.#.#.#.#.#.#.#.#.e ",
"2.#.#.#.#.#.#.#.#.#.#.#.#.#.#.#.#.#.#.#.#.#.#.#.#.#.#.Q *.Q T T T T T T Q Q [ ..#.#.#.#.#.#.#.#.#.Q S P T Q Q A D T Q Q J D P T ! Q Q Q Q ! ! T T P 5.m.5.[ ....[ ..............................................................#...........#...#.#.#.#.#.#.#.#.....................#.#.#.#.....#...............#.#.#.#.#.#...#.........#.#...#.#.#.......#.....#.#...#...#.........................................................................[ [ [ Z C Y T T T ! Q Q Q ! ! T P w.|...Q ! Y ;.tX2.Q Q T D aX-.O.#.#.#.#.#.#.#.#.#.#.#.#.#.#.#.#.#.#.#.! J 8.6X2.5.#.#.....#.#.#.#.#.#.#.#.#.#.#.#.#.#.#.#.O.Z P T Q T D P Q Q ! A P T T ! Q Q ! Q ! T T Y s.>X+X....[ [ [ ..................................#...#...................#.#.#.......#.#.......#.........#.#.#.#.#.#...#.#.........#.#.#.#.........#.#.........#.#.#.#.#...#.#.#.#.....#.......#.....#.#.#...#.#.#.#.#.#.#.#...........#...#...O.........................................[ [ [ [ [ [ [ [ C P T T T ! Q Q Q Q T T P D qX^.#.Q ! P *.dX9.#.Q ! P Q.`.5.#.#.#.#.#.#.#.#.#.#.#.#.#.[ Q Y J D D D C N }.pX=Xc.Q [ *.2...#.#.#.#.#.#.#.#.#.#.#.#.#.#.#.#.#.#.#.#.#.#.#.#.#.#.#.e ",
"2.#.#.#.#.#.#.#.#.#.#.#.#.#.#.#.#.#.#.#.#.#.#.#.#.#.#.Q -.Q T T T T T T Q Q [ O.#.#.#.#.#.#.#.#.#.Q S P T Q Q S D T Q Q J D P T ! ! Q Q Q ! ! T T J h.m.6...................................#.#...#.......#.............#...........#.#.....#.....#.#.#...#.#.#.#.#.#.........#...............................#.....#.#.#.#.#.#.#.#...........#.#.#.......#...#.#.#...#...#.....#.#.#.......#...#.#.#.................................................[ [ S C Y T T T ! ! Q Q ! T T P w.|...Q ! Y *.qX2.Q Q T D aX-.O.#.#.#.#.#.#.#.#.#.#.#.#.#.#.#.#.#.#.#.! J 9.5X2.5.#.#.#.#.#.#.#.#.#.#.#.#.#.#.#.#.#.#.#.#.O.S I T Q T D P Q Q ! A P T T Q Q Q Q Q ! T ~ Y s.>X+X....[ [ ....................................#...#.#.......#.#.#...#.....#.....#...........#.#.......#.#.#.#.#.......#.#.#...#.#.#.#.#.........#.....#...#.....#.#.#...#.#.#.#.#...#.#.#...#.#.....#.......#.#.#.#.#...#.#.#.#.#.......#.#.#.#.....#.#.#.#.....................................[ [ [ C P T T T Q Q Q Q Q T T P D qX^...Q ! P *.dX9.#.Q ! P Q.`.5.#.#.#.#.#.#.#.#.#.#.#.#.#.[ ! Y J D D D C N L.dX7Xc.Q [ *.2...#.#.#.#.#.#.#.#.#.#.#.#.#.#.#.#.#.#.#.#.#.#.#.#.#.#.#.e ",
"2.#.#.#.#.#.#.#.#.#.#.#.#.#.#.#.#.#.#.#.#.#.#.#.#.#.O.] -.Q T T T T T T Q Q [ #.#.#.#.#.#.#.#.#.O.Q S P T Q Q S D T Q Q J D P T ! ! ! ! Q ! ! T T J h.m.6...................................#.#...#.......#.....#.#.............#.#.#.#.....#...#.#.#.#.#.#.#.#.#.#.................#...#.#.................#.#.....#.#.#.#.#.....#.#.#.#.#.#.#.........#.#.#.#.....#.#.#.#.....#.#.#.......#.#.#.#.#...................................................[ S C Y T T T ! Q Q Q ! T Y P 9.|...Q ! Y *.qX2.Q Q T D aX-.O.#.#.#.#.#.#.#.#.#.#.#.#.#.#.#.#.#.#.#.! J 9.uX2.5.#.#.#.#.#.#.#.#.#.#.#.#.#.#.#.#.#.#.#.#.O.S I T Q T D I Q Q ! C P T T ! Q Q Q Q ! T T Y s.>X+X..........................................#.#...#.#.......#.#.#...........#.#.#...........#.#.#.....#.#.#.#.#...#...#.#.#.....#.#.#.#.........#.#.#.#...#.#.#.#.#.#...#.#.#.#.............#...............#.#.#.#.#.....#.#.#...#.#...#...#...........#.......................................[ [ [ C P T T T Q Q Q Q ! T T P D }.}...Q ! P *.dX9.#.Q ! P Q.`.5.#.#.#.#.#.#.#.#.#.#.#.#.#.[ ! Y J D D D C M _.8X8Xm.Q [ *.2...#.#.#.#.#.#.#.#.#.#.#.#.#.#.#.#.#.#.#.#.#.#.#.#.#.#.#.e ",
":...#.#.#.#.#.#.#.#.#.#.#.#.#.#.#.#.#.#.#.#.#.#.#.O.O.] -.Q T T T T T T Q Q [ O.#.#.#.#.#.#.#.#...Q D P T Q Q S D T Q Q P D P T ! ! ! ! Q ! T T T P h.m.6...................................#.#...#.......#.....#.#.#.#.........#.#.#.#.......#.#.#...#.........#.#.#.#.........#.#.#...#.#.#.#.#.#.#...#.#.#.#.........#.#.#.#...#.#.#.#.....#.#...#.....#.#.#...#...#.#.......#...#.....#.#.#.....#...............................................[ [ [ S x Y T T T ! ! Q ! ! T T P w.}.#.Q ! Y *.qX2.Q Q T D aX-.[ #.#.#.#.#.#.#.#.#.#.#.#.#.#.#.#.#.#.#.! P 9.5X2.5.#.#.#.#.#.#.#.#.#.#.#.#.#.#.#.#.#.#.#.#.O.S I T Q T S P Q Q ! C P Y T Q Q Q ! ! ! T T Y s.>X+X................[ ............#.....#...#.#.#...#...........#.#.#.......#.#.#.#.#.#.....#.........#.#.#...#.#.#.#.........#.....#.#.#.#.#...........#...#.........#.#.#.#.........#.#.#.#.#...#.#.........#.#.#.#.......#.#.#.#.#...#.#...#.......#...........................................[ [ [ C J T T T ! Q Q Q ! T T P D }.}...Q ! P *.dX9.#.Q ! P Q.`.5.#.#.#.#.#.#.#.#.#.#.#.#.#.[ Q Y J D D D C x Q.pX=XF.Q [ &.2...#.#.#.#.#.#.#.#.#.#.#.#.#.#.#.#.#.#.#.#.#.#.#.#.#.#.#.e ",
"2...#.#.#.#.#.#.#.#.#.#.#.#.#.#.#.#.#.#.#.#.#.#.#.O.O.Q =.Q T T T T T T Q Q [ ..#.#.#.#.#.#.#.#...Q D P T Q Q S D T Q Q P D P T ! ! ! ! Q ! T T T J h.m.6.....................................#.#.........#.#...#.#.#.#.#.#.......#.............#.#...#.........#.#.#.#.#.#.#.#.#.#.#.#.#.#.#.#.#.#.#.#...#.#.#.........#.#.....#...#.#.........#.#.#.#...#.#.#.....#.#.#.#.....#...#.#...#.#.#...................................................[ [ [ [ S b Y T T T Q ! Q Q T T T J w.}.#.Q ! Y *.qX2.Q Q T D aX*.[ #.#.#.#.#.#.#.#.#.#.#.#.#.#.#.#.#.#.#.! J 9.3X2.5.#.#.#.#.#.#.#.#.#.#.#.#.#.#.#.#.#.#.#.#.O.S I T Q T S P Q Q Q C P Y T Q Q ! ! ! ! T ~ Y q.>X+X............[ ..[ ..................#...........#.........#.#.#.#.#.....#.#.#.#.....#.#.#.#.....#.#.#.........#.#.....#.#.#.#.#.#.#.#.#.#.#.#...#.#.#.#.#.......#.#.#.............#.#.#.#.......#...........#.#...........#.#.#.......#...#.#...#.#.......#.........................................C J T T T ! Q Q Q T T T P D }.}.*.Q ! Y =.dX9.#.Q ! P Q.`.5.#.#.#.#.#.#.#.#.#.#.#.#.#.[ Q T J D D D C x H.dX5Xn.Q [ &.2...#.#.O.#.#.#.#.#.#.#.#.#.#.#.#.#.#.#.#.#.#.#.#.#.#.#.#.f ",
"2.#.#.#.#.#.#.#.#.#.#.#.#.#.#.#.#.#.#.#.#.#.#.#.#.#.#.] -.Q T T T T T T Q Q [ O.#.#.#.#.#.#.#.#.#.Q D P T ! ! S D T Q Q P D P T ! ! ! ! Q ! ! T T P h.m.6.......................................#...#.....#.#...#.#.#.#.#.#.........#.#.#.#.#.#.#.#.....#.#.#.#.#.#.#.#.....#.#.#.#...#.............#.#.#.#.......#...#.#.#.....#.....#.............#...#.#...#.#.#.#.#.......#.#...#.............#...........#...................................[ [ [ [ S b Y T T T ! Q Q T ! T Y J w.}...Q ! Y *.qX2.Q Q T D aX-.#.#.#.#.#.#.#.#.#.#.#.#.#.#.#.#.#.#.#.#.Q J 9.uX2.5.#.#.#.#.#.#.#.#.#.#.#.#.#.#.#.#.#.#.#.#.O.S I T Q T S P Q Q Q C P U ! Q Q T ! ! ! T ~ Y q.>X[.............[ ..[ ..................#.#.......O.O.........#.#.#.#.....#.#.#.#.........#.#.......#.#.#...............#.#.#.#.#.#.#.#.#.#.#.........#.#.#...............#...#.#.............#.#.#.#.#...#.#.#.#...#.#.#.#...#.......#.#.#...#.#.......................................................C J T T T ! Q Q Q T T T Y D }.}.*.Q T Y =.dX9.*.Q ! P Q.`.5.#.#.#.#.#.#.#.#.#.#.#.#.#.[ Q Y J D D D C x J.7X5XC.Q { *.2.O.#.#.#.#.#.#.#.#.#.#.#.#.#.#.#.#.#.#.#.#.#.#.#.#.#.#.#.f ",
"2.#.#.#.#.#.#.#.#.#.#.#.#.#.#.#.#.#.#.#.#.#.#.#.#.#.#.] -.Q T T T T T T Q Q [ #.#.#.#.#.#.#.#.#.#.Q D P T Q Q S D T Q Q P D P T ! ! ! ! Q Q T T T P h.m.6...................................#...#...#.#...#.#.#.#.#.....#...#.#.#.#.#.#.#.....#.#.#.#...#.#.#.#.#.#.#.#.....#.#.#.#...#.#.#.........#.#.#.#.........#.#.#.#.....#.....#.................#.#...#.#.#.#.#.......#.#...#...........#.#...#.....#.#...................................[ [ [ [ S b Y T T T Q Q Q Q ! T Y P t.}...Q ! U *.qX2.Q Q T D aX2.&.#.#.#.#.#.#.#.#.#.#.#.#.#.#.#.#.#.#.#.Q J 9.5X:.5.#.#.#.#.#.#.#.#.#.#.#.#.#.#.#.#.#.#.#.#.O.S I T Q T S P Q Q Q C P U Q Q Q ! Q Q ! T ~ Y s.>X[.......................................#.#.#.#.............#.#.#.#.........#.#.........#.#.....#.#.#.#.........#.#.....#.#.....#.#.#.#.#.#.........#.#.#.#.............#.#.#.#.........#.#...#.#.#.....#.........#.#.#.#.#.......#.#.#.#.#.#.#.....#.....#...........................................C J T T T ! Q Q Q ! T T I D }.}.*.! T Y =.dXz.*.Q ! P Q.`.5...#.#.#.#.#.#.#.#.#.#.#.#.[ T Y J D D D A x P.uX=XF.Q [ *.2.O.#.#.#.#.#.#.#.#.#.#.#.#.#.#.#.#.#.#.#.#.#.#.#.#.#.#.#.f ",
"2.#.#.#.#.#.#.#.#.#.#.#.#.#.#.#.#.#.#.#.#.#.#.#.#.#.#.] -.Q T T T T T T Q Q [ O.#.#.#.#.#.#.#.#.#.Q D P T Q T S D T Q Q P D P T ! ! Q ! Q Q T T ~ P h.m.6.....[ ..[ ........................#...............#.#...#.#...#.......#.#.#.#.#.#.....#.......#...#.#.#.#.#.#.......#.....#.#.#.#.#.#...#.#.#...................#.#...#.#.#.#.....#.#...#.....#.#...#.#.#.#.#.....#.#.....#.#...#.....#.....#.#.#.#.#...........#.............................[ S b Y T T T Q Q Q Q Q T Y P t.}.#.Q Q U *.tX2.Q Q T D dX2.&.#.#.#.#.#.#.#.#.#.#.#.#.#.#.#.#.#.#.#.Q J 9.,X:.5.#.#.#.#.#.#.#.#.#.#.#.#.#.#.#.#.#.#.#.#.O.S I T Q T D P Q Q Q C P U T Q ! ! ! ! Q T T Y s.>X[.......................................#.#...#.........#.#...#.#.#.........#.#.....#.#.#.#.......#.#.#.#...#.#...#.............#.#.......#.....#.#.#.#.#.#.#.#.............#.#.#...#.#.#.#.#.#.#...............#.#.#.#.............#.#.#.#.....#.#.#.#...#.#.#.#.............................[ [ [ ..C J T T T Q Q Q Q T T T P D }.}.*.Q T Y =.dXz.*.Q ! I Q.`.5...#.#.#.#.#.#.#.#.#.#.#.#.[ Q Y J D D D C x Q.sX5XF.Q [ *.2.O.#.#...#.#.#.#.#.#.#.#.#.#.#.#.#.#.#.#.#.#.#.#.#.#.#.#.f ",
"2.#.#.#.#.#.#.#.#.#.#.#.#.#.#.#.#.#.#.#.#.#.#.#.#.#.#.Q =.Q T T T T T T Q Q [ ..#.#.#.#.#.#.#.#.#.Q D P T Q T S D T Q Q P D P T ! ! Q Q Q Q ! T ~ P h.m.6...[ [ ..[ ................#.#.....#.....#...........#.....#...#.......#.#.#.#...................#.#.#.#.#.#...................#.#.#.#.#.#.#.#.#...............#.#.#.......#.#.#...#.#.#.#.#.#.#.#.........#.......#.#.......#.#.#.#.#.#.#.#.#.....#.....................................[ [ ..[ S b Y T T T Q Q Q Q ! T Y P q.}.#.Q Q U *.tX2.Q Q T D dX2.&.#.#.#.#.#.#.#.#.#.#.#.#.#.#.#.#.#.#.#.Q J 9.uX:.5.#.#.#.#.#.#.#.#.#.#.#.#.#.#.#.#.#.#.#.#.O.S I T Q T S Y Q Q Q C P T ! Q Q Q ! ! ! T ~ Y s.>X[.....................#.....#.........#.#.#...........#.#.#...#.#.#.......#.#.#...#.#...#.#.......#.#.#.#.#.#.#...#...........................#.#.#.#.#.#.#.#.#.#.#.......#.#.#.#.#.#.#.#.#.#.#.#.......#.......#.#.#.#...#...........#.#.#.#.....#.#...#.#.#...#.....#.......................[ [ [ ..C J T T T Q Q Q Q T T T P D }.}.=.Q T Y =.dXz.*.Q ! I Q.`.5.#.#.#.#.#.#.#.#.#.#.#.#.#.[ Q Y J D D D C M H.5XuXF.Q [ &.2...#.#...#.#.#.#.#.#.#.#.#.#.#.#.#.#.#.#.#.#.#.#.#.#.#.#.f ",
"2.#.#.#.#.#.#.#.#.#.#.#.#.#.#.#.#.#.#.#.#.#.#.#.#.#.#.] -.Q T T T T T T Q Q [ O.#.#.#.#.#.#.#.#.#.Q D P T Q Q S D U ! Q P D P T ! Q Q Q ! ! ! T ~ P h.m.6...[ [ [ ....................#.......#.......................................#.#.#.........#.#.................#.#.........#...#.#.#.#.#.#.....#.#.....#.#.#.#.......#...#.#.#.#.#.#.#.#.#.#.#.................#.#.#.#.#.#...#.#.#.#.#.....#.#...........................................[ [ [ [ S b Y T T T Q Q Q Q Q T Y P q.}.*.Q Q U *.aX2.Q Q T D dX2.#.#.#.#.#.#.#.#.#.#.#.#.#.#.#.#.#.#.#.#.Q J 9.pX:.5.#.......#.#.#.#.#.#.#.#.#.#.#.#.#.#.#.#.O.S I T Q T S U ! Q Q C P T Q Q Q Q ! ! ! T T Y s.>X2X......[ ..................#.........#.#.#.#.#.........#.#.......#.#.....#...#.#.#.#.......#.#.#.#.....#.#.#.#.......#.#.#.............#.#.#.#.#.#.#.#.#.#.#.#.........#.#.#...#.#.#...#...#...#.....#.#...#.#.#.#...#.........#.#.........#.....#.......#...........#.#.............................C D T T T Q Q Q Q T T T I D }.}.*.Q T Y =.dXz.*.Q Q I Q.:X5.#.#...#.#.#.#.#.#.#.#.#.#.[ Q Y J D D D C M P.uX8XF.Q [ *.2.O.#.#.#.#.#.#.#.#.#.#.#.#.#.#.#.#.#.#.#.#.#.#.#.#.#.#.#.f ",
"2.#.#.#.#.#.#.#.#.#.#.#.#.#.#.#.#.#.#.#.#.#.#.#.#.#.#.] -.Q T T T T T T Q Q [ #.#.#.#.#.#.#.#.#...Q D P T Q Q S D U Q Q P D P T ! Q Q Q ! ! ! T ~ P h.m.6...[ [ [ [ ..................#...........#.........#.......................#.#.#.#.........#.#.................#.#.#.....#.#.......#...#.....#.#.#.#.#.#.#.#.#.......#.....#.#.#.#.#.#.#.#.#.#.................#.#.#.#.#.#.#.#.#.#.#.#.....#.................................................[ [ S x Y T T T Q Q Q Q Q T Y P q.}.*.Q Q U *.aX2.Q Q T D dX2.#.#.#.#.#.#.#.#.#.#.#.#.#.#.#.#.#.#.#.#.Q J 9.:X:.5.#.....#.#.#.#.#.#.#.#.#.#.#.#.#.#.#.#.#.O.S I T Q T S U ! Q Q C P T ! Q Q Q ! ! ! T T Y s.<X2X....[ [ ................#.#.........#.#...#.#...#.....#.#.......#.#...#.#...#.#.#.#.#.....#.#.#.#.....#.#.#.#.....#.#.#.#.............#.#.#.#.#.#.#.#.#.#.#.#.....#.#.#.#.#...#.#.#.#.....#...#...#.#.#.....#.#.#.#.#.........#.#.........#.....#...#.#.#.....#.#.#.#...............................C D T T T Q Q Q Q ! T T P D }.}.-.Q ! Y =.dXg.*.Q Q I Q.:X5.#.#.#.#.#.#.#.#.#.#.#.#.#.[ T Y J D D D A x Q.sX5XF.Q [ *.2.#.#.#.#.#.#.#.#.#.#.#.#.#.#.#.#.#.#.#.#.#.#.#.#.#.#.#.#.f ",
"2.#.#.#.#.#.#.#.#.#.#.#.#.#.#.#.#.#.#.#.#.#.#.#.#.#.#.] -.Q T T T T T T Q Q [ O.#.#.#.#.#.#.#.#...Q D P T Q Q S D T Q Q Y D P T ! ! Q ! ! ! ! T ~ P h.m.6.....[ ..[ ..................#...............#.#.#.......#.#.#.#.#.............#.#.#.......#.#.#.#...#.....#.#.#.#.......#.#.#.........#.#...#...#.#.#.#.#.#.#.....#.#.#.#.#.#.#.#.........#.......#.#.#.#...#...........#.#.#.#.#.........#...#.#...#...................................[ [ [ [ S x Y T T T Q Q Q Q Q T Y P q.}.*.Q ! Y *.aX2.Q Q T D dX,.#.#.#.#.#.#.#.#.#.#.#.#.#.#.#.#.#.#.#.#.Q J 9.7X:.5.#...#.#.#.#.#.#.#.#.#.#.#.#.#.#.#.#.#.#.O.S I T Q T S U ! Q Q C P U T Q Q Q Q ! ! T ~ Y s.<X2X....[ [ ..............#.#...........#...#.#.#.#.#...#.#.#.......#.....#.#.....#.#.#.......#.#.........#.#.#.......#.#.#.#.....#...#.#.#.#.#.#.........#.#.#.#.#...#.#.#.#.#.#.#.#.............#.#.#.........#...#.#...#.......#.#.#.#.....#.#.........#.#.....#.#.#.#...#.......................[ [ C D T T T ! Q Q Q T T T P D }.}.*.Q Q Y =.dXg.*.Q ! I Q.:X5.#.#.#.#.#.#.#.#.#.#.#.#.#.[ Q Y J D D D C N F.5XuXF.Q [ *.2.O.#.#.#.#.#.#.#.#.#.#.#.#.#.#.#.#.#.#.#.#.#.#.#.#.#.#.#.f ",
"2.#.#.#.#.#.#.#.#.#.#.#.#.#.#.#.#.#.#.#.#.#.#.#.#.#.#.Q =.Q T T T T T T Q Q [ ..#.#.#.#.#.#.#.#.#.Q D P T Q Q S D T Q Q Y D P T ! ! ! ! ! ! ! T ~ P h.m.6...[ [ [ [ ......................#.#.#.#.....#.#.#.#.#.#.#.#.#.#.#.#.#.........#.#.#.#.....#.#.#.#.#.#.#.#.#.#.#.#.....#.#.#.#.......#.#.#.......#.#.#.#.#.........#.#.#.#.#...#...........#...#.#.#.#.#.#.#.#...........#.#.....#.#...#.#.....#.#.#.#...............#...................[ [ ..[ S x Y T T T Q Q Q Q ! T Y P q.}.*.Q ! Y *.aX2.Q Q U D dX,.#.#.#.#.#.#.#.#.#.#.#.#.#.#.#.#.#.#.#.#.Q J 9.uX:.5.*.#...#.#.#.#.#.#.#.#.#.#.#.#.#.#.#.#.#.O.S I T Q T S U ! Q Q C P Y Q Q Q ! Q Q ! T ~ Y =.<X2X....[ [ [ ..............#...........#.#...#.#.........#.#.......#.#.#.#.......#.#.#.#.#...#.#.#.......#.#.#.......#.#.#.#.#.#.#.#.#.#.#.#.............#.#.#.......#.#.#.#.....#.#.#.........#.#.#.#.............#.#.#.........#.#.#.#.#.#...#.#.......#.#.#...........#.........................[ [ A D T T T ! Q Q Q T T T P D }.}.=.Q Q Y =.dXg.*.Q ! I Q.:X5...#...#.#.#.#.#.#.#.#.#.#.[ Q Y J H D D A b Q.uX8XF.Q [ &.2.O.#.#.#.#.#.#.#.#.#.#.#.#.#.#.#.#.#.#.#.#.#.#.#.#.#.#.#.f ",
"2.#.#.#.#.#.#.#.#.#.#.#.#.#.#.#.#.#.#.#.#.#.#.#.#.O.@.] -.Q T T T T T T Q Q [ O.#.#.#.#.#.#.#.#.#.Q D P T Q Q S D T Q Q Y D P T ! ! ! Q Q ! ! T ~ P h.m.6...[ ..[ ..................#.....#.#.#.#.....#.........#.#.#.#.#.#.#.#.........#.#.#.#.....#.#.#.............#.#.#.....#.#.#.#.........#.#.#.#.#...............#.#.#.#.#.#.#.#.#.#.#.#.#.#.........#.#.#.#.......#...#.......#.#.#.....#.#.#.#.#.#.............#.#.....#...................[ [ [ S x Y T T T Q Q Q Q ! T U P t.}.=.Q ! U =.aX,.Q Q T D dX,.#.#.#.#.#.#.#.#.#.#.#.#.#.#.#.#.#.#.#.#.Q J 9.5Xt.5.*.#.#.#.#.#.#.#.#.#.#.#.#.#.#.#.#.#.#.#.O.S I T Q Q S Y Q Q Q C P T ! Q Q Q Q ! ! T ~ Y =.<X2X........[ ..............#.............#...#.#.............#.#.....#.#.#.#.....#.#.#.#.....#.#.#.......#.#.........#.#.#.#.#.#.#.#.#.#.#.................#.........#.#.#.#.....#.#.#...........#.#.#.#.....#.#.#.#.......#...#.#.#.#.#.#.#...#.........#.#.#.#...................................[ [ A D T T T ! Q Q Q T T T P D }.}.*.Q ! Y D dXg.*.Q ! I Q.:X5...#.#.#.#.#.#.#.#.#.#.#.#.[ ! Y J H D D A x Q.sX3XH.Q [ *.2.#.O.#.#.#.#.#.#.#.#.#.#.#.#.#.#.#.#.#.#.#.#.#.#.#.#.#.#.f ",
"2.#.#.#.#.#.#.#.#.#.#.#.#.#.#.#.#.#.#.#.#.#.#.#.#.#.@.] -.] T T T T T T Q Q [ #.#.#.#.#.#.#.#.#.#.Q D P T Q Q S D U Q Q Y D P T ! Q Q Q ! ! ! T ~ P h.m.6...........................#.....#.#.#.#.....#.........#.#.#.#.#.#.#...#.......#.#.#.#.#...#.#.#...........#.#.#.#.....#.#.#.#.........#.#...#.#.#.........#.#.#.#.#.#.....#...#.#.#.#.#.#...#.....#.#.#.#...........#.......#.#.#.....#.#.#.#.#.#.......#.#...#.#.....#...................[ [ [ S x Y T T T Q Q Q Q T T U P t.}.=.Q ! U =.aX,.Q Q T D dX,.#.#.#.#.#.#.#.#.#.#.#.#.#.#.#.#.#.#.#.#.Q J 9.6Xq.5.*.#.#.#.#.#.#.#.#.#.#.#.#.#.#.#.#.#.#.#.O.S I T Q Q S Y ! Q Q C P U T Q Q Q Q ! ! T T Y =.<X2X........[ ..........................#.....#.....#...#.#.....#.....#.#.#.#.....#.#.#.#.....#.#.#.......#.#.#.......#.#.#.#.#.#.#.#.#.#.#...............#...........#.#.#.#.....#.#.#.#.........#.#.#.#.....#.#.#.#.....#.#.....#.#.#.#.#.#...#.........#.#.#.#.#...................#.................A D T T T ! Q Q Q Q T T I D }.}.&.Q ! Y D dXg.*.Q ! I Q.:X5.#.#...#.#.#.#.#.#.#.#.#.#.) T Y P D D D S x F.dXuXH.Q { *.2.#.#.#.#.#.#.#.#.#.#.#.#.#.#.#.#.#.#.#.#.#.#.#.#.#.#.#.#.f ",
"-...#.#.#.#.#.#.#.#.#.#.#.#.#.#.#.#.#.#.#.#.#.#.#.O.O.] -.Q T T T T T T Q Q [ O.#.#.#.#.#.#.#.#.#.Q D P T Q Q S D T Q Q Y D P U ! Q Q Q ! ! ! T ~ P h.m.6...........................#.......#.#.#...#.......#.#.#.#.#.#.#.#.....#.#.....#.#.#.#.#.#.#.#.#.#...........#.#.#.#.#.#.#.#.#.....#.#.........#.#.#.#.#.#.#.#.#.#.................#.#.#.#.#.#.....#.#.#.#.....#.#.#.#...........#.#.#.....#.#.#.....#.#.#.......#.....#.........................S x Y T T T Q Q Q Q T T Y ^ 9.}.=.Q ! U =.aX,.Q Q T D dX,.#.#.#.#.#.#.#.#.#.#.#.#.#.#.#.#.#.#.#.#.Q J 9.uXq.5.#.#.#.#.#.#.#.#.#.#.#.#.#.#.#.#.#.#.#.#.O.S I T Q Q S Y ! Q Q C P T T Q Q Q Q ! ! T ~ Y =.<X2X............................#.#.#.#.#...#.....#.#...#.......#.#...#.........#.#.#.........#.#.#.#.......#.#.#.....#.#.#.#.....#.#.#.#...#.#.#...#.........#.#.....#.#.#.#...#.#.#.#...............#.#.#.....#.#.#.....#.#.#.#.#.#.#.#.#.#.#.#...................................#.#.................A D T T T ! Q Q Q Q T T I D }.}.*.Q ! Y D dXg.*.Q Q P Q.:X5.#.#.#.#.#.#.#.#.#.#.#.#.#.[ ! Y J J D D S x Y.8X8XJ.Q [ *.2.&.#.#.#.#.#.#.#.#.#.#.#.#.#.#.#.#.#.#.#.#.#.#.#.#.#.#.#.f ",
"2...#.#.#.#.#.#.#.#.#.#.#.#.#.#.#.#.#.#.#.#.#.#.#.O.O.] =.Q T T T T T T Q Q [ ..#.#.#.#.#.#.#.#.#.[ D P T Q Q S D T Q Q Y D P U ! Q Q Q ! ! ! T ~ P h.m.6...........................#.#.#...#.#...#.#.......#.#.......#.#.#.#...#.#.....#.#.#...#.#.#.#.#.............#.#.#.#.#.....#.#.#...#.#.........#.#.#.#.#.#.#.#...............#.....#...#.#.#.#.....#.#.#.#.....#.#.#.#.......#.#.#...#.......#.#.#...#.#.#.#.#.#.#.#.........................[ [ S x Y T T T Q Q Q ! T T Y ^ 9.}.-.Q ! U =.aX,.Q Q T D dX,.#.#.#.#.#.#.#.#.#.#.#.#.#.#.#.#.#.#.#.#.Q J 9.5Xt.5.*.#.#.#.#.#.#.#.#.#.#.#.#.#.#.#.#.#.#.#.O.S I T Q Q S Y ! Q Q C P T T ! ! Q Q ! ! T T Y =.<X2X............................#.#...#.....#.....#.#.#.#.................#.#.#.#.#.#.#.......#.#.#.#.....#.#.#.#.....#.#.#.....#.#.#.#.#.#.#.#.#.#.#.......#.#.#...#.#.#.....#.#.#.#.#.............#.#.#.#.#...#.........#.#.#.#.#.#.......#.#.........#...............................................A D T T T ! Q Q Q Q T T P D }.}.*.Q ! U D dXg.*.Q Q P M.:X5.#.#.#.#.#.#.#.#.#.#.#.#.#.[ Q Y J J D D A x Q.pX;XE.| { &.2.&.#.#.#.#.#.#.#.#.#.#.#.#.#.#.#.#.#.#.#.#.#.#.#.#.#.#.#.f ",
"2.#.#.#.#.#.#.#.#.#.#.#.#.#.#.#.#.#.#.#.#.#.#.#.#.#.#.] -.Q T T T T T T Q Q [ O.#.#.#.#.#.#.#...#.[ D P T Q Q S D T Q Q Y D P U ! Q Q Q Q ! ! T T P h.m.6.............................#.......#.#.#...#.....#.#.........#.#.#...#.#.#.#.........#.#.....#.#.#.#.#.#.#.#.....#.#.........#.#.#.#.....#.#.#...#.#.....#.#.#.#.............................#.#.#...#.#.#.#.#.......#.#.#.#.#.#...#.....#.#.#.#.....#.#.......#.#.........................[ [ S x Y T T T Q Q Q T T T Y ^ 9.}.-.Q ! U =.aX,.Q Q T D dX,.*.#.#.#.#.#.#.#.#.#.#.#.#.#.#.#.#.#.#.#.Q J 9.5Xq.5.*.#.#.#.#.#.#.#.#.#.#.#.#.#.#.#.#.#.#.#.O.S P T Q Q Z Y Q Q Q C P T ! ! ! Q Q Q Q T T U =.<X2X..................................#.........#.#.#...#.#.#.....#.#.......#.#.#.....#.#.#.#.......#.#.#.#.#.#.#.#.#.............#.#.#.#.#.#.#.#.........#.#.#.#.#.#.........#.#.....#.#.#.#.#.#.#.#.....#.#.#.......#.#.#.#.#.#.#.#.#.......#.#.........#.#.#.#.#.............#.#.....................A D T T T ! Q Q Q Q T T I D }.}.*.Q Q U D dXg.*.Q Q P M.:X5.#.#.#.#.#.#.#.#.#.#.#.#.#.[ Q Y P J D D S x H.dX8XL.Q { *.2.&.#.#.#.#.#.#.#.#.#.#.#.#.#.#.#.#.#.#.#.#.#.#.#.#.#.#.#.f ",
"2.#.#.#.#.#.#.#.#.#.#.#.#.#.#.#.#.#.#.#.#.#.#.#.#.#.#.] -.Q T T T T T T Q Q [ #.#.#.#.#.#.#.#...#.[ D P T Q Q S D U ! Q Y D P T ! Q Q Q Q ! ! T T P h.m.6.....................................#.#...#.....#.#.#.....#.#.#.#.#...#.#.#.#.........#.#.#...#.#.#.#.#.#.#.#.....#.#.........#.#.#.#.#.#.#.#.....#.#.#.#.#...#.#...........#.....#.#.........#.#.......#.#.#.#.#.....#.#.#.#.#.....#.....#.#.#.......#.#.......#.#.....................[ ..[ [ S x Y T T T Q Q Q Q T T Y P q.}.=.Q ! U =.aX,.Q Q T D dX,.*.#.#.#.#.#.#.#.#.#.#.#.#.#.#.#.#.#.#.#.Q J 9.uXt.5.*.#.#.#.#.#.#.#.#.#.#.#.#.#.#.#.#.#.#.#.O.S P T Q Q Z Y Q Q Q C P T ! ! ! ! Q Q Q T T U =.<X2X............................#...#.#...........#.#.....#.#...#.#.#.......#.#.......#.#.#.#.........#.#.#...#.#.#.#.............#.#.#.#.....#.#.....#...#.#.#.#.#.#.........#.#.....#.#.#.#.#.#.#.#.......#.........#...#.#.....#...#.......#.#.........#.#.#...................#.....................A D T T T Q Q Q Q Q T T I D }.}.*.Q Q Y D dXg.*.Q Q P M.:X5.#.#.#.#.#.#.#.#.#.#.#.#.#.[ Q Y P J D D S N Y.8X8XK.Q { =.2.&.#.#.#.#.#.#.#.#.#.#.#.#.#.#.#.#.#.#.#.#.#.#.#.#.#.#.#.f ",
"2.#.#.#.#.#.#.#.#.#.#.#.#.#.#.#.#.#.#.#.#.#.#.#.#.#.#.] -.Q T T T T T T Q Q [ #.#.#.#.#.#.#.#.#.#.[ D P T Q Q S D Y ! Q Y D P T T Q Q Q ! ! ! T T P h.m.6...........................#.........#.#...#.....#...#.....#.#.#...........#.#.....#.#.#.#.........#.#.#.#.........#.#.#.#...#.#.#.....#.#.#.#.........#.......#.#.#.#...#.#.#.#.#.#.#.....#.#.#.#.........#.#.#.......#.#.....#...#.#...#.#.#.#.......#.................................[ ..[ [ S x Y T T T Q Q Q Q T T Y P w.qX-.Q ! Y =.aX,.Q Q T D dX,.*.#.#.#.#.#.#.#.#.#.#.#.#.#.#.#.#.#.#.#.Q J 9.,Xt.5.*.#.#.#.#.#.#.#.#.#.#.#.#.#.#.#.#.#.#.#.O.A P T Q Q D Y Q Q Q C P T ! ! Q Q Q Q Q T T U =.<X2X............................#.#.#.#.......#...#.#.#.#.#...#.#...#.#.#.#...#.#.......#.#.#.....#.#.#.#.........#.#.....#.#.....#.#.#.......#.#.....#.#.#.#.....#.#.#...#.#.#.#.........#.#.#.#.#.......#.#...#...#.................#...#.#.#.#.#.....#.#.#.#...................#.#...................A D T T T Q Q Q Q ! T T I D Q.<X-.) ! Y D dXg.*.Q Q P M.:X5...#.#.#.#.#.#.#.#.#.#.#.#.[ Q Y P J D D S N Q.pXuXE.Q [ *.2.#.#.#.#.#.#.#.#.#.#.#.#.#.#.#.#.#.#.#.#.#.#.#.#.#.#.#.#.f ",
"2.#.#.#.#.#.#.#.#.#.#.#.#.#.#.#.#.#.#.#.#.#.#.#.#.#.#.] =.Q T T T T T T Q Q [ ..#.#.#.#.#.#.#.#.#.[ D P T Q Q S D Y ! Q Y D P T T Q Q Q ! ! ! T T P h.m.6...........................#.........#...#.#.#.#...#.#.....#.#.#.#.............#.#.#.#.#.#.........#.#.#.#.#.......#.#.#.#.#.#.#.......#.#.#.#.................#.#.#.#.#.#.#.#.#.#.#.#...#.#.#.#.#.........#.#.#.......#.#.#.......#.#...#.#.#.........#.....................................[ ..S x Y T T T Q Q Q Q T T T P w.<X=.Q ! Y =.aX-.Q Q T D dX,.*.#.#.#.#.#.#.#.#.#.#.#.#.#.#.#.#.#.#.#.Q J 9.,Xt.5.#.O.#.#.#.#.#.#.#.#.#.#.#.#.#.#.#.#.#.#.O.A I T Q Q S Y Q Q Q C P T ! ! Q Q Q Q Q T T U =.<X2X..............................#...#.....#.#...#.#.#.#.#...#.#.#.#.#.#.#...#.#.......#.#.#.....#.#.#.#.............#.#.#.#.....#.#.#.#.....#.#.....#.#.#.#.......#.#.#.#.#.#.#.......#.#.#.#.#.#.......#.#.#.#.#.#.................#.#.#.#.#.#.#.#...#.#.#.#.#.......#...........#...................A D T T T Q Q Q Q ! T T P D Q.@X-.! T Y D dXg.*.Q Q P M.:X5.#.#.#.#.#.#.#.#.#.#.#.#.#.[ Q T P J D D S N M.dX8XL.] [ *.2.#.#.#.#.#.#.#.#.#.#.#.#.#.#.#.#.#.#.#.#.#.#.#.#.#.#.#.#.x ",
"2.#.#.#.#.#.#.#.#.#.#.#.#.#.#.#.#.#.#.#.#.#.#.#.#.#.#.] -.Q T T T T T T Q Q [ #.#.#.#.#.#.#.#.#...[ D P T Q Q D D Y ! Q Y D P T T ! Q ! Q ! ! T T P h.m.6.............................#.#...#.#.#.#.#.#.....#.#.......#.#.#...........#.#.#.#.#.#.#.......#.#.#.#.#.........#.#.#.#.#.#.............#.#.#.#.........#.#.#.#...#.#.#.#.#.#.#.#.......#.#.#.#.#.#...........#.#.#...............#.........#.#.#...#.#.#.................................[ ..D x Y T T T Q Q Q Q T T T P t.qX-.Q ! U =.aX-.Q Q T D dX,.*.#.#.#.#.#.#.#.#.#.#.#.#.#.#.#.#.#.#.#.Q J 9.uXt.5.*.#.#.#.#.#.#.#.#.#.#.#.#.#.#.#.#.#.#.#.O.A I T Q Q D Y ! Q Q C P T ! ! Q ! Q Q Q T ~ U =.<X2X......................#.#.#.......#.#.#.#.#.#.#.#.#.#.........#.#.#...#.#.............#.#.#...#.#.#.#.#.#.#.#.........#.#.#.#.#.#.....#.#.........#.#.#.#.........#.#.#.#.#.#.........#.#.#.#.#.#.....#.#.#.#.#.#.#.#.#...#.#.#.......#.#.........#.#.#...#.#.#.....#...............................A D T T T Q Q Q Q Q ! T P D Q.@X*.Q ! Y D dXg.-.) Q Y M.:X5.#.#.#.#.#.#.#.#.#.#.#.#.#.[ T Y P H D D S N x.5XpXL.) [ *.2.#.#.#.#.#.#.#.#.#.#.#.#.#.#.#.#.#.#.#.#.#.#.#.#.#.#.#.#.x ",
"2.#.#.#.#.#.#.#.#.#.#.#.#.#.#.#.#.#.#.#.#.#.#.#.#.#.#.] -.Q T T T T T T Q Q [ #.#.#.#.#.#.#.#.#...[ D P T ! Q D D U Q Q Y D P T T ! ! ! ! ! ! T T P :.m.6.............................#.....#.#.#.#.#.#...#.#.#.......#.#.#.#.......#.#.#...#.#.#.#.........#.#.#.#.........#.#.#.#.....#.#.........#.#.#.......#.#.#.#.#.....#.#.#.#.#.#.#.#.#.....#.#.#.#.#.#.........#.#.#.#.......................#.#.#.#...#.#.#.............................[ ..[ ..D x Y T T ! Q Q Q Q ! T T P t.qX=.Q ! T =.aX-.Q Q T D dX,.*.#.#.#.#.#.#.#.#.#.#.#.#.#.#.#.#.#.#.#.Q J ..uXt.5.*.#.#.#.#.#.#.#.#.#.#.#.#.#.#.#.#.#.#.#.O.S P T Q Q D Y ! Q Q C J U ! Q ! ! Q Q T T ~ U =.<X2X........[ ..............#.........#.#...#.....#.#.#.#.........#.#.#.#.#.#.........#.#.#.#.....#.#.#.#.#.#.#.#.........#.#.#.#.#.#.....#.#.........#.#.#.......#.#.....#.#.#.#.........#.#.#.#.#.#.....#.#.#.#.#.#.#.#.#...#.#.......#.#.#.......#.#.#.#...#.#.#...#...........#.....................A D T T T ! Q Q Q Q ! T P D Q.@X:.Q Q Y D dXg.*.Q Q Y M.:X5.#.#.#.#.#.#.#.#.#.#.#.#.#.[ ! Y P J D D D N v.uXuXT.Q O.*.2.#.O.#.#.#.#.#.#.#.#.#.#.#.#.#.#.#.#.#.#.#.#.#.#.#.#.#.#.x ",
"2.#.#.#.#.#.#.#.#.#.#.#.#.#.#.#.#.#.#.#.#.#.#.#.#.#.#.] -.Q T T T T T T Q Q [ #.#.#.#.#.#.#.#.#...[ D P T Q Q D D T Q Q Y D I T ! ! ! Q ! ! ! T T P :.m.q.............................#.....#...#.#.........#.#.....#.#.#.#.....#.#.#.#.........#.#.....#.#.#.#.#.#.#.#...#.#.#.........#.#.#.#.....#.#.#.#.....#.#.....#...#.#.....#.#.#.#.#.#.......#.............#.#.#.#.#.#.#.#.........#.#.....#...#.#...#.#.#.#.#...........................[ ..[ ..D x Y T T T Q Q Q Q T T T P t.qX-.Q Q T =.aX-.Q ) T D dX,.*.#.#.#.#.#.#.#.#.#.#.#.#.#.#.#.#.#.#.#.Q J ..-Xt.5.*.#.#.#.#.#.#.#.#.#.#.#.#.#.#.#.#.#.#.#.#.S P T Q Q D Y ! Q Q C J T ! ! ! ! ! ! ! T T U =.<X2X....................#...#...........#...#.........#.#.#.......#.#.......#.#...#.#.#.#.#.#.............#.#.#.#.#.#...#.#.#.#.#...#.....#.#.....#.#.#.#.....#.#.#.#.........#.#.#...#.#.#.#.#.#.#.#.......#.....#.#.#.#.#.#.#.#.........#.#.....#.#.#.#.............#.#.#.#...#.#.#.#.................S D Y T T ! Q Q Q Q ! T P D Q.@X:.Q Q Y D dXB.=.Q Q Y M.:X5.#.#.#.#.#.#.#.#.#.#.#.#.#.[ Q T P J D D S N M.sX8XU.) O.*.2.#.#.#.#.#.#.#.#.#.#.#.#.#.#.#.#.#.#.#.#.#.#.#.#.#.#.#.#.x ",
"2.#.#.#.#.#.#.#.#.#.#.#.#.#.#.#.#.#.#.#.#.#.#.#.#.#.#.] =.Q T T T T T T Q Q [ ..#.#.#.#.#.#.#.#.#.[ D J T Q Q D D T Q Q Y D P T Q Q Q Q ! ! ! T T P :.v.q...........................#.#.#.#.#...#.#.........#.#.#...#...#.#.....#.#.#.#.........#.#.....#.#.#.#.#.#.#.#.....#.#.........#.#.#.#.....#.#.#.#.....#.#.....#.#.#.#.....#.#.#.#.#.#.....#.#.........#.#.#.#.#.#.#.#.#.#.#.......#.#.#...#.#.#.#.....#.#.#.............................[ [ [ ..D x Y T T T ! Q Q Q T T T P w.qX-.Q Q T =.aX-.) ) T D aX-.*.#.#.#.#.#.#.#.#.#.#.#.#.#.#.#.#.#.#.#.Q J ..8Xt.5.*.#.#.#.#.#.#.#.#.#.#.#.#.#.#.#.#.#.#.#.#.S P T Q Q D Y ! Q Q C J T Q ! ! Q ! ! ! T ~ U =.<X2X....................#...#...........#.#.#.................................#.#.#.#.#.#.#.#...............#.#.#.#.#.....#.#.#.#.........#.#.#...#.#.#.#.....#.#.#.#.........#.#.....#.#.#.#.#.#.#...................#.#.#.#.#.#.........#.#.....#.#.#.#.............#.#.#.....#.#.#.#.................S D Y T T Q Q Q Q Q ! T P D Q.@X:.Q Q Y D dXB.*.Q ! P M.:X5...#.O.#.#.#.#.#.#.#.#.#.#.[ Q T P J D D S N x.dXuXT.[ O.*.2.#.#.#.#.#.#.#.#.#.#.#.#.#.#.#.#.#.#.#.#.#.#.#.#.#.#.#.#.x ",
"2.#.#.#.#.#.#.#.#.#.#.#.#.#.#.#.#.#.#.#.#.#.#.#.#.#.#.] -.Q T T T T T T Q Q [ #.#.#.#.#.#.#.#.#.#.[ D P T Q Q D D T Q Q Y D P T Q Q ! ! ! Q ! T T P :.m.t...........................#.#.#.#.....#.......#.#.#.....#.#.#.#.#.....#.#...#.#.#.....#.#.#.#.#.............#.#.#.#.#...#.#.#.....#.#...#.#.#.#.#.#...#.......#.#...#.....#.#.#.#...............#.#.#.#.#.#.#.#.#.#.#.#.#.........#.#.#.#.#.#.#...........#...............................[ ....D x Y T T T Q Q Q Q T T T P t.<X*.Q Q T =.aX2.Q Q T D aX-.*.#.#.#.#.#.#.#.#.#.#.#.#.#.#.#.#.#.#.#.Q J ..uXq.5.#.......#.#.#.#.#.#.#.#.#.#.#.#.#.#.#.#.#.S P T Q ! D Y ! Q Q C J T ! Q ! Q Q ! ! T T U =.<X2X....................#.....................#.#.#.......#.#...........#.#.#.#...#.#.#.#.#.#.......................#.#.#.#.#.#.......#.#.#.#.#.#.#.#.........#.#.....#.#.#...#.#.#.#.#.........#.#...#.#.#.......#.#.#.#...#.#.#.#...#.#.#.#.#.#.#.#...........#.#.#.....#...#.#.#.#.{ ................S D T T T ! Q Q Q Q ! T P J Q.@X:.Q Q Y D dXB.*.Q ! P M.:X5.#.#.#.#.#.#.#.#.#.#.#.#.#.[ Q T P J D D D N v.uXuXE.] [ *.2.#.#.#.#.#.#.#.#.#.#.#.#.#.#.#.#.#.#.#.#.#.#.#.#.#.#.#.#.x ",
"4.#.#.#.#.#.#.#.#.#.#.#.#.#.#.#.#.#.#.#.#.#.#.#.#.#.#.] -.Q T T T T T T Q Q [ #.#.#.#.#.#.#.#.#.#.[ D P T Q Q D D T Q Q Y D P T ! Q ! ! ! Q Q T ~ P :.m.t...........................#.#.#.#.....#...........#.#...#.#.#.#.#.....#.#.....#.#.#.#.#.#.#.#.#...........#.#.#.#.#.#.#.#.#.#.....#.#.....#.#.#.#.#...#.#.....#.#...#.....#.#.#.#.................#.#.#.#.#.#.#.#.#.#.#.#.........#.#.#.#.#.#.#.#.............#.....#...........................D x Y T T ! Q Q Q Q ! T Y P w.<X*.Q ! T D aX2.Q Q T D aX-.*.#.#.#.#.#.#.#.#.#.#.#.#.#.#.#.#.#.#.#.Q J ..=Xt.5.#.......#.#.#.#.#.#.#.#.#.#.#.#.#.#.#.#.#.S J T Q ! D Y Q Q Q A J T ! Q Q Q Q ! ! T T U =.<X2X....................#...........#.....#.#.#.#.#.#.....#.#.#.......#.#.#...#...#.#.#.#.#.#.......#.....#.#.....#.#.#.#.#.#.#.......#...#.#.#.#.#.#.#.#.....#.#.....#.#.#.#.#.#.#.#.#.#.......#.#...#.#.#.......#.#.#.#.....#.#.........#.#.#.#.#.#.#.#.#...#.#.#.#.........#.O.O...[ ................S S T T T ! Q Q Q Q ! T P D Q.@X:.Q Q U D dXB.*.Q ! P M.:X5...#.#.#.#.#.#.#.#.#.#.#.#.[ Q T P J D D D N M.sX7X*XQ O.*.2.#.#.#.#.#.#.#.#.#.#.#.#.#.#.#.#.#.#.#.#.#.#.#.#.#.#.#.#.x ",
"2...#.#.#.#.#.#.#.#.#.#.#.#.#.#.#.#.#.#.#.#.#.#.#.#.#.] -.[ T T T T T T Q Q [ ..#.#.#.#.#.#.#.#...[ D P T Q Q D D T Q Q Y D P T T ! ! ! Q Q Q T ~ P :.m.t.............#...#...#.....#.#.#.......#.#.............#.#.#.#.#.#.#.#.........#.#.#.#.....#.#.#.#...........#.#.#...#.#.#.#.#.......#.#.#.#.#.#.#.#.#.....#.#.#.#.......#.#.#.#.........#.....#.#.#.#...#.........#.#.#.#.#.....#.#.#...#.#.#.#.#.#.#.#.#.....#.#...#.#.........................D x I T ! Q Q Q Q Q T T T P #.<X*.Q Q T D aX2.Q Q T D aX-.*.#.#.#.#.#.#.#.#.#.#.#.#.#.#.#.#.#.#.#.Q J ..7Xq.5.*.#...#.#.#.#.#.#.#.#.#.#.#.#.#.#.#.#.#.#.S P T Q ! D P ! Q Q A J T ! Q Q Q Q ! ! T T U =.<X2X................................#.#.#.#...#.#.........#.#.#.#.....#.#.#.#...#.........#.#.....#.#.#.#.#.#.......#.#.#...#.#.#...............#.#.#.#.#.#.#.#.......#.#.#.#.#...#.#.#...........#.#.#.#.......#.#.#.........................#.#.#.#.#.#.#.....#.#.#.........#.........................S S T T T ! Q Q Q ! T T Y D Q..X:.Q Q T D dXB.*.Q Q Y M.,X5.#.#.#.#.#.#.#.#.#.#.#.#.#.[ Q T P J D D D N p.dXuXE.] [ *.2.#.#.#.#.#.#.#.#.#.#.#.#.#.#.#.#.#.#.#.#.#.#.#.#.#.#.#.#.x ",
"2...#.#.#.#.#.#.#.#.#.#.#.#.#.#.#.#.#.#.#.#.#.#.#.#.#.] =.[ T T T T T T Q Q [ ..#.#.#.#.#.#.#.#...[ D P T Q Q D D T Q Q Y D P T T ! ! ! Q Q Q T ~ P :.m.t.............#.......#.....O...#.......#.................#.#.#.#.#.#.#.........#.#.#.#.....#.#.#.............#.#.#.....#.#.#.#.........#.#.#.#.#.#.#.#.#.......O.#...#.....#.#.#.......#.#.#.#.#.#.#.#.............#.#.#.#.#...#.#.#.#...#.#...#.#...#.#.#.....#.#.#...#.........................D x Y T T Q Q Q Q Q T T T P #.@X*.Q Q T D aX2.Q Q T D aX-.*.#.#.#.#.#.#.#.#.#.#.#.#.#.#.#.#.#.#.#.Q J ..uXq.5.*.#.#.#.#.#.#.#.#.#.#.#.#.#.#.#.#.#.#.#.#.S P T Q ! D P ! Q Q A J T ! Q Q Q Q ! Q T T U =.<X2X......................#...#.#...#.#.#.#.#.#.#.#.......#.#.#.#.....#.#.#.#.............#.#.....#.#.#.#.#.#.....#.#.#.#.....#.................#.#.#.#.#.#.#.........#.#.#.#.....#.#.#.........#.#.#.#.#.....#.#.#.#...........................#.#.#.#.#.#.#.#.#.#.#.........#.........................S S Y T T ! Q Q Q ! T T P D Q..X:.Q T T D dXB.*.Q ! Y M.,X5.#.#.#.#.#.#.#.#.#.#.#.#.#.[ Q T P J D D S N v.8X8XE.[ [ *.2.#.#.#.#.#.#.#.#.#.#.#.#.#.#.#.#.#.#.#.#.#.#.#.#.#.#.#.#.x ",
"2.#.#.#.#.#.#.#.#.#.#.#.#.#.#.#.#.#.#.#.#.#.#.#.#.O.@.] -.[ T T T T T T Q Q [ #.#.#.#.#.#.#.#.#...[ D P T Q Q D D T Q Q Y D P T T ! ! ! Q Q Q T ~ P :.m.t...........#.#.#.....#.#.#.....#...#.#.#.#.............#.#.#.#.#.#.#.#.........#.#.#.#.....#.#.#.#.#.#.#.#.#.#.#.#.........#.#.#.#.....#.#.#.#.#.#.#.#.............#.#.#.#.#.#...#.#.#.#.#.............#.#.#.#.#.#.#.#.........#.#.#.#.....#.#.#.#.#.#.#.#.#.#.#.#.....#.........................D x Y T ! Q Q Q Q Q T T T P ;.qX*.Q T Y D aX2.Q Q T D aX-.*.#.#.#.#.#.#.#.#.#.#.#.#.#.#.#.#.#.#.#.Q J ..5Xt.5.#.......#.#.#.#.#.#.#.#.#.#.#.#.#.#.#.#.#.S J T Q ! D P ! Q Q A J T ! Q Q Q Q Q Q T T U =.<X:X......................#.#.#.#.#.#.#.#.#.#.......#.#.#.#.#...#.#.#.#.#.#.................#.#.#.#.#.#.#.#.#.#...#.#.........#.#.............#.#.#.#.#.#.#.#.........#.#.#.......#.#.#.#.#.#.#...#.....#.#.#.#.#.....#.#.#.#.#.#.#...........#.#...#.#.#...#.....#.#...................................S S Y T T Q Q Q Q ! T T P D Q..X:.Q ! T D dXB.*.Q U Y M.,X5.#.#.#.#.#.#.#.#.#.#.#.#.#.[ Q T P J D D D N M.pX5X*X| [ *.2.#.#.#.#.#.#.#.#.#.#.#.#.#.#.#.#.#.#.#.#.#.#.#.#.#.#.#.#.x ",
"4.#.#.#.#.#.#.#.#.#.#.#.#.#.#.#.#.#.#.#.#.#.#.#.#.#.@.] -.[ T T T T T T Q Q [ #.#.#.#.#.#.#.#.#.#.[ D P T Q Q D D T Q Q Y D P T T ! ! ! Q Q ! T ~ P :.v.q.............#.........#.......#.#.#.#.#.#.........#.....#.#.#.....#...........#.#.#.......#.#.#.#.....#...#.#.#.#...........#.#.#.........#...#.#.#.#.........#.#.#.#.#.#.#.....#.#.#.#.#.........#...#.#.#.#.....#...........#.#.#.......#.#.#.#.....#...#.#.#.#.....#.........................D x Y T ! Q Q Q Q Q T T Y I ;.<X*.Q ! Y D aX,.Q Q T D aX-.*.#.#.#.#.#.#.#.#.#.#.#.#.#.#.#.#.#.#.#.Q J ..5X9.5.#.......#.#.#.#.#.#.#.#.#.#.#.#.#.#.#.#.#.S P T Q Q D P ! Q Q A J T ! Q Q Q Q Q ! T T U =.<X:X6.......................#.#.#.#.....#.#.........#.#...#.#.#.#.#.#.#.#.#...............#.#.#.#.#.#.#.#.#.#.#.#.#.#.........#.#.........#...#.#.#.#...#.#.........#.#.#.#.......#.#.#.#...#.#...#.#.#.#.....#.#.....#.#.#.#.#.#.#.#.........#.#...#.......#...#.#.#.#.....#...........................D S Y T T ! Q Q Q ! T T P D Q..X:.) Q T D iXB.*.Q T Y M.5X5.#.#...#.#.#.#.#.#.#.#.#.#.[ Q T P J D D D N M.dXuXE.] [ *.2.*.#.#.#.#.#.#.#.#.#.#.#.#.#.#.#.#.#.#.#.#.#.#.#.#.#.#.#.x ",
"2.#.#.#.#.#.#.#.#.#.#.#.#.#.#.#.#.#.#.#.#.#.#.#.#.O.O.] -.[ T T T T T T Q Q [ #.#.#.#.#.#.#.#.#.#.[ D P T Q Q D D T Q Q Y D P T T ! ! ! ! ! ! T ~ P :.v.t.............#.........#.......#...#.#.#.#.#.....#.#...#.#.................#.#.#.#.......#.#.#.................#.#.........#.#.#.#.................#.#.#...#.#.#.#.#.#.#.#.........#.#.#.#.#.#.#.#.#.#.#.#.................#.#.#.#.......#.#.#...............#.........#.........................D x Y T ! Q Q Q Q Q T T T P ;.<X*.Q ! T D aX,.Q Q T D aX-.*.#.#.#.#.#.#.#.#.#.#.#.#.#.#.#.#.#.#.#.Q J ..uXt.5.#...#.#.#.#.#.#.#.#.#.#.#.#.#.#.#.#.#.#.#.S P T Q T D P ! Q Q A J T Q Q ! ! Q Q Q T T U =.<X2X6.......................#.....#.....#.#.#.#.#.#.#.............#.#.#.#.#.#.#.#...#.......#.#.#.#.#.#.#.............#.#.#.#.#.#.#.#.#.#.#.#.#.#.......O.#.#.....#.#.#.#.........#.#.............#.#.#.#.#.#.#.#.....#...#.#.#.#.#.#.#.#.....#.#...........#.......#.#.#...............................D S Y T T Q Q Q Q ! T T P D Q..X:.) Q T H iXB.*.Q Q Y M.5X5.#.#.#.#.#.#.#.#.#.#.#.#.#.[ Q T P J D D D N x.7XsXE.[ [ *.2.*.#.#.#.#.#.#.#.#.#.#.#.#.#.#.#.#.#.#.#.#.#.#.#.#.#.#.#.x ",
"2.#.#.#.#.#.#.#.#.#.#.#.#.#.#.#.#.#.#.#.#.#.#.#.#.O.O.] =.[ T T T T T T Q Q [ ..#.#.#.#.#.#.#.#...[ D P T Q Q D D T Q Q Y D P T ! ! Q Q Q Q ! T ~ P :.v.t.............#.#.#...#.#.#.........#.#.#.#.#.#.#.#.#.#.#.#.#.......#...#...#.#.#.#.........#.#.................#.#.........#.#.#.#.................#.#.#.#.#.#.#.#.#.#.#.#.........#.#.#.#.#.#.#.#.#.#.#.#.#...........#...#.#.#.#.........#.#...........#.......#.....#.........................D x Y T T Q Q Q Q Q T T T P #.<X=.Q ! T D aX,.Q Q T D aX-.*.#.#.#.#.#.#.#.#.#.#.#.#.#.#.#.#.#.#.#.Q J ..,Xt.5.*.#.#.#.#.#.#.#.#.#.#.#.#.#.#.#.#.#.#.#.#.S I T Q Q D J ! Q Q A J T Q ! ! ! ! ! Q T T U =.<X=X6.....................#.......#.#.#.#.#...#.#.#...................#.#.#.#.#.#.#.#.......#...#.#.#.#.#.............#.#.#.#.#.#.#.#.#.#.#.#.#.#.........O.#.....#.#.#.#.........#.#.............#.#.#.#.....#.#.........#.#.#.#.#.#.#.#.#.#.#.#...........#.......#.#.#...............................D S T T T Q Q Q Q Q T T Y D Q..X:.Q Q T D iXB.=.Q Q Y t.5X5.#.#.#.#.#.#.#.#.#.#.#.#.#.[ Q T P J D D D N M.pXuXOX[ [ *.2.*.#.#.#.#.#.#.#.#.#.#.#.#.#.#.#.#.#.#.#.#.#.#.#.#.#.#.#.x ",
"2.#.#.#.#.#.#.#.#.#.#.#.#.#.#.#.#.#.#.#.#.#.#.#.#.#.#.] -.[ T T T T T T Q Q [ #.#.#.#.#.#.#.#.#.#.[ D J T Q Q D D U Q Q Y D I T ! Q Q Q ! ! ! T T P :.v.t.............#.........#...#.#.......#...#.#...#.#.#.#.........#.#.....#.#.#.#...................#.#.#.#.#.#.............#.#.#.#.#.#...............#.#.#.#.#.#.#.#.#.#.#.#.......#.#.#.#.#.#.#.#.#.#.#.........#.#.....#.#.#.#...................#.#.#.#.#.....#.#.#...#.#.....#.................D x I T T T Q Q Q Q T T T I #.<X-.Q ! T D aX2.Q Q T D aXt.*.#.#.#.#.#.#.#.#.#.#.#.#.#.#.#.#.#.#.#.Q J ..3X8.5.*.#.#.#.#.#.#.#.#.#.#.#.#.#.#.#.#.#.#.#.#.S I T Q Q D J ! Q Q A J T T T ! ! Q Q ! T T U =.1X2X6.....................#.......#.#.#.#.#...#.#...#.#.#.........#.#.#.#...#.#.#.........#.#.....#.#.#.#.....#.#.........#.#.#.#.#.#.#.#.#.#.........#.....#.#.#.#.#.#.................#.#.#...#.#.#.#.#.#.#.#.#.#.#.......#.#.#.#.#.#.#.#.#.....#.#.#.#...........#.#...#...#.......#.................D S T T T Q Q Q Q Q T T Y G Q..X:.Q Q T D iXB.=.Q Q Y t.6X5.#.#.#.#.#.#.#.#.#.#.#.#.#.[ Q T P J D D D N M.dXuXE.[ [ *.2.*.#.#.#.#.#.#.#.#.#.#.#.#.#.#.#.#.#.#.#.#.#.#.#.#.#.#.#.x ",
"4.#.#.#.#.#.#.#.#.#.#.#.#.#.#.#.#.#.#.#.#.#.#.#.#.#.#.] -.[ T T T T T T Q Q [ #.#.#.#.#.#.#.#.#.#.[ D J T Q Q D D U Q Q Y D I T Q Q Q Q ! ! ! T T P :.v.t...........#.#.........#...#.#.#.....#...#.#...#.#.............#.......#.#.#.#.#.#.....#.......#.#.#.#.#.#.#.......#.O...#.#.#.#.#.................#.#.#.#.#.#.#.#.#.#.#.#.........#.#.#.#.#.#.#.#.............#.......#.#.#.#.#.#.....#.......#.#.#.#.#.#.......#...#...#...#.#.................D x I T T T Q Q Q Q ! T Y I *.<X=.Q ! T D aX2.Q Q T D aXt.*.#.#.#.#.#.#.#.#.#.#.#.#.#.#.#.#.#.#.#.[ J ..8Xt.5.*.#.#.#.#.#.#.#.#.#.#.#.#.#.#.#.#.#.#.#.#.S I T Q Q D J ! Q Q A J T T Q ! ! Q Q ! T ~ U =.1X:X6.................#...#.......#.#.#.......#.#.....#.#.#.#.....#.#.#.#.....#.#.....#...#.#.....#.#.#.#.....#.#.#.#.....#.#.#.#.#.#.#.#.......#.....#.......#.#.#.#.#.#...............#.#.#.#.#.....#.#.#.#.#.#...#.......#.#.#.#.#.#.#.#.#.....#.#.#.#.........#.#.#...#...........#.................D S Y T T Q Q Q Q Q T T P G Q..X:.Q Q T D iXB.=.Q Q Y t.6X5.#.#.#.#.#.#.#.#.#.#.#.#.#.[ Q T P J D D D N x.5XsXE.[ [ *.2.*.#.#.#.#.#.#.#.#.#.#.#.#.#.#.#.#.#.#.#.#.#.#.#.#.#.#.#.x ",
"2.#.#.#.#.#.#.#.#.#.#.#.#.#.#.#.#.#.#.#.#.#.#.#.#.#.#.] -.[ T T T T T T Q Q [ #.#.#.#.#.#.#.#.#.#.[ D J T Q Q D D U Q Q Y D I T ! ! Q Q Q ! T T T P :.v.q...............#...#.#...#.............#.#.#.#.#.......#.#.#.#.#.#.......#.#.#.#.#.#.#.#.#.....#.#.#.#.#.#.#.#.....#.#.#.#.#.#.#.#.#.#.....#...#.#.#.#.........#...#.#.#...............#.#.#.#.........#.#.#.#.#.#.......#.#.#.#.#.#.#.#.#.....#.#.#.#.#.#.#.........#...#.O.O...................D x I T T T Q Q Q Q T T T I #.<X-.Q Q T D aX2.Q Q T D aXt.*.#.#.#.#.#.#.#.#.#.#.#.#.#.#.#.#.#.#.#.[ J ..;Xt.5.*.#.#.#.#.#.#.#.#.#.#.#.#.#.#.#.#.#.#.#.#.S P T Q Q D P T Q Q A K T ! ! ! ! ! Q ! T ~ U D 1X=X6.....................#.....#.#.#.................#.#.#.#...#.#.#.........#.#.....#.#.#.#.......#.#.#.#...#.#.#.#.......#.....#.#.#.#.....#.#.#.#.#.#.....#.#.#.#.#.#.#.#.#.#.....#.#.#.#.#.#...#.#.#.#.#.............#.#.#.#.........#...#...#.#.#.#.#.#.....#.#.#.#.#.#.....#.#.#.................D S T T T ! Q Q Q Q T T P G Q.rX:.Q Q T D iXB.*.Q Q Y 9.6X5.#.#.#.#.#.#.#.#.#.#.#.#.#.[ Q T P J D D D N 9.uXuX`.[ #.*.2.*.#.#.O.#.#.#.#.#.#.#.#.#.#.#.#.#.#.#.#.#.#.#.#.#.#.#.#.A ",
"2.#.#.#.#.#.#.#.#.#.#.#.#.#.#.#.#.#.#.#.#.#.#.#.#.#.#.] =.[ T T T T T T Q Q [ ..#.#.#.#.#.#.#.#.#.[ D J T Q Q D D U Q Q Y D I T T Q Q Q Q ! T T T P :.v.q...............#...#.#.........#...#.#.#.#.#...........#.#.#.#.#.#.......#.#.#.#.#.#.#.#.#.....#.#.#.#.#.#.#.#.#...#.#.#.#.#.#.#.#.#.#.#.#.#.#.#.#.#.#.............#.#.#...............#.#.#...........#.#.#.#.#.#.......#.#.#.#.#.#.#.#.#.....#.#.#.#...........#.#.#...#...O...................D x I T T T Q Q Q Q T T T I #.<X2.Q Q T D dX,.Q Q T D aXt.*.#.#.#.#.#.#.#.#.#.#.#.#.#.#.#.#.#.#.#.[ J ..-Xt.5.*.#.#.#.#.#.#.#.#.#.#.#.#.#.#.#.#.#.#.#.#.S P T Q Q D P Y Q Q A K T T T ! ! Q T Q T ~ U D 1X=X6...............#.....#...#.#.#.#.................#.#.#.#.#.#.#...........#.#.....#.#.#.#.......#.#.#.....#.#.#.#.....#.#.....#.#.#.......#.#.#.#.#.#.......#.#.#.#.#.#.#.#.#...#.#.#.#.#.#.....#.#.#...................#.#.#.............#.#.#.......#.#.#.....#.#...#.#.......O...................D S T T T ! Q Q Q Q T T P G M.rX:.) Q T H iXB.*.Q Q Y w.5X5.#.#.#.#.#.#.#.#.#.#.#.#.#.[ Q T P J J D D N 9.sX8X`.#.#.*.2.*.#.#.O.#.#.#.#.#.#.#.#.#.#.#.#.#.#.#.#.#.#.#.#.#.#.#.#.A ",
"2.#.#.#.#.#.#.#.#.#.#.#.#.#.#.#.#.#.#.#.#.#.#.#.#.#.#.] -.[ T T T T T T Q Q [ #.#.#.#.#.#.#.#.#.#.[ D J T Q Q S D U Q Q P S P T T ! ! ! ! ! Q T ~ P :.x.t...............#.#.#.#.#.#.....#.....#.......#.#.#.#.#.#.#.......#.#.#.......#.#.#.............#.#.#.#.#.#.#.#.#.#.#.......#.#.#.#.#.#.#.#.#.#.#.#.#.#.....#.#.#.#.#.#.#.#.......#.#.#.#.#.#.#.#...#.#.#.#.#.#.#.#.#.......#.#.#.#.#.#.#.#.#.#.#.#.#.#...#.#.#.#.#.#...#.....#...................D x Y T T T Q Q Q Q T T T I #.<X2.Q Q T D dX,.Q Q T D aXt.*.#.#.#.#.#.#.#.#.#.#.#.#.#.#.#.#.#.#.#.[ J ..8Xx.5.*.#.#.#.#.#.#.#.#.#.#.#.#.#.#.#.#.#.#.#.#.S P T Q Q D P Y Q ] A K T T Q ! Q Q T Q T T U D 1X=X6...........#.#...#.#.#.#.......#.#.#.....#.#.#.#.....#.#.#.#.#.#.......#.........#.#.#.#.#.#.....#.#.#.#.....#.#.#...........#.#.#.#.#.#.......#.#.#.................#.#.#.#.............#.#.#.......#.#.#.#.#.#.#.#.#.......#.#.#.#.#.#...#.#.#.#.#.................#.#.#.#.......................D S Y T T Q Q Q Q Q T T I G M.rX:.Q Q T H iXB.=.Q Q Y t.5X5.#.#.#.#.#.#.#.#.#.#.#.#.#.[ Q T P J D D D N 8.dXpX`.#.#.*.2.*.@.@.#.#.#.#.#.#.#.#.#.#.#.#.#.#.#.#.#.#.#.#.#.#.#.#.#.A ",
"4.#.#.#.#.#.#.#.#.#.#.#.#.#.#.#.#.#.#.#.#.#.#.#.#.#.#.[ -.[ T T T T T T Q Q [ #.#.#.#.#.#.#.#.#.#.[ D J U ! Q D D U Q Q P S P T ! ! ! ! Q ! Q T ~ P :.x.t.................#.....#.....#.#.#.#.#.....#.#...#.#.#.#.#.....#.#.#.#.....#.#.#.#.........#.#.....#.#.#.#.#.#.#.#.........#.#.#.#...#.#.#.#.#.#.#.#.#.....#.#.#.#.#.#.#.#.....#.#.#.#.#.#.#.#.....#.#.#.#.#.#.#.#.#.......#.#.#.#.#.#.#.#.#.....#.#.....#.#.#.#.#.........#.#...................D x Y T T T Q ! Q Q ! T T I *.<X2.Q ! T D dX,.Q Q T D aXt.*.#.#.#.#.#.#.#.#.#.#.#.#.#.#.#.#.#.#.#.[ J ..uXj.5.*.#.#.#.#.#.#.#.#.#.#.#.#.#.#.#.#.#.#.#.#.S P T Q Q D P Y Q ] A J T ! Q ! Q Q ! ! T T U D 1X=X6...........#.#.....#...#.........#.#...#.#.#.#.#.......#.#.#.#.#.................#.#.#...#.#.....#.#.#.#...#.#.#.......#.....#.#.#.#...........#.#.#.........#.......#.#.#.#.........#.#.#.#.#.#.....#.#.#.#.#.#.#.#.........#.#.#.#.#.#.....#.#.#.#.........#.....#.#.#...#.......................D S Y T T ! Q Q Q ! T T P G M.rX5.Q Q T H iXB.-.Q Q Y t.5X5.#.#.#.#.#.#.#.#.#.#.#.#.#.[ Q T P J D D D N 9.uXuX`.#.#.=.2.*.#.#.#.#.#.#.#.#.#.#.#.#.#.#.#.#.#.#.#.#.#.#.#.#.#.#.#.A ",
"2.#.#.#.#.#.#.#.#.#.#.#.#.#.#.#.#.#.#.#.#.#.#.#.#.#.#.] -.[ T T T T T T Q Q [ #.#.#.#.#.#.#.#.#.#.[ D J T ! Q D D U Q Q Y D P T ! ! Q Q Q Q Q T T P :.x.t.............................#.#.#.....#.#.#.#.........#.......#.#.#.#.......#.#.#.#.#.#.#.#.#.............#...#.#.#.#.....#.#.................#...#.#.#.#.#.#...#.....#.......#.#.#.#.#.#.#...............#...#.#.#.#.......#.........#.#.................#.#.#.#...#...........................D x Y T T T Q Q Q Q T T T I *.@X2.Q T Y D dX,.Q Q T D aXt.*.#.#.#.#.#.#.#.#.#.#.#.#.#.#.#.#.#.#.#.[ J ..:Xx.5.*...#.#.#.#.#.#.#.#.#.#.#.#.#.#.#.#.#.#.#.S P T Q Q D P Y Q ] A J T ! Q ! Q Q ! Q T T U D 1X=X6...........#...........#...#.....#.#.#.#.#.#.#.#.....#.#.#.#.#.#.....#.#...#.#.#.#.#.....#.#.....#...#.#.....#.#.#.#.#.#...#.#.#.............#.#.#.#.#.#.#.#.#.#.........#.#.#...#.#.#.#.#.#.#.#.......#.....#...#.#.#.#.....#.#.....#.#.........#.#.#.....#.#.#...#.........#.....................D S Y T T ! Q Q Q Q T T Y G M.rX5.Q Q T D iXB.-.Q Q Y q.4X5.#.#.#.#.#.#.#.#.#.#.#.#.#.[ Q T P J D D D N 9.sX8X3X#.#.*.2.*.#.#.#.#.#.#.#.#.#.#.#.#.#.#.#.#.#.#.#.#.#.#.#.#.#.#.#.A ",
"2.#.#.#.#.#.#.#.#.#.#.#.#.#.#.#.#.#.#.#.#.#.#.#.#.#.#.] =.[ T T T T T T Q Q [ ..#.#.#.#.#.#.#.#.#.[ D J T Q Q D D U Q Q Y D P T Q Q Q Q Q Q ! T T P :.x.t.....................#.......#.#.#.....#.#.#.#.........#.......#.#.#.#.......#.#.#.#.#.#.#.#.#.................#.#.#.#.....#.#.................#.#.....#.#.#.#.........#.......#.#.#.#.#.#.#.......#.........#.#.#.#.#.....#.#.........#.#.................#.#.#.#...............................D x Y T T T Q Q Q Q T T T I ;.@X2.Q T T D dX,.Q Q T D aXt.*.#.#.#.#.#.#.#.#.#.#.#.#.#.#.#.#.#.#.#.[ J ..8Xf.5.*...#.#.#.#.#.#.#.#.#.#.#.#.#.#.#.#.#.#.#.S P T Q Q D J T Q ] A J T ! Q ! Q Q ! Q T T U D 1X=X6.......................#...#.....#...#...#.#.........#.#.....#.#.#...#.#.#.#...#.#.#.....#.#.........#.#.....#.#.#.#.#.#.....#.#.........#.#.#.#.#.#.#.#.#.#.#.#.......#.#.#.#.#.#.#.#.#.#.#.#.#.......#.........#.#.#.#.....#.#.................#.#.#.....#.#.#.#.#.......#.#...#.................D Z T T T Q Q Q Q ! T T Y G M.rX5.Q Q U D iX/.-.Q Q Y q.5X5.#.#.#.#.#.#.#.#.#.#.#.#.#.[ Q T P J J D D N 8.dXpX[.*.#.*.2.*.#.#.#.#.#.#.#.#.#.#.#.#.#.#.#.#.#.#.#.#.#.#.#.#.#.#.#.A ",
"2...#.#.#.#.#.#.#.#.#.#.#.#.#.#.#.#.#.#.#.#.#.#.#.O.@.] -.[ T T T T T T Q Q [ #.#.#.#.#.#.#.#.#.#.[ D J T Q Q D D U Q Q Y D P T Q Q Q Q Q ! ! T T I :.x.q.....................#.....#.#.....#.#.#.#...#.#.#.......#.#.#.........#.#.#.#.#.#.#.#.#.#.....#.#.#.......#.#.#.#.#.#.....#.O...#.#.#.#.#.#...........#.#.#.#.#.#.......O.#.#.........#.#.....#.#.........#.#.#.#...#...........#.#.#.........#.......#...#.#.#.#.....#.........................D x Y T T T Q Q Q Q T T T I =.@X2.Q Q T D dX,.Q ) T D aXt.*.#.#.#.#.#.#.#.#.#.#.#.#.#.#.#.#.#.#.#.[ J ..uXx.5.*.#.#.#.#.#.#.#.#.#.#.#.#.#.#.#.#.#.#.#.#.S I T Q Q D J T Q ] A J T ! Q Q Q ! ! ! T T U D 1X=X6.......................#.#.#.#.#.#.......#.......#.#.#.#.........#.#.#.#.#.#...#.........#.#.#.#.......#.....#.#...#.#.#...........#.#.#.#.#.#.#.#.#.#.#.#.#...#.O...#.#.#.#.#.#.#.#.#...........#.#.#.......#.#.#.#.#.#...........#.#.#.#.#.#.#.......#.....#.#.#.#.........#...#.................D Z T T T Q Q Q Q Q T T Y G M.rX5.Q ! U D iX/.-.Q Q Y q.4X5.#.O...#.#.#.#.#.#.#.#.#.#.[ Q T P J D D D N 9.8XuX[.*.#.*.2.*.#.#.#.#.#.#.#.#.#.#.#.#.#.#.#.#.#.#.#.#.#.#.#.#.#.#.#.A ",
"4.#.#.#.#.#.#.#.#.#.#.#.#.#.#.#.#.#.#.#.#.#.#.#.#.O.@.] -.[ T T T T T T Q Q [ #.#.#.#.#.#.#.#.#.#.[ D J T Q Q D S Y Q Q Y D P T Q Q Q Q Q ! ! T T I :.x.q...#.................#...#.#.#...#.#.#.#.#.....#.#.#.#...#.#.#.........#.#.#.#.#.#.#.#.#.#.....#.#.#.#.....#.#...#...............#.#.#.#.#.................#...#.#.......#.#.#.........O.#.....#.#.#.......#.#.#.#.................#.#...#.....#...........#...#.#.....#.........................D x P T T T Q Q Q Q ! T T I =.@X2.Q T Y D dX,.) ) T D aXt.=.#.#.#.#.#.#.#.#.#.#.#.#.#.#.#.#.#.#.#.[ J #.3Xv.5.*.#.#.#.#.#.#.#.#.#.#.#.#.#.#.#.#.#.#.#.#.D G T Q Q D P T Q ] A K T Q Q Q Q ! ! ! T T U D 1X=X6.....................#.#.#.#...#.#.#.............#.#.#.#.........#.#.#.#.#.#.#.#.#.#.....#.#...#.......#.....#.#.#.#.#.#.........#.#.#.#.#.#.#.#.#.#.#.#.#.#...#.#.#.#.#.#.#.#.#.#.#.O...........#.#.#.......#.#...#...............#.#.#.#.#.#.#.......#.....#.#.#.#.........#.#.#.................D Z T T T Q Q Q Q Q T T P G M.rX5.Q ! U D iX/.-.Q Q Y s.5X5.#.....#.#.#.#.#.#.#.#.#.#.[ Q T P J D D D N 9.sXpX,X*.#.=.2.*.#.#.#.#.#.#.#.#.#.#.#.#.#.#.#.#.#.#.#.#.#.#.#.#.#.#.#.A ",
"2.#.#.#.#.#.#.#.#.#.#.#.#.#.#.#.#.#.#.#.#.#.#.#.#.O.#.] -.[ T T T T T T T Q [ #.#.#.#.#.#.#.#.#.#.[ D J T Q Q D S Y Q Q Y D P T Q Q Q Q Q Q ! T T I s.x.t.......................#.#.........#.#.........#.#.#.......#.#.#.#.....#.#.....#.#.#.#.#.......#.#.#.#.#.#.#.#.........#.#.....#.#.#.#.#.#.#.#.....#.#.........#.#.#.#.....#.#.#.#...O.....#.#.#.#.......#.#.#...........#.....#.#.#.#.#.#.#.#.#.#.......#.#...#.....#.#.........................D x P T T T Q Q Q Q ! T T I =.qX2.Q T T D dX,.) ) T D aXt.=.#.#.#.#.#.#.#.#.#.#.#.#.#.#.#.#.#.#.#.[ J #.6Xf.5.*.#.#.#.#.#.#.#.#.#.#.#.#.#.#.#.#.#.#.#.#.D D T Q Q D P Y Q ] A K T Q Q Q Q ! T T T T U D 1X=X6.......................#.........#.#.#.#.#.#.............#.#...#.#.#.........#.#.#.#.#.#.#.O.........#.#.#.#.#.#.#.O.........#.#.#.#.#.#...#.........#.#.#.....#.#.#.#.#.#.#.#.#...#.#.......#.#.#.#.....#.#.#.#.........#.#.....#.#.#.#.#.#.#.#.....#.#.#.......#...#...#.#.#.#.#.................D S T T T Q Q Q Q ! T T Y G M.rX5.Q Q U D iX/.-.Q Q Y s.5Xt.*.O.#.#.#.#.#.#.#.#.#.#.#.[ Q T P J D D D N 9.dXpXOX*.#.*.2.*.#.#.O.#.#.#.#.#.#.#.#.#.#.#.#.#.#.#.#.#.#.#.#.#.#.#.#.A ",
"2.#.#.#.#.#.#.#.#.#.#.#.#.#.#.#.#.#.#.#.#.#.#.#.#.O.#.] -.[ T T T T T T T Q [ ..#.#.#.#.#.#.#.#.#.[ D J T Q Q D S Y Q Q Y D I T T Q Q Q ! Q ! T T I s.x.t...................#...#.#.........#.#.........#.#.#.......#.#.#.#.#...#.#.........#.#.........#.#.#.#.#.#.#.#.........#.#...#.#.#.#.#.#.#.#.#.#.#.#.#.........#.#.#.#.....#.#.#.#.#.#.#.#.#.#.#.#.....#.#.#.#.........#.#.#.#.#.#.#.#.#.#.#.#.#.#.........#.#.#.......#.........................D x I T T T Q Q Q Q T T T I ;.qX2.Q Q T D dX,.) ) T D aXt.=.#.#.#.#.#.#.#.#.#.#.#.#.#.#.#.#.#.#.#.[ J #.uXx.5.*.#.#.#.#.#.#.#.#.#.#.#.#.#.#.#.#.#.#.#.#.D D T Q Q D P Y Q ] A J T ! ! Q Q Q ! ! T T U D 1X=X6.................#.....#.....#...#.....#.#.#.......#.....#.#.#.#...#.........#.#.#.#.#.#.#.#...........#.#.#.#.#.O.......#.#.#.#.#.#.#.#.............#.#.#.......#.#.#.#...#.#.O...#.#.....#.#.#.#.#.....#.#.#.#.........#.#...#.#.#.#.#.#.#.#.......#.#.#.....#.#.......#...#...O.................D C T T T Q Q Q Q ! T T Y J M.rX5.Q Q U D iX/.-.Q Q Y s.5Xt.*.O.#.#.#.#.#.#.#.#.#.#.#...Q T P P J D D N 9.7XsX*X=.#.*.2.*.#.#.#.#.#.#.#.#.#.#.#.#.#.#.#.#.#.#.#.#.#.#.#.#.#.#.#.A ",
"2.#.#.#.#.#.#.#.#.#.#.#.#.#.#.#.#.#.#.#.#.#.#.#.#.#.#.] -.[ T T T T T T Q Q [ ..#.#.#.#.#.#.#.#.#.[ D J T Q Q D S Y Q Q Y A P T ! Q Q Q Q ! ! T ~ I s.x.t...................#.#.#.......#...#.#.#.......#.#.#.#.....#.#.#.#.....#.#.#.#.#.#...#.......#.#.#.....#.#.#.#...#.#.#.#.#.....................#.#.#.#.........#.#.#.#.....#.#.#.#.#.#.#.#.#.#.#.#.....#.#.#.#...#.#.#.#.#.....................#.#.#...#.#.#.#.#.....#.#.........................D x I T T T Q Q Q Q ! T T I =.rX2.Q Q T D dX,.Q Q T D aXt.=.#.#.#.#.#.#.#.#.#.#.#.#.#.#.#.#.#.#.#.[ J #.,Xx.5.*.#.#.#.#.#.#.#.#.#.#.#.#.#.#.#.#.#.#.#.#.D G T Q Q D P Y Q ] A J T ! ! Q Q ! Q Q T T U D 1X=X6.......................#.....#.#.#.............#.#.#.....#.#.......#.#.#.#.#.#.#.#...#.#.#.......#...............#.#.#...#.#.#.#.#.#.#.#.#.............#.........#.#.#.#.....#.#.#.#.#.#...#.#.#.#.#.....#.#.#.#.........#.#.#.#.#.#.............#.#.#.#.#.#.#.#.........#...#...#.................D C T T T Q Q Q Q ! T T Y J M.rX5.Q Q T D iX/.-.Q Q Y s.5Xt.*.O.O.O.#.#.#.#.#.#.#.#.#.[ Q T P P D D D C 9.pXpX,X*.#.*.2.-.#.#.#.#.#.#.#.#.#.#.#.#.#.#.#.#.#.#.#.#.#.#.#.#.#.#.#.A ",
"4.#.#.#.#.#.#.#.#.#.#.#.#.#.#.#.#.#.#.#.#.#.#.#.#.#.#.[ *.[ T T T T T T Q Q [ #.#.#.#.#.#.#.#.#.#.[ D J T Q Q D S T Q Q Y S P T ! Q Q Q Q Q ! T T I s.x.t.............................#.....#.#.#.......#.#.#.#.....#.#.#.#.....#.#.#.#.#.#...........#.#.#.#...#.#.#.....#.#.#.#.#.........#.#.#.#.....O.O.#.#.O.......#.#.#.#.....#.#.#...#.#.#.#.#.#.#.#.....#.#.#.....#.#.#.#.#.........#...........#.#.#.#.#.#.#.#...#.#...#.#...O.#.................D x I T T T Q Q Q Q Q T U P =.rX2.Q Q U D dX,.Q Q T D aXt.=.#.#.#.#.#.#.#.#.#.#.#.#.#.#.#.#.#.#.#.[ J N 5Xf.5.*.#.#.#.#.#.#.#.#.#.#.#.#.#.#.#.#.#.#.#.#.D G T Q Q D P T Q Q A J T ! Q Q Q ! ! ! T T U D 1X=X6.....................#.#.#...#.#...............#.#.#...#.#.#.........#.#.#.#.#.#.....#.#.#...#.#.#...............#.#.#.#.#.#.#.#.#.#.#.#...........#.#.#.........#.#.#.#.....#.#.#.#.#.#.....#.#.#.#.....#.#.#.#.........#.#.#.#.#.#.#...............#.#.#.#.#.........#.#.........#.#.#.#.........D C Y T T ! Q Q Q Q T T P J M.rX5.Q Q T H qX/.-.Q Q U s.6Xt.*.#.O.O.#.#.#.#.#.#.#.#.#.[ Q T P J D D D C 9.dXpX=X*.#.=.2.-.#.#.#.#.#.#.#.#.#.#.#.#.#.#.#.#.#.#.#.#.#.#.#.#.#.#.#.A ",
"2.#.#.#.#.#.#.#.#.#.#.#.#.#.#.#.#.#.#.#.#.#.#.#.#.#.#.] *.[ T T T T T T Q Q [ #.#.#.#.#.#.#.#.#.#.[ D J T Q Q D S T Q Q Y Z P T T Q Q Q Q ! ! T T I s.x.t.........................#.#.#.........#.#.....#.#...#...#.#.#.........#.#.................#.#.#.#.....#.#.........#.#.#.#.#...#.#.#.#.#.#.#.#...#.#.#.#.#.....#.#...#.#.#.#.#.............O...#.#.#.#.#.#.........#.#.#.#.#.#.#.#.#.#.....#.#.#.#.#.#.#.#.#.#.....#.#.#.#...O.#.................D x Y T T T Q Q Q Q Q T U P =.rX2.Q Q U D dX,.Q Q T G aXt.=.#.#.#.#.#.#.#.#.#.#.#.#.#.#.#.#.#.#.#.[ J N 8Xx.5.=.#.#.#.#.#.#.#.#.#.#.#.#.#.#.#.#.#.#.#.#.D G T Q Q D P T Q ] A J T ! Q Q Q ! ! ! T ~ U D 1X=X6.............#...#...#.#.#.#.#.#.#.#.........#.#...#.#.#.#.#.....#.#.#.#.#.#.#.........#.#.#.#.#.#.#.........#.#.#.#.#.#.....#.#.#.#.#...#.#.....#.#.O.....#.....#.#...........#.....#.#.........#.#.#...#...#.#.....#.......#.#.#.#.#.#.#.#.#.#.........#.#.#.......#.#.#.........#...............J C Y T T Q Q Q Q Q T T P J M.rX5.Q Q T H qX/.-.Q Q U s.6Xt.*.#.#.O.#.#.#.#.#.#.#.#.#.[ Q T P P H D D C 9.dXsX=X-.#.*.2.-.#.#.#.#.#.#.#.#.#.#.#.#.#.#.#.#.#.#.#.#.#.#.#.#.#.#.#.A ",
"2.#.#.#.#.#.#.#.#.#.#.#.#.#.#.#.#.#.#.#.#.#.#.#.#.#.#.] *.[ T T T T T T Q Q [ ..#.#.#.#.#.#.#.#.#.[ D J T Q Q D S Y Q Q Y Z P T T Q Q ! Q Q ! T T I s.x.t.......................#.#...#.........#.#...#.#.......#.#.#.#.#.......#...................#.#.#.#.....#.#.........#.#.#.#.#.#.#.#.#.#.#.#.#.#.#.#.#.#.#.#.O.#.#.#.O...#.#.#.#.....#...........#.#.#.#.#.#.........#.#.#.#.#.#.#.#.#.#...#.#.#.#.#.#.#.#.#.........#.#.O.O.......................D x Y T T T Q Q Q Q ! T T P =.rX2.Q Q U D dX,.Q Q T G aXt.=.#.#.#.#.#.#.#.#.#.#.#.#.#.#.#.#.#.#.#.[ J N -Xx.5.*.#.#.#.#.#.#.#.#.#.#.#.#.#.#.#.#.#.#.#.#.D G T Q Q D P T Q ] A J T Q ! Q Q ! ! ! T T U D 1X=X6.............#...#.....#.#.#.#.#.#.#...........#.#.#.#.#.#.#.....#.#.#.#.#.#.#...........#.#.#.#.#.#.#.#...#.#.#.#.#.#.#...#.#.#.#.#.#...#.#.....#.#.....#.#.#.#.#.#.............................#.#.#.#.#...#.#.#.#.#.#.......#.#.#.#.#.#.#.#.#...........#.#.......#.#.#.........#...............J C Y T T ! Q Q Q Q T T P J M.rX6.Q Q T H qX/.-.Q Q U s.6Xt.*.#.#.O.#.#.#.#.#.#.#.#.#...Q T P P J D D C 9.pXuX,X-.#.*.2.-.#.#.#.#.#.#.#.#.#.#.#.#.#.#.#.#.#.#.#.#.#.#.#.#.#.#.#.A ",
"2.#.#.#.#.#.#.#.#.#.#.#.#.#.#.#.#.#.#.#.#.#.#.#.#.#.#.] *.[ T T T T T T Q Q [ #.#.#.#.#.#.#.#.#.#.[ D J T Q Q D S T Q Q Y S P T T ! ! ! ! Q ! T T I s.x.t.......................#.#...#.#.#.....#.#.#.#.........#.#.....#.#.#.#...................#.#.#.#.#.....#.#.......#.#.#.#.#.#.#.#.#.#.#...#.#.#.#.#.#.#.#.#.#.#...#.#...#.#.#.#.#.#.#.......#.#.#.#.#.#.#.#.......#.#.#.#.#.#.#.#.#.#.#.#.#.#.#.#.#.#.#.#...........#.#.#.#.......................D x Y T T T Q Q Q Q Q T U P =.rX:.Q ! U D dX,.Q Q T G qXt.=.#.#.#.#.#.#.#.#.#.#.#.#.#.#.#.#.#.#.#.[ J N ,Xv.5.*.......#.#.#.#.#.#.#.#.#.#.#.#.#.#.#.#.#.D G T Q Q D J Y ! ] S J T Q Q Q Q Q ! Q T T U D 1X=X6...........#.#...........#.#.#...#.#.#.#.#.#.#.#.....#.#.#.#.#.#.#...............#.......#.#.#.#.#.#.#.#.#.#.#.#.#.#.#.#.....#.#.#.#.....#.#.....#...#.#.#.#.#.#.#.#.#.................#.#.#.#.#.....#.#.#.......#.#.#.#.....#.#.#.#...#.#.#.....#.#.#.....#.......#.#.#.#.........#...............J C Y T T ! Q Q Q Q T T P J M.rX5.Q Q T H qX/.-.Q Q U *.6Xt.*.#.#.#.#.#.#.#.#.#.#.#.#.[ Q T P P J D D C 9.dXuX8X-.#.*.2.-.#.#.#.#.#.#.#.#.#.#.#.#.#.#.#.#.#.#.#.#.#.#.#.#.#.#.#.A ",
"4.#.#.#.#.#.#.#.#.#.#.#.#.#.#.#.#.#.#.#.#.#.#.#.#.#.O.] *.[ T T T T T T Q Q [ #.#.#.#.#.#.#.#.#.#.[ D J T Q Q D S T Q Q Y S P T ! ! ! ! ! ! ! T T I s.x.t...................#...#.......#.#...#.#.#.#.#.........#.......#.#.#.#.#.#.....#.......#.#.#.#.#.#.....#.#.........#.#.#.#.#.#.#.#.........#.#.#.#.#.#.#.#.#.#.#.#.#.....#.....#.#.#.#.#...#.#.....#...#.#.........#.#.#.#.#.#.#.#.....#.#.#.#...#.#.#.........#...#.#.#.#.......................D x P T T T Q Q Q Q Q T U P =.rX:.Q ! U D dX,.Q Q T J qXt.=.#.#.#.#.#.#.#.#.#.#.#.#.#.#.#.#.#.#.#.[ J N 8Xf.5.*...#...#.#.#.#.#.#.#.#.#.#.#.#.#.#.#.#.#.D G T Q Q D J Y ! ] S J T ! Q Q Q Q Q Q T T U D 1X=X6...........#.#.#.......#.#.#.....#.#.#.#.#.#.#.#.....#.#.#.#.#.#.#.........#.....#.O.....#.#.#.#.#.#.#.#.#.#.#.#.#.#.#.#.....#.#.#.#.....#.#.....#.#.#.#.#.#.#.#.#.#.#...............#.#.#.#.#.#.......#.........#.#.#.#.....#.#.#.#.......#.......#.#.#.........#.#.#.#.#.........#...#...........J C Y T T T Q Q Q Q T T P J M.rX5.Q Q T H qX/.-.Q Q U *.6Xt.*.#.#.#.#.#.#.#.#.#.#.#.#.[ Q T P P D D D C 8.dXsX=X-.#.-.2.-.#.#.#.#.#.#.#.#.#.#.#.#.#.#.#.#.#.#.#.#.#.#.#.#.#.#.#.A ",
"2.#.#.#.#.#.#.#.#.#.#.#.#.#.#.#.#.#.#.#.#.#.#.#.#.O.O.] *.[ T T T T T T Q Q [ #.#.#.#.#.#.#.#.#.#.[ D J T Q Q D S Y Q Q Y S P T ! ! Q ! ! ! ! T ~ I s.x.t...................#.#.#.....#.#.#.#.#.........#.#.#.#.#.#.......#.#.#.#.#.#.#.#.#.....#.#.#.#.#.#.#.#.................#.#.#.#.................#.#.#.#.....#.#.#.#.#.#.........#.#.#.#.#.#.#.#.........................#.#.#.#.........#.#.........#.#.#.#.....#.#.....#.#.#.....................D x P T T T Q Q Q Q Q T U P =.rX2.Q Q U D aX-...Q T J qXt.=.#.#.#.#.#.#.#.#.#.#.#.#.#.#.#.#.#.#.#.[ J N uXj.5.=.#.#.#.#.#.#.#.#.#.#.#.#.#.#.#.#.#.#.#.#.H G T Q Q D J T Q ] S J T ! Q Q Q Q Q T T T U D 1X=X6...........#...#.....#.#.#.#.........#.#.#.#.........#.#.....#.#.#.#.....#.#.#.#.#.#.#.#.#.#.........#...#.#.........#.#.....#.#.#.......#.#.#...#.#.#.#.....#.#.#.#.#.#.....#.#.#.#.#.#.#.#.#.#.....#.#.#.#.#.#.#.#.......#.#.#.........#.......#.#.#.#.#.#.........#...#.........#...#...........J C Y T T T Q Q Q Q T T P J M.rX5.Q Q T H qX/.-.Q Q U *.6Xt.*.#.#.#.#.#.#.#.#.#.#.#.#...Q T P P J D D C 9.uXuX-X1.#.*.2.-.#.#.#.#.#.#.#.#.#.#.#.#.#.#.#.#.#.#.#.#.#.#.#.#.#.#.#.D ",
"2.#.#.#.#.#.#.#.#.#.#.#.#.#.#.#.#.#.#.#.#.#.#.#.#.O.O.] *.[ T T T T T T Q Q [ ..#.#.#.#.#.#.#.#.#.[ D J T Q Q D S Y Q Q Y S P T T Q Q Q Q Q ! T ~ I s.x.q...................#.#.........#.#.#.#.........#.#.#.#.#.#.......#.#.#.#.#.#.#.#.#.....#.#.#.#.#.#.#.#.#.........#.O...#.#.#.#...............#.#.#.........#.#.#.#.#.#.........#.#.#.#.#.#.#.#.........#...............#.#.#.......................#.#.#.#.......#.....#.#.#.#...................D x P T T T Q Q Q Q Q Q T P *.rX2.Q Q T D aX-...Q T J qXt.=.#.#.#.#.#.#.#.#.#.#.#.#.#.#.#.#.#.#.#.[ P C -Xx.5.=.#.#.#.#.#.#.#.#.#.#.#.#.#.#.#.#.#.#.#.#.H G T Q Q D J T Q ] S J T ! Q Q Q Q ! ! T T U D 1X=Xf...........#.........#.#.#.#...........#.#...........#.#.....#.#.#.......#.#.#.#.#.#.#.#.#.#.........................#.#.....#.#.#.#.....#.#.#.#.#.#.#.#.....#.#.#.#.#.#.#...#.#.#.#.#.#.#.#.#.......#.#.#.#.#.#.#.#.....#.#.#.#.........#.#.....#.#.#.#.#.#.#.......#...#.........................J C T T T T Q Q Q Q T T P J M.rX6.Q Q T H qX/.-.Q Q U *.6Xt.*.#.#.#.#.#.#.#.#.#.#.#.#...Q T P P J D D C ..sXuX8X1.#.*.2.-.#.#.#.#.#.#.#.#.#.#.#.#.#.#.#.#.#.#.#.#.#.#.#.#.#.#.#.D ",
"2...#.#.#.#.#.#.#.#.#.#.#.#.#.#.#.#.#.#.#.#.#.#.#.O.#.] *.[ T T T T T T Q Q [ #.#.#.#.#.#.#.#.#.#.[ D J T ! Q D S Y Q Q Y S P T Q ! ! ! ! ! T T T I s.x.t...............#.#.#.#...#.................#.#.#.......#.#.#.#.#.#.........#.#.#.......#.#.#.#.#.#.#.#.#.#.O.....#.#...#.#.#.....O.#.#.#.#...#.#.......#.#.#.#.#.#.#.#.#.#.#...#.#.#.#.....#.#...#.....#.#.#.#.#.#.#.#.#.#.#.#.#.#.#.#.#.#.#.#.#.#.#.#.#.#.#.#.#.#.#...#.#.#.#...................D x P T T T Q Q Q Q Q Q U P *.rX2.Q ! T D aX-...Q T J qXt.=.#.#.#.#.#.#.#.#.#.#.#.#.#.#.#.#.#.#.#.[ J N 7Xf.5.*.#.#.#.#.#.#.#.#.#.#.#.#.#.#.#.#.#.#.#.#.H G T Q Q D P ! Q Q S J T ! Q Q Q Q Q ! ! ~ U D 1X=Xf...........#.........#.#.......#.#.#...........#.#.#.#.#...........#.#.#.#.#...........#.#.#.#.#.#.#.....#...........O.#.....#.#.#.#...#.#.#.#.#.#.#.#.#.........#.#.#.#.#.#...#.#.#.#.#.#.#.#.......#.#.#.#...#.........#.#.#.#.........#.......#.#.#.#.#.#.......#.#...#.....#.#.................J C Y T T T Q Q Q Q T T Y P q.aX5.) ) T H qX/.-.Q Q U *.6Xt.*.#.#.#.#.#.#.#.#.#.#.#.#...Q T P P J D D C | dXsX-X1.#.*.2.-.#.#.#.#.#.#.#.#.#.#.#.#.#.#.#.#.#.#.#.#.#.#.#.#.#.#.#.D ",
"4.#.#.#.#.#.#.#.#.#.#.#.#.#.#.#.#.#.#.#.#.#.#.#.#.#.#.[ *.[ T T T T T T Q Q [ #.#.#.#.#.#.#.#.#.#.[ D J T Q Q D Z Y Q Q Y S P T Q Q Q ! ! ! T T T I s.x.t.................#.#.#...............#.#...#.#.#.......#.#.#.#.#.#.....#.#.#.#.........#.#.#.#.#.#.#...#.#.#.#...#.#.O.#.#.#.#...#.#.#.#.#...#.#...#.#.#.#.#.#.#.#.#.#.#.#.#...#.#.#.#.....#.#.#.......#.#.#.#.#.#.#.#.....#.#.#.#.#.#.#.#.#.......#.#.#.#.#.#...#.#...#.#.#.#...................G x P T T T Q Q Q Q Q Q U P S rX2.Q ! Y D aX-...Q T J qXt.=.#.#.#.#.#.#.#.#.#.#.#.#.#.#.#.#.#.#.#.[ J N uXx.5.*.#.#.#.#.#.#.#.#.#.#.#.#.#.#.#.#.#.#.#.#.H G T Q Q D I ! Q Q S J T ! Q Q Q Q Q ! ! ~ U D 1X=Xf...........#.#...#.......#...#.#.#.#.........#.#.#...#.#.....#.......#.#.#.#.........#.#.....#.#.#.#.....#...#.#...O.O.#.#...#.#.#.#.....#...#.#.#.#.#.#.....#...#...#.#.#.#.....#.#.#.#.............#.#.#.#...#...#.....#.#.#.#.........#.......#.#.#.#.#.#.........#.......#...#.................J C Y T T T Q Q Q Q T T Y P t.aX5.) ) T H qX/.,.Q Q U *.6Xt.*.#.#.#.#.#.#.#.#.#.#.#.#.[ Q T P P D D D C [ 8XdX-X1.#.=.2.-.O.#.#.#.#.#.#.#.#.#.#.#.#.#.#.#.#.#.#.#.#.#.#.#.#.#.#.D ",
"2.#.#.#.#.#.#.#.#.#.#.#.#.#.#.#.#.#.#.#.#.#.#.#.#.O.O.] *.[ T T T T T T Q Q [ #.#.#.#.#.#.#.#.#.#.[ D J T Q Q D Z Y ! Q T Z P T Q ! Q ! ! ! T T T I s.x.t...................#.#.#...#.#.....#.#.#.#.#.#.#.#.............#.......#.#.#.#.#.#.....#.#.............#.#.#.#.#.#.#.#.#.#.#.#.#.#.#.#.#...#.#.#.#...#.#.#...#.#.....#.#.#.#.......#.#.....#.#.#.#.......#.#.#.#.#...........#.#...#.#.#.#.....#...........#.#.#...#...#.....#...................G x P T T T Q Q Q Q Q Q U P S rX2.Q Q T D aX-...Q T J qXt.=.#.#.#.#.#.#.#.#.#.#.#.#.#.#.#.#.#.#.#.[ J N ,Xx.5.*.#.#.#.#.#.#.#.#.#.#.#.#.#.#.#.#.#.#.#.#.H G T Q Q D I ! Q Q S J T T Q Q Q Q Q ! T ~ T D rX=Xd...........#.#.#.#.#.............#.#.#...#.#.#.#.........#.#.#.#.........#.#.#...#.#.#.#.........#.#.#...#.#.#.#.#.#.O.#.#.#.#.#.#.#.....#.#.....#...#.#.#.#.#.#.........#.#.....#.#.#.#.#.#.#.#...#.#.#.........#.#.#.#.#...#.#.....#...#.#.#...#.......#.#.#...#.#.#.#.........#.................J C Y T T T Q Q Q Q T T T P t.aX5.Q ) T H qX/.,.Q Q U *.6Xt.*.O.O.O.#.#.#.#.#.#.#.#.#...Q T P P J D D C ..sXpX8X1.#.*.2.-.#.#.#.#.#.#.#.#.#.#.#.#.#.#.#.#.#.#.#.#.#.#.#.#.#.#.#.D ",
"2.#.#.#.#.#.#.#.#.#.#.#.#.#.#.#.#.#.#.#.#.#.#.#.#.#.O.] *.[ T T T T T T ! Q [ ..#.#.#.#.#.#.#.#.#.[ D J T Q Q D Z Y ! Q T S P T Q Q Q ! ! ! ! T ~ I s.x.t...................#...#.#.#.......#.#.#.#.#.#.#...............#.#.....#.#.#.#.#.#.....#...............#.#.#.#.#.#.#.#.#.#.#.#.#.....#.#.#.#.#.#.#.#.#.O...............#.#.........#.#.....#.#.#.#.#.#...#.#.#.#.#.#...........#.....#.......................#.#...#.#.#.....#.........#.........G x I Y T T Q Q Q Q Q T U P A rX2.Q Q T D aX-...Q T J qXt.=.#.#.#.#.#.#.#.#.#.#.#.#.#.#.#.#.#.#.#.[ J N 7Xf.5.*.#.#.#.#.#.#.#.#.#.#.#.#.#.#.#.#.#.#.#.#.H G T Q Q D I ! Q Q S J T T ! Q Q Q T ! T ~ T D rX=Xf.............#.#.#.#.#.#.......#.#.#...#.#.#.#.#.........#.#.#.#.........#.#.#...#.#.#.#.........#.#.#.#.#.#.#.#.#.#.#.#.O.#.#.#.#.#.....#.#.....#.O.#.#.#.#.#.#.........#.#.....#.#.#.#.#.#.#.#.#.#.#.#.........#.#.#.#.....#.#.#.#.#.#.#.#...#.#...#.....#.....#.#.#.#.......#.#.................J C Y T T T Q Q Q Q T T T P q.aX8.Q Q T H qX/.,.Q Q U *.6Xt.*.O.O.O.#.#.#.#.#.#.#.#.#...Q T P P J D D C ..dXpX-X4.#.*.2.-.#.#.#.#.#.#.#.#.#.#.#.#.#.#.#.#.#.#.#.#.#.#.#.#.#.#.#.D ",
"2.#.#.#.#.#.#.#.#.#.#.#.#.#.#.#.#.#.#.#.#.#.#.#.#.#.#.] *.[ T T T T T T Q Q [ #.#.#.#.#.#.#.#.#.#.[ D J T Q Q D Z Y Q Q T S P T T Q Q ! ! Q ! T ~ I s.x.t...................#...#...#...#.#.#.#.#.#.#...#...#.#.#.#.#.........#.#.#.#.#.#.#.#.#...................#.#.#.#...O.O.....#.#.#.#.#.#.#.#.#.#.#.#.#.#.#.#.............#.#.#.#.......#...#.#.#.#.#.#.#.....#.#.#.#.....#.......#.#.#.#.#...................#.#.#.....#.........#.....#...........G x I U T T Q Q Q Q Q Q T P S rX2.Q Q T D aX-...Q T J qXt.=.#.#.#.#.#.#.#.#.#.#.#.#.#.#.#.#.#.#.#.[ J N uXx.5.*.......#.#.#.#.#.#.#.#.#.#.#.#.#.#.#.#.#.D G T Q Q D P ! Q Q S J T T Q Q Q Q ! ! T T T D >X=Xf.............#...#...#.#.#.#.#.#.#.#.....#.#...#.#.......#.#.......#.#.#.#.#.#.#.#.#.....#.#.#.#.....#.#.#.#.....#.#.#.#.O.#.#...#.#.#...#.#.....#.O...#.#.#.....O.#.#.......#.#.........#.....#.#.#.#.#.#.#.#.......#.#.......#.#.#.#.#.#.#.#.#.......#...#.#.#.#.........#.#.#.#.................J C Y T T T Q Q Q Q T T Y P t.aX8.Q Q T J qX.X,.Q Q U *.6Xt.*.#.#.#.#.#.#.#.#.#.#.#.#...Q T P P J D D C { 7XdX-X4.#.*.2.-.O.#.#.#.#.#.#.#.#.#.#.#.#.#.#.#.#.#.#.#.#.#.#.#.#.#.#.D ",
"4.#.#.#.#.#.#.#.#.#.#.#.#.#.#.#.#.#.#.#.#.#.#.#.#.#.#.[ *.[ T T T T T T Q Q [ #.#.#.#.#.#.#.#.#.#.[ D J T Q Q D Z Y Q Q T S P T T Q ! ! ! ! ! T T I s.j.t...........#.#.....#.#.#...#...#.#.#.#.#.#.#...#.#.#.#.#.#...........#.#.#.#...#.#.#.#.#.#.....#.....#.#.#.#.#.#.......#.O.....#.#.#.#.#.#.#.#.#.#.#.#.#.#.......#.....#.#.........#.#...#.#.#.#.#.#.#.O...#.#.#.#.....#...#.#.#.#.#.#.#.#.................#.#.#...............#.................G x P T T T Q Q Q Q Q Q U P S rX2.Q Q T D aX-...Q T J qXM.=.#.#.#.#.#.#.#.#.#.#.#.#.#.#.#.#.#.#.#.[ J C ;Xx.5.-.....O.#.#.#.#.#.#.#.#.#.#.#.#.#.#.#.#.#.J G ~ Q Q D P ! Q Q S J T T Q Q Q ! ! ! ! T T D >X=Xf.............#.......#.#...#.#.#.#.....#.#.#.....#.#.#.#.#.#.....#.#.#.#.#.#.#.#.#.#.....#.#.#.#.....#.#.#.#.....#.#.#.#...O.#.#.#.#.#...#.#.....#.....#.#.#.....#.#.#.#.....#.#.........#.#...#.#.#.#...#.#.#.#.....#.#.....#.#.#.#.#.#.#.#.#.#.....#.#.#.#.#.#.#.#.....#.#.#.#.#.................J C Y T T T Q Q Q Q T T Y P q.aX8.Q Q T J qX.X,.Q Q U =.6Xt.*.#.#.#.#.#.#.#.#.#.#.#.#.[ Q T P P J H D C #.pXpX7X1.#.=.2.-.O.#.#.#.#.#.#.#.#.#.#.#.#.#.#.#.#.#.#.#.#.#.#.#.#.#.#.D ",
"2.#.#.#.#.#.#.#.#.#.#.#.#.#.#.#.#.#.#.#.#.#.#.#.#.#.#.] *.[ T T T T T T Q Q [ #.#.#.#.#.#.#.#.#.#.[ D J T Q Q D S Y Q Q T S P T T Q ! Q ! ! ! T T I s.j.t...........#.#.......#.....#.#...........#...#.....#.#.#.#.#.#.........#.#.........#.#.#.#.#.#.#.#.........#.#.#.#.....#.#.#.#.#.#.....#.#.#.#...#.#.#.#.#.#.#...#.................#...#.#.#.#.#.#...O.......#.#.#.....#.#.#.#.....#.#.#.#.#.#.#.#.......#.#.#.#...............#.................G x P T T T Q Q Q Q Q Q T P D rX2.Q Q T D aX-...Q T J qXM.=.#.#.#.#.#.#.#.#.#.#.#.#.#.#.#.#.#.#.#...J C 5Xy.5.-.#.O.O.#.#.#.#.#.#.#.#.#.#.#.#.#.#.#.#.#.J G U Q Q D P ! Q Q S J T T Q Q Q ! ! ! ! T T G &X=Xf.............#.#.....#...#.#.#...#...#.#.........#.#.#.#.#.......#.#.#.#.....#.#.#.#...#.#.#.#.#.....#.#.#.......#.#.#.#.#.#.#.#.#.#.#.#.............#.#.#...#.#.#.#.#.#.#...#.#.#.#...#.....#.#.#.#.....#.#.#.#.......#.#.#.#.#.#.#.........#.........#.#.#.#.#.........#.#.#...#.......#.........J C Y T T T Q Q Q Q T T Y P t.aX8.Q Q T J qX.X,.Q Q U =.6Xx.*.#.#.#.#.#.#.#.#.#.#.#.#...Q T P P J D D C #.dXpX,X4.#.*.2.-.O.#.#.#.#.#.#.#.#.#.#.#.#.#.#.#.#.#.#.#.#.#.#.#.#.#.#.D ",
"2.#.#.#.#.#.#.#.#.#.#.#.#.#.#.#.#.#.#.#.#.#.#.#.#.#.#.] *.[ T T T T T T Q Q [ ..#.#.#.#.#.#.#.#.#.[ D J T Q Q D S Y Q Q T S P T T Q Q Q Q ! ! T T I s.j.t...........#.#.#...........#.#.#.........#...........#.#.#.#.#.#.#.#.#.#.#...........#.#.#.#.#.#.#.#.#.....#.#.#.....#.#.#...#.#.#.....#.#.......#.#...#.#.#.#.#.#...#.......O.#.O.#.#.#.#.#.#.#.#.#.......#.#.#.#.....#.#.#.#...#.#.#.#.#.#.#.#.#...#...#.#.#.............#...#.................G x P T T T Q Q Q Q Q Q T P D rX2.Q Q T D aX-...Q T J qXM.=.#.#.#.#.#.#.#.#.#.#.#.#.#.#.#.#.#.#.#...J C 8Xx.5.-.#.O.#.#.#.#.#.#.#.#.#.#.#.#.#.#.#.#.#.#.J G U ! Q D P T Q Q S P T T ! Q Q ! ! ! ! T T G &X[.f.............#.#...........#.#.......#.#.........#.#.#.#.#.......#.#.#.#.....#.#.#.....#.#.#.#.......#.#.........#.#.#.#.#.#...#.#.#.#.#.#.......#...#.#.#...#.#.#.#.#.#.#.#.#.#.#.#.#.#.....#.#.#.#.....#.#.#.#.......#.#.#.#.#.#.#...................#.....#.#.#.........#.....#.................J C Y T T T Q Q Q Q T T U P q.aX8.Q Q T J qX.X,.Q Q U =.6Xx.-.#.#.#.#.#.#.#.#.#.#.#.#...Q T P P J D D C [ dXdX,X4.#.*.2.-.O.#.#.#.#.#.#.#.#.#.#.#.#.#.#.#.#.#.#.#.#.#.#.#.#.#.#.D ",
"2.#.#.#.#.#.#.#.#.#.#.#.#.#.#.#.#.#.#.#.#.#.#.#.#.#.#.] *.[ T T T T T T Q Q [ #.#.#.#.#.#.#.#.#.#...D J T Q Q D S Y Q Q T Z P T ! ! ! Q Q Q ! T ~ I s.x.t...........#.#.#.#.#.........#.#.......#...#.........#.#.#.#.#.#.#.#.#.#.#...............#.#.#.#.#.#.#.O.........#.#.#.#.#.#.#.........#.....#.#.#.#.#.#.#.#.#.#.#.#.#...#.#.#.#...........#.#.#.#.....#.#.#.#...........#.....#.O.#.#.............#.#.#.#.#.#.....#.#.#.#.......................G x P T T T Q Q Q Q Q ! U P D rX2.Q ! T D aXt...Q T J qXM.=.#.#.#.#.#.#.#.#.#.#.#.#.#.#.#.#.#.#.#...J C -Xx.5.-.#.#.#.#.#.#.#.#.#.#.#.#.#.#.#.#.#.#.#.#.J G T Q Q D P T Q Q D I T ! ! Q Q ! ! Q ! T T G  X$Xf.............#.#.#.#.#.#.....#.#.#...#.#.#.#.#.....#.#.#.#.#.......#.#.......#.#.#.#.#.#.#.#.#.......#.#.........#.#.#.#.#.#...#.#.#.#.#.#...........#.#.....#.#.#.#...#.#.#.#...............#.#.#.#.....#.#.#.#.........#.#...#.#.#.#.#.............#.#...........#.#.#...#...#.#.#.#.............J C Y T T T Q Q Q Q T T Y P q.aX8.Q Q T J qX.X,.Q Q U =.6Xx.-.O.O.O.#.#.#.#.#.#.#.#.#...Q T P P J D D C #.uXpX7X4.#.*.2.-.O.#.#.#.#.#.#.#.#.#.#.#.#.#.#.#.#.#.#.#.#.#.#.#.#.#.#.D ",
"4.#.#.#.#.#.#.#.#.#.#.#.#.#.#.#.#.#.#.#.#.#.#.#.#.#.#.[ *.[ T T T T T T Q Q [ #.#.#.#.#.#.#.#.#.#...D J T Q Q D S Y ! Q T Z P T ! ! Q Q Q Q ! T ~ I s.x.t.............#.#.#.#.#.......#.#.#...#.#.#.............#.#.#.#.#.#.#.#.#.#.................#.#.#.#.#.#.....#.#.....#.#.#.#.#.#...#.....#...#.#.#.#.#.#.#.#...#.O...#.#.#.#.#.#.#...........#.#.#.#.....#.#.#.#.........#.#.....#.#.#.#.#.#.....#...#.#.#.#.#.#...#.#.#.#.#.#.#...................G x P T T T Q Q Q Q Q ! U P D rX6.Q T Y H aXt...Q T J qXM.=.#.#.#.#.#.#.#.#.#.#.#.#.#.#.#.#.#.#.#...J C 4XP.5.-.#.#.#.#.#.#.#.#.#.#.#.#.#.#.#.#.#.#.#.#.J D U Q Q D P T Q Q S I T T ! Q Q ! ! ! ! T T G  X=Xf.............#.#.#.#...#.....#.#.........#.#.#.....#.#.#.......#...#.#.......#.#.#.#.....#.#.........#.#.........#.O.#.O.#.#.....#.#.#.#.#.#.......#.#.#.....#.#.#.#.....#.#.#.#.........#...#.#.#.#.....#.#.#.#.........#.#.....#.#.#.#.........#...#.#.....#.........#...#...#.#.#...............J C Y T T T Q Q Q Q T T Y I t.aX8.Q Q T J qX.X,.Q Q U =.6Xx.-.#.O.O.#.#.#.#.#.#.#.#.#...Q T P P H D D C #.dXpXuX4.#.=.2.2.O.#.#.#.#.#.#.#.#.#.#.#.#.#.#.#.#.#.#.#.#.#.#.#.#.#.#.D ",
"2.#.#.#.#.#.#.#.#.#.#.#.#.#.#.#.#.#.#.#.#.#.#.#.#.#.#.] *.[ T T T T T T Q Q [ #.#.#.#.#.#.#.#.#.#...D J T Q Q D S Y ! Q T A P T ! ! Q ! Q Q Q T T I =.j.t.............#.............#.#.#.#.#.#.#.#.........#.#...#.#.#.#.#.............#.#.#.#.#.#.#.#.#.#.#...#.#.#.#.#.O...#.#...#.#.#.#.#.#.....#...................#.#.#.#.#.#.#.#.#.#...........#.#.#.#...#...#.#.....#...#.#.#...#.#.#.#.#.#.#.#.#.#.#.#.#.#.........#.#.#.#.#.#...................G x P T T T Q Q Q Q Q ! U P D rX6.Q T Y H aXt...Q T G qXM.=.#.#.#.#.#.#.#.#.#.#.#.#.#.#.#.#.#.#.#...J C 8Xn.5.-.#.#.#.#.#.#.#.#.#.#.#.#.#.#.#.#.#.#.#.#.J D U Q Q D P T Q Q S I T T ! Q Q ! ! ! ! T T G  X=Xf...[ ........#...............#.....#.#...#.#.........#.#.....#.#.#.#.......#.#.#.........#.#.#.#...#.#.#.....#...#.#...#.#.......#.#.#.#.#.#.#.#.#.#.#.#.#.#.#.#.#.#.#.....#.#.#.#.#...#.........#.#.#.......#.#...#...............#.#.#.#.#.#.#.#.#.#.#.#.#.#.#...........#.#.#.#.#...............J C Y T T T Q Q Q Q T T Y I q.aX8.Q Q T J qX.X,.Q Q U =.6Xx.-.#.#.O.#.#.#.#.#.#.#.#.#...Q T P P J D D C [ dXdX,X3.#.*.,.2.O.#.O.#.#.#.#.#.#.#.#.#.#.#.#.#.#.#.#.#.#.#.#.#.#.#.#.D ",
"2.#.#.#.#.#.#.#.#.#.#.#.#.#.#.#.#.#.#.#.#.#.#.#.#.#.#.] *.[ T T T T T T Q Q [ ..#.#.#.#.#.#.#.#.#...D J T ! Q D S Y ! Q T A P T ! ! ! ! Q Q ! T T I =.j.f.............#...............#...#.#.#.#...#.......#.#...#.#.#.#.#.#...#.......#.#.#.#.#.#.#.#.#...#...#.#.#.#.#.#...O.....#.#.#.#.#.#.#.......................#.#.#.#.#.#.#.#.#.#.#.........#.#.#.#.#.....#.#.#.#.#.#.#.#.#...#.#.#.#.#.#.#.#.#.#.#.#.#.#.......#.#.#.#.#.#.#.#.................G x P T T T Q Q Q Q Q ! U P D rX6.Q T Y H aXt...Q T G qXM.=.#.#.#.#.#.#.#.#.#.#.#.#.#.#.#.#.#.#.#...J C uXZ.5.-.#.#.#.#.#.#.#.#.#.#.#.#.#.#.#.#.#.#.#.#.J D T Q Q D P T Q Q S I T ! T Q Q ! ! ! ! T T G  X=Xf...[ [ [ ....#.....................#.#.#.#.#.........#.#.....#.#.#.#.........#.#.........#.#.#.#.....#.#.#.#.#.#.#.#...#.#.........#.#.#.#...#.#...#.#.#.#.#.#.#.#.#.#.#.#.#.#.#.#.#.#.#.#.....#.#.#...#.....#.#.#.#.#.#...........#.#.#.#.#.#.#.#.#.#.#.#.#.#.#.......................#.#.........J C Y T T T Q Q Q Q T T U I t.aX9.Q Q T J }..X-.Q Q U =.6Xj.-.#.#.O.#.#.#.#.#.#.#.#.#...Q T P P J D D C #.uXuX7X8.#.*.,.2.O.#.O.#.#.#.#.#.#.#.#.#.#.#.#.#.#.#.#.#.#.#.#.#.#.#.#.D ",
"2...#.#.#.#.#.#.#.#.#.#.#.#.#.#.#.#.#.#.#.#.#.#.#.O.@.] *.[ T T T T T T Q Q [ #.#.#.#.#.#.#.#.#.#...D J T Q Q D S Y ! Q T A P T ! Q Q ! Q Q ! T T I =.j.f.............#...#.......#.#.#.....#.#.#...........#.#.....#.#.#.#.....#.#.........#.#.#.#.#.#.#.#.....#.#.....#.#.#...#.#.#.#.....#.#.#.#...#.#.#.#...#.#.#.#.....#.#.#.#.#.#.#.#.#.#.#.#.#.#...#.#.#.........#.#.#.#.....#.#.........#.#.#.#.#.#.#.#.#.......#.#.#...#.#.#.....................G x P T T T Q Q Q Q Q ! T P D rX5.Q T Y H aXt...Q T G qXM.=.#.#.#.#.#.#.#.#.#.#.#.#.#.#.#.#.#.#.#...J C -XZ.5.-.#.#.#.#.#.#.#.#.#.#.#.#.#.#.#.#.#.#.#.#.J S T Q Q D P T Q Q D I T T Q Q Q ! ! ! ! ~ T G  X=Xf.....[ [ ..........#.#.....#.#.........#.#.#.......#.#.....#.#.#.#...............#.#.#.#.......#.#.#.#.O.#.#.#.#.#.#.#...#.#.#.#.#...#.#...#...#.#.#.#.#.#.#.#.#.#.#.#.#.#.#.#.#.#.#.#.#.#.#.#.#.....#.#.........#.#.#.#.....#.#.........#.#.#.#.#.#.#.#.#.#.....#.#.#.....#.........#...#.........P C Y T T T Q Q Q Q T T Y I q.aX8.Q Q T J }..X-.Q Q U =.6Xl.=.#.#.#.#.#.#.#.#.#.#.#.#...Q T P P J D D C #.sXpXuX8.#.*.2.2.O.#.#.#.#.#.#.#.#.#.#.#.#.#.#.#.#.#.#.#.#.#.#.#.#.#.#.Y ",
"4.#.#.#.#.#.#.#.#.#.#.#.#.#.#.#.#.#.#.#.#.#.#.#.#.O.@.] *.[ T T T T T T Q Q [ #.#.#.#.#.#.#.#.#.#...D J T Q Q D S Y ! Q T A P T Q Q Q Q ! Q ! T T I =.j.f.............#...#.#...#.#.#.#.#...#.#.#.#.........#.#.....#.#.#.#.....#.#.#.#.....#.#.....#...#.#.....#.#.....#.#.#.#.#.#.#.#.....#.#.#.#.#.#.#.#.#.#.#.#.#.#.....#.#.#.#.#...#.#.#.#.#.#.#.#.#.....#...#.#...#.#.#.#...#.#.#...........#.#.#.#.#.#.#.#.#.........#...#.#.#.....................G x I T T T Q Q Q Q ! ! T I D rX4.Q Q T H aXt...Q T G qXM.=.#.#.#.#.#.#.#.#.#.#.#.#.#.#.#.#.#.#.#...J C 7Xb.5.-.#.#.#.#.#.#.#.#.#.#.#.#.#.#.#.#.#.#.#.#.J D T Q Q D P ! Q Q D I T T Q Q Q ! ! ! T T T G  X$Xf.....[ [ ............#...#.#.#.#.#.#.#.#.#.#.........#.#.#.#.#.#.#.#.............#.#.#.#.......#.#.#...#.#.#.#.#.#.#.......#.#.#.#.O.#.....#.#.#.#.#.#.#.#.#.#.#.#.#.#.#.#.#.#.#.#.#.#.#.#.#.#.#...O.#.#.....#...#.#.#.#.....#.#.........#...#.#.#.#.#.#.#.#.....#.#.#.#.......#.#.#.#.............P C Y T T T Q Q Q Q T T T I q.aX8.Q Q T J }..X-.Q Q U =.6Xl.=.#.#.#.#.#.#.#.#.#.#.#.#...Q T Y P J D D C #.dXsX5X3.#.=.2.2.O.#.#.#.#.#.#.#.#.#.#.#.#.#.#.#.#.#.#.#.#.#.#.#.#.#.#.Y ",
"2.#.#.#.#.#.#.#.#.#.#.#.#.#.#.#.#.#.#.#.#.#.#.#.#.O.#.] *.[ T T T T T T T Q [ #.#.#.#.#.#.#.#.#.#...D G T Q Q D S Y ! Q T A P T Q Q Q Q ! ! ! T T I =.j.f.............#...#.#...#.#.....#...#.#.#.#.#.....#.#.#.......#.#.#.....#.#.#.#.......#.........#.#.#.#.#.......#.#.#.#.#.#.#.#.......#.#.#.#.#.#.#.#.#.#.#.#.#.....#.#.#.#.#.......#.#.#.#.....#...#.#.#.#.#.#.#.#.........#.#.#.#.......#.#...#.#.#.#.................#.#.#.#.#.................G x I T T T Q Q Q Q ! ! T I D rX4.Q Q T H aXt...Q T G qXM.=.#.#.#.#.#.#.#.#.#.#.#.#.#.#.#.#.#.#.#...J C uXN.5.-...#.#.#.#.#.#.#.#.#.#.#.#.#.#.#.#.#.#.#.J D T Q Q D P ! Q Q D J T T Q ! ! ! ! ! T ~ T G  X=Xf...........#.....#.#.#.#.#.#.....#.#.#.#.................#.#.#.#.#.#.#.#.#.#...#.#.#.#.#.....#.#.#.#...#.#...#.#.#...#.#.....#.#.#.#.#...#.#.O...#.#.#.#.#...#.#.#.#.....#.#.#.#.........#.#.#.....O.#.#.#.#.#.#.#.#.........#.#.#.#...#.........#.#.#.#.#.......#.#.#.#.........#...#.............P C Y T T T Q Q Q Q T T T I q.aX9.Q Q T J }..X-.Q Q U D 6Xx.=.#.#.#.#.#.#.#.#.#.#.#.#...Q T Y P J D D C #.8XdX5X8.#.*.2.2.O.#.@.@.#.#.#.#.#.#.#.#.#.#.#.#.#.#.#.#.#.#.#.#.#.#.#.Y ",
"2.#.#.#.#.#.#.#.#.#.#.#.#.#.#.#.#.#.#.#.#.#.#.#.#.O.#.] *.[ T T T T T T T Q [ ..#.#.#.#.#.#.#.#.#...D G T Q Q D S Y ! Q T A P T ! Q Q Q Q ! ! T T I -.j.f.............#.#.#.#.#.#.#.........#.#.#.#.#...#.#.#.#.....#.#.#.#.....#.#.#.#.....#.#.........#.#.#.#.........#.#.#.#.#.#.#.#.......#.#.#.#.#.#.#.#...#.#.#.#.....#.#.#.#.#...........#.#.#...O.#.#.#.#.#.#.#.#.#.........#.#.#.#.#.#...#.#.......#...#...............#...#.....................G x I T T T Q Q Q Q T ! T I D rX4.Q Q T H aXt...Q T J qXM.-.#.#.#.#.#.#.#.#.#.#.#.#.#.#.#.#.#.#.#...J C =XN.5.-...#.#.#.#.#.#.#.#.#.#.#.#.#.#.#.#.#.#.#.J D T Q Q D P ! Q Q D J T T ! ! ! ! ! ! T ~ T G  X[.f...............#.#.#...#.#.#.........#.#.#...............#.#.#.#.#.#.#.#.#.#...#.#.#.#.#.......#.#.#.......#.#.#.#.#.O.#.....#.#.#.#.....#.#.O...#.#.#.......#.#.#.#.....#.#.#.#.........#.#.#.......#.#.#.#.#.#.#.#.#.......#.#.#.#.#.#.............#.#.........#.#.#.#.#...#...#...#.............P C T T T T Q Q Q Q T T T I s.aX9.) Q T J }..X-.Q Q T D 6Xx.=.#.#.#.#.#.#.#.#.#.#.#.#...Q T Y P J D D C #.sXpXuX8.#.*.,.,.O.#.#.@.#.#.#.#.#.#.#.#.#.#.#.#.#.#.#.#.#.#.#.#.#.#.#.Y ",
"2.#.#.#.#.#.#.#.#.#.#.#.#.#.#.#.#.#.#.#.#.#.#.#.#.#.#.] *.[ T T T T T T Q Q [ #.#.#.#.#.#.#.#.#.#...D J T Q Q D S Y ! Q T A P T ! Q Q Q Q Q ! T ~ I -.j.f.............#.#...#.#.#.#.#.#.#...#.#.........#.#.#.#.#.#.#.#.................#.#.#.#.#.#.#.#...O.....#.#.#.#.....#.#.....#.#.#.#.....#.#.#.....#.#.#.#.#.#.#.........#.#...#.#.#.#.#...O.#...#.#.#.#.#.#...............#.#.#.........#.#.#.......#...#.#.#.#.............#.....................J x I U T T Q Q Q Q ! ! T I D rX4.Q Q T D aXt...Q T J qXv.-.#.#.#.#.#.#.#.#.#.#.#.#.#.#.#.#.#.#.#...J C 6Xb.6.-.......#.#.#.#.#.#.#.#.#.#.#.#.#.#.#.#.#.P D T Q Q D P ! Q Q D J T ! ! ! ! ! ! ! T T T G  X[.f...............#.#.#.............#.#.#.#.#.#.#.#.#.#.#.#.#.#.........#.#.#.#.#.#.O...........#.#.#.#.......#.#.#.O...#.#.........#.#.#.#.#.#.#.#.#.#.#.#.#.#.#.#.#.#.#.#.#.#.#.#.#.#.............#.#.#.#.#.#...........#...........#.#.#...............#.#.#.....#.#.#.#.#...#...#.#.#.............P C Y T T T Q Q Q Q T T T I t.aX8.Q Q T J }..X-.Q Q U D 6Xx.=.#.#.#.#.#.#.#.#.#.#.#.#...Q T Y P J D D C N dXsX5X8.#.*.1.1.O.#.O.#.#.#.#.#.#.#.#.#.#.#.#.#.#.#.#.#.#.#.#.#.#.#.#.Y ",
"4.#.#.#.#.#.#.#.#.#.#.#.#.#.#.#.#.#.#.#.#.#.#.#.#.#.#.[ *.[ T T T T T T Q Q [ #.#.#.#.#.#.#.#.#.#...D J T Q Q D S Y ! Q T A P T T Q Q Q Q Q ! T ~ I -.j.f...........#.#.#...#.#.#.#.#.#.#...............#.#.#.#.#.#.#.#.......#.........#.#.#.#.#.#.#.#.......#.#.#.#.#...#.#.#.....#.#.#.....#.#.#.#.#.#.#.#.#.#.#.#.#.#.....#.#.#.#.#.#.#.#.#...#.O.O.#.#.#.#.#.#.#...........#.#.#.#.........#.#.#.#.....#.#.#.#...#.#.#.........#.#.#.................J x I T T T Q Q Q Q ! ! T I D rX4.Q T U D aXt...Q T J qXv.-.#.#.#.#.#.#.#.#.#.#.#.#.#.#.#.#.#.#.#...J C 8XZ.6.-.......#.#.#.#.#.#.#.#.#.#.#.#.#.#.#.#.#.P D T Q Q D P ! Q Q D J T ! ! ! ! ! ! Q T T T G  X=Xf...............#.#.#.............#.#.#.#...#.....#.#.#.#.#.#.........#.#.#.#.....#.#.....#...#.#.#.#.....#.O.#.#.#...O.......#.#.#.#.#.#.#.#.....#.#.#.#.#.#.#.......#.#.#.#.#.#.#.#.........#.......#.#.#.#.#.......#.#.........#.#.#.#.................#.#.....#.#.#.#.#...#...#.................P C Y T T T Q Q Q Q T T T I &.dX8.Q ! T J }..X-.Q T Y D 6Xx.=.#.#.#.#.#.#.#.#.#.#.#.#...Q T Y P J D D C N 6XdX5X8.#.=.1.1.O.#.O.#.#.#.#.#.#.#.#.#.#.#.#.#.#.#.#.#.#.#.#.#.#.#.#.Y ",
"2.#.#.#.#.#.#.#.#.#.#.#.#.#.#.#.#.#.#.#.#.#.#.#.#.#.#.] *.[ T T T T T T Q Q [ #.#.#.#.#.#.#.#.#.#...D G T ! Q D S Y ! Q T A P T ! Q Q Q Q Q Q T T I -.f.f.............#.....#.#.#.#.....#.......#.#.....#.#.#.....#.#.#.....#.#...#.....#.#...#.#.#.#.#.....#.#.#.#.........#.#.....#.#.#.#.O.#.#.#...#.#...#.#...O.#.#...#.#.#.....#.#.#.#.#.#...#.#.#.#.#.#.#.#.#.#.......#.#.#.#.#.#.#.#.....#.#.#.#.......#.........#.#.#.#...#.#...#.................J x P T T T Q Q Q Q ! ! T P D rX5.Q Q U H aXt...Q T J qXv.-.#.#.#.#.#.#.#.#.#.#.#.#.#.#.#.#.#.#.#...J C *XZ.6.-...#.#.#.#.#.#.#.#.#.#.#.#.#.#.#.#.#.#.#.P D T Q Q D P ! Q Q D J T ! ! ! ! Q Q ! ! T T G  X[.f.................#.#.#.#...#.#.#.#.#.................#.#.#.#.#.#...#.#.#...........O.#.#.#.#.#.#.#.#.....#.#.#.#.#.#.#...#.#.#.#...#.....#...........#.#.#.#.#.#.......#.....O.O.#.#.#.#.#.#.#.#.........#.#.#.#.#.#.#.#.....#.#.#.#.#.#.#.#.........#.#.#.#.......#.#.#.#...#.#.#...............[ P C T T T T Q Q Q Q T T T I #.dX9.Q T T J }..X-.Q ! U D 6Xx.=.#.#...#.#.#.#.#.#.#.#.#...Q T Y P J D D C N pXpXuX8.#.*.2.2.O.#.#.#.#.#.#.#.#.#.#.#.#.#.#.#.#.#.#.#.#.#.#.#.#.#.#.Y ",
"2.#.#.#.#.#.#.#.#.#.#.#.#.#.#.#.#.#.#.#.#.#.#.#.#.#.#.] *.[ T T T T T T Q Q [ ..#.#.#.#.#.#.#.#.#...D J T ! Q D Z Y ! Q T A P T T Q Q Q Q Q Q T T I -.f.f.......................................#.#...#.#.#.........#.#.#...#.#.#.#.#.#.#.#.O.#...#.#.#.....#.#.#.#.........#.#.....#.#.#.#.#.O.#.#...O.O...#.#...#.#.#.#.#.#.#.........#.#.#.#...O.#.#.#.#.#.#.#.#.O...#.#.#.#.#.#.#.#.#.#.#...#.#.#.#.......#.#.......#.#.#.#.#.#.#...#.....#...........J x P T T T Q Q Q Q ! T T P D aX6.Q Q T H aXt...Q ! J qXv.-.#.#.#.#.#.#.#.#.#.#.#.#.#.#.#.#.#.#.#...J C -Xm.6.=.#.#.#.#.#.#.#.#.#.#.#.#.#.#.#.#.#.#.#.#.P D T Q Q D P ! Q Q D J T T ! ! ! Q ! ! Q T T G  X[.f...........#.#...#.#.#.#...#.#.#.#.#...............#.#.#.#.#.#.#.....#.#.........#.#.#.#.#.#.#.#.#.#.#...#.#.#.#.#.O.O.#.#.#.#.#.#...........#.O.....#.#.#.#.#.#.....#.#.......#.#.#.#.#.#.#.#.#.#.#...#.#.#.#...#.#.#.#.#.#.#.#.#.#.#.#.#.#.#.......#.#.#.#.........#...#...#...............[ [ [ P C T T T T Q Q Q Q T T T I #.dXt.Q Q T J }..X-.Q Q T D 6Xx.=.......#.#.#.#.#.#.#.#.#...Q T Y P J D D A N dXsXsXe.#.*.2.2.O.#.#.#.#.#.#.#.#.#.#.#.#.#.#.#.#.#.#.#.#.#.#.#.#.#.#.Y ",
"2.#.#.#.#.#.#.#.#.#.#.#.#.#.#.#.#.#.#.#.#.#.#.#.#.#.#.] *.[ T T T T T T Q Q [ #.#.#.#.#.#.#.#.#.#...D J T Q Q D Z Y ! Q T A P T T Q Q Q ! Q ! T T I -.f.d.......................#.#.......#.....#.#.#.#...............#.#.#.#.#.#.#.#.#.....O.#.........#.#.#.#.#.........#.#.#.#.#.#.#.#.#.#...#...#.#...#.#.#...#.#.#.#.#.#.#.......#.O.#.....#.#.#.#.#.#.#.#.#.#.........#.#.#.#.#.#.#.#.#.#.........#.#.#.......#...#...#.#.......#...................G x P T T T Q Q Q Q Q ! T P D aX6.Q Q T H aXt...Q T J qXv.-.#.#.#.#.#.#.#.#.#.#.#.#.#.#.#.#.#.#.#...J C 5XN.6.-.#.#.#.#.#.#.#.#.#.#.#.#.#.#.#.#.#.#.#.#.P D U Q Q D P ! Q Q D J T T Q Q Q Q Q ! Q T T G  X[.f...............#.#.#.#.....#.#.....#...#.....#.#...............#.#.#.#.#.#.#.#.......#.#.#.#.#.O.#.#.#.#.#.#.#.#.#.#.#.#.#.#.#.#.#.#.......O.#.#.......O.......#.#.#.#.#.O.#.#.#.#.O.#.#.#.#...#.#.#.#.#.#.#.#.#.#.#.....#.#.#.#.#.#.#.#.#.#.........#.#.#.#.#.#.........#...#.....................P C T T T T Q Q Q Q T T U I &.dXt.Q Q T P }.tX-.Q Q T D 6Xx.=.#.#...#.#.#.#.#.#.#.#.#...Q T Y P J H D A N dXdX5X9.#.*.2.2.O.#.#.#.#.#.#.#.#.#.#.#.#.#.#.#.#.#.#.#.#.#.#.#.#.#.#.Y ",
"4.#.#.#.#.#.#.#.#.#.#.#.#.#.#.#.#.#.#.#.#.#.#.#.#.#.O.] *.[ T T T T T T Q Q [ #.#.#.#.#.#.#.#.#.#...D J T Q Q D Z Y ! Q T Z P T Q ! Q Q ! Q ! T T I -.f.f.............#.#.#.#...#.........#.....#.#.#.#.................#.#.#.#.#.#.#.#.................#.#.#.#.#.#.........#.#.#.#.#.#.#.#.#.#.#.#.........#.#...O.#.#.#.#.#.#.......#.....#.#.#.#.#.#...#.#.#.#.#.........#.#.#.#.#...#.#.#.#.........#...#...#.#.#.#.....#.#.......#...#.#.............G x P T T T Q Q Q Q Q ! T P D aX6.Q Q T H aXt...Q T J qXv.-.#.#.#.#.#.#.#.#.#.#.#.#.#.#.#.#.#.#.#...J C `.N.6.-.#.#.#.#.#.#.#.#.#.#.#.#.#.#.#.#.#.#.#.#.P D U Q Q D P ! Q Q D J Y ! ! Q Q Q Q ! ! T T J  X[.f...............#.#.#.......#.#.#.#.#...........#.............#.#.#.#.#.#.#.#.#.#...#.#.#.#.#.#.#.#.#.#.#.#.#.#.#...#.#.#.#.#.#.#.#.#.......#.#.#.#...#.#.#.......#.#.#.#.#.#.#.#.#.#.O.O.#.#.....#.#.#.#.#.#.#.#.#.#.....#.#.#.#.#.#.#.#.#.#.........#.#.#.#...#.......#.....#.....................P C Y T T T Q Q Q Q T T Y I &.dXq.Q Q T P }.tX-.Q ! U D 6Xl.=.#.#.#.#.#.#.#.#.#.#.#.#...Q T Y P J J D A N uXpXuX8.#.=.2.2.O.#.#.#.#.#.#.#.#.#.#.#.#.#.#.#.#.#.#.#.#.#.#.#.#.#.#.Y ",
"2.#.#.#.#.#.#.#.#.#.#.#.#.#.#.#.#.#.#.#.#.#.#.#.#.O.O.Q *.[ T T T T T T T Q [ #.#.#.#.#.#.#.#.#.#...D J T Q Q D Z Y ! Q T Z P T ! ! ! ! ! ! Q T T I -.f.f...............#.......#.#.#.#...#.........#.#.#...#.#.#.#.#.#.#.#.........#.#.#.#.#.#.#.#...#...#.#.#.#.O...#.#.....#.#.#.#.#.#.#.#.#.......O.....#.#.#.#.#.#.#.#.........#.#.#.#...#.#.#.#.....#.#.#.#.#.#.#...#.#.#.#.#.........#.#.....#.#.#.#.....#.#.#.#.......#.....#...#.#.#...#.........P x P T T T Q Q Q Q Q ! T P D aX6.Q Q T J aXt...Q ! P qXM.-.#.#.#.#.#.#.#.#.#.#.#.#.#.#.#.#.#.#.#...J C =XB.6.-.#.#.#.#.#.#.#.#.#.#.#.#.#.#.#.#.#.#.#.#.P D U Q Q D P ! Q Q D J T T ! ! ! ! ! ! ! T T J  X[.b...............#.#.#.......#...#.#.#.#.......#...#.#.#.#.......#.#.#...#.#.#.#.#...#.#.#.#.#.#.#.#.O.#.#.#.#.........#.#.#.......#.#.#.#...#.#.#.#.#.#.#.#.#.#...#.#.#.#.#.#.#.#.#.#.....#.O.#...#.#.#.#.#.#.#.#.........#.#.....#.#.#.#.#.#.#.....#.#.#.............#...#.#.#.#...................P C P T T T Q Q Q Q T T U I &.dXt.Q Q T I }.tX-.Q T Y D 6Xx.=.#.#.#.#.#.#.#.#.#.#.#.#...Q T Y P J D D A C dXpXpXr.#.*.,.2.O.#.O.#.#.#.#.#.#.#.#.#.#.#.#.#.#.#.#.#.#.#.#.#.#.#.#.Y ",
"2.#.#.#.#.#.#.#.#.#.#.#.#.#.#.#.#.#.#.#.#.#.#.#.#.O.O.Q *.[ T T T T T T T Q [ ..#.#.#.#.#.#.#.#.#...D J T Q Q D Z Y ! Q T Z P T Q Q Q ! ! ! Q T T I -.f.f...........#...#.......#.#.#.#.#.#.#.#.......#.#.#.#.#.#.#.#.#.............#.#.#.#.#.#.#.#.#.#.....#.#.#.#.O.#.#.....#.#.#.#.#.#.#.#.#.#...........#.#.#.#.#.#.............#.#.#.#.#.#.#.......#.#.#.#.#.#.#.#.....#.#.#.#...............#.#.#.#.#.....#.#.#.#.........#...#.#...#.#.............P x P T T T Q Q Q Q ! ! T P D aX6.Q Q T J aXt.#.Q ! P |.M.-.#.#.#.#.#.#.#.#.#.#.#.#.#.#.#.#.#.#.#...J C 4Xn.6.-.#.#.#.#.#.#.#.#.#.#.#.#.#.#.#.#.#.#.#.#.P D U Q Q D J ! Q Q D J T T ! ! ! ! ! ! T ~ ~ J  X[.n...............#.#.#.....#.#.......#.#.......#.#.#.#.#.#.......#.#.#.....#.#.#.#...#.O...#.#.....#.#...#.#...........#.#.........#.#.#.#...O.#.#.#.#.#.#...#.#.#.#.#.O...#.#.#.#.........#.#.#...#.#.#.#.....#.#.#...................#.#.#.#.#...#.#.#.#.........#...#...#.#.#.....................P C P T T T Q Q Q Q T T T I &.dXt.Q Q T P }.qX-.Q ! U D 6Xl.=.#.#.#.#.#.#.#.#.#.#.#.#.O.Q T Y P P D D A C dXdX5Xr.#.*.,.2.O.#.O.#.#.#.#.#.#.#.#.#.#.#.#.#.#.#.#.#.#.#.#.#.#.#.#.Y ",
"2...#.#.#.#.#.#.#.#.#.#.#.#.#.#.#.#.#.#.#.#.#.#.#.#.#.Q *...T T T T T T Q Q [ ..#.#.#.#.#.#.#.#.#...D J T Q Q D Z Y Q Q T Z P T Q Q Q Q ! ! Q T ~ I -.f.f...........#...............#.#...#.#.#.....#.#.#.#.#.........#.#.#.........#.#.#.#.#.#.......#.....#.#.#.#.#.#.#.O.O.O.#.#.#.#.#.#.....#.#.........#.#...O...#.#.#.......#.#.#...#.O...........#.#.#.#.#.#.#.#.........#.#...#.#.#.#.#.......#.#.#.....#.#.#.#.....#.#.#.#.#.#...#.#.............P x P T T T Q Q Q Q Q ! T P D aX6.Q Q T J qXt.#.Q ! J }.v.-.#.#.#.#.#.#.#.#.#.#.#.#.#.#.#.#.#.#.#...J A 6XN.6.=.#.#.#.#.#.#.#.#.#.#.#.#.#.#.#.#.#.#.#.#.P D U Q Q D J ! Q Q D J T ! Q Q Q Q Q ! T T ~ J  X[.n.............#.#.#.#.....#.#.#.#.........#.#.#...........#.#.#.#.#.#.....#.#.#.#.....#.#.#.......#.#.#.#.#...#.#.....#.#.#.#.#.#.........O.#.#.#.......#.#.#.#.#.#.#.....#.#.#.#...........O.#.#.#.#.........#.#.#.#.#.#.#.#.#.#.#.#...#.......#.#.#.........#.#.#.........#...#.#.................P C Y T T T Q Q Q Q T T T I *.dXq.Q Q T P }.qX-.Q Q T D 6Xn.-.#.....#.#.#.#.#.#.#.#.#...Q T Y P J D D A C uXuX8Xr.#.*.,.2.O.#.#.#.#.#.#.#.#.#.#.#.#.#.#.#.#.#.#.#.#.#.#.#.#.#.#.Y ",
"2.#.#.#.#.#.#.#.#.#.#.#.#.#.#.#.#.#.#.#.#.#.#.#.#.#.#.[ *...T T T T T T Q Q [ #.#.#.#.#.#.#.#.#.#...H J T Q Q D Z Y ! Q T Z P T T Q Q Q ! ! ! T ~ I -.f.f...........#...........#...#.#...#.#.#.....#.#.#.#.........#.#.#.#.........#.#.#.#.......#.........#.#.#.#.O.#.#.O.....#.#.#.#.#.#.....#.#.#.#.....#.#.....#.#.#.#.....#.#.#.#.#.#...#.....#...#.#.#.#.#.#.#.#.......#.#.#.....#.#.#.#.........#...#.#.#.#.#.#.......#.#.#...#.#.................P x I T T T Q Q Q Q Q ! T P D aX6.Q T T J qXt.#.Q ! J |.M.-.#.#.#.#.#.#.#.#.#.#.#.#.#.#.#.#.#.#.#...J A *XN.6.=.....#.#.#.#.#.#.#.#.#.#.#.#.#.#.#.#.#.#.P D U Q Q D J ! Q Q D J T T Q Q Q Q Q Q T T T J <X+Xn.............#.#.#...........#.#.........#.#.#.#.........#...#.#.#.#.....#.#.#.#.....#.#...............#.#...#.#.....#.#.#.#.#.#.........#.#.#.#.....#.#.....#.#.#.#.......#.#.#.........O.....#.#.#.#.......#.#.#.#.#.#.#.#.#.#.#.#...........#.#.#.#...#.#.#.#...............#.#.................P C Y T T T Q Q Q Q T T Y I &.dXq.Q Q T J }.qX-.Q Q T D 6Xn.-.#.....#.#.#.#.#.#.#.#.#...Q T Y P J D D S C sXsXpXr.#.*.,.2.O.#.#.#.#.#.#.#.#.#.#.#.#.#.#.#.#.#.#.#.#.#.#.#.#.#.#.Y ",
"2.#.#.#.#.#.#.#.#.#.#.#.#.#.#.#.#.#.#.#.#.#.#.#.#.#...Q *...T T T T T T Q Q [ #.#.#.#.#.#.#.#.#.#...J J T Q Q D S Y ! Q T Z P T Q Q ! ! ! ! ! T ~ I -.f.f...........#.#.....#.#.#.#.#.#.#.#.......#.#.#...............#.#.#.#.#...#.#.#.........#.#.#.#.#.#.#.#.#.#.#.#.#.#...O.#.#.....#.......#.#.#.#.#.#.#.#.#...#.#.#.#.#.#.#.#.#.#.#.#.#.#.#.#.#.#.......#.#.#.#.#.....#.#...........#.#.#.....#.#.#...#.#.#.#.#.#.....#.#...#...#.#.................P x I T T T Q Q Q Q ! ! T P S aX6.Q Q T J qXt...Q ! J |.M.-.#.#.#.#.#.#.#.#.#.#.#.#.#.#.#.#.#.#.#...J C ;Xm.6.=...#.#.#.#.#.#.#.#.#.#.#.#.#.#.#.#.#.#.#.P D U Q Q D J ! Q Q D H T T Q ! Q Q Q Q ! T T J '.+Xn.................#.....#.#.#.#.#.....#.#.#.#.#.#.#.#.............#.#.....#.#.#.#.....#.#.#.#.....#...#.#.#.#.#.#.........#.O.#.#.....#...#.#.#.#.#.#.O.#.........#.#.#.......#.#.#.#.....#...#.#.#.#...........#.........#.#.................#.#.#.#.....#.#.#.#.#.#.........#.#.#.................P b P T T T Q Q Q Q T T T I *.dXt.Q Q T P }.qX-.Q Q T D 6Xn.-.#.#...#.#.#.#.#.#.#.#.#...Q T Y P J D D A C dXdX5Xr.#.*.1.2.O.#.#.#.#.#.#.#.#.#.#.#.#.#.#.#.#.#.#.#.#.#.#.#.#.#.#.Y ",
"2.#.#.#.#.#.#.#.#.#.#.#.#.#.#.#.#.#.#.#.#.#.#.#.#.#...Q *...T T T T T T Q Q [ ..#.#.#.#.#.#.#.#.#...J J T Q Q D C Y ! Q T Z P T Q Q ! ! ! ! T T T I -.f.f...........#...#...#.#.#.#...#.#.#.#.....#.#.#...............#.#.#.#.#.....#.#.........#.#.#.#.#.#.#.#.#.#.#.#.#.#.#.O.................#.#.#.#.#.#.#.#.#...#.#.#.#.#.#.#.#.#.#.#.#.#.#.#.#.#.#.......#...#.#.#.#...#.#...........#.#.#...#.#.#.#.#.#.#.#.#.........#.#...#...#.#.................P x I T T T Q Q Q Q ! ! T P S wX6.] Q T J qXt...Q ! J |.M.-.#.#.#.#.#.#.#.#.#.#.#.#.#.#.#.#.#.#.#...J C 5XN.5.=...#.#.#.#.#.#.#.#.#.#.#.#.#.#.#.#.#.#.#.P D U Q Q D J ! Q Q D J T ! T ! Q Q Q Q ! T T J '.[.n...........#.......#.#.#.....#.#.#...#.#.#.#.#.#.#.#.#.#.........#.#.........#.#.#...#.#.#.#.....#.#.#...#.#.#.#.......#.....#.#.#.#.#.#.#.#.#.#.#.#.#.#.....#.#.#.#.#.#.#...#.#.#.#.#.#.....#.#.#.#.........#.#.........#...................#.#.#.#.....#.#.#.#.#.............#...................P N P T T T Q Q Q Q T T T I &.dXt.Q Q T P Q.qX-.Q Q T D 6Xn.-.#.#...#.#.#.#.#.#.#.#.#.#.Q T Y P J D D A C 7XdX7Xy.#.*.,.2.O.#.#.@.#.#.#.#.#.#.#.#.#.#.#.#.#.#.#.#.#.#.#.#.#.#.#.Y ",
"5.#.#.#.#.#.#.#.#.#.#.#.#.#.#.#.#.#.#.#.#.#.#.#.#.#.#.Q *...T T T T T T Q Q [ #.#.#.#.#.#.#.#.#.#...J J T Q Q D C Y T Q T Z P T T ! ! ! Q ! T T T I -.f.f...........#.....#.#.#.#.....#.#.#.....#.......#.#.#.#.#.#.#.#.....#.#.#.........#.#.#.#.#.#.#.#.#.#.#.#.#.#.#.#.#.#.#.#...............#.#.#.#.#.#.#.#.#.#.#.#.......O.#...#.#.#.#.#.#.#.#.#.#...#.........#.#.#.#.#.#.....#.#.......#.#.#.#.#.#.#.#.#.#.......#.#.#.#.......#...................P x I T T T Q Q Q Q ! ! T P D wX6.] Q U J qXq...Q ! J }.v.-.#.#.#.#.#.#.#.#.#.#.#.#.#.#.#.#.#.#.#...J A `.N.6.-.#.#.#.#.#.#.#.#.#.#.#.#.#.#.#.#.#.#.#.#.P D U Q Q D J ! Q Q D J T ! T ! ! Q Q Q ! ~ T J '.[.b...........#.#.#...#...#.........#.#.#.#.#...#.#.#.#...#.#.#.#...................#.#.#.#.#.#...#.#.#.#...#.#.O.......#.#.O.....O.#.#.#.#.#.#.#.#.#.#.....#.#.#.#.#.#.#.#.#.......#.#.#.#...#.#.#.#.#...............#.#.#...................#.#.#.#.#.#...#.#.....#...#.#.#...#.#...................P b P T T T Q Q Q Q T T T I *.dXt.Q Q T P Q.tX-.Q Q T D yXN.-.#.#.#.#.#.#.#.#.#.#.#.#...Q T Y P J D D A C sXpXuXr.#.*.1.2.O.#.#.#.#.#.#.#.#.#.#.#.#.#.#.#.#.#.#.#.#.#.#.#.#.#.#.Q ",
"5.#.#.#.#.#.#.#.#.#.#.#.#.#.#.#.#.#.#.#.#.#.#.#.#.#.#.[ *...T T T T T T Q Q [ #.#.#.#.#.#.#.#.#.#...G J T Q Q D C Y ! Q T Z P T T ! ! ! Q ! T T T I -.f.f.................#.#.#...#.#...#.#...#.#.......#.#.#.#.#.#.#.#.....#.#.#.......#.#.#.#.....#.#.#.#.#.#.#.#.#.#.#.#.#.#.#.#.............#.#.#.#.#.#.....#.#.#.#.............#.#...#.O.O.#.#.#.O.#.#...#.........#.#.#.#.....#.#.......#.#.#.#.#...#.#.#.........#.#.#.#.....#.#...................P x I T T T Q Q Q Q T ! T P D wX6.Q Q U J qXq...Q ! P }.v.-.#.#.#.#.#.#.#.#.#.#.#.#.#.#.#.#.#.#.#...J A -Xm.6.-.#.#.#.#.#.#.#.#.#.#.#.#.#.#.#.#.#.#.#.#.P D T Q Q D J ! Q Q D J T ! ! ! ! Q Q ! ! ~ ~ J '.[.n.............#.#.............#.#.#.#.#.#.#...#.#.#.#.#.#.#.#.#.........#.....#.#.#.#.#.#.#.#.....O.#.#.#.#.#.#.#.#.#.#.#.O...O.#.#.#.#.#.#.#.#.#.#.#.....#.#.#.#.#.#.#.#.#...#...#.#.#.#.#.#.#.#.#.#.................#.#.#.#.....#.......#.#.#.#.#.#.#...#.#.....#...#.#.#.#.#.....................T N Y T T T Q Q Q Q ! T T I *.dXq.Q Q T K Q.qX-.Q Q T D yXN.-.#.#.#.#.#.#.#.#.#.#.#.#...Q T Y P J D D S C dXsX5Xr.#.*.1.2.O.#.O.#.#.#.#.#.#.#.#.#.#.#.#.#.#.#.#.#.#.#.#.#.#.#.#.Q ",
"5.#.#.#.#.#.#.#.#.#.#.#.#.#.#.#.#.#.#.#.#.#.#.#.#.#.#.] *...T T T T T T Q Q [ #.#.#.#.#.#.#.#.#.#...G D T Q Q D C Y Q Q T Z P T T Q Q Q ! ! ! T T I -.f.f.............#.....#.#.......#.#.#.#...#.#.....#.#.#.#.#.#.........#.#.#.#.#...#.#.#.#.........#.#.#.#.#.#...#.#...#.O.#.#.#.#.#.#.#.#.#.#.#.#.......#.#.#.#.#.#.#.#...#.#.#.#.......#.#.#.#...#.#.#.#.#.#.#.#.#.#.........#.#.#.#...#.#.#.........#.#.#.#...............#.#.#...................P x I T T T Q Q Q Q T ! T P D wX6.Q T U J qXq.#.Q ! P }.v.-.#.#.#.#.#.#.#.#.#.#.#.#.#.#.#.#.#.#.#...P A 5XN.6.-.#.#.#.#.#.#.#.#.#.#.#.#.#.#.#.#.#.#.#.#.P D T Q Q J J ! Q Q D J T ! Q ! Q Q Q ! ! ~ ~ J '.[.n.............#.............#.#.#.#.#.........#.#.....#...#.#.#.#...O.#.#.#.#.#.#.........#.#.#.#...O.#.#.#...#.#.#.#.#.#.#.#.#.#.#.#.....#.#.#.#.#.......O.#.#.#.#...#.#.#.#.#.#.#.#.#...#.#.#.#.#.#.#.#...#.....#.#.#.#.#.#.#.#.#.#.....#.#.#.#.#.#.#.#.#.#.#.......#.#.#.#.......................T N Y T T T Q Q Q Q T T T I *.dXq.Q Q T P Q.qX-.Q ) T D 2Xn.-.#.#.#.#.#.#.#.#.#.#.#.#...Q T T P J D D A C dXdX5Xy.#.*.,.5.O.#.O.O.#.#.#.#.#.#.#.#.#.#.#.#.#.#.#.#.#.#.#.#.#.#.#.Q ",
"5.#.#.#.#.#.#.#.#.#.#.#.#.#.#.#.#.#.#.#.#.#.#.#.#.#.#.Q *...T T T T T T Q Q [ ..#.#.#.#.#.#.#.#.#...D D T Q Q D C Y ! Q T Z P T Q Q Q Q Q Q ! T T I 9.f.d.............#.....#.#.......#.#.......#.#.......#.#.#.#.#.#.......#.#.#.#.#...#.#.#.#.......#...#.#.#.#.#...#.#.......#.#.#.#.#.#.#.#...#.#.#.......#.#.#.#.#.#.#.#...#.#.#.#...#...#.#.......#.#.#.#.#.#.#.#.#.#.....#.#.#.#.#.#.#.#.............#.#.#.#.............#.#.#.#...................P x I T T T Q Q Q Q T ! T P D wX5.Q Q T J qXw.#.Q ! P }.P.-.#.#.#.#.#.#.#.#.#.#.#.#.#.#.#.#.#.#.#...P A `.N.6.-.#.#.#.#.#.#.#.#.#.#.#.#.#.#.#.#.#.#.#.#.P D U Q Q J J ! Q Q D J T ! Q ! Q Q ! ! ! ~ ~ J '.[.b.............#.....#.#...#.#.#.#.......#.#.#.............#.#.#.#...#.#.#.#.#.#.#.........#.#.#.#.O.O.#.#.#...O.#.#.#.#.#.#.#.#.#.#.........#.#.#.#.......#.#.#.O.O...#.#.#.#.#.#.#.#.#...#.#.#.#.#.#.#.#.#.#.#.#.#.#.#.#.#.#.#.#.#.#.....#.#.#.#.#.#.#.#.#.#.#.......#.#.#.#...#...................T N T T T T Q Q Q Q T T T I *.dXq.Q Q T P Q.qX-.Q ) T D 2Xn.-.#.#.#.#.#.#.#.#.#.#.#.#.#.Q T Y P J D D A C 6XpXuXi.#.*.,.5.O.#.O.O.#.#.#.#.#.#.#.#.#.#.#.#.#.#.#.#.#.#.#.#.#.#.#.Q ",
"5.#.#.#.#.#.#.#.#.#.#.#.#.#.#.#.#.#.#.#.#.#.#.#.#.#.#.] *...T T T T T T Q Q [ #.#.#.#.#.#.#.#.#.#...J D T Q Q D C Y Q Q T Z P T Q ! ! ! ! ! ! T ~ I q.f.d.............#.#.......#.#.#.#...#.#.#.#.#.#.#.#.#.#.......#.#.#.#.#.#...O.#.......#.#.#.....#.......#.#.....#.O.....#.#.#.........O.O.....#.#.#.#...#.#.#.#.#.#.#.#.#.#.#.#.#.#.#.#.#.....#.#.#.#.....#.#...#.........#.#.#.#.......O.#.#.#.#.#.#.....#.#.#.#.#.#.#...#.#.#.#...................I x I T T T Q Q Q Q Q ! T P D wX4.] Q T G qXw.#.Q ! P }.A.-.#.#.#.#.#.#.#.#.#.#.#.#.#.#.#.#.#.#.#...P S :Xx.6.-.#.#.#.#.#.#.#.#.#.#.#.#.#.#.#.#.#.#.#.#.P D U Q Q J D ! Q Q D H T ! Q Q Q Q Q ! ! T T J '.[.b.................#.#.#.#.#.#.#...#.........#.#.#.........#.#.#.....#.#.#.#.#.#.#.#.#...#.#.#.#.#.......#.........#.#...#.#.#.#.#.#.O.O.......#.#.....#.#.#.#.#.#.#.#.#.#.....#.#.#.#.........#.#.#.#.#.#.#.#.#.#.#.#.......#.#.#.........#.#.#.#.#.#...#.#.#.#.#.#.........#...#.........#.........T N Y T T T Q Q Q Q T T T I *.dXq.Q Q T P Q.qX-.Q Q T D 2Xn.-.#.#.#.#.#.#.#.#.#.#.#.#.O.Q T Y P J D D A C aXsXsXy.#.*.,.5...O.#.#.#.#.#.#.#.#.#.#.#.#.#.#.#.#.#.#.#.#.#.#.#.#.#.Q ",
"5.#.#.#.#.#.#.#.#.#.#.#.#.#.#.#.#.#.#.#.#.#.#.#.#.#.#.[ *...T T T T T T Q Q [ #.#.#.#.#.#.#.#.#.#...J D T Q Q D C Y Q Q T Z P T T Q ! Q Q Q ! T ~ I q.f.d.............#.#.......#.#.#.....#.#.#.#.#.#.#.#.#.........#.#.#.#.#.#.#.#.....#...#.#.#.....#.........#.............#.#.#...#.....#.#.#...#.#.#.#.#.#.#.#.#.#.#.#.#.#.#.#.#...#.#...#...#.#.#.#.......#.#...#.........#.#.#.#.....#.O.#.#.#.#.#.#.....#.#.#.#.#.#.....#.#.#.#...................I x I T T T Q Q Q Q Q ! U P D wX4.] Q T J qXw.#.Q ! P }.A.-.#.#.#.#.#.#.#.#.#.#.#.#.#.#.#.#.#.#.#...P S 5XU.6.-...#.#.#.#.#.#.#.#.#.#.#.#.#.#.#.#.#.#.#.P D U Q Q J D ! Q Q D H T T Q Q Q Q Q Q T T T J '.[.b...............#...#.#...#.#.............#.#.#.#.........#.#.#.....O.#.#.#.#.#.#.#.#...#.#.#.#.#.......#.......#.#.#.#...#.#.#...#.#.#.#.O.#.........#.#...#.#...#.#.........#.#.#.#.........#.#.#.#.#.O.#.#.#.#.#.#.....#.#.#.#.........#.#.#.#.#.#.....#.#...#.#.......#.#.#.#.........#.........T N Y T T T Q Q Q Q ! T T I *.dXq.Q Q T P Q.qX-.Q Q T D 2Xn.-.#.#.#.#.#.#.#.#.#.#.#.#...Q T Y P J D D A C aXdX5Xi.#.*.,.2...#.#.#.#.#.#.#.#.#.#.#.#.#.#.#.#.#.#.#.#.#.#.#.#.#.#.Q ",
"5.#.#.#.#.#.#.#.#.#.#.#.#.#.#.#.#.#.#.#.#.#.#.#.#.#.#.] *...T T T T T T Q Q [ #.#.#.#.#.#.#.#.#.....J D T Q Q D C Y Q Q T Z P T T Q ! Q Q ! ! T T I q.f.d.............#.#.#.......#.........#.#.....#...#.#.#.#.....#.#...#.#.#.#.#.#.#.#.#.#.#.#.#.........#.#.#.......#...#.#.#.#.#.#.#.#.#.#.#.....#.#.#.#.#.#.O.#.#.#.#.#.O.#.#.....#.#.#.#...#.#.#.#.#.....#.O.......#.#.#.#.#.#.#.#.#.#.O.#.#.....#.......#.#.#.#.#.#.#.#...#.#.#.#.................I x I T T T Q Q Q Q Q Q T P D wX4.Q Q T J qXv.#.Q ! P }.P.-.#.#.#.#.#.#.#.#.#.#.#.#.#.#.#.#.#.#.#...P S `.^.6.-.......#.#.#.#.#.#.#.#.#.#.#.#.#.#.#.#.#.P D U Q Q J D ! Q Q D H Y T Q Q Q ! ! Q T T T J '.[.b...............#.........#.#.........#.#.#.#.#.#.#.#.....#.#.#.#.......#.........#.#.#.#.#.#.#.#.....#.#.....#.#.#.#.....#.#.#...#...#.#.#.#.#.#.#.#.#.#...#.#.....#.#.#.O.....#.#.#.#.....#.#.#.....#...#.#...#.#.......#.#.#.#.#.#.......#.....................#...#.#.#.#.#.#...#.....#.........T b Y T T T Q Q Q Q T T T I &.dXk.Q Q T P Q.qX-.Q Q T D 2Xn.-.O.#.O.#.#.#.#.#.#.#.#.#.O.Q T Y P J D D A C 6XpXuXi.#.*.,.5...#.#.#.#.#.#.#.#.#.#.#.#.#.#.#.#.#.#.#.#.#.#.#.#.#.#.Q ",
"5.#.#.#.#.#.#.#.#.#.#.#.#.#.#.#.#.#.#.#.#.#.#.#.#.#.#.Q *...T T T T T T ! Q [ ..#.#.#.#.#.#.#.#.....J D T Q Q D C Y Q Q T S P T T Q Q Q Q Q ! T T I q.f.d.............#.#.#.....#.#.........#.#.........#.#.#.#.....#.#...#.#.O.#.#.#.#.#.#.#.#.#.........#.#.#.#.......#.#.#.#.#.#.#.#.#.#.#.#.#.....#.#.#.#.#.#.#.#.#.#.#.#...#.#...O.#...#.#...#.#.#.#.#.....#.#.....#.#.#.#.#.#.#.#.#.#.#.....................#.#.#...#.#.#.......#.#.................I x I T T T Q Q Q Q ! ! T Y D wX4.Q ! T J qXv.#.Q ! P }.P.-.#.#.#.#.#.#.#.#.#.#.#.#.#.#.#.#.#.#.#...P S =X^.6.-.......#.#.#.#.#.#.#.#.#.#.#.#.#.#.#.#.#.P D U Q Q P D ! Q Q D H Y Q Q Q Q ! ! Q T T ~ J '.[.b...........#.#.#.................#.#.#.#.#.#.#.#.#.#.#...#.#.#.#.....#.#.........#.#.#.#...#.#.#.....#.#.#.#.#.#.#.#.#...#.#.#...#...#.#.#.#.#.#.#.#.#.#...#.#.#.#.#.#.#.O.O.O.#.#.#.#.#.....#.#...#.....#.#.O.#.#...#.#.#.#.#.#.#.#.#...#.......................#...#.#.#...#.#...#.#...#.........T b P T T T Q Q Q Q T T T I Z dXg.Q Q T P Q.qX-.Q Q T D 2Xn.-.O.O.O.#.#.#.#.#.#.#.#.#.#.] T Y P J D D A C iXpXpXu.O.@.,.5...#.#.#.#.#.#.#.#.#.#.#.#.#.#.#.#.#.#.#.#.#.#.#.#.#.#.Q ",
"5.#.#.#.#.#.#.#.#.#.#.#.#.#.#.#.#.#.#.#.#.#.#.#.#...#.] *...T T T T T T Q Q [ #.#.#.#.#.#.#.#.#.#...J D ~ Q Q D C Y T Q T A P T T ! Q ! Q Q ! T T I q.f.d.............#.#.#.#.#.#.#.......#.#.#.....#.#.#.#.#.#...............#...#.#.#.#.#.#.#.#.#.#.......#.#.#.#.........#.#.#.#.#.#.#.#.#.#.#.#.#.#.#.#.#.#.#.#.#.#.#.#.#.O.#.#.....#.....#...#.#.#.#.#...#.#.#.#.....#.#.#.#.#.#.#.#.#.#.#.#...................#.#...#.#.#.........#.................I x I T T T Q Q Q Q Q ! T Y D wX8.Q ! T G qXv...Q ! P }.Q.-.#.#.#.#.#.#.#.#.#.#.#.#.#.#.#.#.#.#.#...P S 0XK.6.,.#.#.#.#.#.#.#.#.#.#.#.#.#.#.#.#.#.#.#.#.P S U Q Q P D ! Q Q D H Y ! Q Q Q ! ! Q ! T ~ J '.+Xb.............#...........#.#.........#.#.#.#.#.#.#.#.#.#.......#.#.#.#.#.....#.#.#.#.#.#.......#.#.#.#.#.#.#.#.#.#.#.#...#.#.#...#.#.#.#...#.#.#.#.#.#...#.#.#.#.#.#.#.#.#.#.#.#.....#.#...........#.#.#.#.#.#.......#.#.#.#.#...#.#.#.#.#.#.................#.#.#...#.#.#.........#.#.#...........T N P T T T Q Q Q Q T T T I S dXg.Q Q ! P Q.qX-.Q Q T D 2Xn.-.#.#.#.#.#.#.#.#.#.#.#.#.#.Q T Y P J D D A C aXdX5Xu.O.*.,.2...#.#.#.#.#.#.#.#.#.#.#.#.#.#.#.#.#.#.#.#.#.#.#.#.#.#.Q ",
"5.#.#.#.#.#.#.#.#.#.#.#.#.#.#.#.#.#.#.#.#.#.#.#.#...#.[ *...T T T T T T Q Q [ #.#.#.#.#.#.#.#.#.#...J D ~ Q Q J C Y T Q T A P T T ! Q ! Q Q ! T T I q.f.d.............#.#.#.#...#.#.........#.#.....#.#...#.................#.#.....#.#.#.#.#.#.#.#.#.......#.#.#.#...#.....#.#.#.#.#.#.#.#.#.#.#.#.#.#.#.#.#.#...O.#.#.#.#.#.#.#.#.....#.#.......#.#.#.#.#.#.#.#.#.#.O.....#.#.#.#.#...#.#...#.#.#.................#.#.#.#.............#.................I x I T T T Q Q Q Q Q ! U P D wX8.Q Q T G qXM...Q ! P }.P.-.#.#.#.#.#.#.#.#.#.#.#.#.#.#.#.#.#.#.#...P S `.^.6.2.#.#.#.#.#.#.#.#.#.#.#.#.#.#.#.#.#.#.#.#.P S U Q Q P D ! Q Q D H Y T Q Q Q ! ! Q ! ~ ~ J '.[.b.............#...#.......#.#.........#.#.#.#.#...#.#.#.#.........#.#.#...#...#.#.....#.......#.#.#...#.#.#.#.#.#.#.#.#...#.#.....#.#.#.#.O...#.#.#.#.#...#.#.#.#.#.#.#.#.#.#.#.#.......#.#.........#.#.#.#.#.O...#.#.#.#.#.#.#...#.#.#.#.#.#.............#.#.#.#.....#.#...........#.#.#...[ ......T N P T T T Q Q Q Q ! T T I D dXv.Q Q ! P Q.qX-.Q Q T D 2Xn.-.#.#.#.#.#.#.#.#.#.#.#.#...Q T Y P J D D A C 5XdX8Xi.O.*.,.2...#.#.#.#.#.#.#.#.#.#.#.#.#.#.#.#.#.#.#.#.#.#.#.#.#.#.Q ",
"5.#.#.#.#.#.#.#.#.#.#.#.#.#.#.#.#.#.#.#.#.#.#.#.#.#.#.Q *...T T T T T T Q Q [ #.#.#.#.#.#.#.#.#.#...J D T Q Q J C Y Q Q T A P T T ! Q ! ! ! Q T T I q.f.d...........#.#.#.#.#...................#.#.#.#.............#...#.#.#.#.........#.#.#.#.#.#.#.#...#.#.#.#.#.#.#.....#.#.#.#.#.#.......#.#.#.#.......#.#.#.#...#.#.#.#.O.#.........#...#.#.#.#.#.#.#.#.#.#.#.#.#.O.#.#.#.#.#.........#.#.#.#.#.#.#.#...........#.#...#...#.#...#...#.#.#...........I x I T T T Q Q Q Q Q ! T P D wX8.Q Q T J qXM.#.Q ! P }.P.-.#.#.#.#.#.#.#.#.#.#.#.#.#.#.#.#.#.#.#...P S *X^.6.2.#.#.#.#.#.#.#.#.#.#.#.#.#.#.#.#.#.#.#.#.P S U Q Q P D ! Q Q D H Y T Q Q Q ! ! Q T T T J '.[.b.............#.#.#.#.#.#.#.#.#.#...#.#...#.#.........#.#.....#.#.#.#.....#.#.#.#.........#.#.#.#...#.......#.#.#.#.#.#.#.#.#.O...#.#.#.#.#.O.#.#.#.#...O.#.#.....#.#.#.#.#.#.#.......#.#.#.#.#...#.#.#.#.#.#.#.#.#.#.#.#.#.#.#.......#.#.#.#.#.#...#.#...#.#.#.#...................#.#.#...........T N P T T T Q Q Q Q T T T I S dXv.Q Q T P Q.aX-.Q ! U D 2Xn.-.#.#.#.#.#.#.#.#.#.#.#.#.O.Q ! Y P J D D A C iXsXpXu.[ *.,.2...#.#.#.#.#.#.#.#.#.#.#.#.#.#.#.#.#.#.#.#.#.#.#.#.#.#.Q ",
"5.#.#.#.#.#.#.#.#.#.#.#.#.#.#.#.#.#.#.#.#.#.#.#.#...#.Q *...T T T T T T Q Q [ ..#.#.#.#.#.#.#.#.#...J D T Q Q J C Y Q Q T A P T T Q Q Q Q Q Q ! T I q.f.d...........#.#...#.#.#...#.............#.#.#.#.........#.#.#.#.#.#.#.#.........#.#.#...#.#.#.#.....#.#.#.#.#.#.....#.#.#.#.O.O...O.O.#.#.#.#.......#.#.#.#.O.#.#.#.....#.....#.#.....#.#.#.#.#.#.#.#.#.#.#.#.#.....#.#.#.#...........#.#.#.#.#.#.#...#.......#.........#.#...#...#.#.#...........I x I T T T Q Q Q Q ! ! T P D wX9.Q Q T J qXM.#.Q ! P }.P.-.#.#.#.#.#.#.#.#.#.#.#.#.#.#.#.#.#.#.#...P S ;XJ.6.2.#.#.#.#.#.#.#.#.#.#.#.#.#.#.#.#.#.#.#.#.P D T Q Q P D T ! Q D H Y T ! Q Q Q T ! T T T J '.[.b...............#.#.#.#...#.#.#.#.....#...#.#.................#.#.#.#.....#.#.#.#.........#.#.#.#...........#.#.#.#.#.#.#.#.#.#...#.#.#.#.#.#.#.#.#.#.#.#.#.#.......#.#.#.#.#.#.......#.#.#.#.#.#.#.#.#.#.#.#.#.#.#.#.#.#.#.#...........#.#.#.#.#.#.#...#.#.#.#.#...............#.#.................T N P T T T Q Q Q Q T T T P S dXv.Q Q T P Q.aX-.Q ! U D 2Xn.-.#.#.#.#.#.#.#.#.#.#.#.#.#.] T Y P J D D A C aXdX5Xu.[ @.,.2...#.#.#.#.#.#.#.#.#.#.#.#.#.#.#.#.#.#.#.#.#.#.#.#.#.#.Q ",
"5.#.#.#.#.#.#.#.#.#.#.#.#.#.#.#.#.#.#.#.#.#.#.#.#.#.#.] *...T T T T T T Q Q [ #.#.#.#.#.#.#.#.#.....J D T Q Q J C Y Q Q T A P T T Q Q Q Q Q Q ! T I q.f.d.............#...#.#.#.............#.#.#.#.#...#.#.#.#.#.#.............#.#.#.#.#.#.........#.#.#.#.............#.#.#.#.O...#.#.#.#.#.#.#.#.#.......#.#.#.#.#...#.#.#.#.#.#.O.#.#.......#...#.#.#.#.#.#.#.#.#.#.......#.#.#.#.#.#.#.#.#.............#.#.#.#.#.#.....#...#.#.......#.#.#...........I x I T T T Q Q Q Q ! ! T P D wX9.Q Q T J qXM.#.Q ! P }.P.-.#.#.#.#.#.#.#.#.#.#.#.#.#.#.#.#.#.#.#...P S 5XU.6.-.#.#.#.#.#.#.#.#.#.#.#.#.#.#.#.#.#.#.#.#.T D T Q Q P D U T ] D H Y ! Q Q Q Q ! ! T T T J '.[.b...........#...#.#.#.........#.#.#.#.....#.#...#.#.#.#.#...#.#.#.#.#.......#.#.#.......#.#.#...#.#.#.#.#.#.#.#.#.#.#.#.#.#.#.#.#.#.O...#.#.#.#.#.#.#.#.#.#.#.#.#.#.....#.#.#.#.#.#.#.#.#.#.#.#.#.#.O.#.......#.#.#.#.#.#.#.#.#.........#.#.#.#.#.#.#.#.#.#.#.#.....#.#.#.....#.#.#.................T N Y T T T Q Q Q Q ! T T P D dXv.Q Q T P Q.aX-.Q Q T D 2XY.-.O.....#.#.#.#.#.#.#.#.#.O.Q T Y P J D D S C ;XdX8Xu.#.*.,.2...#.#.#.#.#.#.#.#.#.#.#.#.#.#.#.#.#.#.#.#.#.#.#.#.#.#.Q ",
"5.#.#.#.#.#.#.#.#.#.#.#.#.#.#.#.#.#.#.#.#.#.#.#.#.#.#.[ #...T T T T T T Q Q [ #.#.#.#.#.#.#.#.#.#...J D T Q Q J C Y Q Q T A P T T Q ! Q Q Q Q T T P q.f.d...............#.#.#.#.#.#.....#.#.#.#.#.#.#.....#.#.#.#.#...#.........#.#.#.#.#.#.........#.#.#...............#.#.#.#.....#.#.#.#.#.#.........#...#.#.#.#.#...#...#.#.#.#...#.#.....#.#.O.#.#.#.#...#.#.#.#.#.......#.#.#.#...#.#.#.#.........#.#.#.#.#.#.#.#.......#...#.....#.#.#.............I x I T T T Q Q Q Q ! ! T P D wX9.Q Q T J qXM.#.Q ! P }.P.,.#.#.#.#.#.#.#.#.#.#.#.#.#.#.#.#.#.#.#...P S *XU.6.-.#.O.#.#.#.#.#.#.#.#.#.#.#.#.#.#.#.#.#.#.T D T Q Q P D T Q ] D H Y T Q Q Q Q Q ! T T ~ J '.[.b...........#.#.#.........#.....#...#.#...#.#.....#.#.#.#.....#.#.#.#.......#.#.#.#.....#.#.#...#.#.#.#.#.#.#.#.#.#.#.#.#.#.#.#.#.#.O.#.#.#.#.#.#.#.#.....#.#.#.#.#.........#.#.#.#.#.#.#.#.#.#.#.O...........#.#.#...#.#.#.#...............#.#.#.#.#.#.#.#.#.#.....#.#.#.#...#.#...................T N Y T T T Q Q Q Q ! T T P D dXv.Q Q T P Q.aX-.Q Q T D 2XK.2.O.....#.#.#.#.#.#.#.#.#...Q T Y P D D D S C yXpXuXu.#.*.2.5...#.#.#.#.#.#.#.#.#.#.#.#.#.#.#.#.#.#.#.#.#.#.#.#.#.#.Q ",
"5.#.#.#.#.#.#.#.#.#.#.#.#.#.#.#.#.#.#.#.#.#.#.#.#.#.#.] #...T T T T T T Q Q [ #.#.#.#.#.#.#.#.#.#...J D T Q Q J C Y ! Q T C J T T Q ! Q Q Q Q T T P q.f.d.................#.#...#.#.#.#.#.#.#.#.#.#.........#.#.#.#.#.#.#.#.#.#...#.....#...........#.#.#.#.......#.....#.#...#.......#.....#.#.#...#.#.#.#.#.#.#.#.#...#...#.#.#.#.#.#.#.#...#.#.#...#...O.O...#.#.#.#...#...#.............#.#.#...#.#.#.#.#.#.#.#.#.#.....#.#...#.....#.#.#...#.........I x I T T T Q Q Q Q ! ! T P D wX9.Q Q T J qXM.#.Q ! P }.P.,.#.#.#.#.#.#.#.#.#.#.#.#.#.#.#.#.#.#.#...P S `.H.6.-.O.#.#.#.#.#.#.#.#.#.#.#.#.#.#.#.#.#.#.#.T D T Q Q P D ! Q ] J H Y T Q Q Q ! ! ! ! T ~ P '.[.b...........#.#.......#...#...#.#...................#.#.#.........#.#.#.......#.#.#.#...#.#.....#.#.#.#.#.#.#.....O.#.O.#.#...#...#.#.#.#.....#.#.#.#.#.#.#.#.#.#.#.#.#.#.#.#.#.#.....O.#.#...#.#.#.#.#.#.#.#.#.#.................#.#.#.#.#.#.#.#.#.#...#.#.#.....#...#.#.#.#.#.#.#.................T N Y T T T Q Q Q Q T T T P D dXv.Q Q ! P Q.aX-.Q Q T D 2XK.2.#.#...#.#.#.#.#.#.#.#.#.O.Q T Y P J D D S C aXsX5Xu.#.*.2.5...#.#.#.#.#.#.#.#.#.#.#.#.#.#.#.#.#.#.#.#.#.#.#.#.#.#.Q ",
"5.#.#.#.#.#.#.#.#.#.#.#.#.#.#.#.#.#.#.#.#.#.#.#.#.#.#.Q #...T T T T T T Q Q [ ..#.#.#.#.#.#.#.#.#...J D T Q Q J C Y Q Q T C P T T Q Q Q Q Q Q T T P q.f.d.................#.#...#...#.#.#.#.#.#.#.#.........#.#.#.#.#.#.#.#.#.#.........#.......O...#.#.#.#.....#.#.#.#.#.#...........#.#...#.#.#.#.#.#.#.#.#.#.#.#.#.......#.#.#.#.#.#.#.#.#.#.#.#...#.#.#.....#.#.#.#.#.#...#.............#.#.#.#.#.#.#.#.#.#...#.#.......#.#.#.#.....#.#.#...#.........I x I T T T Q Q Q Q ! ! T P D qX9.Q Q U J qXM.#.Q ! P }.P.,.#.#.#.#.#.#.#.#.#.#.#.#.#.#.#.#.#.#.#...P S =XU.5.-.O.#.O.#.#.#.#.#.#.#.#.#.#.#.#.#.#.#.#.#.T D T Q Q P D T T ] J H Y T Q Q Q Q ! ! ! T ~ P '.[.b.........#.#.......#.#.......#.#.#.#.#.#...........#.#.#.........#.#.#.......#.#.#.#...............#.#.#.#.............O.#.......#.#.#.#...#.#.#.#.#.#.#.#.#.O.O.#.#.#.#.#.#.#.#.#.....#.........#.#.#.#.#.#.#.#.................#.#.#.#...#.#.#.#.#.....#.#.........#.#.#.#.#.#.#.................T x Y T T T Q Q Q Q T T T P D dXv.Q Q ! P Q.aX-.Q Q T D 2XY.2.#.#...#.#.#.#.#.#.#.#.#.#.Q T P P J D D S C yXdX6Xf.#.@.2.7...#.O.#.#.#.#.#.#.#.#.#.#.#.#.#.#.#.#.#.#.#.#.#.#.#.#.Q ",
"5.#.#.#.#.#.#.#.#.#.#.#.#.#.#.#.#.#.#.#.#.#.#.#.#.#...) #...T T T T T T Q Q [ #.#.#.#.#.#.#.#.#.#...J D T Q Q J C Y Q Q T A P T ! ! ! Q Q Q Q T T P q.f.d.......................#.....#.#.#.#.#.#.#.#.......#.#.#.#.#.#.#.#.#.#.#.#...............#.#.#.#.#.#...#.#.#.#.........#.....#.#.#.#.#.#.O...#.#.#.#.#.#.#.#.#.#...O.#.#.#.#.#.#.#.#.#.#.#.#.#.#...#.#.#.#.....#.#.#.#.#.#.#.#.........#.#.#.#.#.#.#.#.........#.#.#.#.#.#.#.#...................P x I T T T Q Q Q Q ! ! T P D qX8.Q ! U P qXM.#.Q ! P }.P.,.#.#.#.#.#.#.#.#.#.#.#.#.#.#.#.#.#.#.#...P S E.^.6.-.#.#.#.#.#.#.#.#.#.#.#.#.#.#.#.#.#.#.#.#.T D Y Q Q P D T Q ] J H Y T Q ! ! ! ! ! ! T T P '.[.K...........#...............#.#.#...#.#.#.....#.#.........#.#.#.#.....#.#.......#.#.#.#.#.....#.#.........#...............#.#.......#.#.#.#...#.#.#.#.#...#.#.#.#.#.#.#.#.#.#...#.#.#.#.#.....#.#.#.#...#.#.#.....#.#.#...#.#.#.....#.#.#.......#.#...#...#.#.#...#.#...#.#.#.#.#.#.#...............T b P T T T Q Q Q Q ! T T I D dXk.Q Q ! P M.aX-.Q Q T D 1XK.,.#.#.#.#.#.#.#.#.#.#.#.#.O.Q T Y P H D D S C 6XpXuXf.#.*.2.5.O.#.O.#.#.#.#.#.#.#.#.#.#.#.#.#.#.#.#.#.#.#.#.#.#.#.#.#.",
"5.#.#.#.#.#.#.#.#.#.#.#.#.#.#.#.#.#.#.#.#.#.#.#.#.....Q #...T T T T T T Q Q [ #.#.#.#.#.#.#.#.#.#...J D T Q Q J C Y Q Q T A P T ! ! ! Q Q Q Q T T P q.f.d...................#.......#.#.#.#.#.#.#.#.........#.#.#.#.#.#.#.#...#.#.#.................#.#.#.#.#.#.#.#.#.#.........#.....#.#.#.#.#.#.O.#.#.#.#.#.#.#.#.....#.#.#.#.#.#.#.#.#.#.#.#.#.#.#.#.....#.#.#.#.....#.#.#.#...#...#.#...#...#.#.#.#...#.#.#.........#...#.#.#.#.#.#...................P x I T T T Q Q Q Q Q ! T P D qX8.Q ! T ^ qXM.#.Q ! P }.P.,.#.#.#.#.#.#.#.#.#.#.#.#.#.#.#.#.#.#.#...P S W.C.6.-.#.#.#.#.#.#.#.#.#.#.#.#.#.#.#.#.#.#.#.#.T S Y Q Q P D ! Q Q J H Y ! ! ! ! ! ! ! ! T ~ P '.[.K...............#.............#.....#.#.#.....#.#.........#.#.#.#.....#.#.....#.#.#.#.#.#...#.#.#.........#.#...O.#.......#.#.#.#...#.#.#.#.#.#.#.#.#.#...#.#.#.#.#...#.#.#.#...#.#.#.#.#...#.#.#.#...#.O...#.....#.#.#.#.#.#.#.#...#.#.#.....#.#.#.#.....#.#...........#.#.#.#.#.#.................T x P T T T Q Q Q Q ! T T I D dXk.Q Q T I M.aX-.Q Q T D 1XK.,.#.#.#.#.#.#.#.#.#.#.#.#...Q T Y P D D D S N aXsXpXu.#.*.,.5.O.#.O.#.#.#.#.#.#.#.#.#.#.#.#.#.#.#.#.#.#.#.#.#.#.#.#.#.",
"5.#.#.#.#.#.#.#.#.#.#.#.#.#.#.#.#.#.#.#.#.#.#.#.#.#...] #...T T T T T T T Q [ #.#.#.#.#.#.#.#.#.#...J D T Q Q J C Y ! Q T A P T T ! Q Q Q Q Q T T P q.f.d.....#.........#.#.#.#.........#.#.#.#...............#.#.#.#.#.........#.#.#.#...#.....#.#.#.#.#.#.#.#.O...#.#.#.#.#.#.#.#...#.#.#.#.#...O.#.#.#.#.#.#...............#.#.#...#.........#.#.........#.#.#.#.#.#.#.#.#.......#.#.#.#.#.#.........#.#.#.#...............#.......#.#.................P x I T T T Q Q Q Q Q Q T P D aX8.Q ! T ^ qXM.#.Q ! P }.P.,.#.#.#.#.#.#.#.#.#.#.#.#.#.#.#.#.#.#.#.O.P S *XU.6.-.#.#.#.#.#.#.#.#.#.#.#.#.#.#.#.#.#.#.#.O.T S T Q Q P D ! Q Q J H Y T T ! ! Q Q ! ! T ~ P |.[.K...............#...........#.#.#.#.#.........#.#.#.#...#.#.#.#.O.....#.#.#.#.#.#.#.#.#.#.....#.#.#.#.....#.#.#.#.#...#.#.#.#.#.#...#.#.#...#.#.#.#.......#.#.#.O.....#.#.#.#.....#.#.#.#.#.#.#.#.....#.#.O...O...#.#.#.#.#.#.#.#.#.....#.......#.#.#.#...................#.#.#.#...................T x P T Q Q Q Q Q Q ! ! T P D dXv.Q Q T Y M.aX-.Q Q T D #XK.,.#.#.#.#.#.#.#.#.#.#.#.#.O.Q T P P D D D S C aXdX5Xj.[ *.,.5.O.#.#.#.#.#.#.#.#.#.#.#.#.#.#.#.#.#.#.#.#.#.#.#.#.#.#.#.",
"5.#.#.#.#.#.#.#.#.#.#.#.#.#.#.#.#.#.#.#.#.#.#.#.#.#.#.Q #...T T T T T T T Q [ ..#.#.#.#.#.#.#.#.#...J D T Q Q J C Y ! Q T A P T ! Q Q Q Q ! Q T T P q.f.d.....#.#.#.#...#...#.............#.#.#...............#.#.#.............#.#.#.#.#.#.#.#.#.#.#.#.#.#.#.#.#...#.#.#.#.#.#.#.#.......#.#.#...O.#.#.#.#.#.#...........O...#.#.#...#.#.......#.#.#.......#.#.#.#.#.#.#.#.#.......#.#.#.#.#.#.............#.#...#.#.................#.#.................I x I T T T Q Q Q Q ! Q T P D aX8.Q Q T ^ qXM.#.Q ! P }.B.,.#.#.#.#.#.#.#.#.#.#.#.#.#.#.#.#.#.#.#.O.P S R.^.6.-.#.#.#.#.#.#.#.#.#.#.#.#.#.#.#.#.#.#.#.O.T D T Q Q P D ! Q Q J H Y T T ! Q Q Q Q ! T ~ P XX[.Y...............#.......#.#.#.#.#.#.#.#.......#.#.#.#.#.#.#.#.#.......#.#.#.#.#.#.#...#.#.....#.#.#.#.#.#.#.#.#.#.#.#.#.#.#.#.#.#...#.#.#...#.#.#.#.#.....#.#.#.#.....#.#.#.#.#...#.#.#.#.#.#.#.#.O...#.#.#.#.#.#.#.#.#.#.#.#.#.#.#.O.O.#.......#.#.#.........................#.#...................Q x P T Q Q Q Q Q Q T ! T P D dXv.Q Q ! Y M.aX-.) Q T D #XK.,.#.#.#.#.#.#.#.#.#.#.#.#.#.Q T P P J D D A C =XuXuXx.[ @.,.5...#.#.O.#.#.#.#.#.#.#.#.#.#.#.#.#.#.#.#.#.#.#.#.#.#.#.#.",
"5.#.#.#.#.#.#.#.#.#.#.#.#.#.#.#.#.#.#.#.#.#.#.#.#.#.#.] #...T T T T T T Q Q [ #.#.#.#.#.#.#.#.#.#...J D ~ Q Q J C Y ! Q T A P T Q Q ! Q ! Q Q T T P q.f.d.....#.#...#.#.#.......#.#...........#.#.#.#.#.#.#.....#.#.#.#.#.#.#.#.#.#.#.#.#.#.#.#.#.#.#.#.#.#...#.O...#.#.#.#.#.O.......#.#.#.....#.#.#.#.#.#.#.#.....#.#.#.#.#.#.#.#.#.#.#.#...#.#.....#.#.#.#...#.#.#.#.#.#.#.#.#.#.#.....O.#.#.#.#.......#.#.#.#.#.#.#.#.#...#.#.#.#.#...................P x I T T T Q Q Q Q Q ! T P D aX8.Q Q T P qXM...Q ! P Q.B.,.#.#.#.#.#.#.#.#.#.#.#.#.#.#.#.#.#.#.#.O.P S W.n.6.-.#.#.#.#.#.#.#.#.#.#.#.#.#.#.#.#.#.#.#.O.T D T ! Q P D ! Q Q J H Y T T Q Q ! ! ! ! T ~ P  X[.I...............#.......#.#.#.......#.#.#.#.#.#.......#.#.#.#.#.#.#.#.........#.#.#.......#.#.#.#.#.#.O.#.#.#.#.#.#.#.#.#.#.#.#.#.........#.#.#.#.#.#.#.#.#.#.#.#.#.#.#...#.#.#.#...O.#.#.#.#.#.#.#...#.#.#.#.#.#.#.#.#.#.#.#.#.#.#.#.#.#.....#.#.#.#.....#.#.#.#.#.#.#.#...#.#.#...................Q x P T Q Q Q Q Q Q ! ! T P D dXk.Q Q T Y M.aX-.Q Q T D  XK.,.#.#.O.#.#.#.#.#.#.#.#.#.O.Q T P P D D D A C <XsXpXx.#.*.,.5...#.#.#.#.#.#.#.#.#.#.#.#.#.#.#.#.#.#.#.#.#.#.#.#.#.#.#.",
"5.#.#.#.#.#.#.#.#.#.#.#.#.#.#.#.#.#.#.#.#.#.#.#.#.#.#.[ #...T T T T T T Q Q [ #.#.#.#.#.#.#.#.#.#...J D T Q Q J C Y Q Q T A P T ! Q ! ! Q Q Q T T I q.f.d.......#...#.#.#.#...#.#.#...#.....#.#.#.#.#.#.#.#.....#.#.#.#.#.#.#.#...#.....#.#.#.#.#.#.#.#.#.#.........#.#.#.#.........#.#.#.#.....#.#.....#.#...#.#.#.#.#.#.#.#.#.#.#.#.#.#.O.#...#.#.O.O.#.#.#.#.#.#.#...#.#.#.#.#.#.#.......#.#.#.#.........#.#.#.#.#.#...#.....#.#.#.#...................Y x I T T T Q Q Q Q Q ! T Y D aX8.Q ! T P qXM...Q ! P Q.B.,.#.#.#.#.#.#.#.#.#.#.#.#.#.#.#.#.#.#.#.O.P S *XK.6.-.#.#.#.#.#.#.#.#.#.#.#.#.#.#.#.#.#.#.#.O.T D T ! Q P D ! Q Q J H Y T ! Q Q Q Q ! ! T ~ P !.[.K.....................#.#.#.#.........#.#.#.#.#.......#.#.#.#.#.#.#.#.....O.O.#.#.#...........#.#...#.#...#.#.#.#.#.#.#.#.#.#.#.#.........#.#.#.#.#.#.#.#.O.O.O.#.#.#.#...#.#.#.#...O.#.#.#.#.#.#.......#.O...O...#.#.#...#.#.#...#.#.#.#.....#.#.#.......#.#.#.#.#.#.#.#...#.#.....................Q x P T Q Q Q Q Q Q ! ! T P D dXk.Q Q T Y M.aX-.Q Q T D  XY.,.O.O.O.#.#.#.#.#.#.#.#.#...Q T Y P D D D A N qXdX3Xx.#.*.,.5.O.#.#.#.#.#.#.#.#.#.#.#.#.#.#.#.#.#.#.#.#.#.#.#.#.#.#.#.",
"5.#.#.#.#.#.#.#.#.#.#.#.#.#.#.#.#.#.#.#.#.#.#.#.#.#.#.Q #...T T T T T T Q Q [ #.#.#.#.#.#.#.#.#.#...J D T Q Q J C Y ! Q T A P T T ! ! ! ! ! Q T ~ I q.f.d.............#.......#.#.#...#.....#.#.#.#.....#.......#.#.#.#.#.#.................#.#.#.#...............#.#.#.#.O.........#.#.#.#.#.#.#.#.#.#.#.#...#.#.#...#.#.#.#...#.#.#...#.#.#.#.#...#.#.#.#.#.#.#.#.#.......#.#.#.#.#.#...#.#.#.#...#...#.#.#...#.#...............#...#.#.................Y x I T T T Q Q Q Q Q Q T P D aX8.Q Q T P qXv.#.Q ! P ~.D.,.#.#.#.#.#.#.#.#.#.#.#.#.#.#.#.#.#.#.#.O.P S L.^.6.-.#.#.#.#.#.#.#.#.#.#.#.#.#.#.#.#.#.#.#.O.T D T ! Q P D ! Q Q J H Y T T Q Q Q Q ! ! T ~ P !.[.J.............#.......#.#.#.#.#...#.#.#.#.#.#.#.#.......#.........#.#.#.#.#.#.#.#.#.#.....#.#.#.....#.#.#.#.#.#.#.#.#.....#.#.#.#.....#.#.#.#...#.#.#.#.O.#.#.#.#.#.#.....#.#.#.......#.#.#.#.#.#...#.#.#.#.#.#...#.#...#.#.#.#.#...#.#.#.....#.#.#.#.#.#.#.#.#.#.#.#...............................Q x P T Q Q Q Q Q Q ! ! T P D dXk.Q Q T Y M.aX-.Q Q T G  XK.2.O.O.O.#.#.#.#.#.#.#.#.#.#.Q T P P D D D A N *XdX8Xx.#.*.,.4.[ #.#.#.#.#.#.#.#.#.#.#.#.#.#.#.#.#.#.#.#.#.#.#.#.#.#.#.",
"5.#.#.#.#.#.#.#.#.#.#.#.#.#.#.#.#.#.#.#.#.#.#.#.#.#.#.Q #.[ T T T T T T Q Q [ ..#.#.#.#.#.#.#.#.#...J D T Q Q J C Y ! Q T A P T T ! ! ! ! Q ! T ~ I #.f.d.............#.......#.#.#...#.#.#.#.#...................#.#.#.#.#...............#.#.#.#.............#.O...#.#.#...#.#.....#.#.#.#.#.#.#.#.#.#.#.#.#.#.#.#...#.#.#.....#.#.#...#.#.#.#...#.#.#.#.#.#.#.#.#.#.......#.#.#.#.#.#.......#.#.#.#...#.#.#.#.#.#...............#.#.#.#.#.#.............Y x I T T T Q Q Q Q Q Q T Y D aX8.Q Q T P }.v.#.Q ! P ~.P.,.#.#.#.#.#.#.#.#.#.#.#.#.#.#.#.#.#.#.#.#.P S W.U.6.-.#.#.#.#.#.#.#.#.#.#.#.#.#.#.#.#.#.#.#.O.T S Y ! Q P D ! Q Q P H Y T ! Q Q Q Q ! ! T ~ P !.[.H.............#.#...#.........#.#.#.#.#.#.#.#.#.#.....#.#.........#.#.#.#.#.#.#.#.#.......#.#.#.....#...#.#.#.#.#.#...........#.#.#.O.#.#.#.#.......#.#.#.#.#.#.#.#.#.O...#.#.......O.#.#.#.#.....#...#.#.#.#.#.#.#.#.....#.#.#.#...#.#.#.....#.#.#.#...#...#.#.#.#.#...............................Q x P U Q Q Q Q Q Q T ! T P D aXB.Q Q T I M.aX-.Q Q T G  XK.2.O.O.O.#.#.#.#.#.#.#.#.#.#.] T P P J D D A C <XpXuXx.[ @.,.5.[ #.O.#.#.#.#.#.#.#.#.#.#.#.#.#.#.#.#.#.#.#.#.#.#.#.#.#.",
"5.#.#.#.#.#.#.#.#.#.#.#.#.#.#.#.#.#.#.#.#.#.#.#.#.#.#.Q #...T T T T T T Q Q [ #.#.#.#.#.#.#.#.#.....P D T Q Q J C Y ! Q T A P T T Q Q Q ! ! ! T T P #.f.j.............#.#.........#.#.#.#.#.....#...................#.#.#.#.................#.#.............#.#.#.....#.#.#.#.#.#.#.#.#...#.#.#...#.#.#.#.O.#.#.......#.#.......#.....#.#.#.O.......#.#.#.#.#.#...#.#.#...........#.#.#.#.#.#.#.#.#.#.#.#...........................#.#.#.#...............Y x I T T T Q Q Q Q Q Q T P D aX9.Q ! T P }.v.#.Q ! P Q.B.,.#.#.#.#.#.#.#.#.#.#.#.#.#.#.#.#.#.#.#.#.P D `.J.6.-.O.O.O.#.#.#.#.#.#.#.#.#.#.#.#.#.#.#.#.O.T D T Q Q P D T Q Q P H P ! Q Q ! ! ! ! ! T T P !.[.J.............#.#.#.#.......#.#.#.#.............#.#.#.#.#.....#.#.#.#.#.#.#.#.....#.#.#.#.#.#.#.....#.#.#.#...#.#.#.#...........#.#.#.#.#.#.........#.#.#.#.#.O.O.#.#.#...#.#.....O.#.#.#.#.#.....#.#.#.#.#.#.#.#.#.#.........#.#.......#...#.#.#.#.#.#.......#.#.#.#.....#.#.............#.........Q b P T T T Q Q Q Q T T T I D aXB.Q Q ! P M.aX-.Q Q T G  XK.,.#.#.#.#.#.#.#.#.#.#.#.#.#.Q T P P D D D A N qXdX5Xx.[ *.1.5...#.O.#.#.#.#.#.#.#.#.#.#.#.#.#.#.#.#.#.#.#.#.#.#.#.#.#.",
"5.#.#.#.#.#.#.#.#.#.#.#.#.#.#.#.#.#.#.#.#.#.#.#.#.#.#.[ #...T T T T T T Q Q [ #.#.#.#.#.#.#.#.#.....P D T Q Q J C Y ! Q T A P T T Q Q Q ! ! ! T T Y #.f.j.............#.#...#.#...#.#.#.#.#.....#.#.................#.#.#.#.................#.#.#.#.........#.#.#.....#.#.#.#.#.#.#.#.#...#.#...#.#.#.O.#.#.#.#.......#.#...#.#.#.....#.#.#.O.#.#.#.#.#...........#.O.#.....#.....O.O...#.#.#...#.#.#.#.#.......#.#.....#...........#.#.#.................Y x I T T T Q Q Q Q Q Q T P D qX9.Q Q U P }.v.#.Q ! P Q.B.,.#.#.#.#.#.#.#.#.#.#.#.#.#.#.#.#.#.#.#.#.P D =XU.6.,.O.O.O.#.#.#.#.#.#.#.#.#.#.#.#.#.#.#.#.#.T D T Q Q P D U Q Q P H Y T ! Q ! Q ! ! ! T T P !.[.H...............#.#.........#.#.#.................#.#.#...#...#.#.....#...#.#.#...#.#.#.#.#.#.#.#...#.#.......#.#.#.#.............#.#.#.#.#.O...#.O.#.#.#.#.#.#.#.#.#.#...#.#.....O.#.#.#.#.......#.#.#.#.#.#.#.#.#.#.................#.#.....#.#.#.#.........#.#.#.#...........#.....#.#.#.........Q N P T T T Q Q Q Q T T T I D aXB.Q Q ! P M.iX=...Q T D  XK.2.#.#.#.#.#.#.#.#.#.#.#.#...Q T Y P D D D A N `.dX8Xx.[ *.2.5...#.#.#.#.#.#.#.#.#.#.#.#.#.#.#.#.#.#.#.#.#.#.#.#.#.#.#.",
"5.#.#.#.#.#.#.#.#.#.#.#.#.#.#.#.#.#.#.#.#.#.#.#.#.#.#.Q #...T T T T T T Q Q [ ..#.#.#.#.#.#.#.#.....P D T Q Q P C Y ! Q T A P T T Q Q Q Q Q Q T T P #.f.j.............#...#.#.......#.#.#.#.....#.#.#.#...#...........#.#.#.#.......#.#.#.#.#.#.#.#.#.#.#.#.#.#.#.#...#.#.#.#.#.#.#.#.#.....#.#.#.#...#.#.#.#.#.#...#.#.#.#.#.#.#.#.#.#.#.#.#.#.#.#.O.#.#...........#.#.#.#.#.#.....#.#.#.#.........#.#.#.#...#.#.#.#.#.#.#.........#.#.#.................Y x I U T T Q Q Q Q Q Q T Y D qX9.Q Q T P }.v.#.Q ! P Q.B.,.#.#.#.#.#.#.#.#.#.#.#.#.#.#.#.#.#.#.#.#.P D E.U.6.,.#.O.O.#.#.#.#.#.#.#.#.#.#.#.#.#.#.#.#.#.T D T Q Q P S U Q Q P H P T ! Q Q Q ! ! ! T T P !.[.J...................#.#.#.....#.#.#.#.........#.#.#.#.....#.#.#.#.........#.#.....#.O.#.#.#.#.#.#...O.#.........#.#.#.#...#.#...#.#.#.#.#.#.#...#.#.#.#...#.#.O.O.#.#.#.#...........O.....#.#.......#.#.#.....#.#.#.#.#.#.#.#...#.......#.#.#.#.#.#.#...#.......#.#.#.#...#.........#.#.#...........Q N P T T T Q Q Q Q T T T I D aXP.Q Q ! P M.aX-...Q T D  XJ.2.#.#.#.#.#.#.#.#.#.#.#.#.#.Q T Y P D D D A N 2XpXuXm.[ @.,.5...#.#.O.#.#.#.#.#.#.#.#.#.#.#.#.#.#.#.#.#.#.#.#.#.#.#.#.",
"5.#.#.#.#.#.#.#.#.#.#.#.#.#.#.#.#.#.#.#.#.#.#.#.#.#.#.Q #.[ T T T T T T Q Q [ ..#.#.#.#.#.#.#.#.....P D T Q Q P C Y ! Q T A P T ! Q Q Q Q Q ! T T P #.f.j.............#.#.#.#.......#.....#.#...#.#.#.#.#.#.#.#.......#.#.#.....#...#.#.#.#.#.#.#.#.#.#.#.#.#.#.#.#...#.#.#.#.#...#.#.#.....#.#.#.#...#.#.#.#.#.#.#.#.#.#.#.#.#.#.#.#.#.#.#.#.#...#.#.#.#...........#.#.#.#.#.#.....#.#.#.#.........#.#.#.......#.#.#.#.#.#.............#.#...............Y x I U T T ! Q ! Q ! Q T Y D qX9.Q Q T P }.v.#.Q ! P Q.B.,.#.#.#.#.#.#.#.#.#.#.#.#.#.#.#.#.#.#.#.#.P D `.H.6.2.#.O.O.#.#.#.#.#.#.#.#.#.#.#.#.#.#.#.#.#.T D T Q Q P S U Q Q P H P ! ! Q Q ! ! ! ! T T P !.[.J.............#.....#.#.#.....#.#.#.#.........#.#.#.#.....#.#.#.#.........#.#.........#.#.#.#.#.#.....#.#.........#.#.#...#.#.#.#.#.#.#.#.#.#...#.#.#.#.#.#.#.O.O.#.#.#.#.#...............#.#.#.....#.#.O.....#.#.#.#.#.#.#.#.O.#.......#.#.#.#.#.#.#...#.......#.#.#.....#.....#.#.#.#.............Q N P T T T Q Q Q Q T T T I D aXP.Q Q ! P M.dX-...Q T G  XJ.,.#.#.#.#.#.#.#.#.#.#.#.#.#.[ T P P J D D A C qXsXsXm.[ #.,.5...#.#.O.#.#.#.#.#.#.#.#.#.#.#.#.#.#.#.#.#.#.#.#.#.#.#.#.",
"5.#.#.#.#.#.#.#.#.#.#.#.#.#.#.#.#.#.#.#.#.#.#.#.#...#.Q #...T T T T T T Q Q [ ..#.#.#.#.#.#.#.#...#.P D U ! Q P C Y ! Q T A P T Q Q Q Q Q ! T T T P #.u.j.............#...#.#.#.....#...#.#.................#.#.#.#.#.#...#.#.#.#.#.#.#.#.#.............#.#.#.#.#.#.#.#.#.#.#.....#.#.#...#.#.#.#...#.#.#.#.#.O.#.#...#.#.#.#.#.#.#.#.....#.#.#.#.#.O.#.#.#.#.#...#.#.#.#.#.#.#.#.#.#.#...................#.#...#.#.#.#.#.#.#.#...#.....#.....#...........Y x I T T T Q Q Q Q Q Q T Y D qX9.Q Q T P }.M.#.Q ! I Q.B.,.#.#.#.#.#.#.#.#.#.#.#.#.#.#.#.#.#.#.#.#.P D *XU.6.2.#.#.#.#.#.#.#.#.#.#.#.#.#.#.#.#.#.#.#.#.T D T Q Q P S U Q Q P H Y ! Q Q Q ! ! ! ! T T P !.[.H.................#.#.#.#.......#.#.#.#.#.#.#.#...........#.#.#.#.........#.#.......#.#.#.............#.#.#.#.#...#.#...#.#.#.......#.#.#.#.....O.#.#.O.#.#.#.....#.#.#.#.....#.......#.#.#.#.....#...#.#.#.#.#.#...#.#.#.#.#.O.#.....#.#.#.#.#.#.#.#.#.#.....#.#.........#.#.......#...............Q N Y T T T Q Q Q Q T T T Y D aXA.Q Q ! P M.sX=...Q T J #XJ.,.O.O.O.#.#.#.#.#.#.#.#.#.#.Q T Y P D D D A N qXdX7Xm.[ *.,.5...#.#.#.#.#.#.#.#.#.#.#.#.#.#.#.#.#.#.#.#.#.#.#.#.#.#.#.",
"5.#.#.#.#.#.#.#.#.#.#.#.#.#.#.#.#.#.#.#.#.#.#.#.#.#.O.] #...T T T T T T Q Q [ #.#.#.#.#.#.#.#.#...#.P D U ! Q P C Y Q Q T C P T Q Q Q Q Q Q T T T P #.u.j...................#.#.....#.#.#.#.............#...#.#.#.#.#.....#.#.#.#.#.#.#.#.#.....#...#...#...#.#.#.#.#.#.#.#.#.#.O.#.#.#.....#.#.....#.#.O.....O.#.#.#.#.#...#.#.#.#.#.....#.#.#.#...#.#.#.#.#.#...O.#.#.#.#.#.#.#.#.#...#.#.........#.......#...#.#.#.#.#.#.#.#.........#.#.#.............Y x I T T T Q Q Q Q Q Q ! Y D qX9.Q Q T P }.v.#.Q ! I Q./.,.#.#.#.#.#.#.#.#.#.#.#.#.#.#.#.#.#.#.#.#.P D R.^.6.2.#.#.#.#.#.#.#.#.#.#.#.#.#.#.#.#.#.#.#.#.T D T Q Q P S U Q Q P H Y T Q Q Q ! ! ! ! T T P Q.[.H.................#.#.#.......#.#.#.#.#.#.#.#.....#.#.....#.#.#.#.........#.#.....#.#.#.#.........#...#.#.#.....#.#.#.#...#.#.O...#.#.#.#.O.#...#.#.#.#.#.#.#.....#.#.#.#.#.#.#...#.#.#.#.#.#.O...#.#.#.#.#.#.#.#...O.#.#.#.#.#.#.....#.#.#.#.#.#...#.......#.#.#.#.......#.#.#.....#...............Q N Y T T T Q Q Q Q T T T Y D aXA.Q Q ! Y M.dX=...Q T G #XE.2.O.O.O.#.#.#.#.#.#.#.#.#.O.Q T Y P D D D S N 2XuXpXm.{ *.:.5...#.#.#.#.#.#.#.#.#.#.#.#.#.#.#.#.#.#.#.#.#.#.#.#.#.#.#.",
"5.#.#.#.#.#.#.#.#.#.#.#.#.#.#.#.#.#.#.#.#.#.#.#.#.O.O.] #...T T T T T T Q Q [ ..#.#.#.#.#.#.#.#.#.#.P D T Q Q P C Y ! Q T A P T ! Q Q Q ! ! T T T Y #.u.j...............#...#.#...#.#.#.#.#.....#.#.#.#.#.#.#.#.#.#.........#.#...#.#.#.#.#.#.#.#.#.#.#.......#.O...#...#.#.#.#.#.#.#.#.#...........#.#.#.#...#.#.#.#.#.#.#.#.#.#.#.#.#...#.#.#.#.#.#.#.....#.#.#.#.#.#...#.......#.#...#.#.#.#.#.#.#.#.........#.#.#.#.#.#.#.......#.#.#.#...............Y x I T T T Q Q Q Q Q ! T Y D qX9.Q Q ! P }.v.#.Q ! I Q./.,.#.#.#.#.#.#.#.#.#.#.#.#.#.#.#.#.#.#.#.#.P D W.Y.6.2.#.#.#.#.#.#.#.#.#.#.#.#.#.#.#.#.#.#.#.#.T D T Q Q P D T Q Q P H Y T ! Q Q ! ! Q ! T T P Q.[.J.................#.#.......#.#.#.#.#.............#.#.#.#.#.#.#.#.....#.#.#.......#.#.#.#.#.#.#.#.#.#.#.#.#.#.#.#.#.#.....#.#.O.#.#.#.#.#.#.#.#.#.#.#.#.#.#.#.#.#.#.#.#.#.#.#.#.#.#.#.#.#.#.#.#...#.#.#.#.#.#.#.#.......#.#.#.#.#.#.#.#.#.#.#.................#.#.#.#.#...#.#...#.#.#.#...#.........Q N Y T T T Q Q Q Q ! T T Y D aXA.Q Q ! P M.dX=...Q ! H  XE.2.O.#.O.#.#.#.#.#.#.#.#.#.#.Q T Y P D D D S N qXsXpXm.{ *.-.8.[ #.#.#.#.#.#.#.#.#.#.#.#.#.#.#.#.#.#.#.#.#.#.#.#.#.#.#.",
"5.#.#.#.#.#.#.#.#.#.#.#.#.#.#.#.#.#.#.#.#.#.#.#.#.O.O.] #.[ T T T T T T Q Q [ [ #.#.#.#.#.#.#.#.#.#.P D T Q Q P C Y ! Q T A P T T Q Q Q ! ! ! T T Y #.u.j...................#.#.#.#.#.#.#.......#.#.#.#.#.#.#.#.#.#.........#.#...#.#.#.#.#.#.#.#.#.#.#.O.#.O...........#.#.#.#.#.#.#.#.#.#.#.#.....#.#.#.#...#.#.#.#.#...#.#.#.#.#.#.#.#.#.#.#.#.#.#.#.....#.#.#.#.#.#...........#.#...#.#.#.#.#.#.#.#...............#.#.#.#...#.#.#.#...#.....#.........Y x I T T T Q Q Q Q ! ! T Y D qX9.Q Q ! P }.v.#.Q ! I Q./.,.#.#.#.#.#.#.#.#.#.#.#.#.#.#.#.#.#.#.#.#.P D *X`.6.2.#.#.#.#.#.#.#.#.#.#.#.#.#.#.#.#.#.#.#.#.T S T Q Q P D T Q Q P H Y T T ! ! ! ! Q ! T T P Q.[.J...................#.#.#.#.#.#.#.................#.#.#.#.....#.#.#...#.#.#.......#.#.#.#.#.#.#.#.#.#.#.#.#.#.#.#.#.#.....#.#...#.#.#.#.#.#.#.#.O.#.#.#.#.#...#.#.#.#.#.#...#.#.#.#.#.#.#.#.#.#...#.#.#.#.#.#.#.......#.#.#.#.#...#.#.#.#.#.#.................#.#.#.#.#.#.............#.#.#.........Q N P T T T Q Q Q Q T ! T Y D aXA.Q Q ! P M.sX=...Q ! J  XE.2.@.#.O.#.#.#.#.#.#.#.#.#.#.[ T P P J D D S C qXdX5Xm.{ #.-.8...#.#.O.#.#.#.#.#.#.#.#.#.#.#.#.#.#.#.#.#.#.#.#.#.#.#.#.",
"5.#.#.#.#.#.#.#.#.#.#.#.#.#.#.#.#.#.#.#.#.#.#.#.#.#.#.] #...T T T T T T ! Q [ ..#.#.#.#.#.#.#.O.#...P D T Q Q P C Y ! Q T A P T ! Q Q Q ! ! ! T T Y #.u.j...........#.........#.#.#.#.#.#.#.#.#.#.#.#.#.#.#.#.#.#.#.......#.#.#.....#.#.#...#.#.#.#...#.#.#.#.......#.#.#.#.#.#.#.O.#.#.#.#.#.#.O.#.#.#.#.#.#.#...#.#.#...#.#.#.......#.#.#.#.#...#.#.#.......#.#.O.#.#.#.#.........#.#.....#.#.#.#.......#.#.#.....#.#.#.#.....#.#.#.#...................Y x P T T T Q Q Q Q ! ! T Y D qX9.Q Q T P }.v.*.Q ! I Q./.2.#.#.#.#.#.#.#.#.#.#.#.#.#.#.#.#.#.#.#.#.P D R.].6.2.#.#.#.#.#.#.#.#.#.#.#.#.#.#.#.#.#.#.#.O.T A T Q Q P D T Q Q P H Y ! ! ! Q Q Q Q ! T ~ P Q.[.H.............#.........#.#.#.#.#.#.#.......#.#.#.....#.#.........#.#.#.#...#.#.#.........#.#.#.#.#.#.#.#.#.O.#.#.#.#...#.....#.#.#.....#.#.O.#.#.#.#.#...#.#.#.#.#.#.#.#.#.#.#.#.#.#...#.....#.#.......#.#.......#.#.#.#.#.#.#.#.#.......#.#.#...............#.#.#.#...#.#.#.#.......#.#.#.........Q N P T T T Q Q Q Q ! ! T Y D aXP.Q Q ! P M.dX=...Q ! J  XE.2.#.#.#.#.#.#.#.#.#.#.#.#.#.Q T Y P D D D S N :XuXuXm.{ *.-.8...#.#.#.#.#.#.#.#.#.#.#.#.#.#.#.#.#.#.#.#.#.#.#.#.#.#.#.",
"5.#.#.#.#.#.#.#.#.#.#.#.#.#.#.#.#.#.#.#.#.#.#.#.#.#.#.[ #...T T T T T T T Q [ ..#.#.#.#.#.#.#.O.....P D T Q Q P C Y ! Q T A P T Q Q Q Q Q Q ! T T Y #.u.j.....................#.#.#.#.#.#.#.#.#.#...#.#.#.#.#.#.#.#.........#.#.#...#.#.....#...#.#.#.#.#.#.#.......#.#...#.........#.#.#.#.#.#.#.#.#.#.#.#.#.#.#.#.#.#.O.#.#.#.#.....#.#.#.#.....#.#.#.......#...#.#...#.#.....#.#.#.#.....#.#.#.#.....#.#.#.#.....#.#.#.#.........#.....#...............Y x P T T T Q Q Q Q ! ! T Y D qX9.Q ! T P }.P.*.Q ! I Q./.2.#.#.#.#.#.#.#.#.#.#.#.#.#.#.#.#.#.#.#.#.P D W.J.6.2.#.#.#.#.#.#.#.#.#.#.#.#.#.#.#.#.#.#.#.#.T S T ! Q P D T Q Q P H Y ! Q ! Q Q Q Q ! T ~ P Q.[.H.........................#.#.#...#.#.....#.#.#.#.....#.#.........#.#.#.#...#.#.#.........#...#.#.#.#.#.#.#.O.#...#.#...#...#.#.#.......#.#.O.#.#.O.#.#.O.#.#.#.#.....#.#.....#.#...#.#.#.....#.#.......#.#.O.....#.#.#...#.#.#.#.#.......#.#.#...............#.#.#.#...#.#...#.........#.#.........Q N P T T T Q Q Q Q ! ! T Y D aXP.Q Q ! P t.dX=...Q ! H <XE.2.#.#.#.#.#.#.#.#.#.#.#.#.#.Q T Y P D D D S N qXsXpXm.{ *.:.5.[ #.#.#.#.#.#.#.#.#.#.#.#.#.#.#.#.#.#.#.#.#.#.#.#.#.#.#.",
"5.#.#.#.#.#.#.#.#.#.#.#.#.#.#.#.#.#.#.#.#.#.#.#.#.#.#.] #...T T T T T T T Q [ [ #.#.#.#.#.#.#.#.....P D U Q Q P C Y ! Q T A P T T ! ! ! Q Q ! T T Y #.u.j.............#.......#.#.#...#.................#.#.#.#...............O.#.#.#.#.#.......#...#.O.#.#.#.#.#.#.#.#.O.............#.#.#.#.#.#.#.#.#.#.#.#.#.#.#.....#.#.#...#...#.#.#.#.....O...#...#.#.#.#...#.#...#.#.#.#.#.#.#.#.......#.#.......#.#.#.#.....#.#.#...........#.#.#.#.#.#.#.........Y x P T T T Q Q Q Q ! ! T Y D qXt.Q Q T P }.P.*.Q ! P Q./.,.#.#.#.#.#.#.#.#.#.#.#.#.#.#.#.#.#.#.#.#.P D *X).5.2.O.#.#.#.#.#.#.#.#.#.#.#.#.#.#.#.#.#.#.#.T S T ! Q P D T Q Q P D P T ! ! ! Q Q ! ! T ~ P Q.[.H...............#.#.....#.........#.#.#...#.#.#.#.......#.#.#...#.#.#.........#.#.#.#.............#.#.#.#.O.......#.#.#.#.....#.#.#.#...#.#.#.#.#.#.#.#.#.O.#.#.#.#.#.#.#.#.#.#...#.#.#.#.....#.#.#.#...O.#.#.#.#.#.#.........#.#.#.#.....#.#.#.#.....#.#.#.#.#.#...#.........#.#.#.....#...........Q N P T T T Q Q Q Q ! ! T Y D aXA.Q Q ! P t.sX=...Q ! J <XE.2.#.#.#.#.#.#.#.#.#.#.#.#.#.Q T Y P D D D S N qXdX5Xm.{ *.-.5...#.#.#.#.#.#.#.#.#.#.#.#.#.#.#.#.#.#.#.#.#.#.#.#.#.#.#.",
"5.#.#.#.#.#.#.#.#.#.#.#.#.#.#.#.#.#.#.#.#.#.#.#.#.#.#.] #.[ T T T T T T ! Q [ [ #.#.#.#.#.#.#.#.....P D U Q Q P C Y ! Q T A P T T ! ! ! Q Q ! T T Y #.u.j.............#.......#.#.#.........................#.#.#.............#.#.#.#.#.#.......#...#...#.#.#.#.#.#.#.#.#...............#.#.#.#.#.#.#.#.#.#.#.#...#.#.#.#.#.#.#.#...#.#.#.#...#.#.......#.#.#.#...#.#...#.#.#.#.#.#.#.#.........#.......#.#.#.#.....#.#.#.#.......#.#.#.#.#.#.#.#.........Y x P T T T Q Q Q Q ! ! T Y D qXt.Q Q T P }.P.*.Q ! P Q./.,.#.#.#.#.#.#.#.#.#.#.#.#.#.#.#.#.#.#.#.#.P D L.].5.,...#.#.#.#.#.#.#.#.#.#.#.#.#.#.#.#.#.#.#.! S T ! Q P D T Q Q P D P T ! ! ! Q ! ! ! T ~ P Q.[.H.............#.#.#.....#.........#.#.#.#.#.#.#.#.........#.#.#.#.#...........#.#.#.#.#...............#.#.O.......#.#.#.#.#...#.#.#.#.O...#.#.#.#.#.#.#.#.#.#.#.#.#.#.#.#.#.#.#...#.#.#.#.#...#.#.#.#.#.#.#.#.#.#.#.#.........#.#.#.....O.#.#.#.#.#...#.#.#.#.#.#...#.#.......#.#.#.......#.........Q N P T T T Q Q Q Q ! ! T Y D aXA.Q Q ! P t.dX=...Q ! J <XE.2.#.#.#.#.#.#.#.#.#.#.#.#.#.[ T P P J D D S C *XdXuXn.{ #.-.8...#.#.#.#.#.#.#.#.#.#.#.#.#.#.#.#.#.#.#.#.#.#.#.#.#.#.#.",
"5.#.#.#.#.#.#.#.#.#.#.#.#.#.#.#.#.#.#.#.#.#.#.#.#.#.#.[ #...T T T T T T T Q ] [ #.#.#.#.#.#.#.#.#.#.P D U Q Q P C Y ! Q T A P T T ! ! Q ! ! ! T T Y #.u.j...........#.#.....#.......#.#.#.......#.#.#.#.#.#.....#.#.#.#.#.#.#.#.#.#.#.#.#...#...#.#.....#.#.#.#.....#.#.#.#.....#.#.....#.#.#.#...#.#.#.#.#.#.#.#.O.#.#.#.#.#...#.#.#.#.#.#...#.#.#.#.#.#.#.#.#.#.#.#...#.#.#.#.#.#.O...#.#.#.#.........#.#.#.#.#.#.#.#.................#.....#.#.........T x P T T T Q Q Q Q ! ! T Y D qXq.Q Q T P }.D.*.Q ! I Q./.,.#.#.#.#.#.#.#.#.#.#.#.#.#.#.#.#.#.#.#.#.P D W.{.6.2.#.#.#.#.#.#.#.#.#.#.#.#.#.#.#.#.#.#.#.#.! S U Q Q P D W Q Q P H Y T Q Q Q ! ! ! ! T ~ P Q.[.H...............#.#.#.#.#.#.#.#.#.....#.#.........#.#.#.#.#.#.......#.#.#...........#.#.#.....#.#.#.#.#.#.#.#.#.#.#.#.#.#.#.#.#.#.#.#.#.......#.#.#.#.#.#.#.#...#.#.#.......#.#.#.#.#.#.#.#.#.#.#.#.#.#.#.#...#.#.#.#.#.#.#.#.#.#.#.#...#.#.#.#.#.#.#.#.#.#.#.#.#.#.#.#.#.#.#.#.#.#.......#.........Q N P T T T Q Q Q Q ! ! T Y D aXA.Q Q ! P t.dX*...Q ! J '.E.2.O.O...#.#.#.#.#.#.#.#.#.#.Q T Y P D D D S N ].pXuXn.{ *.-.5...O.#.#.#.#.#.#.#.#.#.#.#.#.#.#.#.#.#.#.#.#.#.#.#.#.#.#.",
"5.#.#.#.#.#.#.#.#.#.#.#.#.#.#.#.#.#.#.#.#.#.#.#.#.#.#.[ *.#.T T T T T T T Q Q [ O.#.#.#.#.#.#.#.#.#.P D U Q Q P C Y ! Q T A P T T ! Q Q Q Q ! T T Y &.u.j...........#.#.......#.....#.#.#.......#.#...#.#.#.#...#.#.#.#.#.#.#.#.#.#.#.#.....#.O.#.......#.#.#.#.....#.#.#.#.#...#.#.#.O.#.#.#.#.O.O.#...#.#.#.#...#.#.#.#.#.#...#...#.#.#.#...#.#.#.#.#.#...#.#.#.#.O...#.#.#...#.#.#...#.#.#.#.........#.#.#.#.#.#.#.#.........#.....#.......#.#.........T x P T T T Q Q Q Q ! ! T Y D qXq.Q Q T P }.D.*.Q ! I Q./.,.#.#.#.#.#.#.#.#.#.#.#.#.#.#.#.#.#.#.#.#.P D *XE.6.2.#.#.#.#.#.#.#.#.#.#.#.#.#.#.#.#.#.#.#.#.! D U Q Q P D W Q Q I H Y T Q Q Q Q Q ! ! T ~ P Q.[.H...................#.#.#.#.#.#.#.......#.........#.#.#.#.#.#.........#.#.........#.#.#.#.....#.#.#.#.#.#.#.#.#.#.#.#.#.#.#.#.#.#.#.#.#.#.....#.#.#.#.#.#.#.#.#.#.#.#...#...#.#.#.#.#.#.#.#...#.#.#.#.#.#.#.#.#...#.#.#.#.#...#.#.#.#.......#.#.#.#.#.#.#...#.....#...#.#.#.......#.#...............[ b P T T T Q Q Q Q ! ! T Y D aXA.Q Q ! P t.sX*...Q ! J '.E.2.#.#.O.#.#.#.#.#.#.#.#.#.#.Q T Y P D D D S N }.dX,Xm.{ *.-.5...#.#.#.#.#.#.#.#.#.#.#.#.#.#.#.#.#.#.#.#.#.#.#.#.#.#.#.",
"5.#.#.#.#.#.#.#.#.#.#.#.#.#.#.#.#.#.#.#.#.#.#.#.#.#.#.[ *.#.T T T T T T T Q ] [ #.#.#.#.#.#.#.#.#...P D U Q Q P C Y T Q T A P U T Q Q Q Q Q ! T T Y &.u.j...........#.#.#...#.#.#.#.#.#.#.#.....#.#.....#.......#...#.#.#.#...O.#.#.#.#.....#.#.#.#.....#.#.#.#.....#.#.#.#.....#.#.#.#.......#.#.#.#.#.#.#.#.#.#.#.#.#.#.#.#.....#.....#...#.#.#.#.#.#.........O.#.#.#.#.#.....#.#.......#.#.#...#.....#.#...#.#.#.#.#.....#.#.#.....#.......#...........T x P T T T Q Q Q Q ! ! T Y D qXq.Q Q U P }.D.*.Q ! P Q./.,.#.#.#.#.#.#.#.#.#.#.#.#.#.#.#.#.#.#.#.#.P D :X{.6.2.#.#.#.#.#.#.#.#.#.#.#.#.#.#.#.#.#.#.#.#.! D U ! Q P D T Q Q I D P T Q Q Q Q Q Q ! T ~ P Q.[.(.........................#.#.#.#.....#.#.....#...#.#.....#.#.....#.#.#.#.....#.#.#.#.#.#.......#.....#.#.#.#.....#.......#.#.#.#.#.#.#.#.......#.#.#.#.......#.#.#.#.....#.#.#.#.#.#.....#.#.#.#.#.#.#.#.#.#.........#.#.........#.......#.#.#.#.#.#.................#.#.#.......#.#...............[ b P T T T Q Q Q Q ! ! T Y D aXA.Q Q T P t.dX*...Q ! J '.E.2.#.#.#.#.#.#.#.#.#.#.#.#.#.Q T Y P D D D S N L.dX8Xn.[ *.-.5...#.#.#.#.#.#.#.#.#.#.#.#.#.#.#.#.#.#.#.#.#.#.#.#.#.#.#.",
"5.#.#.#.#.#.#.#.#.#.#.#.#.#.#.#.#.#.#.#.#.#.#.#.#.#.#.[ *.#.T T T T T T ! Q [ [ #.#.#.#.#.#.#.#.....P D U Q Q P C Y T Q T A P U T Q Q Q Q Q ! T ~ Y &.u.j.............#.#.#.#.#.#.#.#.#.#.........................#.#.#.#.#.#.....#.#.#.....#.#.#.#.....#.#.#.#.#.#.#.#.#.#.....#.#.#.#.#...#.#.#.#.#.#.#.#.#...#.#.#.#.#.O.#...........#.#.O.#.#.#.......#.#.#.#.#.#.#.#.#.....#.#.......#.#.#.#.#.#.#.#.#.........#.#.#...#.#...........................T x P T T T Q Q Q Q ! ! T Y D qXt.Q Q T P }.D.*.Q ! P Q./.2.#.#.#.#.#.#.#.#.#.#.#.#.#.#.#.#.#.#.#.#.P D L.`.6.,.#.#.#.#.#.#.#.#.#.#.#.#.#.#.#.#.#.#.#.#.! D U ! Q P D T Q Q I D P T ! Q Q Q Q Q ! T ~ P Q.[.(.........................#.#.........#.#.#.#.#.#.#.#.....#.#.....#.#.#.#.#.#.#.#.#.#.#.#.................................#.#.#.#.#.#.#.#.....#.#.#.#.#.....#.#.#.#.#.....#.#.#.#.O.O.......#.#.#.#.#.#...........O.#.#.#.........#.#.......#.#.#.#.................#.#.#.........#.................[ b P T T T Q Q Q Q ! ! T Y D aXA.Q ! T P t.dX*...Q ! J '.E.2.#.#.#.#.#.#.#.#.#.#.#.#.#.[ T P P J D D S N ].uXpXn.[ #.-.5...#.#.#.#.#.#.#.#.#.#.#.#.#.#.#.#.#.#.#.#.#.#.#.#.#.#.#.",
"5.#.#.#.#.#.#.#.#.#.#.#.#.#.#.#.#.#.#.#.#.#.#.#.#.#.#.O.*.#.T T T T T T T Q Q [ #.#.#.#.#.#.#.#.....P D U Q Q P C Y ! Q T A P U Q Q Q Q Q Q ! T T I &.y.j.................#.......#.....#.#.#.#.#...................#.#.#.#.............#.#.#.#.#.#.#.#.O.....#.#.#.#.#.#.#.#.O.#.#.#.#.#...#.#.#.#.#.#.#.#.....#.#.#.#...#.#.#.#.#.#...#.#.#.......#.#.#.#.#.#.#.#.#.#.#.#.....#.#.#.........#.#.#.#.#.................#.#.#.#.........#...#.............U x ^ T T T Q Q Q Q ! ! T Y D qXt.Q Q T P }.D.*.Q ! P Q./.2.#.#.#.#.#.#.#.#.#.#.#.#.#.#.#.#.#.#.#.#.P D E.U.6.,.......#.#.#.#.#.#.#.#.#.#.#.#.#.#.#.#.O.! D Y T Q P D T Q Q P D P T ! ! ! Q Q Q ! T T P Q.[.).................#.#.....#.......#.#.#.#.#.#.#.#.......#.#.#.#.#.#.......#.#.#.#...#.#.#.#.#...#.#.#.....#...............#.O.#.#.#.#.#.#.#.#.#.#.#.#.#...#.#.#.#.#.#.#.#.#.#.#.O.#.#.........#.#.#.#.#...#.O.....#.#.#.#.#.#.#.#.......#...#.#.#.#.#.........#.#.........#.#.......................[ b P T T T Q Q Q Q ! ! T Y D qX^.Q Q ! P t.sX*...Q ! J '.E.2.#.#.O.#.#.#.#.#.#.#.#.#.#.] T Y P D D D S N }.sXpXn.[ *.-.7.O.#.#.#.#.#.#.#.#.#.#.#.#.#.#.#.#.#.#.#.#.#.#.#.#.#.#.#.",
"-.#.#.#.#.#.#.#.#.#.#.#.#.#.#.#.#.#.#.#.#.#.#.#.#.#.#.#.*.#.T T T T T T T Q Q [ O.#.#.#.#.#.#.#.....P D U ! Q P C Y ! Q T A P Y Q Q Q Q Q Q Q T T Y &.y.j.......................#.#.#...#.#.#.#.#.#.................#.#.#.#.............#.#.#.#.#.#.#.#.......#.#.#.#.#.#.#.#.#.#.#.#.#.#.#.#.#.#.#.#.#.#.#.....#.#.#.#.#.#.#.#.#.#.#.#...#.#.#.#...#.#.#.#.#.#.#.#.#.#.#.#.....#.#.........#.#.#.#.#.#...................#.#.#.#.....#.....#.#.#.........U x ^ U T T Q Q Q Q ! ! T Y D qXt.Q Q T P }.D.*.Q ! P Q./.2.#.#.#.#.#.#.#.#.#.#.#.#.#.#.#.#.#.#.#.#.P D E.`.6.,.......#.#.#.#.#.#.#.#.#.#.#.#.#.#.#.#.O.T S Y T Q P D T Q Q P D P T Q ! ! Q Q Q Q T T P /.[.(.............#...#.#.............#.#.#.#.#.#.#.#...#...#.#.#.#.#.#.......#.#.#.#...#.#.#...#...#.#.#.#.#.#.#.................#.#.#.#.....#.#.#.#.#.#.....#.#.#.#...#.#.#...#.#.O.#.#...#...O.#.#.#.#.#...#.O.O...#.#.#.#.#.#.#.#...#...#...#.#.#.#.#...........#.........#.#.......#.#.............[ b P T T T Q ! Q Q ! ! T Y D qX^.Q Q ! P s.dX*.#.Q ! J '.E.2.O.#.O.#.#.#.#.#.#.#.#.#.#.Q T Y P D D D S N }.dX8Xn.[ *.-.5.O.#.#.#.#.#.#.#.#.#.#.#.#.#.#.#.#.#.#.#.#.#.#.#.#.#.#.#.",
"-.#.#.#.#.#.#.#.#.#.#.#.#.#.#.#.#.#.#.#.#.#.#.#.#.#.#.#.=.#.! T T T T T T Q Q [ #.#.#.#.#.#.#.#.#.#.P D U ! Q P C Y ! Q T A P T T Q Q Q Q Q Q T ~ I &.y.j.....................#.#.#.........#.#.#.#.#.#.#.#...........#.#.#.....#.#.#.#.#.#.......#.#.#.....#.#.#.#.#.#.#.#.#.#.#...#.#.#.#.#.#.#.....#.#.#.#...#.#...O.#.#.#.#.#.#.#.#.....#.#.#...#.#.#.#.#.#.#.#.#.O.#.#.#.#.#.......#...#.#.#.#.#.#.#.#.#.#.#.#...#...#.....#...#.#...#.#.#...........T x ^ U T T ! Q Q Q Q ! T Y D qXt.Q Q T P }.P.#.Q ! P ~./.2.#.#.#.#.#.#.#.#.#.#.#.#.#.#.#.#.#.#.#.#.P D L.`.6.2.#...#.#.#.#.#.#.#.#.#.#.#.#.#.#.#.#.#.#.! S Y Q Q P D T Q Q Y D P T Q ! ! Q Q ! ! T T P B.[.(.............#.#.#.#.....#.#.................#.#.#.#.#.#.O.#.#.#.#.#.......#.....#.#.#.#.....#.#.#.#.#.#.#.#.#.#.#.#.#.....O.#.#.#.......#.#.#.#...#.#.#.O.#.....#.#.#.#.O.#.#.#.#.#.#.....#.#.#.#.......#.#.#.....#.#.#.#.#.#.#.....#.#...#...#.#.#.#.......#.#.#.#.#.#...#.#.#...#.#.............[ b P T T T ! Q ! Q ! ! T Y D qX^.Q Q ! P s.dX*.#.Q ! P '.E.2.O.O.O.#.#.#.#.#.#.#.#.#.#.] T Y P D D D S N _.uXpXn.[ *.,.7.O.#.#.#.#.#.#.#.#.#.#.#.#.#.#.#.#.#.#.#.#.#.#.#.#.#.#.#.",
"-.#.#.#.#.#.#.#.#.#.#.#.#.#.#.#.#.#.#.#.#.#.#.#.#.#.#.#.=.#.Q T T Q T T Q Q [ [ #.#.#.#.#.#.#.#.#.#.P D U ! Q P N Y ! Q T A P T ! Q Q Q Q Q Q T T I &.y.j...................#.#.#.#.........#.#.#.#.#.#.#.#...#.....#.#.#.#.....#.#.#.#.#.........#.#.......#.#.#.#.#.#.#.#.#.#.O...O.O.#.#.#.#.#.....#.#.#.#...#.#.....#.#.#.#.#.#.#.#.#.#.#.#.....#.#.#.#.#.#.O.#.#.O.#.#.#.#.#.#.....#.#.#.#.....#.#.#.#.#.#.#.#.#.#.........#.#.#.....#.#.............T x P U T T ! Q Q Q Q Q T Y D qXt.Q Q T P }.P.#.Q ! P ~./.2.#.#.#.#.#.#.#.#.#.#.#.#.#.#.#.#.#.#.#.#.P D R.K.6.2.#.#.#.#.#.#.#.#.#.#.#.#.#.#.#.#.#.#.#.#.! S Y ! Q P D T Q Q Y D P T ! ! ! Q Q ! ! T T P B.[.(.............#.#.#.#.....#.#...............#.#.#.#.#.#.#.....#.#.#...............#.#.#.#.....#.#.#.#.#.#.#.#.#.#.#.#.#.#.......#.#.#.....#.#.......#.#...........#.#.#.#.O.#.....#.#.#.#.....#.#.#.#.....#.#.#.....#.#.#.#.#.#.......#.#.........#.#.#.......#.#.#.#.#.#.#.#.#.#.#.................) N P T T T ! Q Q Q ! ! T Y D qX^.#.Q ! P s.dX*.#.Q ! J '.E.2.#.O.O.#.#.#.#.#.#.#.#.#.#.[ T P P J D D S N }.pXpXC.[ #.-.7.O.#.#.#.#.#.#.#.#.#.#.#.#.#.#.#.#.#.#.#.#.#.#.#.#.#.#.#.",
"-.#.#.#.#.#.#.#.#.#.#.#.#.#.#.#.#.#.#.#.#.#.#.#.#.O.@.@.-.*.Q T T T T T ! Q Q [ #.#.#.#.#.#.#.#.#.#.P D U Q Q P N Y ! Q T A P T T ! Q Q Q ! ! T T Y &.y.j...................#...#.#.......#.#.#.............#.#.#.#.#.#.....#.#.#.#.......#.#.#.#.#.O.......#.#.#.#.#.#.#.#.#.#.#.#.#.#.#...#.#.#.....#.#.#.#.#.#.#.#.#.#.#.#.#.#.#.#.#.#.#.#.#.#.....#.#.#.#.#.#.#.#.#.#.#.#.#.#.#.#.#.....#.#.....#.#.#.#.#.#.#.#.#...#.#.......#.#...........#.........T x P U T T Q Q Q Q Q ! ! Y D qXk.Q Q T P }.Q.#.Q ! P Q./.2.#.#.#.#.#.#.#.#.#.#.#.#.#.#.#.#.#.#.#.#.P D E.`.6.,.O.#.#.#.#.#.#.#.#.#.#.#.#.#.#.#.#.#.#.#.! D Y Q Q P D T Q Q Y D P T Q Q Q Q Q ! ! T ~ P B.[.T.............#.#.....#.#.#.#.............#.#.#.......#.#.....#.#.#.#.#.#...#.#.#.#.#...#...#.#.#.#.#.#.#...#.#.#.#.#.#.#.#.#...O.#.#.#.#.#.#.#.#.#.#.#.#.#.#.#.....O.#.#.#.#.#.#.....#.#.#.#.#.#.....#.#.#.#.......#.#.#.#.#.#.......#.#.#.#.....#.#.#.#...#.#.#.#.#.#...........#.................) N I U T ! Q Q Q Q ! ! T Y D qX^.#.Q ! I s.dX9.#.Q ! J '.E.2.......#.#.#.#.#.#.#.#.#.#.[ T Y P D D D S N }.dX7XF.[ *.-.7...#.#.#.#.#.#.#.#.#.#.#.#.#.#.#.#.#.#.#.#.#.#.#.#.#.#.#.",
"-.O.#.#.#.#.#.#.#.#.#.#.#.#.#.#.#.#.#.#.#.#.#.#.#.O.@.@.-.*.Q T T T T T T Q Q [ O.#.#.#.#.#.#.#...#.P D U Q Q P N Y ! Q T A P T T Q Q Q Q ! ! T T I &.y.j.......................#.#.........#.#...#.....#.#.#.#.#.#.#.#...#.#.#.#.#.......#.#.#.#.#.#.......#.#.....#.#.#.#.#.#.#.#.#.#.....#.#.....#.#.#.#.#.#...#.#...#.#.#.#.#.#.#.#.#.#.#.#.#.....#.#.#.#.#.#.#.#.#.#.#.#.#.#.#.#.#.....#.#.....#.#.#.#...#.........#.#.#.#...#.#...#.......#.........T x P U T T Q Q Q Q Q Q ! Y D qXk.Q Q T P }.P.#.Q ! P Q./.2.#.#.#.#.#.#.#.#.#.#.#.#.#.#.#.#.#.#.#.#.P D J.].6.,.O.#.#.#.#.#.#.#.#.#.#.#.#.#.#.#.#.#.#.O.! D Y Q Q P D T Q Q Y D Y ! ! Q Q Q ! ! ! T ~ I B.[.(.............#.#.....#.#.#.#.........#.#.#.#.#.#.....#.#.....#.#.#...#.#.#.#.#.#.....#.#...#.#.#.#.#.#.#.#.#.....#.#.#.#.#.......#.#.#.#.....#...#.#.#.#.#.#.#.......#.#.#.#.#.....#.#.#.#.#.#.#...#.#.#.#.#.........#.#.#.#.#.#.....#.#.#.......#.#.#.#...#.#.#.#.#.#...........#.................[ N P U T ! Q Q Q Q Q ! T Y D qX^.#.Q ! I s.dX9...Q T P '.`.2.......#.#.#.#.#.#.#.#.#.#.Q T Y P D D D S N E.dXuXn.[ *.,.5.#.#.#.#.#.#.#.#.#.#.#.#.#.#.#.#.#.#.#.#.#.#.#.#.#.#.#.#.",
"-.O.#.#.#.#.#.#.#.#.#.#.#.#.#.#.#.#.#.#.#.#.#.#.#.O.O.@.-.*.Q T T ! T T ! Q Q [ #.#.#.#.#.#.#.#.....P D U ! Q P N P ! Q T A P T T Q Q Q ! ! ! T T I &.y.j.......................#.......#.#.#.#.....#.#.#.#.#.#.#.#.........#.#.#.......#.#.#.#.#.#.#.#...#.#.#.#.#...O.....#.#.#.#.#.......#.#.#.#.#.#.#.#.#.#...O.#...O.#.#.#...#.#...#.#.#.#.#.#...#.#.#...#.#.#.#.O.#.#.#.#.#.#.#.#.....#.#.....#.#.................#.#.#.....#.#.#.#.......{ [ ......T x P U T T Q Q Q Q Q Q ! Y D qXk.Q Q T P }.P.#.Q ! I M./.2.#.#.#.#.#.#.#.#.#.#.#.#.#.#.#.#.#.#.#.#.P D R.J.6.,.O.#.O.#.#.#.#.#.#.#.#.#.#.#.#.#.#.#.#.O.! S Y ! Q P D T Q Q P D Y T Q Q Q Q Q ! ! T ~ I B.[.(...............#.....#.#.#.#.#...#.#.#.#.#.#.#.O.......#.#.#.#.#.....#.#...............#.#.#.#.#...#.#.#.#.......#.#.....#.#.....#.#.#.#.............#.#.#.#.#.#.......#.#.#.......#.#.#.#.#.........#.#.#.#.....#.#.#.#.#.#.#.#.......#.#.#.....#.#.#.#.#.#.#.#.#.#.#.#.#.#.#.#.#.#.................N P U T ! Q Q Q Q Q ! T Y D qX^.#.Q ! Y s.dX9...Q ! P '.`.5.#.#...#.#.#.#.#.#.#.#.#.#.[ T Y P D D D S N }.pXpXF.[ #.-.5.#.#.#.#.#.#.#.#.#.#.#.#.#.#.#.#.#.#.#.#.#.#.#.#.#.#.#.#.",
"-.#.#.#.#.#.#.#.#.#.#.#.#.#.#.#.#.#.#.#.#.#.#.#.#.O.O.@.-.*.Q T T Q T T Q Q Q [ #.#.#.#.#.#.#.#.....P D U ! Q P N P ! Q T A P T Q Q Q Q ! ! ! T T Y &.y.f.......................#.......#.#.#.#.#.#.#.#.#.#.#.#.#.#.........#.#.#.#.....#.#.#.#.#.#.#.#.#.#.#.#.#.#.O...........#.#.#.......#.#.#.#.#.#.#.#...#.#.......O.#.#.#.#.#.#...#.#.#...#.#.#.#...#.#.#...#.#.#.#.#.#.#.#.#.#.#.....#.#.....#.#.............#...#.#.#...#...#...#.#...............T x J U T T Q Q Q Q Q Q ! Y D qXk.Q Q T P }.Q.*.Q ! I M./.2.#.#.#.#.#.#.#.#.#.#.#.#.#.#.#.#.#.#.#.#.P D E.E.6.,.O.O.O.#.#.#.#.#.#.#.#.#.#.#.#.#.#.#.#.O.! S Y Q Q P D T Q Q Y D Y T Q Q Q Q Q ! ! T U I B.[.T.....................#.#.#.#.#.#.#.#.#.#.#.#.#.#.......#.#.#.#.#.....#.#...............#.#.#.#.#.......#.#.......#.#.#...#.#.........#.#.............#.#.#.#.#.#.......#.#.#.........#.#.#.#.........#.#.#.#.....#.#.#.#.#.#.#.#.......#.#.#.......#.#.#.#.#.#.#.#.#.#.#.#.#.#.#.#.#.................N P U T Q Q Q Q Q ! ! T Y D qX^.#.! T U s.sX8...Q ! P '.`.5.#.#...#.#.#.#.#.#.#.#.#.#.[ T Y P J D D S N }.sX5XF.[ #.-.7.#.#.O.#.#.#.#.#.#.#.#.#.#.#.#.#.#.#.#.#.#.#.#.#.#.#.#.#.",
"-.O.#.#.#.#.#.#.#.#.#.#.#.#.#.#.#.#.#.#.#.#.#.#.#.#.#.#.-.*.Q T T T T T T Q Q [ #.#.#.#.#.#.#.#.#...P S U Q Q P N P ! Q T A P T ! Q Q Q ! Q Q T T Y &.y.f...[ ..................#...#.#.#.......#.#.#.#.#.#.#.#.#.......#...#.#.#.#.#.#.#.......#.#.#.#...#.#.#.#.#.#.#.......#.#.#.#...#.#.#.#.#.#.#.#.#.....#.#.....#...#...O.........#.#.#.#.#.#.#.#.....#.#.#.#.#.#.....#.#.#.#...#.#.#.#.#.#.....................#...........................[ [ [ [ Y x G U T T Q Q Q Q Q Q T Y D qXk.Q Q T P Q.P.=.Q ! P M./.2.#.#.#.#.#.#.#.#.#.#.#.#.#.#.#.#.#.#.#.#.P D H.{.8.2.#.#.O.#.#.#.#.#.#.#.#.#.#.#.#.#.#.#.#.#.Q D Y ! Q P D T Q Q Y D Y T Q Q Q Q ! Q Q T T I B.[.U.......................................[ [ [ [ [ [ [ [ [ [ [ [ [ [ [ [ [ [ [ [ [ [ [ [ [ [ [ [ [ [ [ [ [ [ [ [ [ [ [ ) ) [ [ [ [ [ [ [ [ [ [ [ Q Q Q Q Q Q Q Q Q Q Q Q Q Q Q ! ! Q Q Q Q Q ! ! ! Q ! ! ! ! T T T T T T T T T T T T T T T T T T U U U U U U Y U U U I I I I I I I I I I I I I I I I P b P T ! Q Q Q Q Q Q ! T Y D qX^...! ! Y s.dX9.#.Q ! P '.`.5.#.#.#.#.#.#.#.#.#.#.#.#.#.[ T Y P D D D S N E.dXuXF.[ #.-.5.#.#.O.#.#.#.#.#.#.#.#.#.#.#.#.#.#.#.#.#.#.#.#.#.#.#.#.#.",
"-...#.#.#.#.#.#.#.#.#.#.#.#.#.#.#.#.#.#.#.#.#.#.#.#.#.#.-.*.Q T T T T T T Q Q [ ..#.#.#.#.#.#.#.#.#.P S U ! Q P N P ! Q T A P T T Q ! Q Q Q Q T T Y &.y.f.) Q ) ) ) ) ) ) ) ) ) ) ) ) [ ) ) ) ) ) ) [ ) ) [ [ ) ) ) Q Q ) ) ) ) ) ) ) ) ) Q Q Q ) ) ) ) ) ) ) ) ) ) ) ) Q Q ) Q Q Q Q Q Q Q Q Q Q ) ) ) Q Q Q Q ) Q Q Q Q Q Q Q Q Q Q Q Q T T T T T ! T T T T T T T T T T T T T T T T T T T T T T T Y Y Y Y Y Y Y Y Y Y Y Y Y Y Y Y Y Y Y Y Y Y Y I P P I G x G U T T Q Q Q Q Q Q T Y D qXk.Q Q T P Q.A.*.Q ! P M./.2.#.#.#.#.#.#.#.#.#.#.#.#.#.#.#.#.#.#.#.#.P D R.`.8.2.O.#.#.#.#.#.#.#.#.#.#.#.#.#.#.#.#.#.#.#.Q D Y ! Q Y D T Q Q Y D Y T Q Q Q Q ! Q Q T T I B.[.1.C C C C C C C C C C C C C C b b b b x x b b b b b b b b x b b x x N b b b x b b b b x x x x x x x k x x x x x x x x x x x x c x x x k k k k k k h h h k k k k k h h h h h h h h h h h h h h g g h h h h h h h h g g g g g g g g g g g g g g g g g g g g g g g g g g g g g g g g g g g g g g g g g g h P T Q Q Q Q Q Q Q ! T Y D qX^...Q ! P s.dX9.#.Q ! P '.`.5.#.#.#.#.#.#.#.#.#.#.#.#.#.Q T Y P D D D S x ].uXuXF.[ *.-.5.#.#.#.#.#.#.#.#.#.#.#.#.#.#.#.#.#.#.#.#.#.#.#.#.#.#.#.#.",
"-.O.#.#.#.#.#.#.#.#.#.#.#.#.#.#.#.#.#.#.#.#.#.#.#.#.#.#.-.*.Q T T T T T T Q Q [ ..#.#.#.#.#.#.....#.P S U Q Q P N P T Q T C P T T ! ! Q Q Q Q ! ! Y *.y.*.S C C C C C C C C C C C C C C C C C C C C C C C C C C C C C x b b b b b b b b b b x b b b b b b b b b b b b b b b b b x x x x x x x x x x x x x x x x x x x x x x x x x x x x x x x x x x x x x x x x x x x x x x x x x x x x x x x x x x x x x x x x x x x x x x x x x x x x x x x x x x x x x x x P U T ! Q Q Q Q Q Q ! U D qXk.Q Q T P Q.A.=.Q ! P M./.,.#.#.#.#.#.#.#.#.#.#.#.#.#.#.#.#.#.#.#.#.P D E.E.8.5.O.#.#.#.#.#.#.#.#.#.#.#.#.#.#.#.#.#.#.#.Q D Y ! Q Y Z T Q Q Y D Y T Q Q Q Q Q ! ! ! T I f.| p p s s s s s s s s s s s s s s s s g g g g g g g g g g g g g g g g g g g g g g g g g g g g g g g g g g g g g g g g g g g g g g g g g g g g g g g g g g g g k g k g g g g g g g h x x h k k k g g k k k k k k k k x x x x x x x x x x x x x x x x x x x x x x x x x x x x x x x x x x x x x x x x x b D T ! Q Q Q Q Q Q Q ! T Y D qX^.#.Q ! P *.sX9.#.Q ! P }.`.5.#.#.#.#.#.#.#.#.#.#.#.#.#.[ T Y P D D D S N }.sXpXF.[ #.-.5.#.#.O.O.#.#.#.#.#.#.#.#.#.#.#.#.#.#.#.#.#.#.#.#.#.#.#.#.",
"-.O.#.#.#.#.#.#.#.#.#.#.#.#.#.#.#.#.#.#.#.#.#.#.#.O.#.#.-.*.Q T T T T T T Q Q [ O.#.#.#.#.#.#...#.#.P S U Q Q P N P ! Q T C P T T ! ! Q Q Q Q ! ! T -.] k k k k x x x x x x x x k k x x x k h h h h h h k h k k k k h h k x x x x x x x x x x x x x x x x x x x x x x x x x x x x x x x x x x x x x x x x x x x x x x x x x x x x x x x x x x b b x x x b b b b b b b b x x x x x x x x x x x x x x x x b N N N b b b b b b b b b b b b b b b b x x x x x b C P T ! ! Q Q Q Q Q Q ! U D qXk.Q Q T Y Q.D.=.Q Q P M./.,.#.#.#.#.#.#.#.#.#.#.#.#.#.#.#.#.#.#.#.#.P D _.{.6.5.O.#.#.#.#.#.#.#.#.#.#.#.#.#.#.#.#.#.#.#.Q D Y ! Q Y Z T Q Q Y D Y T ! Q Q Q Q Q Q ! Q Y J D Z S S S S D H H J H S S S S S S S S S Z J P D S S S S S D D D D D S D D D D D D D J D D D D D J D P D D D D D P P D J D D D D D D G D D H J D D D D D P J D P D P D D D D D D D P P P D D D D D D D D D D G G G D D D D P D D D D D D D D D D D D D D D D D D D D J J D D D D D D D D D D D G D D G ^ U Q Q Q Q Q Q Q Q ! ! T Y D qX^.#.Q ! P *.dX9.#.Q ! P }.`.5.#.#.#.#.#.#.#.#.#.#.#.#.#.[ T Y P H D D S N }.dX8XH.[ #.-.5.#.#.#...#.#.#.#.#.#.#.#.#.#.#.#.#.#.#.#.#.#.#.#.#.#.#.#.",
"-.O.#.#.#.#.#.#.#.#.#.#.#.#.#.#.#.#.#.#.#.#.#.#.#.#.#.#.-.*.Q T T T T T T Q Q [ ..#.#.#.#.#.#.#.....P S U Q Q P N P ! Q T C P T T ! ! Q Q Q Q Q ! ! P C C C A A S S S S S S S S S S S S S S S S S D D D S S S D D D S S D D D D D D D D D D D D D D D D D D D D D D D D D D D D D D D D D D D D D D D D D D D D D D D D D D D D D D D D D D D D D D D D D D D D D D D D D D D D D D D D D D D D D D D D D D D D D D D D D G G G G G G G G G G G G G G G G G P Y ! Q Q Q Q Q Q Q Q T Y D }.k.Q Q T P Q.D.*.Q Q Y M./.,.#.#.#.#.#.#.#.#.#.#.#.#.#.#.#.#.#.#.#.#.Y J L.`.5.5.O.#.#.#.#.#.#.#.#.#.#.#.#.#.#.#.#.#.#.#.Q S Y Q Q Y S T Q Q Y D Y T ! Q Q Q Q Q Q Q Q T T P P P P P P P Y Y Y P P P P P P P P P I I Y Y P P P P P P P P P P P P P P P P P P P Y P U U U U T P T P U U T T T T P T T Y P P Y Y Y Y P Y T Y Y Y Y Y T T Y T Y T Y Y Y T T T T T T T Y Y Y Y T T T T T T ! ! ! T T T T T T T T T T T T T T T T T T T T T T T T T T T T T T T T T T T T T T T T T T ! Q Q Q Q Q Q Q Q Q ! ! T Y D qX^.#.Q ! P *.dX9.#.Q ! J Q.`.5.#.#.#.#.#.#.#.#.#.#.#.#.#.[ T Y P D D D S N Y.uXpXH.[ #.-.5.#.#.#.#.#.#.#.#.#.#.#.#.#.#.#.#.#.#.#.#.#.#.#.#.#.#.#.#.",
"-...#.#.#.#.#.#.#.#.#.#.#.#.#.#.#.#.#.#.#.#.#.#.#.#.#.#.=.*.T T T T T T T T Q [ ..#.#.#.#.#.#.#.....P S U Q Q P C P ! Q T C P U T ! Q Q Q Q Q Q ! T T P P P P P P I I I P P P P P P Y Y P P P P Y Y Y Y Y Y Y Y Y Y Y Y Y Y Y Y Y Y Y Y Y Y Y Y Y Y U U U U U U U U U U U U U U U U U U U U U U U U U U U U U U U U U U U U U U U U T T U U ~ ~ T T T T T T T T T T T T T T T T T ~ T T T T T T ~ ~ T T T T T T T T T T T ~ T T T ~ ~ ~ T T T T ~ ~ T T T T T T T Q Q Q Q Q Q Q Q T Y D }.k.Q Q ! P Q.D.*.Q Q Y M./.,.#.#.#.#.#.#.#.#.#.#.#.#.#.#.#.#.#.#.#.#.Y J E.U.5.5.O.#.#.#.#.#.#.#.#.#.#.#.#.#.#.#.#.#.#.#.Q S Y Q Q Y S T Q Q Y D P T ! Q Q Q Q Q Q Q Q ! T T T T T T T T T T T T T T T T T T T T T T T T T T T T T T T T T T T T T T T T T T T T ! Q Q Q Q T T T T Q Q Q Q T T T T ! ! ! ! ! T T T T T T T T T T T T T T T T T T T T ! ! ! T T T T T T T T T T T T T Q Q Q Q Q T T T T ! ! ! ! T T T T T T T T T T T T T T T T T T T T T T T T T T T T T T T T T Q Q Q Q Q Q Q Q Q Q Q ! T Y D qX^.#.Q ! P *.sX9.#.Q ! P Q.`.5.#.#.#.#.#.#.#.#.#.#.#.#.#.Q T Y P D D D S x Q.sXpXF.[ *.-.4.#.#.#.#.#.#.#.#.#.#.#.#.#.#.#.#.#.#.#.#.#.#.#.#.#.#.#.#.",
"-...#.#.#.#.#.#.#.#.#.#.#.#.#.#.#.#.#.#.#.#.#.#.#.#.#.#.=.*.Q T T T T T T ! Q [ ..#.#.#.#.#.#.#.....P S U Q Q P C P ! Q T C P T T Q Q Q Q Q Q Q ! Q Q ! T T T T T T T ! T ! T ! T T ! T T ! T T ! T T T T T T ! ! T T ! ! ! ! T T T T ! T T T ! ! ! T ! ! T ! ! T ! T ! ! ! ! T ! T ! ! ! ! ! ! ! ! T ! ! ! ! ! ! ! T ! ! ! ! ! ! ! ! ! ! ! ! ! T T ! T Q Q ! T Q T Q Q Q Q Q T Q T T Q Q ! T Q Q Q Q Q Q Q ! Q Q T ! ! ! ! ! Q ! T T T ! ! ! ! T T T Q ! T ! ! Q Q Q Q Q Q Q Q Q T Y D }.k.Q Q ! P Q.B.*.Q Q Y M./.,.#.#.#.#.#.#.#.#.#.#.#.#.#.#.#.#.#.#.#.#.Y J _.2X5.5.O.#.#.#.#.#.#.#.#.#.#.#.#.#.#.#.#.#.#.O.! A Y Q Q Y S T Q Q Y D P T ! Q Q Q Q Q Q Q Q ! T T T T T T T T T T T T T T T T T T T T T T T T T T T T T T T T T T T T T T T T T T T T ! Q Q Q Q T T T T Q Q Q Q T T T T ! ! ! ! ! T T T T T T T T T T T T T T T T T T T T ! ! ! ! T T T T T T T T T T T T Q Q Q Q ! T T T T ! ! ! ! T T T T T T T T T T T T T T T T T T T T T T T T T T T T T T T T T Q Q Q Q Q Q Q Q Q Q ! ! T Y D qX^.#.Q ! P *.dX8.#.Q ! P Q.`.5.#.#...#.#.#.#.#.#.#.#.#.#.[ T Y P D D D S N Q.dX8XH.[ #.-.5.#.#.#.#.#.#.#.#.#.#.#.#.#.#.#.#.#.#.#.#.#.#.#.#.#.#.#.#.",
"-.O.#.#.#.#.#.#.#.#.#.#.#.#.#.#.#.#.#.#.#.#.#.#.#.#.#.#.-.*.Q T T T T T T Q Q [ ..#.#.#.#.#.#.#.....P S U Q Q P C P ! Q T C P Y T ! Q Q Q Q Q Q Q Q Q Q Q Q ! ! ! ! ! Q ! Q Q Q Q Q Q Q Q Q Q Q Q Q Q Q Q Q Q Q Q Q Q Q Q Q Q Q Q Q Q Q Q Q Q Q Q Q Q Q Q ! Q Q Q Q Q Q Q Q Q Q Q Q Q Q Q Q Q Q Q Q Q Q Q Q Q Q Q Q Q Q Q Q Q Q Q Q Q Q Q Q Q Q Q Q Q Q Q Q Q Q Q Q Q Q Q Q Q Q Q Q Q Q Q Q Q Q Q Q Q Q Q Q Q Q Q Q Q Q Q ! Q Q Q ! ! ! Q Q Q Q ! ! Q Q Q Q Q Q Q Q Q Q Q Q Q Q Q T Y D }.k.Q ) ! P Q.B.*.Q Q Y M..X,.#.#.#.#.#.#.#.#.#.#.#.#.#.#.#.#.#.#.#.#.Y J L.:X6.5.O.O.O.#.#.#.#.#.#.#.#.#.#.#.#.#.#.#.#.O.! A Y Q Q Y S T Q Q Y D P T T Q Q Q Q Q Q Q Q ! ! ! ! Q Q Q Q Q Q Q Q ! ! ! ! Q Q Q Q Q Q Q Q Q Q Q Q Q Q Q Q Q Q Q Q Q Q Q Q Q Q Q Q Q Q Q Q Q Q Q Q Q Q Q Q Q Q Q ! ! ! Q Q Q Q Q ! Q Q Q Q Q Q Q Q Q Q Q Q Q Q Q Q Q Q Q Q Q Q Q Q Q Q Q Q Q Q Q ! Q Q Q Q Q Q Q Q Q Q Q Q Q Q Q Q Q Q Q Q Q Q Q Q Q Q Q Q Q Q Q Q Q Q Q Q Q Q Q Q Q Q ! Q Q Q Q Q Q Q Q Q Q Q Q Q Q Q Q ! ! T Y D qX^.#.Q ! P *.dX9.#.Q ! P Q.`.5.#...#.#.#.#.#.#.#.#.#.#.#.[ T Y P D D D S N J.8XpXJ.[ #.-.5.#.#.O.#.#.#.#.#.#.#.#.#.#.#.#.#.#.#.#.#.#.#.#.#.#.#.#.#.",
"2...#.#.#.#.#.#.#.#.#.#.#.#.#.#.#.#.#.#.#.#.#.#.#.O.#.#.-.*.Q T T T T T T ! Q [ ..#.#.#.#.#.#.#.#.#.P S U Q Q P C P ! Q T C P Y T ! ! Q Q Q Q Q Q Q Q Q Q Q Q Q ! ! ! Q Q Q Q Q Q Q Q Q Q Q Q Q Q Q Q Q Q Q Q Q Q Q Q Q Q Q Q Q Q Q Q Q Q Q Q Q Q Q Q Q Q Q Q Q Q Q Q Q Q Q Q Q Q Q Q Q Q Q Q Q Q Q Q Q Q Q Q Q Q Q Q Q Q Q Q Q Q Q Q Q Q Q Q Q Q Q Q Q Q Q Q Q Q Q Q Q Q Q Q Q Q Q Q Q Q Q Q Q Q Q Q Q Q Q Q Q Q Q Q Q Q Q Q Q Q Q Q Q Q Q Q Q ! Q Q Q Q Q Q Q Q Q Q Q Q Q Q T T T Y D }.k.Q Q ! Y Q.B.*.Q ! P M..X,.#.#.#.#.#.#.#.#.#.#.#.#.#.#.#.#.#.#.#.#.Y J E.E.6.5.O.#.O.#.#.#.#.#.#.#.#.#.#.#.#.#.#.#.#.O.Q A Y Q Q Y Z T Q Q U D P T T T ! T T Q Q Q Q Q Q Q Q Q Q Q Q Q Q Q Q Q Q Q Q Q Q Q Q Q Q Q Q Q Q Q Q Q Q Q Q Q Q Q Q Q Q Q Q Q Q Q Q Q Q Q Q Q Q Q Q Q Q Q Q Q Q Q Q Q Q Q Q Q Q Q Q Q Q Q Q Q Q Q Q Q Q Q Q Q Q Q Q Q Q Q Q Q Q Q Q Q Q Q Q Q Q Q Q Q Q Q Q Q Q Q Q Q Q Q Q Q Q Q Q Q Q Q Q Q Q Q Q Q Q Q Q Q Q Q Q Q Q Q Q Q Q Q Q Q Q Q Q Q Q Q Q Q Q Q Q Q Q Q Q Q Q Q T T T P D qX^...Q ! P =.sX9.#.Q ! P Q.`.5.#.#...#.#.#.#.#.#.#.#.#.#.[ T Y P D D D S M Q.pXuXH.[ #.-.5.#.#.O.#.#.#.#.#.#.#.#.#.#.#.#.#.#.#.#.#.#.#.#.#.#.#.#.#.",
"2...#.#.#.#.#.#.#.#.#.#.#.#.#.#.#.#.#.#.#.#.#.#.#.O.#.O.-.*.T T T T T T T T Q [ ..#.#.#.#.#.#.#.#...P S U Q Q P C P ! Q T C P Y U T ! Q Q Q Q Q Q Q Q Q Q Q Q Q Q Q Q Q Q Q Q Q Q Q Q Q Q Q Q Q Q Q Q Q Q Q Q Q Q Q Q Q Q Q Q Q Q Q Q Q Q Q Q Q Q Q Q Q Q Q Q Q Q Q Q Q Q Q Q Q Q Q Q Q Q Q Q Q Q Q Q Q Q Q Q Q Q Q Q Q Q Q Q Q Q Q Q Q Q Q Q Q Q Q Q Q Q Q Q Q Q Q Q Q Q Q Q Q Q Q Q Q Q Q Q Q Q Q Q Q Q Q Q Q Q Q Q Q Q Q Q Q Q Q Q Q Q Q Q Q Q Q Q Q Q Q Q Q Q Q Q Q Q Q Q T T T Y D }.k.Q Q ! Y Q.B.*.Q ! P M..X,.#.#.#.#.#.#.#.#.#.#.#.#.#.#.#.#.#.#.#.#.Y J _.:X6.5.O.#.O.#.#.#.#.#.#.#.#.#.#.#.#.#.#.#.#.#.Q Z Y Q Q Y Z T Q Q U D P Y T T T T T T T Q Q Q Q Q Q Q Q Q Q Q Q Q Q Q Q Q Q Q Q Q Q Q Q Q Q Q Q Q Q Q Q Q Q Q Q Q Q Q Q Q Q Q Q Q Q Q Q Q Q Q Q Q Q Q Q Q Q Q Q Q Q Q Q Q Q Q Q Q Q Q Q Q Q Q Q Q Q Q Q Q Q Q Q Q Q Q Q Q Q Q Q Q Q Q Q Q Q Q Q Q Q Q Q Q Q Q Q Q Q Q Q Q Q Q Q Q Q Q Q Q Q Q Q Q Q Q Q Q Q Q Q Q Q Q Q Q Q Q Q Q Q Q ! Q Q Q Q Q Q Q Q Q Q Q Q Q Q Q T T T Y P H S qX}...Q Q P =.dX9.#.Q ! P Q.`.5...#...#.#.#.#.#.#.#.#.#.#.] T Y P D D D S x Q.dX7XK.[ *.-.5.#.#.#.#.#.#.#.#.#.#.#.#.#.#.#.#.#.#.#.#.#.#.#.#.#.#.#.#.",
"2...#.#.#.#.#.#.#.#.#.#.#.#.#.#.#.#.#.#.#.#.#.#.#.O.O.O.-.*.Q T T T T T T ! Q [ ..#.#.#.#.#.#.#.#.#.P S U Q Q P C P ! Q T C G I U T ! ! T ! Q Q Q Q Q Q Q Q Q Q Q Q Q Q Q Q Q Q Q Q Q Q Q Q Q Q Q Q Q Q Q Q Q Q Q Q Q Q Q Q Q Q Q Q Q Q Q Q Q Q Q Q Q Q Q Q Q Q Q Q Q Q Q Q Q Q Q Q Q Q Q Q Q Q Q Q Q Q Q Q Q Q Q Q Q Q Q Q Q Q Q Q Q Q Q Q Q Q Q Q Q Q Q Q Q Q Q Q Q Q Q Q Q Q Q Q Q Q Q Q Q Q Q Q Q Q Q Q Q Q Q Q Q Q Q Q Q Q Q Q Q Q Q Q Q Q Q Q Q Q Q Q Q Q Q Q Q Q Q ! T T T Y I D }.k.Q Q ! Y Q.B.*.Q Q Y M..X,.#.#.#.#.#.#.#.#.#.#.#.#.#.#.#.#.#.#.#.#.Y J L.<X6.5...#.#.#.#.#.#.#.#.#.#.#.#.#.#.#.#.#.#.#.Q Z Y Q Q Y Z T Q Q U S J Y P Y Y T T T T Q Q Q Q Q Q Q Q Q Q Q Q Q Q Q Q Q Q Q Q Q Q Q Q Q Q Q Q Q Q Q Q Q Q Q Q Q Q Q Q Q Q Q Q Q Q Q Q Q Q Q Q Q Q Q Q Q Q Q Q Q Q Q Q Q Q Q Q Q Q Q Q Q Q Q Q Q Q Q Q Q Q Q Q Q Q Q ] Q Q Q Q Q Q Q Q Q Q Q Q Q Q Q Q Q Q Q Q Q Q Q Q Q Q Q Q Q Q Q Q Q Q Q Q Q Q Q Q Q Q Q Q Q Q Q Q Q Q Q Q Q Q Q ! ! ! ! Q Q Q Q Q Q Q Q Q Q Q Q T T P P P D A }.}.[ Q Q P =.dX9.#.Q ! P Q.`.5.#.#...#.#.#.#.#.#.#.#.#.#.[ ! Y P D D D S x H.dXuXH.[ #.-.5.#.#.@.@.#.#.#.#.#.#.#.#.#.#.#.#.#.#.#.#.#.#.#.#.#.#.#.#.",
",.O.#.#.#.#.#.#.#.#.#.#.#.#.#.#.#.#.#.#.#.#.#.#.#.O.O.O.-.*.Q T T T T T T Q Q [ ..#.#.#.#.#.#.#.#...P S U ! Q P C P ! Q T C G P Y T T T T T T T Q Q Q Q Q Q Q Q Q Q Q Q Q Q Q Q Q Q Q Q Q Q Q Q Q Q Q Q Q Q Q Q Q Q Q Q Q Q Q Q Q Q Q Q Q Q Q Q Q Q Q Q Q Q Q Q Q Q Q Q Q Q Q Q Q Q Q Q Q Q Q Q Q Q Q Q Q Q Q Q Q Q Q Q Q Q Q Q Q Q Q Q Q Q Q Q Q Q Q Q Q Q Q Q Q Q Q Q Q Q Q Q Q Q Q Q Q Q Q Q Q Q Q Q Q Q Q Q Q Q Q Q Q Q Q Q Q Q Q Q Q Q Q Q Q Q Q Q Q Q Q Q Q Q Q ! ! T T Y Y P P S }.k.Q Q ! P Q./.*.Q Q Y M..X,.#.#.#.#.#.#.#.#.#.#.#.#.#.#.#.#.#.#.#.#.Y J W.T.6.5...#.#.#.#.#.#.#.#.#.#.#.#.#.#.#.#.#.#.#.] Z Y Q Q Y S T Q Q ~ Z P P P P T T Y T T T T ! Q Q Q Q Q Q Q Q Q Q Q Q Q Q Q Q Q Q Q Q Q Q Q Q Q Q Q Q Q Q Q Q Q Q Q Q Q Q Q Q Q Q Q Q Q Q Q Q Q Q Q Q Q Q Q Q Q Q Q Q Q Q Q Q Q Q Q Q Q Q Q Q Q Q Q Q Q Q Q Q Q Q Q Q Q Q Q Q Q Q Q Q Q Q Q Q Q Q Q Q Q Q Q Q Q Q Q Q Q Q Q Q Q Q Q Q Q Q Q Q Q Q Q Q Q Q Q Q Q Q Q Q Q Q Q Q Q Q Q Q ! ! ! ! ! Q Q Q Q Q Q Q Q ! T T U Y I P P D C }.}.[ Q Q P =.sX9.#.Q ! P Q.`.5.#.#...#.#.#.#.#.#.#.#.#.#.[ ! Y P D D D S N Q.uXuXJ.[ #.-.5.#.#.#.O.#.#.#.#.#.#.#.#.#.#.#.#.#.#.#.#.#.#.#.#.#.#.#.#.",
"2...#.#.#.#.#.#.#.#.#.#.#.#.#.#.#.#.#.#.#.#.#.#.#.#.#.#.-.*.Q T T T T T T ! Q [ ..#.#.#.#.#.#.#.#.#.P S U ! Q P C P ! Q Q C G P Y U U T T T T T Q Q Q Q Q Q Q Q Q Q Q Q Q Q Q Q Q Q Q Q Q Q Q Q Q Q Q Q Q Q Q Q Q Q Q Q Q Q Q Q Q Q Q Q Q Q Q Q Q Q Q Q Q Q Q Q Q Q Q Q Q Q Q Q Q Q Q Q Q Q Q Q Q Q Q Q Q Q Q Q Q Q Q Q Q Q Q Q Q Q Q Q Q Q Q Q Q Q Q Q Q Q Q Q Q Q Q Q Q Q Q Q Q Q Q Q Q Q Q Q Q Q Q Q Q Q Q Q Q Q Q Q Q Q Q Q ! ! Q Q Q ! ! ! ! ! ! ! ! ! Q Q ! ! ! T T Y Y Y P I G S }.v.Q Q ! P Q./.=.Q Q Y M..X,.#.#.#.#.#.#.#.#.#.#.#.#.#.#.#.#.#.#.#.#.Y J ).=X6.5...#.#.#.#.#.#.#.#.#.#.#.#.#.#.#.#.#.#.#.] Z Y Q Q Y S T Q Q T A J P P P Y Y Y Y T T T T ! Q Q ! ! Q Q Q Q Q Q Q Q Q Q ! ! ! ! ! ! ! Q Q Q Q Q Q Q Q Q Q Q Q Q Q Q Q Q Q Q Q Q Q Q Q Q Q Q Q Q Q Q Q Q Q Q Q Q Q Q Q Q Q Q Q Q Q Q Q Q Q Q Q Q Q Q Q ! ! ! Q ! Q Q Q Q Q Q Q Q Q Q Q Q ! ! Q Q Q ! ! ! Q Q Q Q Q Q Q Q Q Q Q Q Q Q Q Q Q ! Q Q Q Q Q Q Q Q Q Q Q Q Q Q Q Q Q T ! ! ! T ! ! ! ! ! ! ! ! ! ! T T P P I P I J D C }.}.@.Q Q Y =.dXf.#.Q ! P Q.`.5.......#.#.#.#.#.#.#.#.#.#.) T Y P D D D S x Q.sX5XK.[ #.-.5.#.#.#.#.#.#.#.#.#.#.#.#.#.#.#.#.#.#.#.#.#.#.#.#.#.#.#.#.",
"2...#.#.#.#.#.#.#.#.#.#.#.#.#.#.#.#.#.#.#.#.#.#.#.#.#.#.=.*.T T T T T T T T Q [ ..#.#.#.#.#.#.#.#...P S U Q Q P C P ! Q Q C G P I I Y Y Y Y T T T T T T T T T T T T T T T T ! ! ! ! ! ! ! ! ! ! ! ! T T T T Q ! T ! ! T T T T T T T T T T T T T T T T T T Q Q T T ! T T T T T T T T T T T T T T T T T T T T T T T T T T T T T T T T T T T T T T T T T T T T T T T T T T T T T T T T T T T T T T T T T T T T T T T T T T T T T T T T T T T T T T T T T T ~ T T T T ~ U U Y I I I I P G S }.k.Q Q T P Q./.*.Q Q P M..X,.#.#.#.#.#.#.#.#.#.#.#.#.#.#.#.#.#.#.#.#.Y J L.2X6.5...#.#.#.#.#.#.#.#.#.#.#.#.#.#.#.#.#.#.#.] Z Y Q Q Y S T Q Q T A J P P P P P P P P Y T T U T T T T T T T T T T T T T T T T T T T T T T T T Q ! T T Q Q ! Q Q ! ! ! ! ! ! T T T T T ! ! Q T T Q T T T T T T T T T Q ! Q ! Q Q T T T T T T T T T T T T T T T T T T T ! T T T T T T T T T T T T ! T T T T T T T T T T T T T T T T T T T T T T T T T T T T T T T T T T T T T T T T T T T T T T T T T T T T T Y P P K J J J J D S C }.}.#.Q Q Y =.dXj.#.Q ! I Q.`.5.......#.#.#.#.#.#.#.#.#.#.) Q T P D D D D b F.dXuXH.[ *.-.4.*.#.#.#.#.#.#.#.#.#.#.#.#.#.#.#.#.#.#.#.#.#.#.#.#.#.#.#.",
"2...#.#.#.#.#.#.#.#.#.#.#.#.#.#.#.#.#.#.#.#.#.#.#.#.#.#.-.*.Q T T T T T T T Q [ ..#.#.#.#.#.#.#.....P S U Q Q P C P ! Q Q C D P J P I I I P Y Y T T U T T T T T T T T T T T T T T T T T T T T T T T T T T T T T T T T T T T T T T T T T T T T T T T T T T T T T T T T T T T T T T T T T T T T T T T T T T T T T T T T T T T T T T T T T T T T T T T T T T T T T T T T T T T T T T T T T T T T T T T T T T T T T T T T T T T T T T T T T T T T T T ~ T T ~ T T T T ~ U U Y Y I I I J D A }.v.Q Q T P Q./.*.Q Q P M..X,.#.#.#.#.#.#.#.#.#.#.#.#.#.#.#.#.#.#.#.#.Y J W.:X6.5...#.#.#.#.#.#.#.#.#.#.#.#.#.#.#.#.#.#.#.] Z Y Q Q Y S T Q Q T C J J J J J J J J P P P P P T T T T T T Y T T T T T T T T T U U T T U U T T T T T T T T T T T T T T T T T T U T T T T T T T T T T T T T T T T T T T T T T T T T T T T T T T T T T T T T T T T T T T T U T T T T T T T T T T T U T T T T U T T T T T T T T T T T U U U U T U U U Y Y Y Y Y Y P P P P Y Y Y Y Y Y Y Y Y Y Y P P P P P P P P P J J H D D D D D b N }.}.#.Q ! Y =.sXg.#.Q ! P Q.:X5.#.#...#.#.#.#.#.#.#.#.#.#.) ! Y P D D D D x P.uXsXK.[ #.-.5.*.#.#.#.#.#.#.#.#.#.#.#.#.#.#.#.#.#.#.#.#.#.#.#.#.#.#.#.",
",...#.#.#.#.#.#.#.#.#.#.#.#.#.#.#.#.#.#.#.#.#.#.#.#.#.#.*.*.Q T T T T T T Q Q [ ..#.#.#.#.#.#.#.....P S U Q Q P C P ! Q Q N S S G P I I I Y P P Y T U U T T T T T T T T T T T T T T T T T T T T T T T T T T T T T T T T T T T T T T T T T T T T T T T T T T T T T T T T T T T T T T T T T T T T T T T T T T T T T T T T T T T T T T T T T T T T T T T T T T T T T T T T T U U U Y Y Y Y Y Y Y Y Y Y Y Y Y Y Y Y P P Y Y Y Y Y Y Y Y Y Y Y Y Y Y I I Y Y Y P P P P I I P P P G G G D D C }.v.Q Q T P Q./.*.Q Q P M..X,.#.#.#.#.#.#.#.#.#.#.#.#.#.#.#.#.#.#.#.#.Y J J.`.6.5...#.#.#.#.#.#.#.#.#.#.#.#.#.#.#.#.#.#.#.] Z Y ! Q Y S U Q Q T C D D S D D D S D D D D D H H H H H H H H H H H H H H H H J G G J J G G G G G G G G D D D G G G D D D D D D G D G G G G G G D D D D D D D D D D D D D D D D D D D D D D D D D D D D D D D D D D D D D D D D D D D D D D D D D D D D D D D D D D D D D D D D D D D D D D D D D S [ [ [ [ [ [ | | [ [ [ [ [ [ [ [ [ | | | | Q ] ] ] Q Q ! Q Q ! T =.=.*.} *.[ | ! }.|.&.! ! Y =.sXu.#.Q Q I Q.:X5.#.#...#.#.#.#.#.#.#.#.#.#.[ ! Y P D D D D N Q.pXpXL.[ #.-.5.*.#.#.O.#.#.#.#.#.#.#.#.#.#.#.#.#.#.#.#.#.#.#.#.#.#.#.#.",
"2...#.#.#.#.#.#.#.#.#.#.#.#.#.#.#.#.#.#.#.#.#.#.#.O.O.O.*.*.Q T T T T T T T Q [ ..#.#.#.#.#.#.#.#.#.P S U Q Q P C P ! Q Q x N C S D D D D D D D D G G G G J J J J J J J J G J J J J J J J J J J J J J J J J J J D G G G G G G G G D D D D D G G G G G G D D D D D D D D D D D D D D D D D D D D D D D D D D D D D D D D D D D D D D D D D D D D D D D D D D D D D D D D D D D D D D D D D D D D D D D D D D D Q Q Q Q Q Q Q Q Q Q Q Q Q Q Q Q Q ! ! ! ! ! Q Q Q ! T T T Y P | | | | ] ! }.k.Q ! Q Y Q./.*.Q Q P M..X2.#.#.#.#.#.#.#.#.#.#.#.#.#.#.#.#.#.#.#.#.Y J c.2X6.5.......#.#.#.#.#.#.#.#.#.#.#.#.#.#.#.#.#.] Z Y ! Q Y S Y Q Q T 0.0.8.8.8.8.1.-.1.1.1.1.4.3.f.f.f.f.f.f.f.f.f.f.f.f.f.f.f.f.f.f.f.f.f.f.f.0.0.q.q.0.r.r.x.x.j.f.f.f.j.j.f.f.j.j.j.j.j.j.j.j.j.j.j.j.j.t.t.t.t.t.t.t.t.x.x.v.v.v.v.v.v.v.v.v.v.v.v.v.v.v.v.v.v.m.m.v.v.y.y.y.d.d.y.b.b.b.b.b.b.b.b.b.b.b.b.b.b.b.N.N.N.N.N.N.N.N.N.x.x.k.x.j.j.x.x.x.f.f.f.j.x.j.j.f.f.f.f.f.f.f.f.j.x.f.j.f.l.x.t.9.9.9.9.9.8.8.5.5.5.4.5.4.2.2.4.-.*.Q Q Y =.dXf.#.Q Q I Q.:X5.#.#.#.#.#.#.#.#.#.#.#.#.#.[ Q Y P D D D D x Q.dXuXL.[ @.-.5.*.#.#.#.#.#.#.#.#.#.#.#.#.#.#.#.#.#.#.#.#.#.#.#.#.#.#.#.",
"2...#.#.#.#.#.#.#.#.#.#.#.#.#.#.#.#.#.#.#.#.#.#.#.O.O.O.*.*.T T T T T T T T Q [ ..O.#.#.#.#.#.#.#.#.P S U Q Q P C P ! Q Q P P P P J I P P P U ! Q ) ..#.*.6.8.q.t.y.y.y.y.y.y.y.y.y.y.y.y.y.y.y.y.y.y.u.8.8.8.8.8.8.8.f.f.f.f.f.f.f.f.f.f.f.f.f.f.f.f.f.f.f.j.j.j.j.t.t.t.t.t.t.t.t.x.v.v.v.m.m.m.m.m.m.m.m.m.m.m.m.m.m.m.m.b.b.m.f.f.f.f.f.f.f.N.N.N.N.N.N.N.N.N.N.N.N.N.N.N.N.N.N.N.N.N.N.N.x.x.x.j.x.x.x.x.x.x.x.x.x.x.x.x.x.x.x.x.x.v.v.v.v.x.v.v.v.v.v.y.y.t.t.t.t.9.9.9.9.9.8.8.8.8.6.Q Q Q Y Q./.*.Q Q P M..X2.#.#.#.#.#.#.#.#.#.#.#.#.#.#.#.#.#.#.#.#.Y J F.:X6.5.......#.#.#.#.#.#.#.#.#.#.#.#.#.#.#.#.#.] Z Y ! Q Y S P Q ] T -.-.-.=.=.*.=.=.=.=.-.-.-.,.2.2.2.2.2.2.2.2.2.2.2.2.2.2.2.5.5.5.5.5.5.5.5.5.2.2.,.,.5.5.5.5.,.,.,.,.5.5.5.5.5.,.2.2.2.2.,.,.,.,.,.,.,.,.-.,.-.:.2.:.:.:.2.:.5.2.:.:.:.:.2.2.2.2.-.-.,.-.:.-.-.-.-.-.-.-.-.-.-.:.-.-.-.-.-.-.-.-.:.:.-.-.:.:.:.:.-.-.=.=.-.-.-.-.-.-.-.-.-.-.-.=.-.*.*.*.*.*.*.*.*.*.*.*.=.=.=.=.*.*.=.*.*.*.*.*.@.@.#.#.#.#.#.O.[ ] Q Q Q Q Q Q Q Q ! Q Q Y =.sXf.#.Q Q P Q.:X5.#.#.#.#.#.#.#.#.#.#.#.#.#.[ Q U P D D D D x Y.8XpXL.[ *.-.4.*.#.#.#.#.#.#.#.#.#.#.#.#.#.#.#.#.#.#.#.#.#.#.#.#.#.#.#.",
"2...#.#.#.#.#.#.#.#.#.#.#.#.#.#.#.#.#.#.#.#.#.#.@.@.O.@.*.*.Q T T T T T T T Q [ ..#.#.#.#.#.#.#.#.#.P S U Q Q P C P ! Q Q *.-.-.-.-.-.-.-.-.-.-.2.5.2.2.5.5.5.5.5.5.5.5.5.5.5.5.5.5.5.2.:.:.2.2.2.2.2.2.2.2.2.2.2.2.5.5.2.2.2.2.2.2.2.5.5.5.5.5.5.5.,.,.-.-.,.2.2.2.2.2.2.2.2.2.:.2.2.2.2.2.2.2.2.:.:.:.2.2.2.2.-.-.-.-.-.-.-.-.-.-.-.-.-.-.-.-.-.-.-.-.-.-.-.-.-.-.-.-.-.-.-.=.=.=.=.=.=.=.=.=.=.=.=.=.=.=.=.=.=.=.=.=.=.=.=.*.=.=.=.=.=.=.*.*.*.#.#.*.*.#.#.#.#.#.#.#.#...[ [ [ [ ) ) ..[ Q Q Q P Q./.*.Q Q Y M..X2.#.#.#.#.#.#.#.#.#.#.#.#.#.#.#.#.#.#.#.#.Y J J._.6.5.....#.#.#.#.#.#.#.#.#.#.#.#.#.#.#.#.#.#.] Z Y ! Q Y S P ] ] Q Q ) Q Q Q Q Q Q Q Q ] [ [ [ [ [ [ [ [ [ [ [ ............................#.#...O...O.#...#...O.O...O.#.#.#.#.#.O.O.O.O.O.O.O.O.O.O.O.O.O.O.O.O.#.#.#.....#.#.#.#.........#.#.#.#.....O.#.#.#.#.#.#.#.#.#.#.#.#.#.#.O.#.#.#.#.#.#.#...#.#.#.#.#.#.....#.#.#.#.....#.#.#.#.#.#.#...#.#.#.#.#.#.....#.#.#.#.....#.......#...#.....[ [ [ [ [ ....[ [ [ ] Q Q Q Q Q Q Q Q Q Q Q Y =.sXu.#.Q Q I Q.:X5.#.#.#.#.#.#.#.#.#.#.#.#.#.[ Q Y P D D D D M Q.pXpXU.[ #.-.5.*.@.#.#.#.#.#.#.#.#.#.#.#.#.#.#.#.#.#.#.#.#.#.#.#.#.#.#.",
",...#.#.#.#.#.#.#.#.#.#.#.#.#.#.#.#.#.#.#.#.#.#.#.#.#.#.*.*.Q T T T T T T Q Q [ ..#.#.#.#.#.#.#.#...P S U Q Q P C P ! Q Q Q Q Q Q Q Q ! Q Q Q Q [ ..[ [ [ O...........................#.........#.#.#.#.#.#.#.#.....#.#.#.#.#.#.#.#.#.#.#.O.#.#.#.#.#.#...#.#.#.#.#.#.#.#.#.#.#.#.#.#.#.#.#.#.#.#.#.........#.#.#.#.#.#.....#.#.#.#.#.#.#.#.#.#.#.#.#.#.#.#.#.#.#.#.#.#.#.#.#.#.#.#.#.#...#...#.#.#.#.#.#.#.#.#.#.#.#.#...#.#.........#.#.#...............[ [ [ ....[ [ [ [ Q Q Q Q Q Q Q ) Q Q Q P Q./.*.Q Q Y M..X2.#.#.#.#.#.#.#.#.#.#.#.#.#.#.#.#.#.#.#.#.Y J Y.:X6.5...#.#.#.#.#.#.#.#.#.#.#.#.#.#.#.#.#.#.#.] Z Y ! Q Y S P ] ] Q Q [ [ ) [ [ [ Q [ ..........................#.#.#.#.#.#.#.#.#.#.........#.#.#.#...#.#.#.#.#.#.#.#.#.#.#.#.#.#.#.#.#.#.O.O.O.#.#.#.#.#.#.#.#.#.#.#.#.#.O.#.#.#.#...#.#.#.#.#.#.#.#.#.#.#.#.#.#.#.#.#.#.#.#.#.O.#.#.#.#.#.#.#.#.#.#.#.#.#.#.#.#.#...#.#.#.#.#.....#.#.#.#.#.#.#.#.#.#.#.#.#.#.#...#.#.#.#.#...........#...#.......[ [ [ [ ....[ [ [ [ [ [ ..[ [ ) [ [ ] Q ! Y =.dXf.#.Q Q I Q.:X5.#.#.#.#.#.#.#.#.#.#.#.#.#.[ Q Y P J D D D N Q.dX8X`.[ #.-.5.*.#.#.#.#.#.#.#.#.#.#.#.#.#.#.#.#.#.#.#.#.#.#.#.#.#.#.#.",
"2...#.#.#.#.#.#.#.#.#.#.#.#.#.#.#.#.#.#.#.#.#.#.#.#.#.#.*.*.Q T T T T T T T Q [ ..#.#.#.#.#.#.#.#.#.P S U ! Q P C P ! Q Q [ [ [ ..[ [ ..............[ [ ..............#.#.#...........#.#.#.....#.#.......#.#.#.#.#.........#.#.#.#.....#.#.#.#.#.#.........#.#.#.#.....#.#.#.#.#.#.#.#.#.#.........#.#.#.......#.#.#.......#.#.#.#.........#.#.#.#.#.#.#.#.#.#.#.#.............#...........#.#.#.#.............#.#.#.#.#...#.#.#.#...........................[ [ ....[ [ [ [ [ [ [ ..[ [ ) Q Q Q P Q./.*.Q Q Y M..X,.#.#.#.#.#.#.#.#.#.#.#.#.#.#.#.#.#.#.#.#.Y J F.=X6.2...#.#.#.#.#.#.#.#.#.#.#.#.#.#.#.#.#.#.#.] Z Y ! Q Y S P ] Q ] Q [ [ ....[ [ [ [ ....................................#...#.#.#.........#.#.....#.#.#.#.#.#.#.#.........#.#.#.#.#.#.#.#.#.#.#.#.#.#.#.#.#.#.#.#.#.#.#.#.#.......#.#.#.#.#.#.#.#.#.#.#.#.#.#...#.#.......O...#.#.#.#...#.#.#.#.#.#.#.....#.#.#.#.#.#.#.#.#.#.#.#.O.#.....#.#.....#.#.#.#.#.#.#.....#.....................#.#.....................[ [ [ ....[ ) ) [ [ ] Q T Y D sXf.#.Q Q P Q.:X5.#.#.#.#.#.#.#.#.#.#.#.#.#.[ T Y P D D D D N x.7XpXU.[ #.-.5.*.#.#.O.#.#.#.#.#.#.#.#.#.#.#.#.#.#.#.#.#.#.#.#.#.#.#.#.",
"2...#.#.#.#.#.#.#.#.#.#.#.#.#.#.#.#.#.#.#.#.#.#.#.#.#.#.*.*.T T T T T T T T Q [ [ O.#.#.#.#.#.#.#.#.P S U ! Q P C P Q Q Q [ ) [ ....................[ ............#...#.#...............#.#...#.#.#.........#.#.#.#.........#.#.#.#.....#.#.#.#.#.#.........#.#.#.#.....#.#.#.#.#...#.#.#.#.....#...#.#.#.......#.#.........#.#.#.#.#.......#.#.#.#.#.#...#.....#.#...#.....#.#.#.#.....#...#.#.#.#.#.#.....#.#.#.#.#.#.....#.#.#.#.........#...................[ ......[ [ [ [ [ [ [ [ [ ) Q Q ! P Q./.*.Q Q Y M..X2.#.#.#.#.#.#.#.#.#.#.#.#.#.#.#.#.#.#.#.#.Y J H.E.6.5...#.#.#.#.#.#.#.#.#.#.#.#.#.#.#.#.#.#.#.] Z Y ! Q Y S P ] Q ] Q ) [ [ ..[ [ [ [ ..........................#.......#.#...#.#.#.........#.#.....#.#.#.#.#.#...#.........#.#.#.#.#.#...#.#.#.#.#...#.....#.#.#.#.#.#.#.#.#.#.....#.#.#.#.#.#.#.#.#.#.#.#.#.#...#.#.......#...#.#.#.#...#.#.#.#.#.#.#.....#.#.#.#.#.#.#.#.#.#.#.#...#.....#.......#.#.#.#.#.#.#.#.#.#.........................#...............[ ..[ [ [ ......[ [ [ [ ] Q T T D sXu.#.Q Q P M.:X5.#.#.#.#.#.#.#.#.#.#.#.#.#.) ! U P D D D D x M.pXuXU.[ *.-.4.*.#.#.O.#.#.#.#.#.#.#.#.#.#.#.#.#.#.#.#.#.#.#.#.#.#.#.#.",
",...#.#.#.#.#.#.#.#.#.#.#.#.#.#.#.#.#.#.#.#.#.#.#.......*.*.! T T T T T T T Q [ ..#.#.#.#.#.#.#.#.#.Y S U ! Q P C P Q Q Q ] [ [ ....[ ................[ ......O.#...O.....#...........#.#.#.#...#.#.....#.#.#.#.#.#.#.#...#.#.#.#.......#.#.#.#.#.#.#.#...#.#.#.#.......#.#.#.#.........#.......#.#.#.#.#.#.........#.#.#.#...#.#.#.#...#.#.#.#...#.............#.#.#.#.#.#.#.#.#.#.#.#...#.#.#.#.#.#...#.#.#.#.#.#.#...........#.#.#.....O.#.#.#.O...[ [ ..........#...[ [ [ [ [ [ [ [ [ ) ) Q T P Q./.*.Q Q Y M..X2.#.#.#.#.#.#.#.#.#.#.#.#.#.#.#.#.#.#.#.#.Y J Y.=X6.5...#.#.#.#.#.#.#.#.#.#.#.#.#.#.#.#.#.#.#.] S Y Q Q Y S P Q Q Q Q ) ) ) ..[ [ [ [ ..........................#.....#.#.#.....#.#.#.#.....#.#.....#...#.#.............#.#.#.#.#.#.......#.#.#...#.............#.#.#.#.#.#.#.#.O...#.#.#.#.#.#.....#.#.#.#.........#...#.#.#.#.#.#.#.#.........#.#.#.#...#.#.#.#.#.#.#.....#...#.#.........#.#.....#.#.#.#.....#.#.#.#.#.#.....................................[ [ [ [ [ ......[ [ [ [ [ Q ! Y D dXx.#.Q Q P M.:X5.#.#...#.#.#.#.#.#.#.#.#.#.[ Q Y P D D D D N M.dX8XW.[ #.-.5.*.#.#.#.#.#.#.#.#.#.#.#.#.#.#.#.#.#.#.#.#.#.#.#.#.#.#.#.",
",...#.#.#.#.#.#.#.#.#.#.#.#.#.#.#.#.#.#.#.#.#.#.#.......*.*.Q T T T T T T Q Q [ ..#.#.#.#.#.#.#.#.#.Y S U T Q P C P ! Q Q ] [ [ ....[ [ [ [ [ [ ......[ ......O.#.........#...........#.#.#.#.#.#.#.....#.#.#.#.#.#.#.#.#...#.#.........#.#.#.#.#.#.#.#.#...#.#.#.#.......#.#.#.....#.#.#.#.#.#.#.#.#.#.#.#.#...#.#.#.#.#.#.#.#.#.#.#...#.#.#.#.#.#.#...........#.#.#.#.#.#.#.#.#.#.#.#...#.#.#.#.#.#...#.#.#.#.#.#.#...........#.#.#.#...............................[ [ [ [ [ [ [ [ ) [ ) Q Q T P Q./.*.Q Q Y s..X2.#.#.#.#.#.#.#.#.#.#.#.#.#.#.#.#.#.#.#.#.Y J F.<X6.5...#.#.#.#.#.#.#.#.#.#.#.#.#.#.#.#.#.#.#.] S Y Q Q T S Y Q Q ] Q ) [ [ ..[ [ [ [ ................................#.#.......#.#.#.#...#.#.#.........#.#.........#.#.#.#.#.#.#.#.......O.#.#.#.#...........#.#.#.#.#.#.#.#.#.#.#.#.#.O.#.#.#.........#.#.#.......#.#.#.#.#.#.#.#.#.#.........O.#.#.#...#.#.#.#.#.............#.#.#.#.#.#.#.#.........#.#.....#.#.#.#.#.#.............#.#...#...................[ [ [ [ ....[ [ [ [ [ [ Q Q Y D sXx.#.Q Q P M.:X5.....#.#.#.#.#.#.#.#.#.#.#.[ Q Y P J D D D N x.dXpXE.[ #.-.5.*.#.#.#.#.#.#.#.#.#.#.#.#.#.#.#.#.#.#.#.#.#.#.#.#.#.#.#.",
",...#.#.#.#.#.#.#.#.#.#.#.#.#.#.#.#.#.#.#.#.#.#.#.#.#...*.*.Q T T T T T T T Q [ ..#.#.#.#.#.#.#.#.#.Y S U ! Q P C P ! Q Q ] [ [ ....[ [ [ [ [ [ ..[ ......................#.#.#.......#.#.#.#.#.#.#.#.#.#...........#.#.#.#.#.#.#.#.#.#.#.#.#.#.......#.#.#.#.#.............#.#.#...#.#.....#.#.#.O.O.#.#.#.#.#.#.....#.#.#.#.#.#.#.#.#.#.#...#.#.#.#...........#.#.#.#.#.#.#.....#.#.#.#.#.#.#.#.#.#.#.#.#.#...........#.......#...#.#.#...........................[ [ [ [ ..........) [ [ ] Q T Y Q./.*.Q ! Y s..X2.#.#.#.#.#.#.#.#.#.#.#.#.#.#.#.#.#.#.#.#.Y J H.T.6.5...O.#.#.#.#.#.#.#.#.#.#.#.#.#.#.#.#.#.#.] S Y Q Q T S T Q Q ] ] [ [ ....[ ..[ [ ....[ ............................#.........#.#.#.#.#.#.#.#.#.......#.....#.#.#...#.#.#.........#.#.#.....O.#.#...........#.#.#.#.#.#.#.#.#.#.#.#...#.#.#.....#.#.#.#.#.#.........#.#.#.#.#.#.#.#.#.#.#.#.#.#.....#.#.#...#.#.#.#...........#.#.#.#.#.#.#.#.#.#.....#.....#.#.#.#.#.#.#.............#...#...................[ [ [ [ ......[ [ [ [ [ Q Q U S sXf.#.Q Q P M.:X5.#.#...#.#.#.#.#.#.#.#.#.#.[ Q Y P H D D D N v.uXuXE.[ #.-.5.*.#.#.#.#.#.#.#.#.#.#.#.#.#.#.#.#.#.#.#.#.#.#.#.#.#.#.#.",
"2...#.#.#.#.#.#.#.#.#.#.#.#.#.#.#.#.#.#.#.#.#.#.#.#.#.#.*.*.T T T T T T T T Q [ ..O.#.#.#.#.#.#.#.#.Y S U Q Q P C P ! Q Q ] [ [ [ [ [ [ [ [ [ [ ..[ ....................#.#.#.#.....#.#.#.#.#.#.#.#.#.#.#...........O.#.#.#.#...#.#.#.#.#.O.#.O...#.#.#.#.#.#.#.............#.#.#.#.#.#.#...#.#.#...O.#.#.#.#.#.#.#...#.#.#.#.#.#.#.#.#.#.#...#.#.#.#.#.#.......#.#.#.#.#.#.#.....O.#.#.#.#.#.#.#.#.#.#.#.#.............#.#.....#...#.#.#.#.........................[ [ [ [ ....) ....) [ [ [ Q T T Q./.*.Q ! Y s..X2.#.#.#.#.#.#.#.#.#.#.#.#.#.#.#.#.#.#.#.#.Y J Y.OX6.5...O.#.#.#.#.#.#.#.#.#.#.#.#.#.#.#.#.#.#.] S P Q Q T A Y Q Q ] ] [ [ ..............[ [ [ ....#.#.......#.#.#.#.....#.#.....#.#.#.#.#.#.#.#...#.......#.#.#.#.#.....#.#.#...........#.#...#.....#.....#.....#.#.#.#.....#.#.#.#.#.#...#.#.#.....#.#.....#.#...#.....#.#.#.#.#.#.#.#.#.#.#.#.#.#.....#.#.....#.#.#.#.............#.#.#.#.#.#.#.#.#.......#...#.#.....#...#.#.....#.....#...#.#.....#...........[ [ [ [ ......[ ) [ [ ] Q Q T P dXx.#.Q Q Y M.:X5...#...#.#.#.#.#.#.#.#.#.#.[ Q T P D D D D x M.sXsXE.[ *.,.2.*.#.#.#.#.#.#.#.#.#.#.#.#.#.#.#.#.#.#.#.#.#.#.#.#.#.#.#.",
",...#.#.#.#.#.#.#.#.#.#.#.#.#.#.#.#.#.#.#.#.#.#.#.#.#.#.*.*.Q T T T T T T T Q [ ..#.#.#.#.#.#.#.#.#.Y S U Q Q P C P ! Q Q Q [ [ [ [ [ [ ..[ [ ....[ ......................#.#.#.......#.#.#...#.....#.#.#.#.........#.#.#.#.....#...#.#.......#.#.#.#.#.#.#...#.....#.#.#.#...#.#.#.#.#.#.#.#.#.#...#.#.#.#.#.#.#.#...#.#.#.#.#.#.O.#.#.#.#.....#.#.#.#.#.#.#...#.#.#.#.................#.#...#.#.#.#.#.........#...#.#.#.#.....#.....#.#.#.........................[ [ [ [ ....[ ..[ [ [ [ ] Q T Y Q./.-.) ! Y s..X2.#.#.#.#.#.#.#.#.#.#.#.#.#.#.#.#.#.#.#.#.Y J F.2X6.5...#.#.#.#.#.#.#.#.#.#.#.#.#.#.#.#.#.#.#.] S P Q Q T D P Q ] ] ] [ [ ..............[ [ [ ....#.#.......#.#.#.#.....#.#.#.#.#.#.#.#.#...............#.#.#.#.#.#.....#.#.#.#.....#.#.#.#.#.#.#...#.#.#.#.....#.#.#.#.....#.#.#.#.#.#.#.#.#.#.....#.#.#.#.#.#.#.#.....#.#.#.#...#.....#.#.#.#.#.#.....#.#.....#.#.#.#.#...#.#.#.#.#.#.........#.#.#...#.#.#.#.#.#.........#.#.....#.....#...#.#.................[ ..[ [ ......[ ) [ ) [ Q ! U Y pXf.*.[ T P M.:X5.#.#...#.#.#.#.#.#.#.#.#.#.[ Q T P H D D D N p.dXpXE.[ #.-.4.*.#.#.#.#.#.#.#.#.#.#.#.#.#.#.#.#.#.#.#.#.#.#.#.#.#.#.#.",
",...#.#.#.#.#.#.#.#.#.#.#.#.#.#.#.#.#.#.#.#.#.#.#.#.#.#.*.*.Q T T T T T T Q Q [ ..#.#.#.#.#.#.#.#.#.Y S U Q Q P S Y ! Q Q Q [ [ [ [ [ [ [ [ [ ..[ [ ..........................#.......#.#.#.........#.#.#...........#.#.#.#.........#.#.#.....#.#.#...#.#.#.....#...#.#.#.#.#.#.#.#.#.#.#.#...O.....#.#.#.O...#.O.O.#.#.#.#...O.#.#.#.#.#.#.....#.#.#.#.#.#.#.....#.#.#.#.............#.#.#.......#.#.#.........#.#.#.#.#.#.....#.......#...........................[ ..............) ..[ [ ] Q T P V./.-.Q T I s..X2.#.#.#.#.#.#.#.#.#.#.#.#.#.#.#.#.#.#.#.#.Y J H.=X6.5.O.#.#.#.#.#.#.#.#.#.#.#.#.#.#.#.#.#.#.#.] S Y ! Q T D T Q Q ] [ [ [ ........[ [ [ [ [ ............#.....#.#.......#.....#.#...#.#.#.................#.#.#.#.#.....#.#.#.#.#.#.#.#.#.#.#.#.#.#.#.#.#.#.O.#.#.#.#...#.#.#.#.#.#.#.#.#.#.#.#.#.#.#.#.#.#.#.#.#.#.....#.#...#.#.#.#.#.#.#.#.#.#.......#.#...#.#...#.#.#.#.#.#.#.#.#.#.#.................#.#...#.#.........#.....#.#.#...#.#...#...........[ [ [ [ ..[ [ [ [ ..[ ) [ [ ) Q ! U D sXg.=.[ T P M.:X5.#.#.#.#.#.#.#.#.#.#.#.#.#.[ Q Y P J D D D N v.8XsXE.[ #.-.5.*.#.#.#.#.#.#.#.#.#.#.#.#.#.#.#.#.#.#.#.#.#.#.#.#.#.#.#.",
",...#.#.#.#.#.#.#.#.#.#.#.#.#.#.#.#.#.#.#.#.#.#.#.#.#.#.*.*.Q T T T T T T T Q [ ..#.#.#.#.#.#.#.#.#.Y Z P T Q P S Y Q Q Q [ [ ....) ....[ [ [ ..[ ..............#.....#.#.#.#.#.#.......#.................#.#.#.#.#.#.#.................#.#.#.#.#.#.#.#...#.#...#.#.#.#.#.#.#...........#.#.#.#...#.#.#.#.#.#.#.#.#.O.#.........#.#.#...#.#.#...#.#.#.#.#.#.#.#.......#...#.#.#.#.#.#.#.#.........#.#.#...#.#.#.#.#.#.#.#.#.#...#.........#.#...[ ..[ [ ......[ [ [ [ [ ............[ [ ] Q Q Q T P M./.-.Q ! I s..X2.#.#.#.#.#.#.#.#.#.#.#.#.#.#.#.#.#.#.#.#.T J Y.`.6.5.O.#.#.#.#.#.#.#.#.#.#.#.#.#.#.#.#.#.#.#.] S Y ! Q T D T ! Q Q [ [ [ ........[ [ [ [ [ ............#.....#.#.#.....#.....#.#...#.#.#.#.............#.#.#.#.#.#.....#.#.#.#...O...#.#.....#.#.......#.#.#.#.#.#.#...#.#.#.#.#.#.#.#.#.#.#.#.#.#.#.#.#.#.#.#.#.#...#.#.#...#.#.#.#.#.#.#.#.#.O.......#.#.#.#.#.#.....#.#.#.#...#...#.#.#.............#.#...#.#.#.........#.#.......#.........#...........[ [ [ [ [ [ [ [ [ ..[ ) ) [ ) Q Q T D sXu.*.Q T P M.:X5.#.#.#.#.#.#.#.#.#.#.#.#.#.[ T Y P D D D D N M.pXpXE.[ #.-.4.*.#.#.#.#.#.#.#.#.#.#.#.#.#.#.#.#.#.#.#.#.#.#.#.#.#.#.#.",
"2...#.#.#.#.#.#.#.#.#.#.#.#.#.#.#.#.#.#.#.#.#.#.#.#.#.#.*.*.T T T T T T T T Q [ ..O.#.#.#.#.#.#.#.#.Y Z P T Q P C Y Q Q Q ) [ ....[ ....[ [ [ [ [ ..............#...#.#.#.#.#.#.#.......#.#.........#...#.#.#.#.#.#...#.#.#.............#.#.#.#.#.#...#...#.#...#.#.#.#.#.#.#.#.........#.#.#.#.#.#.#.#.#.#.#.#.#.#...#.#.......O.#.#.#.....#.#.#.#.#.#.#.#.#.#.#...#.#.....#.#.#.#.#.#.#.#...........#.....#.#.#.#.#.#.#.#.....#...#.....#.#.........[ ........[ ..[ [ [ [ [ [ ..[ ) [ ] ] Q Q ! U M./.-.Q Q I s..X2.#.#.#.#.#.#.#.#.#.#.#.#.#.#.#.#.#.#.#.#.T J F.2X6.5.O.#.#.#.#.#.#.#.#.#.#.#.#.#.#.#.#.#.#.#.] A Y ! Q T S T ! Q Q [ [ [ ........[ [ [ [ [ ..............#.#.#.#.#...#.#.....#.#...#.#.#.#...#.........#.#.#.#.#.#...#.#.#.#.#.#.#...O.#.#...#.#.......#.#.#.#.#.#.#.#.#.#.#.#.#.#.#.#.#.#.#.#.#.#.#.#.#...#.#.#.....#.#.#...#.#.#.#.#...#.#.#.#.......#.#.#.#.#.#.......#.#.#...#.....#.#...#.........#.#.......#.#.......#.#.......#.#.....#.#...........[ [ [ [ [ [ [ [ [ ..[ ) ) [ [ ) Q Y D dXf.*.Q T P M.:X5...#.#.#.#.#.#.#.#.#.#.#.#.[ T U P D D D D x M.dXuXE.[ *.-.2.-.#.#.#.#.#.#.#.#.#.#.#.#.#.#.#.#.#.#.#.#.#.#.#.#.#.#.#.",
",...#.#.#.#.#.#.#.#.#.#.#.#.#.#.#.#.#.#.#.#.#.#.#.#.#.#.*.*.Q T T T T T T T Q [ ..#.#.#.#.#.#.#.....Y Z P T Q P C U ! Q ) ) [ [ ) ......[ [ [ [ [ ..............#.#.#.....#.......#.........#.#.#.#.#.#.................#.#.#.#.#.#.#.#...O...............O.#.#...#.#.#.#.#.#.#.#.#.....#.#.#.#.#.#.#.#...#.............#...#.#...#.#.#.....#.#.#.#.#.#.#.#.#.#.#.#.#.#.............#.#.#.#.#.#.#.#.................#.#.#.#.#.#.#.#.#.#.....#...........................[ [ [ [ ..) ) ..] ] Q Q ! Y M./.-.] Q I s..X2.#.#.#.#.#.#.#.#.#.#.#.#.#.#.#.#.#.#.#.#.T J H.=X6.5.O.#.#.#.#.#.#.#.#.#.#.#.#.#.#.#.#.#.#.#.] A Y ! Q T S T ! Q Q ) ............[ [ [ [ [ ..............#.#.#.#.#.....#.#.............#...#.#.#.#.#.#.#.#.#.#.........#.#.#.#.#.#.#.#.#.#.#.#.#.#...#.#.#.#.#...#.#.#.#.#.#.......#...#.#.#.#.#.#.#.#.....#.#.#.....#.#.#...#.#.#...#.#.#.#.#.#.#.#.#.#.#.#.#.#.#.....#.#.#.....#.#.#.#.#.#.#.#.#.#.#.#.#.....#.#.#.#...#...........#.........................[ [ [ [ [ [ ....[ ) [ [ ) ) Q T H sXN.*.Q T P M.:X5.....#.#.#.#.#.#.#.#.#.#.#.[ Q T P H D D D N x.7XsXE.[ #.-.4.-.#.#.#.#.#.#.#.#.#.#.#.#.#.#.#.#.#.#.#.#.#.#.#.#.#.#.#.",
",...#.#.#.#.#.#.#.#.#.#.#.#.#.#.#.#.#.#.#.#.#.#.#.#.#.#.*.*.Q T T T T T T Q Q [ ..#.#.#.#.#.#.#.....Y Z P T Q P C P Q Q [ [ [ [ [ ......[ [ [ [ ................#...#...#.#.............#.#.#.#.#.#.#.#.................#.#.#.#.#.#.#.#.......O.#.O.#.#.#.#.#.#...#.#.#.#.#.#...#.#.#.#.#.#.#.#.#.#.#.#.#.#...O.#.#.....#.#.#.#...#...#.#.#.#.#.#.#.#.#.#.#.#.#.#.#.#.#.....#.#.......#.#.#.#.#.#.#.#...................#.#.#.#...#.#...#.#.#...........................[ [ [ [ ........] ] Q Q Q P M./.-.Q T I s..X2.#.#.#.#.#.#.#.#.#.#.#.#.#.#.#.#.#.#.#.#.T J Y.=X6.5.O.#.#.#.#.#.#.#.#.#.#.#.#.#.#.#.#.#.#.#.] A Y ! Q T S U Q Q Q ) ) ..[ ......[ [ [ [ [ [ [ ..............#.........#.#.....#.#.....#...#.#.#.#.#.#.#.#.#.#.........#.#.#.#...O.#.#.#.#.#.#.#.#...#.#.#.#.#.........#.#.........#...#.#.#.#.#.#.........#.#.........#.#.......#...#.....#.#.#.#.#.#.#.#.#.#.........#.#.#.#.....#.#.#.#.#.#.#.#.#.#.#.#.....#.#.#.#.#.#...#.......#.............#...........[ [ [ ..........[ ) [ ] Q Q Q T H sXm.*.Q T P M.:X5.....#.#.#.#.#.#.#.#.#.#.#.[ Q Y P J D D D N M.pXuX_.[ #.-.5.-.#...#.#.#.#.#.#.#.#.#.#.#.#.#.#.#.#.#.#.#.#.#.#.#.#.#.",
",...#.#.#.#.#.#.#.#.#.#.#.#.#.#.#.#.#.#.#.#.#.#.#...#.#.*.*.Q T T T T T T T Q [ ..#.#.#.#.#.#.#.....Y Z U Q Q P C P Q Q ) ) [ [ ........[ [ [ [ ......................#.#.#.....#.#.#.#.....#.#.#.#.......#.#.#.....#.#.#...#.#.#.#...#.O...#.#.#.#.#.#.#.#.#.#.....#.#.#.#...O.#.#.....#.#.#.#.#.#.#.#.#.#...#.#.#.#.#...#.#.#.....#.#.#.#.#.#...#.#.#.#.#.#.#.#.#.#.#.#.#.#.#.....#.#.#.#...#.#.#.......#.#.#.....#.#.#.#...#.#.#...#...#.#...........................[ [ [ [ ....[ ..Q Q Q Q ! P M./.-.Q T I s.wX,.#.#.#.#.#.#.#.#.#.#.#.#.#.#.#.#.#.#.#.#.T J P.6X6.5.O.#.#.#.#.#.#.#.#.#.#.#.#.#.#.#.#.#.#.#.] A Y ! Q T S U Q Q Q ) ) [ [ ......[ [ [ [ [ [ ........................#.#.#.#.#.........#.#.#.#.#.#.#.#.#.#.#.......#.#.#.#.#.#.#.#.#.......#.#.#.#.#.#.#.#.#.......#.#.#.#.#.#.#.#.#.O.O...#.#.#.#.#.#.#.#.#.#.#.....#.#.#.#.#...........#.....#.#.#.#.....#.....#.#.#.#.#.#.#.#.#.#.........#.#.#.#.#.......#.#.#.#.#.#.........#.#...#.....#.#...#...[ [ [ [ [ [ [ ............[ [ ] ] Q Q T D dXn.*.Q T P M.,X5.#.#.#.#.#.#.#.#.#.#.#.#.#.[ Q T P H D D D N M.dXuX=X[ #.-.2.-.#.O.#.#.#.#.#.#.#.#.#.#.#.#.#.#.#.#.#.#.#.#.#.#.#.#.#.",
"2...#.#.#.#.#.#.#.#.#.#.#.#.#.#.#.#.#.#.#.#.#.#.#...#.#.*.*.T T T T T T T T Q [ ..O.#.#.#.#.#.#.#...Y Z U ! Q P C U Q Q ) ) [ [ [ [ ....[ [ [ [ ................#.#...#.#.#.....#.....#...#.#.#.#.#.....#.#.#.#.#.#.#.#.....#.#.#.#...#.#.#.#.#.#...#.#.#.#.#.#.#...#.#...#...#.#.#.....#.#.#.#.O.#.#.#.#.#.#.#.#.#.#.#...#.#.#.....#.#.#.#.#.....#.#.#.#.#.#.O.#.#.....#.#.#.#.....#.#.#.#.#.#...#.....#.#.#.#.....#.#.#.......#.#.......#.............................[ [ [ [ ....) ..] Q Q Q T P M./.-.Q T Y s.wX,.#.#.#.#.#.#.#.#.#.#.#.#.#.#.#.#.#.#.#.#.T J H.,X6.5.O.#.#.#.#.#.#.#.#.#.#.#.#.#.#.#.#.#.#.#.[ Z Y ! Q T S U Q Q Q Q [ [ ........[ [ [ [ ......[ [ ..#.#...............#.#.#.#.........#.#.....#.#.#.#.#.#.#.#.........#.#.#.#.#.#.#.#.........#.#.#.#.#.#.#.#.........#.#.#.#.#.#.#.#.........#.#.#.#.#.#.#.#.........#.#.#.#...#.....#.#.....#.#.#.#.........#.#.#.#.#.#.#.#.#.#.#...........#.#.#.#.#.......#.#.#.#.#.........#.#...#.....#.#...O...[ [ [ ..[ [ [ ..........[ [ [ ] Q Q Q T D sXN.*.Q T P M.,X5.#.#.#.#.#.#.#.#.#.#.#.#.#.[ Q T P D D D D x x.dXpXE.[ *.-.2.-.#.O.O.#.#.#.#.#.#.#.#.#.#.#.#.#.#.#.#.#.#.#.#.#.#.#.#.",
",...#.#.#.#.#.#.#.#.#.#.#.#.#.#.#.#.#.#.#.#.#.#.#.......*.*.Q T T T T T T T Q [ ..#.#.#.#.#.#.#.#.#.Y Z U Q Q P C U Q Q ) [ ..[ ) ) ....[ [ [ [ ..................#.....#.......#.....#...#.#...#.......#.#.#.#.#.#.#.#.......#.#.......#.#.#.#.#.#.#.#.#.#.#.#.#.....#.#.#.#.#.#.#.#.#...#.#.#.#.#...#.#.#.#.#.#.#.#.#...#.#.#.....#.#.#.#.#.#.#.....#.#.#.#.....#.#...#.#.#.#...#.#.#.....O.#...#.#...#.#.#.#...#.#.#.........#.......#.#.............................[ [ [ [ ....) [ ] ] Q Q T P M./.-.Q T Y s.wX,.#.#.#.#.#.#.#.#.#.#.#.#.#.#.#.#.#.#.#.#.T J Y.[.5.5...#.#.#.#.#.#.#.#.#.#.#.#.#.#.#.#.#.#.#.[ Z Y ! Q T S U Q Q ) ) ) [ [ [ ....[ [ [ [ [ ..................#.....#...#.#.#.#.#...#.#.#.#.........#.#.#.#.#...............#.#.#.#.#...............#.#.#.#.#...............#.#.#.#...#.............#.#.#.#.........#.....#.#.#.#.#.#.#.#.#.#...#.#.#.#.#.#.#.#.#.#.............#.#.#.#.........#.#.#.#.....#.#.#.#.#.#.#.......#.#.#.#...#...#.........[ [ ..#...[ [ ........[ ) ) [ ] Q Q Q T H dXm.=.Q T P M.,X5.#.#.#.#.#.#.#.#.#.#.#.#.#.[ Q T P H D D D N v.uXuX_.#.#.-.2.-.#.#.#.#.#.#.#.#.#.#.#.#.#.#.#.#.#.#.#.#.#.#.#.#.#.#.#.",
",...#.#.#.#.#.#.#.#.#.#.#.#.#.#.#.#.#.#.#.#.#.#.#.......*.*.Q T T T T T T Q Q [ ..#.#.#.#.#.#.#.#.#.Y Z U Q Q P C U Q Q Q [ ..[ ........[ [ ..[ ....................#...#.....#.#.#.#.#...#.....#.......#.#...#.#.#.#.#.........#.#.....#.#.#.#.#.#.#.#.....#.#.#.....#.#.#.....#.#.#.#...#.#.#.#.#.....#.#.#...#.#.#.#...#...#.#...#.#.#.#.#.#.#.....#.#.#.#...........#.#.#.#.#.#.#.#.........#.#.#.....#.#.#.#.#.#.#.........................[ [ [ ..........[ [ [ [ [ [ [ [ [ [ ) ) Q Q Q Q T P M./.-.Q T Y s.wX,.#.#.#.#.#.#.#.#.#.#.#.#.#.#.#.#.#.#.#.#.T J P.5X5.5...#.#.#.#.#.#.#.#.#.#.#.#.#.#.#.#.#.#.#.[ Z Y ! Q T S U Q Q ) ) ) ) [ [ [ [ [ [ [ [ [ ........[ [ [ ......[ ........................#.............................................................................................................................................................................................................[ ........) [ ) ) ) [ [ [ ) [ [ Q [ Q [ Q Q Q Q Q Q Q Q Q Q Q Q Q Q Q ! Q Q Q T ! Q Q T H dXn.=.Q T P M.6X5.#.#.#.#.#.#.#.#.#.#.#.#.#.[ Q Y P J D D D N M.sX8X=X#.#.-.2.-.#.#.O.#.#.#.#.#.#.#.#.#.#.#.#.#.#.#.#.#.#.#.#.#.#.#.#.",
",...#.#.#.#.#.#.#.#.#.#.#.#.#.#.#.#.#.#.#.#.#.#.#.#.#.#.*.*.Q T T T T T T T Q [ ..#.#.#.#.#.#.#.#.#.Y Z U Q ] P C U Q Q Q ) ) ) [ [ [ [ [ [ [ [ [ [ [ [ [ [ [ [ ..........[ [ [ ....................................[ [ [ ........#.#.#.#.[ [ [ [ ....................#.#.#.................#.#.#.#.................[ [ [ [ #.#.#.#.#.#.#.#.#.#.#.#.#.#.#.#...[ [ [ ..#.#.#.#...) ) [ [ [ [ [ Q Q Q Q ) [ [ [ [ ) ) ) ) [ [ [ Q Q Q Q Q Q Q Q Q Q T T ! Q Q Q Q ! T T T ! ! ! ! T T T T T ~ Q Q T P M./.-.Q T Y s.wX,.#.#.#.#.#.#.#.#.#.#.#.#.#.#.#.#.#.#.#.#.T J H.yX5.5...#.#.#.#.#.#.#.#.#.#.#.#.#.#.#.#.#.#.#.[ Z Y ! Q T S U Q Q Q I I I P P P P P P P P P P P P P P P P P P P P P P P P P P P P P P P P P P P P P P P P H J J J J J G J J J J J J J J J J J J J J J J J J J J J G G G G G D D D D D D D D D D D D D D D D D D D D D D D D D D D D D D D D D S S S S S S S S S S S S S S S S S S A A A A A A A A A A A A A A A A A A A A A A A A A A A C A A A A A A A A C C C C C A C C C C C C C C G 2.Q Q U D yXN.*.Q ! Y M.uX5.#.O.O.#.#.#.#.#.#.#.#.#.#.[ ! T P H D D D M 3.dXpX`.#.#.-.2.-.#.#.#.#.#.#.#.#.#.#.#.#.#.#.#.#.#.#.#.#.#.#.#.#.#.#.#.",
"2...#.#.#.#.#.#.#.#.#.#.#.#.#.#.#.#.#.#.#.#.#.#.#.#.#.#.*.*.T T T T T T T T Q [ ..O.#.#.#.#.#.#.#.#.Y Z U Q ] P C U Q Q Q G G G J J J J J J J H H H H H H H H H P P P P D D D D D G G G G G G D D D G G D D D D D D D D D D D D D D D D D S S S S D D D D D D D D D D D D D D D D D D D D D S S S S S S S D Z Z Z S C C C C A A A A A A A C C C C C C C C C C C C C C C C C C C C C C C C C C C C C C C C C C C C C C C C C C C C C C C C C C C C C C C C C C C N N N N N N N M N N b b b #.Q Q T P M..X-.Q T Y s.wX,.#.#.#.#.#.#.#.#.#.#.#.#.#.#.#.#.#.#.#.#.T J Y.`.5.5...#.#.#.#.#.#.#.#.#.#.#.#.#.#.#.#.#.#.#.[ Z Y ! Q T S U Q Q Q k x x x x x x x x x x x x x x x x x x x x x x x x x x x x x x x x x k x x x x x x x k k x x x x x x x x x x x x x x x x x x x x k k k k k k k h h h h g g g g g g g g g g g g k k k k k k k k j k g g g g g g g g g g g g g g g g g g g g g g g g g g g g g g g g g g g g g g g g g g g g g g g g g g g g g g g g g g g g g g g g g g g s s s s g g g g s s s s T P.2.Q Q U G iXB.*.Q T Y s.pX5.#...O.#.#.#.#.#.#.#.#.#.#.[ Q T P D D D D x 9.uXuXW.#.#.-.2.-.#.#.#.#.#.#.#.#.#.#.#.#.#.#.#.#.#.#.#.#.#.#.#.#.#.#.#.",
",...#.#.#.#.#.#.#.#.#.#.#.#.#.#.#.#.#.#.#.#.#.#.#.#.#.#.*.*.Q T T T T T T ! Q [ ..#.#.#.#.#.#.#.#.#.Y Z U Q Q P C Y Q Q Q x x x k k k k g g g g g g g g g g g g g h h h x x x x k g h g g g g g g g h h g g g g g k k k k g g g g g g g g k j j k g g g g g g g g g g g g g g g g g g g g g g g g g g g g g g g g g g g g g g g g g g g g g g g g g g s g g g g g g g g g g g g g g g g g g g g g g g g g g g g g g g g g g g g g g g g g g g g g g g g g g g g g g g g g g g g g g g p 5.A.Q Q T P M..X-.Q Q Y s.wX,.#.#.#.#.#.#.#.#.#.#.#.#.#.#.#.#.#.#.#.#.T J P.,X5.5...#.#.#.#.#.#.#.#.#.#.#.#.#.#.#.#.#.#.#.[ Z Y ! Q T S U Q Q Q g g g k k k k k k k k k k k k k k k k k x x x x x x x x k x x x k x x x x x x x x x x x x x x x x x x x x x x M b b N b N N C N N M M C C C C C C C C C C C C C C C C C C C C C C N N N N C C C C C C C A A A A A A A A A A A A A A A A A A A A A A A A S S S Z Z S S S S S S S S S S S Z S S Z Z S S S S S S S S S D D D A C S A S D D D A S D D D D D Z Z C x Q.@X2.Q Q U G iXB.*.Q T P q.sX5.#...#.#.#.#.#.#.#.#.#.#.#.[ Q T P H D D D x 9.sXpXOX#.#.-.2.-.#.#.#.#.#.#.#.#.#.#.#.#.#.#.#.#.#.#.#.#.#.#.#.#.#.#.#.",
",...#.#.#.#.#.#.#.#.#.#.#.#.#.#.#.#.#.#.#.#.#.#.#.#.#.#.*.*.Q T T T T T T Q Q [ ..#.#.#.#.#.#.#.#.#.Y Z P ! Q P b P Q Q Q x c x x M x x x x x C C C C C C C C C C C C C N N N N C C C C C A A A A A A A A A A A C C C C A S S S S S S S S C C C A S S S D D D D D D D D D D D D D D D D D D D D D D D D D D D D D D S S S D D D D D D D D D D D D D D D D D D D D D D G G G G G J J J J J J D D D D D G G G G G G G G G G J G D D D D D D D D D D D D ^ ^ ^ J J H J J J J J H H J J D D Q.A.Q Q T P M..X-.Q Q I s.wX,.#.#.#.#.#.#.#.#.#.#.#.#.#.#.#.#.#.#.#.#.T J H.6X5.5...#.#.#.#.#.#.#.#.#.#.#.#.#.#.#.#.#.#.#.[ S Y ! Q T S Y Q Q Q C S D H H H J P P P P P P P P P P P P P P P P P I I I I P P I P P P P P I I I I I I I I P P P P I I I P P P P P D D D D D D P J P Y Y Y Y Y Y Y Y Y Y Y Y Y Y Y Y Y U U U U U U U J J P P Y U U U J J J J Y U U U U U U U U U U U T T T T T T T T T T T T T T T T T T T T T T T ~ T T T ~ T T T ~ ~ ~ T T T ~ ~ ~ ~ T T T P J U P U T T T P Y T ~ ~ ~ U P P D Z Q..X:.Q ! U G iXB.*.Q T P t.dX5.#.#.#.#.#.#.#.#.#.#.#.#.#.[ Q Y P J D D D N 9.dXpX`.#.#.-.2.-.#.O.#.#.#.#.#.#.#.#.#.#.#.#.#.#.#.#.#.#.#.#.#.#.#.#.#.",
",...#.#.#.#.#.#.#.#.#.#.#.#.#.#.#.#.#.#.#.#.#.#.#.......*.*.Q T T T T T T ! Q [ ..#.#.#.#.#.#.#.#.#.Y Z P T Q P b P ! ! ! C G D D P P P P P P P P P P P P P P P U U U U P P P P U U U U U U U T U U U U U T T T Y P P P Y T T U T T T T T P P P P U U T T T T U U T T T T T T T T U U U T T T T T T T T U U U U U Y P P P T T T T T T T T T T T T T T T T T P P P P T T T T U U U U T T T T Y P P P U T U U U U U U T T T T T P Y P P P P Y P P P Y Y T T T T T T T T T T T Y P P P J S Q.Q.Q Q T P M..X-.Q T Y s.wX,.#.#.#.#.#.#.#.#.#.#.#.#.#.#.#.#.#.#.#.#.T J x.OX5.5.O.#.#.#.#.#.#.#.#.#.#.#.#.#.#.#.#.#.#.#.[ S Y ! Q T S Y Q Q Q C G P P P Y Y ~ T T T T ~ ~ T T T T U U ~ ~ T T T T ~ ~ ~ ~ ~ ~ U ~ ~ T ~ ~ ~ T T T T T T T T ~ ~ ~ T T T T T T P P P P P P T Y T T T T T T ~ ~ ~ T T T T ~ T T T T T T ~ T T T T T T T T T ~ ~ ~ U T T T T T T T T T T T ~ U T ~ ~ T T T T ~ ~ ~ ~ T T ~ ~ T ~ T T T T T T T ~ T T T T T T T T ~ ~ T T ~ ~ T T T T T T T U Y U U U U U T U U T T T T U P P G D Q..X2.Q Q ~ G iXB.*.Q T P s.dX5.#...#.#.#.#.#.#.#.#.#.#.#.[ Q T P H D D D x 9.7XsX`.*.#.-.2.-.#.O.#.#.#.#.#.#.#.#.#.#.#.#.#.#.#.#.#.#.#.#.#.#.#.#.#.",
"2...#.#.#.#.#.#.#.#.#.#.#.#.#.#.#.#.#.#.#.#.#.#.#.......*.*.T T T T T T T T Q [ ..O.#.#.#.#.#.#.#.#.Y Z P T Q P b P ! ! ! C D I P T T T T T T T T T T T T T T T T T T T T T T T T T T T T ~ T T T T T T T T T T T T T T T T T T T T T T T T T T T T T T T T T T T T T T T T T T T T T T T T T T T T T T T T T T T T T T T T ! ! T T T T T T ! ! ! T T ! T T T T T T T T ~ T T T T T T T T T T T T T T T T T T T T T T T T T T T T T T T T T ~ T T T T T T T ! T T T T T T T T T T T J D Q.Q.Q Q T P M..X-.Q Q Y s.wX,.#.#.#.#.#.#.#.#.#.#.#.#.#.#.#.#.#.#.#.#.T J v.-X5.5.O.O.#.#.#.#.#.#.#.#.#.#.#.#.#.#.#.#.#.#.[ S Y ! Q T S Y ! Q Q A P Y P P P Y ~ T T T T ~ ~ T T T T U U ~ ~ T ~ T T ~ T T ~ ~ T U ~ T T ~ ~ ~ T T T T T T T T T ~ ~ T T T T T T T T T T T T T T T T T T T T T T T T T T T T T T T T T T T T T T T Q Q Q Q T T T T ! ! ! ! T T T T T T T T T T T T T T T T T T T T T T T T T T T T T T T T T T T T T T T T T T T T T T T T T T T T T T T T T T T T T T T T T T T T T T T Y Y I D Q..X2.Q ) T G iXB.*.Q T P s.dX5.#.#.#.#.#.#.#.#.#.#.#.#.#.[ Q T P D D D D x 9.pXpX[.*.*.-.2.-.#.#.#.#.#.#.#.#.#.#.#.#.#.#.#.#.#.#.#.#.#.#.#.#.#.#.#.",
",...#.#.#.#.#.#.#.#.#.#.#.#.#.#.#.#.#.#.#.#.#.#.#.#...#.*.*.Q T T T T T T ! Q [ ..#.#.#.#.#.#.#.....Y Z P T Q P N P ! ! ! C D Y T T T T T T T T T T T T T T T T Q T T ! Q T T T T Q T T ! T ! ! ! ! Q ! T T ! ! Q Q ! Q Q Q Q Q Q ! ! ! Q Q Q Q Q ! ! ! ! ! Q Q ! Q Q Q Q Q Q Q Q Q Q Q Q ! Q Q Q Q Q Q Q Q Q Q Q Q Q Q ! Q Q Q Q ! ! ! Q Q Q Q Q Q Q Q ! Q Q Q Q Q Q Q ! ! Q Q Q Q Q ! ! ! ! ! Q Q Q Q Q ! ! Q Q Q Q Q Q Q Q Q Q ! Q ! Q Q ! Q ! Q Q ! Q Q Q Q ! Q ! ! ! ! Q ! T T P J Q.Q.Q Q T P M..X-.Q Q Y s.wX2.#.#.#.#.#.#.#.#.#.#.#.#.#.#.#.#.#.#.#.#.T J p.6X5.5.O.#.#.#.#.#.#.#.#.#.#.#.#.#.#.#.#.#.#.#.[ S Y ! Q T S Y ! Q Q A I T T T T T ! ! ! ! T ! ! ! ! ! ! ! T T T T T ! Q Q Q Q Q Q ! ! ! ! ! ! ! ! ! Q Q Q Q Q Q Q Q ! ! Q Q ! ! Q Q Q Q Q Q ! ! ! Q Q Q Q Q Q ! ! ! Q Q Q Q ! ! Q ! Q Q Q Q ! ! Q Q Q Q Q Q Q Q Q Q Q Q Q Q Q Q Q Q Q Q Q Q Q Q Q Q Q Q Q Q Q ! Q Q Q Q Q Q Q Q Q Q Q Q ! Q Q Q Q ! ! Q Q Q ! Q Q Q ! Q Q Q Q Q Q Q Q Q Q Q Q Q Q Q Q Q Q Q Q Q Q Q Q ! Q T T T U D Q..X2.Q ) T G iXB.*.] T P s.dX5.#.#.#.#.#.#.#.#.#.#.#.#.#.[ Q T P H D D D x 9.dXuX5X*.#.-.2.-.#.O...#.#.#.#.#.#.#.#.#.#.#.#.#.#.#.#.#.#.#.#.#.#.#.#.",
",...#.#.#.#.#.#.#.#.#.#.#.#.#.#.#.#.#.#.#.#.#.#.#.#.#.#.*.*.Q T T T T T T Q Q [ ..#.#.#.#.#.#.#.....Y Z P T Q P N P ! ! ! C J Y T T T T T ! Q ! Q Q Q Q Q Q Q Q Q Q Q ! Q Q Q Q Q Q Q Q Q Q Q Q Q Q Q Q Q Q Q Q Q Q Q Q Q Q Q Q Q Q Q Q Q Q Q Q Q Q Q Q Q Q Q Q Q Q Q Q Q Q Q Q Q Q Q Q Q Q Q Q Q Q Q Q Q Q Q Q Q Q Q Q Q Q Q Q Q Q Q Q Q Q Q Q Q Q Q Q Q Q Q Q Q Q Q Q Q Q Q Q Q Q Q Q Q Q Q Q Q Q Q Q Q Q Q Q Q Q Q Q Q Q Q Q Q Q Q Q Q Q Q Q Q Q Q Q Q Q Q Q Q Q Q ! Q Q Q ! ! T P J Q.Q.Q Q T P M..X-.Q T Y s.wX2.#.#.#.#.#.#.#.#.#.#.#.#.#.#.#.#.#.#.#.#.T J x.,X5.5.O.#.#.#.#.#.#.#.#.#.#.#.#.#.#.#.#.#.#.#.[ S Y ! Q T S Y ! Q Q A I T T Q Q Q Q Q Q Q Q Q Q Q Q Q Q Q Q Q Q Q ! Q Q Q Q Q Q Q Q Q Q Q Q Q Q Q Q Q Q Q Q Q Q Q Q Q Q Q Q Q Q Q Q Q Q Q Q Q Q Q Q Q Q Q Q Q Q Q Q Q Q Q Q Q Q Q Q Q Q Q Q Q Q Q Q Q Q Q Q Q Q Q Q Q Q Q Q Q Q Q Q Q Q Q Q Q Q Q Q Q Q Q Q Q Q Q Q Q Q Q Q Q Q Q Q Q Q Q Q Q Q Q Q Q Q Q Q Q Q Q Q Q Q Q Q Q Q Q Q Q Q Q Q Q Q Q Q Q Q Q Q Q Q Q Q Q Q Q ! T T U D Q.rX2.Q ) T J iXB.*.] T P s.dX5.#.O.#.#.#.#.#.#.#.#.#.#.#.[ Q T P J D D D N 9.3XsX[.*.#.-.2.-.#.#...#.#.#.#.#.#.#.#.#.#.#.#.#.#.#.#.#.#.#.#.#.#.#.#.",
",...#.#.#.#.#.#.#.#.#.#.#.#.#.#.#.#.#.#.#.#.#.#.#.....#.*.*.Q T T T T T T ! Q [ ..#.#.#.#.#.#.#.....Y Z P T Q P N P ! ! Q C J Y T T Q Q Q Q Q Q Q Q Q Q Q Q Q Q Q Q ! ! Q Q Q Q Q Q Q Q Q Q Q Q Q Q Q Q Q Q Q Q Q Q Q Q Q Q Q Q Q Q Q Q Q Q Q Q Q Q Q Q Q Q Q Q Q Q Q Q Q Q Q Q Q Q Q Q Q Q Q Q Q Q Q Q Q Q Q Q Q Q Q Q Q Q Q Q Q Q Q Q Q Q Q Q Q Q Q Q Q Q Q Q Q Q Q Q Q Q Q Q Q Q Q Q Q Q Q Q Q Q Q Q Q Q Q Q Q Q Q Q Q Q Q Q Q Q Q Q Q Q Q Q Q Q Q Q Q Q Q Q Q Q Q Q Q Q Q ! ! T P J Q.Q.Q Q T P M..X-.Q T Y s.wX2.#.#.#.#.#.#.#.#.#.#.#.#.#.#.#.#.#.#.#.#.T J v.=X5.5.O.#.#.#.#.#.#.#.#.#.#.#.#.#.#.#.#.#.#.#.[ S Y ! Q T S Y ! Q Q A I T T Q Q Q Q Q Q Q Q Q Q Q Q Q Q Q Q Q Q Q Q Q Q Q Q Q Q Q Q Q Q Q Q Q Q Q Q Q Q Q Q Q Q Q Q Q Q Q Q Q Q Q Q Q Q Q Q Q Q Q Q Q Q Q Q Q Q Q Q Q Q Q Q Q Q Q Q Q Q Q Q Q Q Q Q Q Q Q Q Q Q Q Q Q Q Q Q Q Q Q Q Q Q Q Q Q Q Q Q Q Q Q Q Q Q Q Q Q Q Q Q Q Q Q Q Q Q Q Q Q Q Q Q Q Q Q Q Q Q Q Q Q Q Q Q Q Q Q Q Q Q Q Q Q Q Q Q Q Q Q Q Q Q Q Q Q Q Q Q T T U D M.rX2.Q Q U J iXB.-.] T P s.dX5.#.#.#.#.#.#.#.#.#.#.#.#.#.[ Q T P H D D D x 9.uXuX[.*.#.-.2.-.#.#.#.#.#.#.#.#.#.#.#.#.#.#.#.#.#.#.#.#.#.#.#.#.#.#.#.",
",...#.#.#.#.#.#.#.#.#.#.#.#.#.#.#.#.#.#.#.#.#.#.#.#...#.*.*.T T T T T T T T Q [ ..O.#.#.#.#.#.#.#...Y Z Y ! Q P N P ! ! ! C H Y T T Q Q Q Q Q Q Q Q Q Q Q Q Q Q Q Q ! ! Q Q Q Q Q Q Q Q Q Q Q Q Q Q Q Q Q Q Q Q Q Q Q Q Q Q Q Q Q Q Q Q Q Q Q Q Q Q Q Q Q Q Q Q Q Q Q Q Q Q Q Q Q Q Q Q Q Q Q Q Q Q Q Q Q Q Q Q Q Q Q Q Q Q Q Q Q Q Q Q Q Q Q Q Q Q Q Q Q Q Q Q Q Q Q Q Q Q Q Q Q Q Q Q Q Q Q Q Q Q Q Q Q Q Q Q Q Q Q Q Q Q Q Q Q Q Q Q Q Q Q Q Q Q Q Q Q Q Q Q Q Q Q Q Q Q Q Q Q T P D Q.Q.Q Q T P M..X-.Q T I s.wX2.#.#.#.#.#.#.#.#.#.#.#.#.#.#.#.#.#.#.#.#.T J M.6X5.5.O.#.#.#.#.#.#.#.#.#.#.#.#.#.#.#.#.#.#.#.[ S Y ! Q T S Y ! Q Q A I T T ! Q Q Q Q Q Q Q Q Q Q Q Q Q Q Q Q Q Q Q Q Q Q Q Q Q Q Q Q Q Q Q Q Q Q Q Q Q Q Q Q Q Q Q Q Q Q Q Q Q Q Q Q Q Q Q Q Q Q Q Q Q Q Q Q Q Q Q Q Q Q Q Q Q Q Q Q Q Q Q Q Q Q Q Q Q Q Q Q Q Q Q Q Q Q Q Q Q Q Q Q Q Q Q Q Q Q Q Q Q Q Q Q Q Q Q Q Q Q Q Q Q Q Q Q Q Q Q Q Q Q Q Q Q Q Q Q Q Q Q Q Q Q Q Q Q Q Q Q Q Q Q Q Q Q Q Q Q Q Q Q Q Q Q Q Q Q Q ! T U D M.rX:.Q Q U J iXB.-.] Q P s.dX5.#.#.#.#.#.#.#.#.#.#.#.#.#.[ Q T P D D D D x 9.dXuX;X*.#.-.2.,.#.#.#.#.#.#.#.#.#.#.#.#.#.#.#.#.#.#.#.#.#.#.#.#.#.#.#.",
",...#.#.#.#.#.#.#.#.#.#.#.#.#.#.#.#.#.#.#.#.#.#.#.#.#...*.*.Q T T T T T T ! Q [ ..#.#.#.#.#.#.#.#.#.Y C U Q Q P N P T T ! C J T T Q Q Q Q Q Q Q Q Q Q Q Q Q Q Q Q ! ! ! Q Q Q Q Q Q Q Q Q Q Q Q Q Q Q Q Q Q Q Q Q Q Q Q Q Q Q Q Q Q Q Q Q Q Q Q Q Q Q Q Q Q Q Q Q Q Q Q Q Q Q Q Q Q Q Q Q Q Q Q Q Q Q Q Q Q Q Q Q Q Q Q Q ] Q Q Q Q Q Q Q Q Q Q Q Q Q Q Q Q Q Q Q Q Q Q Q Q Q Q Q Q Q Q Q Q Q Q Q Q Q Q Q Q Q Q Q Q Q Q Q Q Q Q Q Q Q Q Q Q Q Q Q Q Q Q Q Q Q Q Q Q Q Q Q Q Q Q Q T Y D Q.Q.Q Q T P M..X-.Q Q Y s.wX2.#.#.#.#.#.#.#.#.#.#.#.#.#.#.#.#.#.#.#.#.T J x.-X5.5...#.#.#.#.#.#.#.#.#.#.#.#.#.#.#.#.#.#.#.[ S Y ! Q T S Y ! Q Q A I T T ! Q Q Q Q Q Q Q Q Q Q Q Q Q Q Q Q Q Q Q Q Q Q Q Q Q Q Q Q Q Q Q Q Q Q Q Q Q Q Q Q Q Q Q Q Q Q Q Q Q Q Q Q Q Q Q Q Q Q Q Q Q Q Q Q Q Q Q Q Q Q Q Q Q Q Q Q Q Q Q Q Q Q Q Q Q Q Q Q Q Q Q Q Q Q Q Q Q Q Q Q Q Q Q Q Q Q Q Q Q Q Q Q Q Q Q Q Q Q Q Q Q Q Q Q Q Q Q Q Q Q Q Q Q Q Q Q Q Q Q Q Q Q Q Q Q Q Q Q Q Q Q Q Q Q Q Q Q Q Q Q Q Q Q Q Q Q Q Q T U D M.rX6.Q Q U J iX/.-.] Q Y s.dX5.#...#.#.#.#.#.#.#.#.#.#.#.[ Q T P H D D D N 8.dXsX`.=.#.-.2.,.#.#.#.#.#.#.#.#.#.#.#.#.#.#.#.#.#.#.#.#.#.#.#.#.#.#.#.",
",...#.#.#.#.#.#.#.#.#.#.#.#.#.#.#.#.#.#.#.#.#.#.#.#.#...*.*.Q T T T T T T Q Q [ ..#.#.#.#.#.#.#.#.#.Y C U Q Q P N P ! T ! C J T T Q Q Q Q Q Q Q Q Q Q Q Q Q Q Q Q Q Q Q Q Q Q Q Q Q Q Q Q Q Q Q Q Q Q Q Q Q Q Q Q Q Q Q Q Q Q Q Q Q Q Q Q Q Q Q Q Q Q Q Q Q Q Q Q Q Q Q Q Q Q Q Q Q Q Q Q Q Q Q Q Q Q Q Q Q Q Q Q Q Q Q Q Q Q Q Q Q Q Q Q Q Q Q Q Q Q Q Q Q Q Q Q Q Q Q Q Q Q Q Q Q Q Q Q Q Q Q Q Q Q Q Q Q Q Q Q Q Q Q Q Q Q Q Q Q Q Q Q Q Q Q ! ! ! Q Q Q Q Q Q Q Q Q Q Q Q Q Q Q Y D Q.Q.Q Q T P M..X-.] Q Y s.wX2.#.#.#.#.#.#.#.#.#.#.#.#.#.#.#.#.#.#.#.#.T J x.OX5.5...#.#.#.#.#.#.#.#.#.#.#.#.#.#.#.#.#.#.#.[ S Y ! Q T S Y ! Q Q A P T T Q Q Q Q Q Q Q Q Q Q Q Q Q Q Q Q Q ! Q Q Q Q Q Q Q Q Q Q Q Q Q Q Q Q Q Q Q Q Q Q Q Q Q Q Q Q Q Q Q Q Q Q Q Q Q Q Q Q Q Q Q Q Q Q Q Q Q Q Q Q Q Q Q Q Q Q Q Q Q Q Q Q Q Q Q Q Q Q Q Q Q Q Q Q Q Q Q Q Q Q Q Q Q Q Q Q Q Q Q Q Q Q Q Q Q Q Q Q Q Q Q Q Q Q Q Q Q Q Q Q Q Q Q Q Q Q Q Q Q Q Q Q Q Q Q Q Q Q Q Q Q Q Q Q Q Q Q Q Q Q Q Q Q Q Q Q Q Q Q T U D M.rX6.Q Q U J iX/.-.] Q P s.dX5.#...#.#.#.#.#.#.#.#.#.#.#.[ Q T P J D D D N 9.8XuXOX-.#.=.2.,.#.....#.#.#.#.#.#.#.#.#.#.#.#.#.#.#.#.#.#.#.#.#.#.#.#.",
"#...#.#.#.#.#.#.#.#.#.#.#.#.#.#.#.#.#.#.#.#.#.#.#.#.#.#.*.*.Q T T T T T T ! Q [ ..#.#.#.#.#.#.#.#.#.Y C U Q Q P C P ! T ! C J T T Q Q Q Q Q Q Q Q Q Q Q ! ! T T ! ! ! ! ! T T T Q Q Q Q Q Q Q Q Q Q Q Q Q Q Q Q Q Q Q Q Q Q Q Q Q Q Q Q Q Q Q Q Q Q Q Q Q Q Q Q Q Q Q Q Q Q Q Q Q Q Q Q Q Q Q Q Q Q Q Q Q Q Q Q Q Q Q Q Q Q Q Q Q Q Q Q Q Q Q Q Q Q Q Q Q Q Q Q Q Q Q Q Q Q Q Q Q Q Q Q Q Q Q Q Q Q Q Q Q Q Q Q Q Q Q Q Q Q Q T ! ! ! ! T T T T ! ! ! Q Q Q Q Q Q Q Q Q Q Q Q Q Q ! Y D Q.Q.Q Q T P M..X-.] Q I s.wX2.#.#.#.#.#.#.#.#.#.#.#.#.#.#.#.#.#.#.#.#.T J M.5X5.5...#.#.#.#.#.#.#.#.#.#.#.#.#.#.#.#.#.#.#.[ S Y ! Q T A Y ! Q Q C P T T Q Q Q Q Q Q Q Q Q Q Q Q Q Q Q T Q T T T T ! ! Q Q Q Q Q Q Q ! Q ! ! ! Q Q Q Q ! Q Q Q Q Q Q Q Q Q Q Q Q ! ! ! ! Q Q ! Q Q Q Q Q Q Q Q Q Q Q Q Q Q Q Q Q Q Q ! Q Q Q Q Q Q Q ! ! ! ! ! T Q Q Q Q Q Q Q Q Q Q Q Q Q Q Q Q Q Q Q Q Q Q Q Q Q Q ! Q ! Q ! ! ! ! Q T Q Q ! T ! ! ! Q ! ! ! ! ! ! ! ! ! ! ! ! T T ! ! T ! ! ! T T Q Q Q Q Q Q Q Q Q Q Q T U G M.rX6.Q Q T G iX/.-.] T P s.dXh.*.#.#.#.#.#.#.#.#.#.#.#.#.[ Q T P D D D D N 9.sXuX;X-.#.=.2.,.#.#.#.#.#.#.#.#.#.#.#.#.#.#.#.#.#.#.#.#.#.#.#.#.#.#.#.",
"*...#.#.#.#.#.#.#.#.#.#.#.#.#.#.#.#.#.#.#.#.#.#.#.#.#.#.*.*.! T T T T T T T Q [ ..O.#.#.#.#.#.#.#.#.Y C U Q Q P C P ! ! ! C J T T Q Q Q Q Q Q Q Q Q Q Q ! T T T ! ! ! ! ! T T T Q Q Q Q Q Q Q Q Q Q Q Q Q Q Q Q Q Q Q Q Q Q Q Q Q Q Q Q Q Q Q Q Q Q Q Q Q Q Q Q Q Q Q Q Q Q Q Q Q Q Q Q Q Q Q Q Q Q Q Q Q Q Q Q Q Q Q Q Q Q Q Q Q Q Q Q Q Q Q Q Q Q Q Q Q Q Q Q Q Q Q Q Q Q Q Q Q Q Q Q Q Q Q Q Q Q Q Q Q Q Q Q Q Q Q Q Q Q Q T ! ! ! ! T T T T ! ! ! Q Q Q Q Q Q Q Q Q Q Q Q Q Q T Y D Q./.Q Q T P M..X-.Q Q Y s.wX2.#.#.#.#.#.#.#.#.#.#.#.#.#.#.#.#.#.#.#.#.T J x.yX5.5...#.#.#.#.#.#.#.#.#.#.#.#.#.#.#.#.#.#.#.[ S Y ! Q T A Y ! Q Q C P T T Q Q Q Q Q Q Q Q T T T T T T T T T T T T T T T T T T T T T T T T T T T T T T T T T T T T T T T T T T T T T T T T T T T T T T T T T T T T T T T T T T T T T T T T T T T T T T T T T T T T T T T T T T T T T T T T T T T T T T T T T T T T T T T T T T T U U U T T T T T T T T T T T T T U U U U U U U U U U U U U U U U T T T T Q Q Q Q Q Q Q Q Q Q T U G M.rX6.Q Q T G iX/.-.] T P s.dXh.*.#.#.#.#.#.#.#.#.#.#.#.#.[ Q T P D D D D x 3.dXpX[.-.#.-.2.,.#.#.#.#.#.#.#.#.#.#.#.#.#.#.#.#.#.#.#.#.#.#.#.#.#.#.#.",
"#...#.#.#.#.#.#.#.#.#.#.#.#.#.#.#.#.#.#.#.#.#.#.#.#.#.#.*.*.Q T T T T T T ! Q [ ..#.#.#.#.#.#.#.....Y C U Q Q P C P ! ! ! C J T T Q Q Q Q Q Q Q Q Q Q Q T T T T T T T T T T T T ! ! ! ! ! ! ! ! ! ! ! ! ! ! ! ! ! ! ! ! ! ! ! ! ! ! ! ! ! ! ! ! ! ! ! ! ! ! ! ! ! ! ! ! ! ! ! ! ! ! ! ! ! ! ! ! ! ! ! ! ! ! ! ! ! ! ! ! ! ! ! ! ! ! ! ! ! ! ! ! ! ! ! ! ! ! ! T T T T T T T T T T T T T T T T T T T T T T T T T T T T T T T T Y Y Y T T T T Y Y T T T T T T T Q Q Q Q Q Q Q Q Q Q T Y D Q./.Q Q T P M..X-.Q T Y -.wX2.#.#.#.#.#.#.#.#.#.#.#.#.#.#.#.#.#.#.#.#.T J x.`.5.5...#.#.#.#.#.#.#.#.#.#.#.#.#.#.#.#.#.#.#.[ S Y ! Q T A Y ! Q Q C P T T Q Q Q Q Q Q Q Q T T P P P P P P P P P Y I I Y Y Y P P P Y Y P P I I I P P P P P P P P P P P P P P P P P P P P P P P P P P P P P P P P P P P P P P P P P P P P P P P P P P P P P P P P P P P P P P P P P P P P P P P P P P P P P P P P P P P P P P P I I I I I I P P P P P P P P I I I I I I I I I I I P P P J J P P P P I I U Q Q Q Q Q Q Q Q Q Q T U G M.rX6.Q Q T J iX/.-.] T P q.dXh.*.#.#.#.#.#.#.#.#.#.#.#.#.[ Q T P D D D D N 9.7XdX*X-.#.=.2.,.#.#.#.#.#.#.#.#.#.#.#.#.#.#.#.#.#.#.#.#.#.#.#.#.#.#.#.",
"#...#.#.#.#.#.#.#.#.#.#.#.#.#.#.#.#.#.#.#.#.#.#.#.#.#.#.*.*.Q T T T T T T Q Q [ ..#.#.#.#.#.#.#...#.Y C Y ! Q P C P ! ! ! C J T T Q Q Q Q Q Q Q Q Q Q Y P P P P P P P P P P P P Y Y Y Y Y Y Y Y Y Y Y Y Y Y Y Y Y Y Y Y Y Y Y Y Y Y Y Y Y Y Y Y Y Y Y Y Y Y Y Y Y Y Y Y Y Y Y Y Y Y Y P P P P P P P P P P I I I I I I I I I P P I I I I I I I I I I I I I I Y Y P Y I I I I I I I I P P I P P I I I I I I I I I I I I I I I P K K J K K K J J J J J J P P P P U T Q Q Q Q Q Q Q Q T Y D Q./.Q Q T P M..X,.Q Q Y -.wX2.#.#.#.#.#.#.#.#.#.#.#.#.#.#.#.#.#.#.#.#.T J M.,X5.5.#.#.#.#.#.#.#.#.#.#.#.#.#.#.#.#.#.#.#.#.[ S P T Q T S Y ! Q Q C P T T Q Q Q Q Q Q Q Q T P J J J J J J J J J J P P P P P P P P P P P I I I I I I P P P P P P P P P P P P P P P P P P P P P P P Y Y Y Y Y Y Y Y Y Y Y Y Y Y Y Y Y U U U U U U Y Y Y Y Y Y U U U U U U T T T T T T T T T T T T T T T ! ! ! ! ! ! ! ! ! ! ! ! ! ! ! ! ! ! ! ! ! ! ) ) ) ) ) ) ) ) ) ) ) ) ) ) ) Q Q Q Q Q Q Q Q Q [ [ ..Y T Q Q Q Q Q Q Q Q ! ~ J M.rX6.Q Q T J iX/.-.] T P q.dXh.*.#.#.#.#.#.#.#.#.#.#.#.#.[ Q T P J D D D N 9.pXpX;X-.#.=.2.,.#.#.#.#.#.#.#.#.#.#.#.#.#.#.#.#.#.#.#.#.#.#.#.#.#.#.#.",
"#...#.#.#.#.#.#.#.#.#.#.#.#.#.#.#.#.#.#.#.#.#.#.#.#.#.#.*.*.Q T T T T T T ! Q [ ..#.#.#.#.#.#.#.#.#.Y C P ! Q P C P ! ! ! C J T T Q Q Q Q Q Q Q Q T D Q P P P P P P P P Y Y Y Y U U U U Y Y Y U U U U U U U U U U U U U U U U U U U U U U U U U Q ! ! ! ! ! ! ! ! ! ! ! ! ! ! ! ! ! Q Q Q Q Q Q Q Q Q Q Q Q Q Q Q ) ) ) ............................%...%.%.%.%...............#.#.........%.#.#.-.-.-.-.=.=.=.=.-.-.-.-.-.-.=.-.-.-.-.-.-.-.-.-.-.-.-.-.-.-.) D T ! Q Q Q Q Q Q Q ! Y D Q./.Q Q T P 9..X,.] Q Y -.wX,.#.#.#.#.#.#.#.#.#.#.#.#.#.#.#.#.#.#.#.#.T J x.6X5.5.#.#.#.#.#.#.#.#.#.#.#.#.#.#.#.#.#.#.#.#.[ A I T Q T S Y ! Q Q A P T T Q Q Q Q Q Q Q Q T s.{.x.8.8.8.8.8.9.9.9.9.9.9.9.9.9.9.9.9.9.9.9.9.9.9.9.9.9.9.9.9.9.9.8.8.8.8.8.8.9.8.9.8.8.9.9.9.9.9.9.9.9.9.9.9.9.8.8.8.8.9.9.9.9.9.9.9.9.9.9.8.8.8.8.8.8.8.8.8.8.8.8.8.8.8.8.8.8.8.8.8.8.8.8.8.8.8.8.8.8.8.8.8.8.8.8.5.5.5.5.5.5.5.5.5.5.5.5.5.5.5.5.5.5.5.5.5.5.5.5.5.5.5.5.5.5.5.5.5.5.5.5.5.5.5.:.5.5.) F U ! Q Q Q Q Q Q Q ! U J M.rX6.Q Q T J iX/.-.] T P s.dXh.*.....#.#.#.#.#.#.#.#.#.#.[ Q T P D D D D N 9.dXpX8X1.#.*.2.-...#.#.#.#.#.#.#.#.#.#.#.#.#.#.#.#.#.#.#.#.#.#.#.#.#.#.",
"*...#.#.#.#.#.#.#.#.#.#.#.#.#.#.#.#.#.#.#.#.#.#.#.#.#.#.*.*.T T T T T T T T Q [ ..O.#.#.#.#.#.#.#...Y C P T Q P C P ! ! ! C J T T Q Q Q Q Q Q Q ! U D f.h.9.9.9.9.q.q.q.q.q.q.q.q.q.q.q.9.9.9.9.q.q.q.q.9.9.8.9.9.9.9.9.9.9.9.9.9.9.9.9.9.9.9.9.9.9.9.9.9.9.9.9.9.9.9.9.9.9.9.9.9.9.8.8.6.6.6.6.8.8.6.6.6.6.8.8.8.8.8.8.8.8.8.8.8.8.8.8.8.8.8.8.8.8.8.8.8.8.5.5.5.5.5.5.5.5.5.5.5.5.5.5.5.5.5.5.5.5.5.5.5.5.5.5.5.5.5.5.5.5.5.5.5.5.5.2.:.:.:.:.:.:.5.5.:.-.b D T T ! Q Q Q Q Q Q ! Y D Q./.Q Q T P 9..X,.] Q Y -.wX,.#.#.#.#.#.#.#.#.#.#.#.#.#.#.#.#.#.#.#.#.T J x.E.5.5.#.#.#.#.#.#.#.#.#.#.#.#.#.#.#.#.#.#.#.#.[ A Y ! Q T S Y ! Q Q A P T T ! Q Q Q Q Q ! ! Y s.=X`.[ ) [ [ [ [ [ [ [ [ [ [ [ [ [ [ [ [ [ [ [ [ [ [ [ [ [ [ ..........................................................................#.#.#.....#.#...........#...#.....#.#.#.#...O.....#.O.......#.#.#.#.#...............#.#.#.#.#.......#.#.#.#.#.....#.#.#.#.#.#.............#.#.#...#...............D D ~ ! ! Q Q Q Q Q Q T T J M.rX6.Q Q T J <X/.-.] T P q.dXh.*.....O.#.#.#.#.#.#.#.#.#.[ Q T P D D D D x | 5XsX*X1.#.=.2.-.#.#...#.#.#.#.#.#.#.#.#.#.#.#.#.#.#.#.#.#.#.#.#.#.#.#.",
"#...#.#.#.#.#.#.#.#.#.#.#.#.#.#.#.#.#.#.#.#.#.#.#.#.#.#.*.*.Q T T T T T T ! Q [ ..#.#.#.#.#.#.#.#.#.Y C P T Q P C P ! ! ! C J T T Q Q Q Q Q Q Q ! U D f.y.) ......................#.........#.#.........#.#.#.#.#.#.#.#.#.#...........#.#.#...#.#.#.#.........#.............#.#.#.#.#.#.#.#.....#.#.#.#.......#.............#.#.#.......#.#.#.#.....#.#.#.#.....#.#.#.#.#.#.#.#.#.#...#.................#...#.#.#.#.#.#...#.....#.#.#.....................) N A Y T ! ! ! Q Q Q Q ! Y D Q./.Q Q T P 9..X,.] Q Y -.wX,.#.#.#.#.#.#.#.#.#.#.#.#.#.#.#.#.#.#.#.#.T J M.-X5.5.#.#.#.#.#.#.#.#.#.#.#.#.#.#.#.#.#.#.#.#.[ A Y ! Q T S Y ! Q Q A P T T ! Q Q Q Q Q ! T I q.>X{...................#.....#.#...#.....#.#.....#.#.#.#.....#.#.#.#.#.#.#.#.#.#.#.#.#.#.#.#.O.#.#.O.#.#.#.#.#.#.#.#.#.#.#.#.#.#.#.#.#.#.#.#.#.#.#.#.....#.#.#.#.#.#.#.O.#.#.#.#.#...#.#.#.#...#.#.#.#.#.#.#.#.#.O.#.....#.#.#.#.#.#.O...#.#.#.#.#.#.....#.#.#.#.#.#.#.#...#.....#...#...#...............D D T T Q Q ! Q Q Q Q ! T J M.rX6.Q Q T J <X/.-.] T P s.dXh.*...#.#.#.#.#.#.#.#.#.#.#.[ Q T P D D D D N ..pXuX-X1.#.*.2.,.#.#.#.#.#.#.#.#.#.#.#.#.#.#.#.#.#.#.#.#.#.#.#.#.#.#.#.",
"#...#.#.#.#.#.#.#.#.#.#.#.#.#.#.#.#.#.#.#.#.#.#.#.#.#.#.*.*.Q T T T T T T Q Q [ ..#.#.#.#.#.#.#.O.O.Y C P T Q P C P ! ! Q C J T T Q Q Q Q Q Q ! T U D f.y.) ......................#.....#.#.#.#.#.......#.#.#.#.#.#.#.#.#.#...........#.#.#.#.#.#.#.#.........#...........#.#.#.#.#.#.#.#.......#.#.#.#.....#.#.#.............#.........#.#.#.#.....#.#.#.......#.#.#.#.#.#.#.#.#.#.#.#.......#.........#.#.#.#.#.#.#.#.#.#.#.#.#.#.#.....................) N A Y T ! Q ! Q Q Q Q ! Y D Q./.Q Q T P 9..X,.Q Q Y -.wX,.#.#.#.#.#.#.#.#.#.#.#.#.#.#.#.#.#.#.#.#.! J x.uX5.5.#.#.#.#.#.#.#.#.#.#.#.#.#.#.#.#.#.#.#.#.[ A Y ! Q T S Y ! Q Q A P T T ! Q Q Q Q ! ! T I q.>X[.........................#.#.#.#.#...#.#.....#.#.#.#.....#.#.#.#.#.#.#.#.#.#.#.#.#.#.#.#.O.O.O.O.#.#.#.#.#.#.#.#.#.#.#.#.#.#.#...#.#.#.#.#.#.#.#.#.#.#.#.#.#.#.#.#.#.....#.#.#...#.#.#.#.......#.#.#.#.#.#.#.#.#.......#.#.#.#.#.....#.#...#.#.#.#...#.#.#.#.#.#.#.#.#.#.......#.#.#.#.#.............G A T T Q Q ! Q Q Q Q ! T J M.rX6.Q Q T P qX/.-.] T P =.dXh.*.#.#.#.#.#.#.#.#.#.#.#.#.[ Q T P J D D D N ..dXuX8X1.#.=.2.,.#.#.#.#.#.#.#.#.#.#.#.#.#.#.#.#.#.#.#.#.#.#.#.#.#.#.#.",
"#...#.#.#.#.#.#.#.#.#.#.#.#.#.#.#.#.#.#.#.#.#.#.#...#.#.*.*.Q T T T T T T ! Q [ ..#.#.#.#.#.#.#.#.#.Y C P T Q P C P ! ! Q C H T T Q Q Q Q Q Q T T U D f.y.) ......................#.#.#.....#.#.#.#.........#.#.#.#.#...#.#.#.#.#.#.#.#.....#.#...#.....#...#.#.#.#.........#.#.#.#.#...#.#.#.#.....#.#.#.#.#.#.#.#.........#.#.....#.#.#.#...#.#.#.....#.#.#.#.......#.#.#.#.#.#.#.........#.#.#.#.#.......#.#.#.#.#.#.#.#.#.#...........................) C A Y T T Q Q Q Q Q Q Q Y D Q./.Q Q ! P 9..X-.Q T Y -.tX,.#.#.#.#.#.#.#.#.#.#.#.#.#.#.#.#.#.#.#.#.! J x.6X5.5.#.....#.#.#.#.#.#.#.#.#.#.#.#.#.#.#.#.#.[ Z Y ! Q T S Y T ! Q A I T T Q Q Q Q Q ! T T P s.>X`...................#...#.#.#.#.#.#.#.#.#...#.#.#.#.#.#.#.#.#.#.#.#.#.#...........#.#.#...#.#.#.#.#.#.#.#.......#.#.#.#...#.#.#.#.O.#...#.O.#.....#.#.#.#.#.#...#.#.#.#...#.#.#.#.#.O.#.#.#.#.#.#.#.#.#.#.#.#.........#.#.#.#.#.#.#.#.#.#.O.#.#.#.#.#.#.#.#.#.#.#.#.#.#.#.#.#.#.#.....#...............G A T T ! Q ! Q Q Q Q ! T J M.rX6.Q Q T P <X/.-.] T Y *.dXh.*...#.#.#.#.#.#.#.#.#.#.#.[ Q T P D D D D M | dXsX=X1.#.=.2.,.#.#.#.#.#.#.#.#.#.#.#.#.#.#.#.#.#.#.#.#.#.#.#.#.#.#.#.",
"#.[ #.#.#.#.#.#.#.#.#.#.#.#.#.#.#.#.#.#.#.#.#.#.#...#.#.*.*.T T T T T T T T Q [ ..O.#.#.#.#.#.#.#.#.Y A P T Q P C P ! ! Q C H T T Q Q Q Q Q Q T T U D f.y.) ......................#.#.......#.#.#.#.#.#.....#.#.#.#.#.....#.#.#.#.#.#.#.....#.#.#.#.....#...#.#.#.#.#.#.....#.#.#.#.#...#.#.#.#.....#.#.#.#.#.#.#.#.#.#.....#.#.#.#.#.#.........#.#.....#.#.#.#.........#.#.#...#.#.....#.#.#.#...#.#.#.....#.#.#.#.#.#.#.#.#.#...........................) C A Y T T Q Q Q Q Q Q Q Y D M./.Q Q T P 9..X-.Q T Y -.tX,.#.#.#.#.#.#.#.#.#.#.#.#.#.#.#.#.#.#.#.#.! J M.3X5.5.#.#...#.#.#.#.#.#.#.#.#.#.#.#.#.#.#.#.#.O.S Y ! Q T D Y T ! Q A I T T Q Q Q Q Q ! T U P s.>X[.................#.#...#.#.#.#.#.....#.#.#.#.#.#.#.#.#.#.#.#.#.#.#.#.............#.#.#...#.#.#.#.#.#...#.....#.#.#.O.O.....#.#.#.....#.#.....#.#.#.#.#.#...#...#.#.#.#.#.#.#.#.#.#.#.....#.#.#.#...#.#.#.#.#.........#.#.#.#.#.#.#.#.#.#.O.#.#.#.#...#.#.#.#.#.#.#.#.#.#.#.#...#...#.#...............G A T T ! Q ! Q Q Q Q ! U J M.rX6.Q Q T P <X/.-.] T Y *.dXh.*...#.#.#.#.#.#.#.#.#.#.#.[ Q T P D D D D x [ uXuX*X1.#.=.2.,.#.#.#.#.#.#.#.#.#.#.#.#.#.#.#.#.#.#.#.#.#.#.#.#.#.#.#.",
"#...#.#.#.#.#.#.#.#.#.#.#.#.#.#.#.#.#.#.#.#.#.#.#.....O.*.*.Q T T T T T T ! Q [ ..#.#.#.#.#.#.#.#.#.Y A P T ] P C P ! Q Q C H T T Q Q Q Q Q Q T T U D r.f.) ....................#.#.#.#.....#.#.#.#.#.#.......#.#.#.........#.#.#.#.........#.#.#.....#.#.#.#.#.#.#.#.#...#.#.#.#.#.#.......#.#.#.....O.#.#.#.#.#.#.#.#...#.#.#.#.#.#.#.#.....#.#.#.#.#.#...#.#.....#.#.#.#.....#.......#.#.#.#.#.#.#.#.....#.#.#.#.........#.......#.#.#.#...............) C A Y T T Q Q Q Q Q Q ! U D M./.Q Q T P 9..X-.Q T Y -.aX,.#.#.#.#.#.#.#.#.#.#.#.#.#.#.#.#.#.#.#.#.! J M.uX5.5.#.#.#.#.#.#.#.#.#.#.#.#.#.#.#.#.#.#.#.#.O.S Y ! Q T D Y ! Q Q A I T T ! Q Q Q Q ! T U P s.>X2X................#...#.#.....#.#.........#.#.#.#.#.#.#.#.#.#.#.#.............#.#.#.#.....#.#.#.#.O...........#.#.#.#.....#.#.#.#.....#.#.#.#.#.#.#.#.#.....#.O...#.#.#.#.#.#.#.#...........#.........#.#.#.#.....#.#.#.#.....#.#...#.....#...#.#.#.........#...#.........#.#...#.....#.#.#.#.........J A ~ T T ! ! Q Q Q Q ! ~ G M.rX6.Q Q ~ P <X/.-.] T Y *.dXh.*.#.#.#.#.#.#.#.#.#.#.#.#.[ Q T P D D D D x ..sXsX5X1.#.=.2.,.#.#.#.#.#.#.#.#.#.#.#.#.#.#.#.#.#.#.#.#.#.#.#.#.#.#.#.",
"#...#.#.#.#.#.#.#.#.#.#.#.#.#.#.#.#.#.#.#.#.#.#.#.....O.*.*.Q T T T T T T Q Q [ ..#.#.#.#.#.#.#.#.#.Y A P T ] P C Y Q Q Q C H T T Q Q Q Q ! ! T T U D r.f.) ..............#...#.#.#...#.....#.#.#.#.#.#.....#.#.#.#...........#.#.#.#.......#.#.#...#.#.#.#.#.#.#.#.#.#...#.#.#.#.#.#.#...O.#.#.#.#.#.#.#.#.....#.#.#.#.#.#.#.#.#.#.#.#.#.....#.#.#.#.#.#.....#.....#.#.#.#.....#.#.....#.#.#.#.#.#.#.#.....#.#.#.#...................#.#.#...............) A A Y T T Q Q Q Q ! Q T Y D M./.) Q T P 9..X-.Q T Y -.aX,.#.#.#.#.#.#.#.#.#.#.#.#.#.#.#.#.#.#.#.#.! J x.5X5.5.#.#.#.#.#.#.#.#.#.#.#.#.#.#.#.#.#.#.#.O.O.S Y ! Q T D Y ! Q Q C P T T ! Q Q Q Q ! T U P s.>X2X................#...#.#...........#.O.....#.#.#.#.#.#.....#.#.#...........#.#.#.#.#...#...#.#.#.....#.#.#.#.#.#.#.#...#.#.#.#.#.#.#.#.#.#.#.#.#.#.#.#.#...#.....#.#.#.#.#.#.#.#.#.......#.#.#.#.....#.#.#.#...#.#.#.#.#.................#.....#.........#.#.............#...........#.#.............P A U T ! ! ! Q Q Q Q ! ~ G M.rX6.Q Q ~ P <X/.=.] T Y =.dXh.*.#.#.#.#.#.#.#.#.#.#.#.#...Q T P J D D D N | dXsX=X2.#.=.2.,.#.#.#.#.#.#.#.#.#.#.#.#.#.#.#.#.#.#.#.#.#.#.#.#.#.#.#.",
"#...#.#.#.#.#.#.#.#.#.#.#.#.#.#.#.#.#.#.#.#.#.#.#.#.#.#.*.*.Q T T T T T T ! Q [ ..#.#.#.#.#.#.#.#.#.Y A P T Q P C Y Q Q Q C J T T ! Q Q Q ! ! T T U D r.f.) ..............#.....#.......#.#.#.#.#.#.#.#.........#.#.....#.#.#.#.#.#.#.......#.#.......#.#.#.#.#.#.#.#.#...#.#...#.#.#.#...#.#.#.#.#.#.#.#.#.....#.#.#.#.........#.#.#.#.#.#...#.#.#.#.#.O.#.#.#...#.#.#.#.#.............#.#.#.#.#.#.#.#.....#...#.#.#.#.#.#.#.#.#.......#.#.#.......#.#...) C A Y T ! ! Q Q ! ! Q T Y D M./.Q Q T P 9..X,.Q T Y -.aX,.#.#.#.#.#.#.#.#.#.#.#.#.#.#.#.#.#.#.#.#.! J v.,X5.5.#...#.#.#.#.#.#.#.#.#.#.#.#.#.#.#.#.#.#.O.S P ! Q T D Y Q Q Q C P T T ! Q Q Q Q Q T U P t.2X:X................#.#.#.#.....#.#.#.#.#...#.#.#.#.#.#.............#.#.#.#.#.#.#.#.....#.#.O.#.O.......#.#...#.#.#.#.#.#.#.#.#.#.#.#.#.#.#.#.#.#.#.#.#.#.#.........#.#.#.#.#.#.#.#.#.#.#.#.#.#.#.#.#.#.#.#.#.#.#.#.#.#.#.#.....#.#.#.............#.#.#.....#.............#.#...#.#.#...#.#.............P C P T ! ! ! Q Q Q Q ! ~ J 9.aX6.Q Q ~ P qX/.-.] T Y =.dXh.*.#.#.#.#.#.#.#.#.#.#.#.#.[ Q T P D D D D x [ 8X8X=X4.#.=.2.,.#.#.#.#.#.#.#.#.#.#.#.#.#.#.#.#.#.#.#.#.#.#.#.#.#.#.#.",
"#.[ #.#.#.#.#.#.#.#.#.#.#.#.#.#.#.#.#.#.#.#.#.#.#.#.#.#.*.*.T T T T T T T T Q [ ..#.#.#.#.#.#.#.#.#.Y Z P T Q P C Y Q Q Q C J T T Q Q Q Q ! ! T T U D r.f.) ..............#.....#.......#.#.#.#...#.#.#.........#.#.....#.#.#.#.#.#.#.#.....#.#.O.......#.#.#...#.#.#.#.O.#.#.#.#.#.#.#.O.#.#.#.O.#.#.#.#.#.#.....#.#.#.#.#.....#.#.#.#.#.....#.#.#.....O.#.#.#.....#.#.#.#.....#.......#.#.#.#.#.#.#.#.....#.....#.....#.#.#.#.#...#.....#...#.....#.....) C A Y T T Q Q ! ! ! Q T Y D M./.Q Q T P w..X,.Q Q W -.aX,.#.#.#.#.#.#.#.#.#.#.#.#.#.#.#.#.#.#.#.#.Q J M.uX5.5.#.....#.#.#.#.#.#.#.#.#.#.#.#.#.#.#.#.#.O.S P T Q T D P Q Q Q A P T T ! Q Q Q Q Q T U P s.2X2X........#...#...#.#...#.....#.#.#.#.O...#.#.#.#.#.#.............#.#.#.#.#.#.....#.#.#.#.#.#.........#.O...#.#.#.#.#.#.#.#...#.#.#.#.#.#.#.#.#.#.#.#.#.#.......#.#.#.#.#.#.#.#...#.#.#.#.#.#.#.#.#.#.O.O.#.#.#.#.#...#.#.#...#.#.#.#.............#.#.#.#.#...............#.#...#.......#.............P C P T ! ! ! Q Q Q Q ! ~ P 9.aX6.Q Q ~ P qX/.-.] T Y =.dXh.*.#.#.#.#.#.#.#.#.#.#.#.#.[ Q T P D D D D N ..sXpX5X4.#.=.2.2.#.#.#.#.#.#.#.#.#.#.#.#.#.#.#.#.#.#.#.#.#.#.#.#.#.#.#.",
"#...#.#.#.#.#.#.#.#.#.#.#.#.#.#.#.#.#.#.#.#.#.#.#.#.#.#.*.*.Q T T T T T T ! Q [ ..#.#.#.#.#.#.#.O.#.Y Z P T Q P C Y Q Q Q C J T T ! Q Q Q ! ! T T U D r.f.) ..............#.#.#.#.#.....#.#.#.#.....#.#.#.#.....#.......#.#.#.#.#.#.#.#...O...#.#...#.#.#.#.........#.#.O.O.#.#.#...#.#.#.#.........#.#.#.#.#.......#.#.#.#.#.#.#.#.#.#.....#.#.#.........#.#.#.......#.#.#.#.O.#.#.#...#.#.....#...#.#.....#...............#.#.#.........#.#.#.#...#.....) C A Y T T Q Q Q ! ! Q T Y D M./.Q ) T P w..X,.Q Q Y -.aX,.#.#.#.#.#.#.#.#.#.#.#.#.#.#.#.#.#.#.#.#.Q J x.pX5.5.#.#.#.#.#.#.#.#.#.#.#.#.#.#.#.#.#.#.#.#.O.S P T Q T D P Q Q Q C P T T T Q Q Q ! ! T U P *.<X2X........#.#.....#.#...#...#.#.#...........#.....#.......#.#.........#.#.........#.#.#.#.#.#.........#.#.#.#.#.#.#.#.#.......#.#.#...#.#.#.#.O.#.#...#...#...#.#.#.#.#.#...#.#...#.#.#.#.#.#...#.......O.#.#.#.#.....#.#.#.#.#.#.#.......#.#...#.#.#.#.#.#.#.........#.#...#...#.......#.............P C Y T T ! ! Q Q Q Q ! T P 9.aX6.Q Q ~ P <X/.-.] T Y =.dXh.*...#.#.#.#.#.#.#.#.#.#.#.[ Q T P D D D D N | dXpXuX4.#.=.2.2.#.#.#.#.#.#.#.#.#.#.#.#.#.#.#.#.#.#.#.#.#.#.#.#.#.#.#.",
"#.#.#.#.#.#.#.#.#.#.#.#.#.#.#.#.#.#.#.#.#.#.#.#.#.#.#.#.#.*.Q T T T T T T Q Q [ ..#.#.#.#.#.#.#.O.O.Y Z P T Q P C Y Q Q Q C J T T ! Q Q Q Q ! ! ! U D r.f.) ..............#.#.#.#.#.......#.#.#.....#.#.#.#...#...........#.#.#.#.#.#.#.#.#.#.#.#...#.#.#.#.......#.#.#.#.#.#.#.#...#.#.#.#.#.#.......#.#.#.#.......#.#.#...#.#.#.#.#.#.#...#.#.#.#.......#.#.#.......#.#.#.#.#.#.#.#.#.#.#.........#.#.#.#.#.#...........#.#.#.#.#.#.#.#.....#...#.#.....) C A Y T T Q Q Q ! ! ! T Y D M./.) ) T P w.rX,.Q T Y -.aX,.#.#.#.#.#.#.#.#.#.#.#.#.#.#.#.#.#.#.#.#.Q J 9.:X5.5.#.#.#.#.#.#.#.#.#.#.#.#.#.#.#.#.#.#.#.O.O.S P T Q T D P Q Q Q C P T T ! Q Q Q Q ! T T P *.<X2X........#.#.......#...#.#.#.#.#.#...............#.......#.#.#.#.......#.........#.#.#.#.#.#.#...#.#.#.#.#.#.#.#.#.#.#.........#.#.......#.....O.#.......#.#.#.#.#.#.#.#...#.......#.#.#.#.#...#.....O.O.#.#.#.......#.#.#.#.#.#.#.......#.#...#.#.#.#.#.#.#.#.......#.#...#...#.......#.#...........P C Y T T ! T Q Q Q Q ! T P 9.aX9.Q Q ~ P <X.X-.Q T Y =.dXh.*...#...#.#.#.#.#.#.#.#.#...Q T P J D D D C [ 5XdX-X4.[ *.2.2.#.O.#.#.#.#.#.#.#.#.#.#.#.#.#.#.#.#.#.#.#.#.#.#.#.#.#.",
"#.#.#.#.#.#.#.#.#.#.#.#.#.#.#.#.#.#.#.#.#.#.#.#.#...#.#.#.*.Q T T T T T T ! Q [ ..#.#.#.#.#.#.#.#.#.Y Z Y T Q P C Y Q Q Q C J T T Q Q Q Q Q Q ! T U G r.f.Q ..............#.#.#.#.#.#.#.................#.#.#.#...#.#.#.#...........#.#.#.#.#...#.#.#.#.........#.#.#.#.#.#.#.#.#.#.#.#.#.O.#...#.#.#.#.....#.#.....#.#.#.#.#.#.#.#.#.#.#.#.#.#...#.#.#...#.....#.#.#.#.#...#.#.#.#.#.#...#...........#.#.#.#.#.....#.#...........#.#.#.#.#...#...#.......) C A Y T T Q ! Q ! ! ! T Y D M./.Q Q T P w.rX,.Q Q Y -.aX,.#.#.#.#.#.#.#.#.#.#.#.#.#.#.#.#.#.#.#.#.Q J 9.8X5.5.#.#.#.#.#.#.#.#.#.#.#.#.#.#.#.#.#.#.#.#.O.Z P ! Q T D P Q Q Q C P T T Q Q Q Q Q ! T T Y *.<X2X........#.....#.......#.#.#.....#.#.#.#.#.#.............#.#.........#.#...#.#.#.....#.#.#.#...#.#...#.#.#.#.#.#.#.#.....O.#.#.#.#.#.#.#.......O.#...#...#.#.#.#.#.#.#.#.#.#.#.#...#.#.#.#.#.#.#...#.#.#.....#.........#.#...#.#.#.#.#.#.#.#.#.#.....#.#.#.#.........#.#.....#.#.#.....#.............P C Y T T T ! Q Q Q Q ! ~ P 9.aX9.Q Q T P <X.X-.] ! Y =.dXh.*.#.#.#.#.#.#.#.#.#.#.#.#.[ Q T P D D D D N ..pXpX5X3.#.*.2.2.#.O.#.#.#.#.#.#.#.#.#.#.#.#.#.#.#.#.#.#.#.#.#.#.#.#.#.",
"#.#.#.#.#.#.#.#.#.#.#.#.#.#.#.#.#.#.#.#.#.#.#.#.#...#.#.#.*.T T T T T T T T Q [ ..#.#.#.#.#.#.#.#.#.Y Z U ! Q P C Y Q Q Q C J T T Q Q Q Q Q Q T T U G r.f.Q ........#.#.#.#.#.......#.#.............#.#.#.#.#.#...#.#.#.#...........#...#.#.#...#.#.#.#.#.#.....#.#.#.O.#...#.#.#.#.#.#.#.#.#...#.#.#.#.....#.#.....#.#.#.#.#.#.#.#.#.#.#.#.#.#...#.#.#...#.#...#.#.#.....#.#.#.#.#.#.#...#.........#.#.#.#.#.#.....#.#.............#...#.#.#.............) C C Y T T Q Q Q Q Q Q T Y D M./.Q Q T P w.rX,.] Q Y -.aX,.#.#.#.#.#.#.#.#.#.#.#.#.#.#.#.#.#.#.#.#.Q J 8.pX5.5.#.#.#.#.#.#.#.#.#.#.#.#.#.#.#.#.#.#.#.#.O.S P ! Q T D P Q Q Q C P T T ! Q Q Q Q ! T T Y *.<X2X........#.....#.........#.......#.#.#.#.#.#.............#.#.........#.#.#.#.#.#.....#.#.#.#...#.#...#.#...#.#.#.#.#.O.O.#.#.#.O.#.#.#.#.#.#...O.#...#...#.#.#.#.....#.#.#.#.#.#.#.#.#.#.#.#.#.#...#.#.#.#...#...#.#.#.#.#.O.#.#.#.#.#.#.#.#.#.#.....#.#.#.#.........#.#...#...#.....#...............P C Y T T T ! Q Q Q Q ! ~ P 9.aX9.Q Q T P <X.X-.] ! Y =.dXM.=.#.#.#.#.#.#.#.#.#.#.#.#.[ Q T P D D D D N ..dXpXuX3.#.=.1.2.#.#.#.#.#.#.#.#.#.#.#.#.#.#.#.#.#.#.#.#.#.#.#.#.#.#.#.",
"#.#.#.#.#.#.#.#.#.#.#.#.#.#.#.#.#.#.#.#.#.#.#.#.#.O.#.#.#.*.Q T T T T T T ! Q [ ..#.#.#.#.#.#.#.#.#.Y Z U ! Q P C Y Q Q Q C G Y T Q Q Q Q Q Q ! T U D t.f.Q ............#.#.#.......#.......#.#.#.#.#.#.#.#.#.......#.#.#.#.........#.#.#.#.......#.#.#.#.#.#.#.#.#...#.#.#.....#...#.#...#.#.#.#.#.#.#.....#.#.#.#.#.#.#.#.#.....#.#.#.#.#.#.#.#.#.#.#.#.#.#...#.#.........#.#.#.#.#.#.#.#.#.#.#.#...#.#.#.........#.#.#.#.#...........#.#.#.#...........) C C Y T T Q Q Q Q Q Q ! Y D M./.#.Q T P w.tX,.] Q Y -.aX,.#.#.#.#.#.#.#.#.#.#.#.#.#.#.#.#.#.#.#.#.Q J 9.=X2.5.#.#.#.#.#.#.#.#.#.#.#.#.#.#.#.#.#.#.#.#.O.S I ! Q T D P Q Q Q C P T T ! Q Q Q ! ! T T Y *.<X:X................#.#...#.#.#.......#.#.#.#.#.#.#...#.....#.#.#...#.#.#.#.#.#.#.#.......#.#.#.#.#...#.#.#...#.#.#.#.#.#.#.#.#.#.#.#.#.#.#.#.#.#.#.#.#.#...#.#.#.#...#.#.#.#.#.O.#.#.#.O.O.#.#.#.O.....#.#.#.#.#.......#.#.#.#.#.#.....#.#.#.#.........#.#.#.#.#.....#.#.#...#...#...#.#...............P C Y T ! Q Q Q Q Q Q ! T P s.aX9.Q Q T P <X.X-.] ! Y =.dXM.=.#.#.#.#.#.#.#.#.#.#.#.#...Q T P D D D D N | ,XdX-X8.#.*.2.2.#.....#.#.#.#.#.#.#.#.#.#.#.#.#.#.#.#.#.#.#.#.#.#.#.#.",
"#.#.#.#.#.#.#.#.#.#.#.#.#.#.#.#.#.#.#.#.#.#.#.#.#.O.#.#.#.*.Q T T T T T T Q Q [ ..#.#.#.#.#.#.#.#.#.T Z U ! Q Y C Y Q Q Q C G Y T Q Q Q Q Q Q ! T U D r.f.Q ........#.....#.#.#...........#.#.#.#.#.#.#.#.#.#.......#.#.#.#.#.....#.#.#.#.#.......#.#.#.#.#.#.#.#.#.#.#.#.#...O.O...#.#.....#.#.#.#.#.#.#...#.#.#.#.#.#.#.#.......#.#.#.......#.#.#.#.#.#.#.#.#.#.#.#...#.#.#.#...#.#...#.#.#.#.#.#.#.#.#.#.#.......#.#.#.#.#...........#.#.#.............) C C Y T ! ! ! Q Q Q Q Q Y D M./.#.Q T P w.tX,.Q Q Y -.aX,.#.#.#.#.#.#.#.#.#.#.#.#.#.#.#.#.#.#.#.#.Q J 9.6X2.5.#.#.#.#.#.#.#.#.#.#.#.#.#.#.#.#.#.#.#.#.O.S I ! Q T D P Q Q Q C P T T ! Q Q Q ! ! ! T Y =.<X2X................#.....#.#.#.......#.#.#.#.#.#.#.#.#.#.#.#.#.....#.#.#.#.#.#.#.#.......#.#.#.#.......#.#.#.#.#.#.#.#.#.#.#.#.#.#.#.#.#.#.#.#.#.#.#.#.......#.#.#...#.#.#.#.#.#.#.#.#.#.#.#.#.#.......#.#.#.#.#.#.....#.#.#.#.......#.#.#.#.#.#.......#.#.#.#.#...#.#.#.#.........#...#.#.............P C Y T ! Q Q Q Q Q ! ! T P t.aX9.Q Q T P qX.X-.Q ! Y =.dXM.=.#.#.#.#.#.#.#.#.#.#.#.#...Q T P J D D D N ..uXuX5X8.#.*.2.2.#.#...#.#.#.#.#.#.#.#.#.#.#.#.#.#.#.#.#.#.#.#.#.#.#.#.",
"#.#.#.#.#.#.#.#.#.#.#.#.#.#.#.#.#.#.#.#.#.#.#.#.#.#.#.#.#.*.! T T T T T T ! Q [ ..#.#.#.#.#.#.#.#.#.T A Y ! Q Y C Y Q Q Q C G Y T T Q Q Q Q Q T T ~ G t.f.) ........#.#.......#.....#.#.#.......#.#.#.....O.#.#.#.#.#.#.#.#.#.......#.#.#.#.#.#.#.#.#.#.#.#.#.#.#.#.#.#.#.#.#.#.#.#.#.#.#.#.#.#.#.#.#.#.#...#.#.....#.#.#.......O.O.#.......#.#.#.#.#.#.#.#...#.#.#...........#.#.#.#.......#.#.#.#...#.#.#.#.#.#.#.#.#.#...#.#.#.#.#.#.#.#...............) C C Y T T ! Q Q Q Q ! T Y D M./...Q T P w.rX,.Q T Y -.aX2.#.#.#.#.#.#.#.#.#.#.#.#.#.#.#.#.#.#.#.#.Q J 9.uX2.5.#.#.#.#.#.#.#.#.#.#.#.#.#.#.#.#.#.#.#.#.O.S I ! Q T D P Q Q Q C P T T Q Q Q Q Q ! T U Y =.<X2X........#.#.#...#...#.#.#...#.#.#.#.#...............#.#.#.#.#.#...............#.#.......#.#.#.#.....#.#.#.#.#.#.#.#.#...#.#.#.#.#.#.#.#.#.#.#.#.#.#.#...#.#.#.#.#.#.#.#.#.#.#.#.#.#...#.#.#.#.#.#.#.#.#.O...#.#.#.....O.....#...#.#...........#.#.#.#.#.#.#.....#.#.#.#.#...#...#...#...............P C P T ! ! Q Q Q Q ! ! T P 9.aX9.Q Q T P qX.X-.] Q Y =.dXM.=.......#.#.#.#.#.#.#.#.#...Q T P D D D D N ..dXuXuX3.#.*.2.2.#.#.#.#.#.#.#.#.#.#.#.#.#.#.#.#.#.#.#.#.#.#.#.#.#.#.#.",
"#.#.#.#.#.#.#.#.#.#.#.#.#.#.#.#.#.#.#.#.#.#.#.#.#.#.#.#.#.*.T T T T T T T T Q [ ..#.#.#.#.#.#.#.#.#.T A Y ! Q Y C Y Q Q Q C G Y T T Q Q Q Q ! T T ~ G t.f.) ..........#.............#.#.#.#.....#.#.........#.#.#.#.#.#.#.#.#.......#.#.#.#.#.#.#.#.#.#.#.#.#.#.#.#.#...#.#.#.#.#.#.#.#.#.#.#...#.#.#.#.#...#...#.#.#.#.................#.#.#.#.#.#.#.#.#.#...#.#.#.#.#.....#.#.#.#.#.#.....#.#.#.#.....#.#.#.#.#.#.#.#...#.#...#.#.#.#.#.#.#.............) C C Y T T ! Q Q Q Q ! T Y D M./...Q T P w.rX,.Q Q Y -.aX2.#.#.#.#.#.#.#.#.#.#.#.#.#.#.#.#.#.#.#.#.Q J 9.5X2.5.#.#.#.#.#.#.#.#.#.#.#.#.#.#.#.#.#.#.#.#.O.S I ! Q Q D P Q Q Q C P T T Q Q Q Q Q ! T U Y =.<X>X......[ ..#.#...#...#.#.....#...#.#.#.#.........#...#.#.#.#.#.#...............#.#.#.#...#.#.#.#.....#.#.#.#.#.#.#.#.#...#.#.#.#.#.#.#.#.#.#.#...#.#...#.#.#.#.#...#.#.#.#.#.#.#.#.#.#.#.#.#.#.#.#.#.#.#.O...#.#.#.....#.#...#.#.#.#.........#.#.#...#.#.#.......#.#.#.#.#.#.#.....#...#.............P C P T ! ! ! Q ! Q ! ! ~ P q.aX9.Q Q T P qX.X-.Q ! Y =.dXM.=.......#.#.#.#.#.#.#.#.#.[ Q T P D D D D N x dXsX:X8.#.-.2.2.#.#.#.#.#.#.#.#.#.#.#.#.#.#.#.#.#.#.#.#.#.#.#.#.#.#.#.",
"#.#.#.#.#.#.#.#.#.#.#.#.#.#.#.#.#.#.#.#.#.#.#.#.#.#.#.#.#.*.T T T T T T T ! Q [ ..#.#.#.#.#.#.#.#.#.T Z U ! Q Y C Y Q Q Q C G Y T ! Q Q Q Q ! T T U D r.f.Q ..................#.#.#.#.#.#.......#.#.#.#.....#.#.....#...#.#.#.#.......#.......#.#.#.....#.#...#.#...........#.#...#.#.#.#.#.........#.#.....#.#.#.#.#.#.#.#.........#.#.#.#.#.#...#.#...#.#.#.#.#.#.#.#.#.#...#.#.#.#.#.......#...........#.#.#.#.#.................#.#.#.#.#.............) C C Y T ! Q Q Q Q Q Q T Y D M./.#.Q ! P w.rX,.Q Q Y -.aX2.#.#.#.#.#.#.#.#.#.#.#.#.#.#.#.#.#.#.#.#.Q J 9.5X2.5.#.#.#.#.#.#.#.#.#.#.#.#.#.#.#.#.#.#.#.O.O.S I T Q Q S P Q Q Q C P T T Q Q Q Q Q ! T U Y =.<X:X..........#.#.#.#...#.......#.#.....#.#.#.#.#.#.#.#.#.#.....#.#...#.......#.#.#.#.#.....#...#.#...#.#.#.....#.#.#.#.#.#.#.#.#.#.#.#.....O.#.#.#.....#.#.#.#.#.O...#.#.#.#.#.#.#.#.#.#.#...O.#.#.#.#.#.#.#.#.#.#.#.....#.#...#.#.#.#.#...#.#.#.#.........#.#.....#.#...#.#.#.#.........#.............P C P T ! ! Q Q ! ! ! ! ~ P s.aX9.Q Q T P }..X-.Q ! Y =.dXM.=...#.#.#.#.#.#.#.#.#.#.#...Q T P D D D D N x uX8X;X8.#.=.2.2.#.#.#.#.#.#.#.#.#.#.#.#.#.#.#.#.#.#.#.#.#.#.#.#.#.#.#.",
"#.#.#.#.#.#.#.#.#.#.#.#.#.#.#.#.#.#.#.#.#.#.#.#.#.#.#.#.#.*.! T T T T T T Q Q [ ..#.#.#.#.#.#.#.#.#.T Z U ! Q Y C Y Q Q Q C G Y T Q Q Q Q Q Q T T U D r.f.Q ..................#.#.#.#.#.#.......#.#.#.#.....#.#.....#...#.#.#.#.....#.#.#.#.#.#.#.......#.#...#.#.#.....#.#.#.#.#.#.#.#.#.#.......#.#.#.#.#.#.#.#.#.#.#.#.#.#...#.#.#.#.#.#.#.#...#.#.#.#.#.#.#.#.#.#.#.#.#.#.#.#.#.#.........#...........#.#.#.#.#.................#.#...................) C C Y T T Q Q Q Q Q Q T T D M./.#.Q ! P w.rX,.Q T W -.aX2.#.#.#.#.#.#.#.#.#.#.#.#.#.#.#.#.#.#.#.#.Q J 9.uX:.5.#.#.#.#.#.#.#.#.#.#.#.#.#.#.#.#.#.#.#.O.O.S I ! Q Q S I ! Q Q C P T T Q Q Q Q Q ! T U Y =.<X:X........#.#.#.#.#.#.#.....#.............#.#.#.#.#.#.#.#.....#.#.#.#.#.#.#.#.#.#.#.#...#.#.#.#.#.#.#.#.#.....#.#.#.#.#.#.#.#...#.#.#.......#.#.#.....#.#.#.#.#.#...O...O...#.#.#.#.#.#.#...#.#.#.#.#.#...#.#.#.O.#.#.....#.#.#.#.#.#.#.#.#.#.#.#.........#.#.........#.#.#...#.......#.#.............P C P T ! ! Q Q ! ! ! ! ~ P 9.aX9.Q Q T P }..X-.Q ! Y =.dXM.=.#.#.#.#.#.#.#.#.#.#.#.#...Q T P J D D D N x sXpX8X8.#.*.2.2.#...#.#.#.#.#.#.#.#.#.#.#.#.#.#.#.#.#.#.#.#.#.#.#.#.#.",
"#.#.#.#.#.#.#.#.#.#.#.#.#.#.#.#.#.#.#.#.#.#.#.#.#.#.#.#.#.*.Q T T T T T T ! Q [ ..#.#.#.#.#.#.#.#.#.T Z U Q Q Y C Y Q Q Q C J T T Q Q Q Q Q Q T T U D r.f.Q ........#.......#.#.#.#.....#.#.#.#.......#.#.#.#.#.....#.#.#.#...#.#.......#.#.#...#.#...........#.#.......#.#.#.#.#.#.#.#...#.#.#.#.#.#.#...#.#.#.#.#.#.#.#.#.#.#.#.#.O.#.#.#.#.O...#.#.#.#.O.#.#.#.#.#.#.#.#.#...#.#.................#.#...........#.#...#...........#.#.#.................) C C Y T T Q Q ! ! ! ! T T D M./.#.Q ! P q.tX,.Q Q W -.aX2.#.#.#.#.#.#.#.#.#.#.#.#.#.#.#.#.#.#.#.#.Q J 9.5X2.5.#.#...#.#.#.#.#.#.#.#.#.#.#.#.#.#.#.#.#.O.S I ! Q Q Z P ! Q Q C P T T Q Q Q Q Q ! T T Y =.<X=X............#.#.#.#.................#.#.#.#.#.#.#.#.#.#.........#.#.#.#.#.#.#.#.#.#.#.#.#.O.....#.#.#.#...#.#.#.#.#.#.#.#.#.#.#.#.#.....#.#.......#.#.#.#.#.#.#...#.#.#.#.#.#.#.#.#.#.#.#.#.#.#.#.#...O.#.#.....#.#.#.#.#.#.#.#.#.#.#.#.#.#...#.#.#.....#.#.#.#.......#.#.#.#.........#.............P C T T ! ! ! Q Q Q Q ! ~ P 9.aX9.Q Q T P }..X-.] Q Y D dXM.=...#.#.#.#.#.#.#.#.#.#.#...Q T P D D D D N x dXsX;X8.#.*.2.2.#.#.#.#.#.#.#.#.#.#.#.#.#.#.#.#.#.#.#.#.#.#.#.#.#.#.#.",
"#.#.#.#.#.#.#.#.#.#.#.#.#.#.#.#.#.#.#.#.#.#.#.#.#.#.#.#.#.*.T T T T T T T T Q [ ..#.#.#.#.#.#.#.#.#.T Z U Q Q Y C Y Q Q Q C J T T ! Q Q Q Q Q T T U D r.f.Q ........#.....#.#.#.#.#.....#.#.#.#.......#.#.#.#.#.....#.#.#.#.....#.......#.#.#.#.#.#.#.........#.#.......O.#.#.#.#.#.#.#.#.#.#.#.#.#.#.#...#.#.#.#.#.#.#.#.#.#.#.#.#.#.#.#.O.#.#...#.#.#.O.#.#.#.#.#.#.#.#.#...#.#.#...............#.#.#.........#.....#.#.#.#.......#.#.#.................) C C Y T T ! Q ! ! ! Q T T D M./.#.Q ! P t.tX,.Q Q W -.aX,.#.#.#.#.#.#.#.#.#.#.#.#.#.#.#.#.#.#.#.#.Q J 9.,X2.5.#.#...#.#.#.#.#.#.#.#.#.#.#.#.#.#.#.#.#.O.S I ! Q Q Z P ! Q Q C P T T ! Q Q Q Q Q T T Y =.<X:X............#.#.#.#.................#.#.#...#.#.#.#.#.#.....#...#.#.#.#.#.#.#.#.#.#.#.#.........#.#.#.#.....#.#.#.#.#.#.#.#.#.O.#.#.O...O.#.......#.#.#.#.#.#.O...#.#.#.#.#.#.#.#.#.#.#.#.#.#.#.O.#...O.#.#.#...#.#.#.#.#.#.#...#.#.#...#.#.....#.#.#.#.#.#.#.#.#.#.............#...#...............I C T T ! ! ! Q Q Q Q ! ~ P 9.aX9.Q Q T P }..X-.] Q Y D dXM.=.#.#.#.#.#.#.#.#.#.#.#.#...Q T P D D D D N x 8XdX-X8.#.*.2.2.#.#.#.#.#.#.#.#.#.#.#.#.#.#.#.#.#.#.#.#.#.#.#.#.#.#.#.",
"#.#.#.#.#.#.#.#.#.#.#.#.#.#.#.#.#.#.#.#.#.#.#.#.#.#.#.#.#.*.Q T T T T T T ! Q [ ..#.#.#.#.#.#.#...#.T Z U ! Q Y C Y Q Q Q C H T T T Q Q Q Q Q T T U D t.f.) ........#.....#.#.#.#.#.........#.#.....#.#.#.#.....#.#.#.#.#.......#.#.....#.#.#.#.#.#.#.#...#.....#.#.....#.#.#.#.#.#.#.#.#.#.#.#.#.#...#...#.#.#.#.#.#.#.#.#.#.#.#.#.#.#.#.#.#.#.#.#.#.#...#.#.#.#.#.#.#.......O.#.#.#.#...#.........#.#.#.#...#.#...#.#...#.......#.#.#.#.................) C C Y T T Q Q Q ! ! Q ! T D M./.#.Q ! P t.tX,.Q T W -.aX,.#.#.#.#.#.#.#.#.#.#.#.#.#.#.#.#.#.#.#.#.Q J 9.uX:.5.*.#.#.#.#.#.#.#.#.#.#.#.#.#.#.#.#.#.#.#.O.S I ! Q ! D P ! Q Q C P T T ! Q Q Q Q ! T T Y =.<X:X..............#...#.#.......#...#.#.#.#.........#.#.#.#.#.#.#.#.#.#.........#.#.#.#.#...#.#.#.#...#.#.#.#.#.#.#.#.#.#.#.#.#.#.#.#.#.#.....#...#.#.#.#.#.#.#.#.#.#.#.#.#.#.#.#.#.#.#.O.#.O.#.#.#.#.#.....#.#.....#...#.#.O.O.#.#.#.#.#...........#.#.#.#.........#...#...#.#.........#...............I C T T ! ! ! Q Q Q Q ! T P 9.aX9.Q Q T P }..X*.] Q Y D dXM.=.#.#.#.#.#.#.#.#.#.#.#.#...Q T P D D D D N x sXpX8X8.#.*.2.2.#.....#.#.#.#.#.#.#.#.#.#.#.#.#.#.#.#.#.#.#.#.#.#.#.#.",
"#.#.#.#.#.#.#.#.#.#.#.#.#.#.#.#.#.#.#.#.#.#.#.#.#.O.#.#.#.*.Q T T T T T T Q Q [ ..#.#.#.#.#.#.#.#.#.T Z U Q Q Y C Y Q Q Q C H T T ! Q Q Q Q ! T T U D t.f.) ............#.#.....#.#.......#.#.#.......#.#.#.....#.#.#.#.........#.#.......#.#.#.#.#.#.#.#.#.#.#.#.#.#.#.#.#.#.#.......#.#.#.#.#.#.#.#.#.......#.#...#.#.#.....#.O.O.O.O.#.#.#.#.#.#.#.#.....#.#.#.#.#...........#.#.#.#.#.#.#.#.#.#.#.#.#.#.#...#.#.#.#.....#.#.....#.#.#.................[ C C Y T T Q Q Q ! ! Q Q T D M.|.#.Q ! P t.rX,.Q T W -.aX,.#.#.#.#.#.#.#.#.#.#.#.#.#.#.#.#.#.#.#.#.Q J 9.pX:.5.*.#.#.#.#.#.#.#.#.#.#.#.#.#.#.#.#.#.#.#.O.S I ! Q ! D P ! Q Q C P T T ! Q Q Q ! ! ! T Y =.<X:X..................#.....#...#.#.#.#.#.#.............#.#.#.#.#.#.#.#.........#.#.#.#.#...#.#.#.#.......#.#.#.#.#.#.#.........#.#.#.#.#.#.#.#.#.#.#.#.#.#.#.#.#.#.#.#.#.#.#.#.#.......#.#.#.#.#.#.#.#.#...#.#.#.......#.#...#.#.#.#.#.#.#.........#.#.#.#.O.#.....#...#...#.#...........#.............I C T T ! ! ! Q Q Q Q ! T P 9.aX9.Q Q T P }..X*.] Q Y D dXM.=.#.#.#.#.#.#.#.#.#.#.#.#...Q T P J D D D N x dXsXpX8.#.*.2.2...#...#.#.#.#.#.#.#.#.#.#.#.#.#.#.#.#.#.#.#.#.#.#.#.#.",
"#.#.#.#.#.#.#.#.#.#.#.#.#.#.#.#.#.#.#.#.#.#.#.#.#...#.#.#.*.! T T T T T T ! Q [ ..#.#.#.#.#.#.#.#.#.T Z U Q Q Y C Y Q Q Q C H T T Q Q Q Q Q ! T T U D r.f.) ..................#.#...#.#.#.#.#.#.#.#.#.#.#.#.......#.#.#.........#.#.#.#...#.#...........#.#.#.#.#.#.#.#.#.O...#.#...#.#.#.#.#.#.#.#.#.#.#.....#.....#.#.#.#.#.......#.#.....#.#.#.#...#.#.#.#.#.#.#.............#.#.#.#.#.#.#.#...#...#.#.#.#.#.#.#.#.#.#...........#...#.................[ C C Y T T Q Q Q ! ! Q ! T D M.|.#.Q T P t.rX,.Q T W D aX,.#.#.#.#.#.#.#.#.#.#.#.#.#.#.#.#.#.#.#.#.Q J 9.-X:.5.*.#.#.#.#.#.#.#.#.#.#.#.#.#.#.#.#.#.#.#.O.A I T Q ! D P ! Q Q C P T T ! Q Q Q Q ! T T Y =.<X=X..........#...#.#...#...#.#.#.#.#.#.#.#...............#.#.#.......#.#.#.#.#.#.#.#.#.....#.#.#.#.#.#.#.#.#...#.#.#.#.....#.#.#.#.#.#.#.#.#.#.....#.#.#.#.#.#.#...#.#.#.#...#.#...#.#.#.#.#.#.#.#.#.#.#.#.#.#.#.#.#.#.#.#.#.#.#.#.#.#.#.#.....#.#.#.......#.#.#.....................#.#.#.............P C T T ! ! Q Q Q Q Q ! ~ P s.aX9.Q Q T P }..X=.Q Q Y D dXM.=.#.#.#.#.#.#.#.#.#.#.#.#...Q T P D D D D N M 5XdX-X8.#.*.2.2.#.#.#.#.#.#.#.#.#.#.#.#.#.#.#.#.#.#.#.#.#.#.#.#.#.#.#.",
"#.#.#.#.#.#.#.#.#.#.#.#.#.#.#.#.#.#.#.#.#.#.#.#.#...#.#.#.*.T T T T T T T T Q [ ..#.#.#.#.#.#.#.#.#.T Z Y Q Q Y C Y Q Q Q C H T T ! Q Q Q Q ! T T U D r.f.) ................#.#.........#.#.#.#.....#.#.#.#.......#.#.#.#.......#.#.#.#.#.#.........#...#.#.#.#.#.#.#.#.#.#...#.#...#.#.#.#.#.#...#.#.#.#.#.....#...#.#.#.#.#...#.#.#.#.....#.#.#.#.#.#.#.#.#.#.#.#.#.#.#.......#.#.#.#.#.#.#.#.....#.#.#.#.#.#.#.#...#.#.#.......#.#...#.................[ C C P T T Q Q Q Q Q Q T Y J M.|.#.Q ! P t.rX2.Q T Y D aX,.#.#.#.#.#.#.#.#.#.#.#.#.#.#.#.#.#.#.#.#.Q J 9.8X:.5.*.#.#.#.#.#.#.#.#.#.#.#.#.#.#.#.#.#.#.#.O.A I T Q ! D P ! Q Q C P T T ! Q Q Q ! ! T U Y =.<X:X..............#.........#.#.#.#.#.#.#.#.................#.#...#.#.#.#.#.#.#.#.#.#.#.....#.#.....#.#.#.#.#...#.#.#.#.....#.#.#.#.#.#.#.#.#.#.#.#.#.#.#.#.#.#.#.#.#.#.#.#.#.#.#...#.#.#.#.#.#.#.#.#.#.#.#.#.#.#...#.#.#.#.#...#.#.#...........#.#.#.#.....#.#.#.#...........#.........#.#.............P C ~ T T ! ! Q Q Q Q T T P t.aX8.Q Q T P }..X=.] Q Y D dXM.=.#.#.#.#.#.#.#.#.#.#.#.#...Q T P D D D D N x pXuX5Xr.#.*.1.5.#.#.#.#.#.#.#.#.#.#.#.#.#.#.#.#.#.#.#.#.#.#.#.#.#.#.#.",
"#.#.#.#.#.#.#.#.#.#.#.#.#.#.#.#.#.#.#.#.#.#.#.#.#.O.#.#.#.*.T T T T T T T ! Q [ ..#.#.#.#.#.#.#.....T A P T Q Y C Y Q Q Q C H T T Q Q Q Q Q ! T T U G r.f.) ..............#.#.#.#...........#.#.........#.#.#.......#.#.#.#.........#...#.#.#.#.#.#.#.#.#.#.#.......#.#.#.#.#.#.#.#.#.#...#.#...#.#.#.#.#.#.#.#...#.#.#.#.#.....#.#.#.#...#.#.#.O.#.#...#.#.#.#.O.#...#.#...#.#.#.#.#.#.#.#.....#.#.#.#.................#.#.........#.#.#.#...............[ C C P T ! ! Q Q Q Q Q T P P M.|.#.Q ! P t.rX2.Q ! P D aX,.#.#.#.#.#.#.#.#.#.#.#.#.#.#.#.#.#.#.#.#.Q J 9.uX:.5.*.#.#.#.#.#.#.#.#.#.#.#.#.#.#.#.#.#.#.#.O.A I ! Q ! D P ! Q Q C P T T ! Q Q Q ! ! ! T Y =.<X:X............#.#.#.....#...#...#.#.#.#.#.#.#.........#.#.#.....#.#.#.#.#.........#.......#.#.........#.#.....#.#.#.#.#...#.#.....#...#.#.#.#.#.#.#.#.#.#.#.#.#.#...#.#.#.#.#.....#.#.#.#.#.#.#.#.#.#.#.#.#...........#.#.#.O.#.O.O.#.#.......#.#.#.#.....#.#.#.#.#.#.....#.#.#...#.#.#.#.............Y C T T T ! Q Q Q Q Q ! ~ P #.dX8.Q Q ! P }..X-.] Q Y D dXM.=...#.#.#.#.#.#.#.#.#.#.#...Q T P D D D D N x dXpXuXr.#.*.2.5.#.#.#.#.#.#.#.#.#.#.#.#.#.#.#.#.#.#.#.#.#.#.#.#.#.#.#.",
"#.#.#.#.#.#.#.#.#.#.#.#.#.#.#.#.#.#.#.#.#.#.#.#.#.O.#.#.#.*.! T T T T T T Q Q [ ..#.#.#.#.#.#.#.....T A P T Q Y C Y Q Q Q C H Y T Q Q Q Q ! ! T T U G u.f.Q ..............#.#.#.#.#.........#.#.........#.#.........#.#.#.#.#.#.........#.#.#.#.#.#.#.#...#.#...#.#...#.#.#.#.#.#.#.#.#...O.#.#.#.#.#.#.#.#.#.#.#.#.#.#.#.#.....#.#.#.#.#.#.#.#.#.#.#.#.#.#.#...#.....#.#.#.#.#.#.#.#.#.#.#.#...#.#.#.#.................#.#.#.#.....#.#.#.#...............[ C C P T T ! Q Q Q Q Q T P P M.|.#.Q ! P #.rX2.Q Q P D aX,.#.#.#.#.#.#.#.#.#.#.#.#.#.#.#.#.#.#.#.#.Q J 9.=Xs.5.*.#.#.#.#.#.#.#.#.#.#.#.#.#.#.#.#.#.#.#.O.S I ! Q ! D P ! Q Q C P T T ! Q Q Q Q ! T T Y =.<X=X5...........#.#.#.#...#...#.#.#.#.#.#...#.#.#.......#.#.#.......#.#.#.#.........#.#.....#.#.......#.#.#.#...#.#.#.#.....#.#.....#.#.#.#.#.#.#.#.#.#.#...#.#.#.#.....#.#.#.#.....#.#.#.#.#.#.#.#.#.#.#...#.....#.....#.#.#.#.#.#.#.#.#.#.....#.#.#.#.....#.#.#.#.#.#.#.#.#.#.#.#.#.#...#.............Y C T T T ! Q Q Q Q Q ! ~ G #.dX8.Q Q T I }..X-.] Q Y D dXM.=...O.O.#.#.#.#.#.#.#.#.#...Q T P J D D D C x pXdX;Xr.[ *.2.5.#.O...#.#.#.#.#.#.#.#.#.#.#.#.#.#.#.#.#.#.#.#.#.#.#.#.",
"#.#.#.#.#.#.#.#.#.#.#.#.#.#.#.#.#.#.#.#.#.#.#.#.#.#.#.#.#.*.Q T T T T T T ! Q [ ..#.#.#.#.#.#.#.....T Z P T Q Y C Y Q Q Q C D Y T Q Q Q Q Q ! ! T U G u.f.Q ............#.#.#.........#.........#.#.#...................#.#.#.#.....#.#.#.#.#.#.#.#.#.#.#.#.....#.#.#.#.#...#.#.#.#.#.#.#.#.#.#.#...#.#.#.#.#.#.#.#.....#.#.#.#.#.#.#.#.#.#.#.#.#.#.#.#.#.#.#.O.#.#.....#.#.#.#...O.#.#.#.#.....#.#.#.#.#.#.#.......#.#.#...#.#...#.#.#.#.#.#.............[ C C P T T ! ! Q Q Q Q T P P M.|.#.Q ! P #.rX2.] Q T D aX,.@.#.#.#.#.#.#.#.#.#.#.#.#.#.#.#.#.#.#.#.Q J 9.6Xt.5.*.#.#.#.#.#.#.#.#.#.#.#.#.#.#.#.#.#.#.#.O.S I T Q Q D P ! Q Q A P T T Q Q Q Q Q ! T T Y =.<X=X5...........#.#...#.#.#.....#.#.#.#.....#.#.........#.#.....#.#.........#.#.#.......#.#.#.#.....#.#.#.#.#.#.#.#.#.#.#.#.#.#.O.#.#.#.#.#.....#.#.#.#.#.#.O.....#.#.#.#.#.#.#.#.#.#.#.#...#.#.#.#.#.#.#...............#.#.#.#.#.#.....#.#.#.#.#.#.#.#.#...#.#.#.#.#.#.#.#.#.#.#.#.#.#.#...............Y C T T ! ! ! Q Q Q Q ! ~ G #.dXq.Q Q T P }.tX-.] Q Y D dXM.=.#.#.#.#.#.#.#.#.#.#.#.#...Q T P D D D D N x uXuX5Xr.#.*.,.5.#.#.#.#.#.#.#.#.#.#.#.#.#.#.#.#.#.#.#.#.#.#.#.#.#.#.#.",
"#.#.#.#.#.#.#.#.#.#.#.#.#.#.#.#.#.#.#.#.#.#.#.#.#.#.#.#.#.*.T T T T T T T T Q [ ..#.#.#.#.#.#.#.#.#.T Z P T Q Y C Y Q Q Q C D Y T T Q Q Q Q ! ! T U G f.f.Q ..........#.....#.........#.....#...#.#.#.#.......#...#.#.#.#.#.#.#.....#.#...#.....#.#.#.#.#.#.#.#.#.#.#.#.#.#.#.#.#.#.....#.#...#.#...#.#.#.#.#.#.#.#.#...#.#.#.#...#.#.#.#.#.#.#.#.#...#.#.#.#.#.#.#.......#.#.#.....#.#.#.#.......#.#.#.#.#.#.#.#.#.#.#.....#.....#.#.#.#.#.#.............[ C C P T Q Q ! Q Q Q ! T P P M.|...Q T P #.rX2.Q Q T D aX,.#.#.#.#.#.#.#.#.#.#.#.#.#.#.#.#.#.#.#.#.Q J 9.uXt.5.*.#.#.#.#.#.#.#.#.#.#.#.#.#.#.#.#.#.#.#.#.S I T Q Q D P ! Q Q A P T T Q Q Q Q Q T T T Y =.<X=X7...........#...#...#.......#.#.#.#.....#.#.........#.#...#.#.#.........#.#.........#.#.#.#.#...#.#.#.#.#.#.#.#.#.#.#.#.#.#.#.#.#.#.#.#.....#.#.O.....#.#.....#.#.#.#.#.#.#.....#.#.........#...#.#.................#.#.#.#.....#.......#.#.#.#.#.#.#.#.#.#.#.#.#.#.#.#.....#.#.#.#.#...............Y C T T ! ! ! Q Q Q Q T U G #.dXq.Q Q T P }.tX-.] Q Y D dXM.-.#.#.#.#.#.#.#.#.#.#.#.#...Q T P D D D D N x dXsX8Xr.#.*.-.5.O.#.#.#.#.#.#.#.#.#.#.#.#.#.#.#.#.#.#.#.#.#.#.#.#.#.#.",
"#.#.#.#.#.#.#.#.#.#.#.#.#.#.#.#.#.#.#.#.#.#.#.#.#.#.#.#.#.*.Q T T T T T T ! Q [ ..#.#.#.#.#.#.#.#.#.T Z P T Q Y C Y Q Q Q C D Y T Q Q Q Q Q ! ! T U G u.f.Q ........#.#.............#.#.#.#.#.#.#.#.#.#.....#.#.#.#.#.#.#.#.....#.#.#.#.......#.#...#.#.#.#.#.#...#.#.#.#.......#.#.....#.#.#.#.#.#.#.#.#.#.#.#.#.#.#.#.O...#.#...#.#.#.#.#...#.#.#.#.#.#.#.#.#.#.#.#.#.O.#.#.#.......#.#.#.........#.O.#.#.#.#.#.#.#.#.......#...#.#.#.#.#.#.............[ C C P T ! ! ! Q Q Q ! T P P M.|.#.Q T P #.rX2.Q Q T D aX,.#.#.#.#.#.#.#.#.#.#.#.#.#.#.#.#.#.#.#.#.Q J 9.5Xs.5.*.#.#.#.#.#.#.#.#.#.#.#.#.#.#.#.#.#.#.#.#.S I ! Q Q D P ! Q Q A P T T ! Q Q Q Q ! ! T Y =.<X=X7...........#.......#.#...#.#.#.#.......#.#.#.....#.#.#.....#.#.#.#.....#.#.#.#.....#.#.#.#.....#.#.#.#.#.#.....#.#.#.#.#.#.O.#.#.#.#.......#.#.#.#.#.#.#.#.....#.#.#.#.......#.#.#.#.#.#.#.#.#.#.#.#.#.O.#.#.#.#.#.#.#.#.#.#.#.#.#.#...#.#.#.#.#.#.#.#.#.#.........#...........#...#.#.............Y C ~ T ! ! ! Q Q Q Q T T J #.dXq.Q Q T P }.tX-.] Q Y D dXQ.-.#.#.#.#.#.#.#.#.#.#.#.#...Q T P D D D D N x dXdX-Xt.#.*.,.5.O.#.#.#.#.#.#.#.#.#.#.#.#.#.#.#.#.#.#.#.#.#.#.#.#.#.#.",
"#.#.#.#.#.#.#.#.#.#.#.#.#.#.#.#.#.#.#.#.#.#.#.#.#.O.#.#.#.*.Q T T T T T T Q Q [ ..#.#.#.#.#.#.#.#.#.T Z P T Q Y b Y Q Q Q C D Y T Q Q Q Q Q ! T T U G u.f.Q ..............#.#.......#.#.#.#.#.#.#.#.#.#.....#.#.#.#.#.#.#.#.#...#.#.#.#.......#.#...O.#.#.#.#...#.#.#.#...........O.....#.#.#.#.#.#.#.#.#.#.#.#.#.#.#.#.#.....#.......#.#.#...#.#.#.#.#.#.#.#.#.#.#.#.#.#.#.#.#.....#.#.#.#.............#.#.#.#.#.#.#.#.........#.#.#.#.#.#.#.............[ S C P U T ! ! Q Q Q Q T P P s.|.#.Q T P #.rX2.Q T Y D aX,.#.#.#.#.#.#.#.#.#.#.#.#.#.#.#.#.#.#.#.#.Q J 9.5Xt.6.*.#.#.#.#.#.#.#.#.#.#.#.#.#.#.#.#.#.#.#.#.S I ! Q Q D P ! Q Q A P T T ! Q Q Q Q ! T U Y =.1X=X5.........#.#.#.#...#.........#.#.......#.#.#...#.#.#.#.....#.#.#.#.#.#.#.#.#.#.#...#.#.#.#.....#.#.#.#.#...........#.#.#.#.#...#.#.#.......#.#.#.#.#.#.#.#...#.#.#...........#.#.#.#.#.#.#.#.#.#.#.#.#.#.#.#.#.#.#.#.#.#.#.#.#.#.#.#...#.#.#.#.#.#.#.#.#.#.....................#.....#.............Y C ~ T T ! ! Q Q Q Q ! ~ J &.dXq.Q Q T P }.wX-.] Q Y D dXQ.-.#.#.#.#.#.#.#.#.#.#.#.#...Q T P J D D D C x 8X8X5Xy.[ *.,.5.O.#.#.#.#.#.#.#.#.#.#.#.#.#.#.#.#.#.#.#.#.#.#.#.#.#.#.",
"#.#.#.#.#.#.#.#.#.#.#.#.#.#.#.#.#.#.#.#.#.#.#.#.#.#.#.#.#.*.! T T T T T T ! Q [ ..#.#.#.#.#.#.#.....T Z Y ! Q Y N P Q Q Q C H T T T Q Q Q Q ! T T U G u.f.Q ..........#...#.#...#...#.#.#.#.#.#.#.#.#.#.#...#.#.#.#.#.#.........#.#.#.#.....#.#.#.#...#...#.#...#.#.#...#.#.#.#.#...#.#.#.#...O.#.#.....#.....#.....#.#.#.#.#.....#.#.#.#.#...#.#.#.#.#.#.#.#.#.#.#.#...#.#.#.#.#.#.#.#...#.#.#.#.#.#.#...O.....#.#.....#.#.#.#...........#...............[ S C P T T Q Q Q Q Q ! T P J q.|...Q ! P #.rX2.Q T Y D dX,.#.#.#.#.#.#.#.#.#.#.#.#.#.#.#.#.#.#.#.#.Q J 9.uXt.6.*.#.#.#.#.#.#.#.#.#.#.#.#.#.#.#.#.#.#.#.#.S I ! Q Q D P ! Q Q A P T T T Q Q Q Q Q T T Y =.1X=X7.........#...#.#.#...#.#.#.#.#.................#.#.#.#.....#.#.#.#.#.#.#.#.........#.#.#.#.......#.#.#.#.............#.O.#.#.#.#.#.#.#.#.#.#.#.#.#.#.#.#.#.............#.#.#.#.#.#.#.#.#.#...#.#.#.#.#.#.#.#.#.#.#.....#.#.#.#...O.....#.#.#.#.#.#.....#...................#...#...................Y C ~ T T ! ! Q Q Q Q T T J #.dXq.Q Q T I }.wX-.] Q Y D dXQ.-.......#.#.#.#.#.#.#.#.#...Q T P H D D D N x sXpX8Xy.#.*.,.5.O.O.O.O.#.#.#.#.#.#.#.#.#.#.#.#.#.#.#.#.#.#.#.#.#.#.#.",
"#.#.#.#.#.#.#.#.#.#.#.#.#.#.#.#.#.#.#.#.#.#.#.#.#.#.#.#.#.*.T T T T T T T T Q [ ..#.#.#.#.#.#.#.....T Z Y ! Q Y N P ! ! Q C H T T T Q Q Q Q ! ! T U G u.f.Q ..........#.#...#.#.....#.#.#.#...#.#.#.#.#.....#.#.#.#.#.#...#.....#.#.#.#...#...#...#.#.#...#.#...#.O.....#.#.#.#.#.....#.#.#.#...#.#.......#.....#.#.#.#.#.#.#.#.#.#.#.#.#.#.......#.#.#...#.#...#.#.#...#.#.#.#.#.#.#.#...#.#.#...#.#.#.........#.#.....#.#.#.#...........................[ S C P T T Q Q Q Q Q ! T U G q.|.#.Q ! P #.rX2.Q T Y D dX,.#.#.#.#.#.#.#.#.#.#.#.#.#.#.#.#.#.#.#.#.Q J 9.,Xs.6.*.#.#.#.#.#.#.#.#.#.#.#.#.#.#.#.#.#.#.#.#.S I ! Q ! D P ! Q Q A P T T T Q Q Q Q Q T U Y D 1X=X7.........#...#...#...#.#.#.#.#.........#.......#.#.#.#.....#.#.....#.#.#.#.........#.#.#.#.....#.#.#.#.#.#.....#.#.....#.#.#.#.#.#.#.#.#.#.#.#...#.....#.#...#.........#.#.#.#.#.#.#.....#.....#.#.#.#.....#.#.#.#.........#.#.#.#.....#.#.#.#.#.#.....#.#.............#.#.#.............#.........Y C ~ T T ! ! Q Q Q Q T U P &.dXq.Q Q T I }.wX-.] Q Y D dXQ.-.#.....#.#.#.#.#.#.#.#.#...Q T P D D D D N x aXsXpXy.#.*.-.5.O.#.O.O.#.#.#.#.#.#.#.#.#.#.#.#.#.#.#.#.#.#.#.#.#.#.#.",
"#.#.#.#.#.#.#.#.#.#.#.#.#.#.#.#.#.#.#.#.#.#.#.#.#.#.#.#.#.*.T T T T T T T ! Q [ ..#.#.#.#.#.#.#.....T Z Y Q Q Y N P ! ! Q C H T T T Q Q Q Q ! ! T U G u.f.) ..........#.#.#.#.......#.#.........#.#.#...............#.#.#.#.#.#.#.#.#.#.....#.#.....#.#.#.#.#...#.#.....#.#.#.#.#...#.#.#.#.#.#.#.#.......#.#.#.#.#.#.#...#.#.#...#.#...#.......#.#.#.#.O.#.#...#.#.....#.#...#.#.#.........#.#.....#.#.#.#.....#.#.....#...#.#.#.......#...................S C P T ! ! Q Q Q Q Q T U G t.|.#.Q ! P *.rX2.Q T Y D dX,.#.#.#.#.#.#.#.#.#.#.#.#.#.#.#.#.#.#.#.#.Q J 9.,Xs.6.*.#.#.#.#.#.#.#.#.#.#.#.#.#.#.#.#.#.#.#.#.S I ! Q ! D P ! Q Q A P T T T Q Q Q Q ! T U Y D 1X=X5.....#...#.#.#...#...#.....#.#...#.....#.#.....#.#.#.#.#.#.#.#.........#.#.#...#.#.#.#.#.#...#...#.#.#.#.#.....#.#.#.#.#.#.#.#.#.#.....#.#.............#.#.#.#.#.#.#.#.O.....#.#.........O.......#.#.#.........#.#.#...#.#.#.#.#.#.....#.#.....#.......#.......#...#.#.#.#.#.#...........#.#.......Y C T T ! ! ! ! Q Q Q ! P P ;.dXq.Q Q T I }.wX-.] Q Y D dXQ.-.#.#.#.#.#.#.#.#.#.#.#.#...Q T P H D D D N x ;XdX;Xy.#.*.,.5.O.#.#.O.#.#.#.#.#.#.#.#.#.#.#.#.#.#.#.#.#.#.#.#.#.#.#.",
"#.#.#.#.#.#.#.#.#.#.#.#.#.#.#.#.#.#.#.#.#.#.#.#.#.#.#.#.#.*.! T T T T T T Q Q [ ..#.#.#.#.#.#.#.#.#.T Z Y ! Q Y N P ! ! Q C H T T ! Q Q Q Q ! ! ! U G f.f.) ..........#.#.#...........#.........#.#.#.................#.#.#.#.#.#.#.#.#.....#.#.#.#.#.#.#.#.#.#.#.#.....#.#.#.#.#.O.#.#.#.#.#.O.#.#.#.#.#.#.#.#.#.#.#.#.#.........#.#.#.#.#.#...#.#.#.#.O.#.#.#.#.#...#.#.#.#...#.#.#.......#.#.....#.#.#.#...#.#.#.........#.#...#.#.#.#.#.................S C P T T ! Q Q Q Q Q T T G t.|.#.Q ! P *.rX2.] Q Y D dX,.#.#.#.#.#.#.#.#.#.#.#.#.#.#.#.#.#.#.#.#.Q J 9.uXt.5.&.#.#.#.#.#.#.#.#.#.#.#.#.#.#.#.#.#.#.#.#.S I ! Q ! D P ! Q Q A P T T T Q Q Q Q ! T U Y D 1X=X5.............#...#...#.....#.#.#.#.#.#.#.#.....#.#.#...#.#.#.#...#.....#.#.O...#.#.#.#.#.#...#.#.#.#.#.#.#.....#.#.#.#.#.#.#.#.#.#.....#.#.............#.#.#.#.#.#.#.#.#.#.#.#.#.#.#.#.#.#.....O.#.#.#.......#.#.#.....#.#.#.#.#.......................#.......#.#.#.#.#.#...#.............#.#.....Y C T T ! ! ! ! Q Q Q ! P P =.dXq.Q Q T I Q.qX-.] Q Y D dXQ.-.#.#.#.#.#.#.#.#.#.#.#.#...Q T P J D D D C x yXpX8Xy.[ *.,.2...#.#.O.#.#.#.#.#.#.#.#.#.#.#.#.#.#.#.#.#.#.#.#.#.#.#.",
"#.#.#.#.#.#.#.#.#.#.#.#.#.#.#.#.#.#.#.#.#.#.#.#.#.#.#.#.#.*.Q T T T T T T ! Q [ ..#.#.#.#.#.#.#.#.#.T Z Y ! Q Y N P ! ! Q C H T T T Q Q Q Q ! ! ! U G f.f.Q ..................#...........#.#.#.........#.#.........#.#.#.#.#.#.#.#.....#.#.#.#.#.#...#.#.#.#.#.#.#.#.#.......#...#.#.#.#.#.#...#.#.#.#.....#.#.......#.#.#.#.#.#.#.#.#...#.#.#.#.#.......#.#.#.#.#.#.....#.#...#.#.......#.#.#.......#.#.#.#.#.#.#.#.#...........#...#.....#.............{ Z C P T T Q ! Q Q Q Q T U G q.|.#.Q ! P *.rX2.] ] Y D dX-.#.#.#.#.#.#.#.#.#.#.#.#.#.#.#.#.#.#.#.#.Q J ..,Xt.5.#.#.#.#.#.#.#.#.#.#.#.#.#.#.#.#.#.#.#.#.#.S I ! Q Q D P ! Q Q A P T T T Q Q Q Q ! ! T Y D 1X=X7.............#.#.#.#...........#.#.#.#.#.#.#.#.........#.#.#.#.#.#.....#.#.#.#.#.......#.#.#.#.#.#.#.O.#.#.#.#.....#.#.#.#.#...#.#.#.#.O.....#...#.....#.#.#.#.#.#.#.#.#.#.#.#.....#.#.#.#...#.O.#.#...#.#.#.#...#.O...#.#.....#.#.#.#.#.............#.#.#.........#.#.#.#.........................Y C T T ! ! ! ! Q Q Q ! P P ;.dXq.Q Q T I Q.wX-.] Q Y D aXQ.-.#.#.#.#.#.#.#.#.#.#.#.#...Q T P H D D D N x aXsXuXi.#.*.,.2...#.#.#.#.#.#.#.#.#.#.#.#.#.#.#.#.#.#.#.#.#.#.#.#.#.#.",
"#.#.#.#.#.#.#.#.#.#.#.#.#.#.#.#.#.#.#.#.#.#.#.#.#.#.#.#.#.*.T T T T T T T T Q [ ..#.#.#.#.#.#.#.#.#.T Z Y ! Q Y N P ! ! Q C H T T T Q Q Q Q ! ! T U G f.f.Q ......#.#.#.......#...........#.#.#.........#.#.#.......#.#.#.#...#.#.O.........#.#.#.#...#.#.#.#.#.#.#.#.#.#.#.....#.#.#.#.#.#.#...#.#.#.#...#.#.#.......#.#.#.#.#.#.#.#.#...#.#.#.#.#.....#.#.#.#.#.#.......O.#...#.#.........#.#.....#.#.#.#.#.#.#.#...#.......#.#.#.......................{ Z C P T T ! ! Q Q Q Q Q T J q.}.#.Q ! P *.aX2.] ] Y D dX-.#.#.#.#.#.#.#.#.#.#.#.#.#.#.#.#.#.#.#.#.Q J ..-Xs.5.#...#.#.#.#.#.#.#.#.#.#.#.#.#.#.#.#.#.#.#.S I T Q Q D P ! Q Q A P T T T Q Q Q Q ! T T Y D 1X=X7.......#...#.#.............#...#.#.#.#.#.#.#.#...........#...#.#.#.#.#.#.#.#.#.#.#.........#.#.#.#.#.#.#.#.#.#.....#.#.#.#.#...#.#.#.#.O.#...#.#.#.#...#.#.#.#.#.#...#.#.#.#.#...#.#.#...O...#...#.#.#.#.#.#.#...#.#.#.#.#...#.#.#.#.#.#.#...........#.#.#...#.....#.#.#.#.........................Y C T T ! ! ! ! Q Q Q T P P =.dXq.Q Q T I Q.wX-.] Q Y D aXQ.-.#.#.#.#.#.#.#.#.#.#.#.#...Q T P D D D D N x =XdX-Xi.#.*.-.5...#.#.#.#.#.#.#.#.#.#.#.#.#.#.#.#.#.#.#.#.#.#.#.#.#.#.",
"#.#.#.#.#.#.#.#.#.#.#.#.#.#.#.#.#.#.#.#.#.#.#.#.#.#.#.#.#.*.Q T T T T T T ! Q [ ..#.#.#.#.#.#.#...#.T C Y ! Q Y N P ! ! Q C H T T T Q Q Q Q Q ! T U G f.f.Q ......#.#.#.#.#.....#.#.....#.#.#.#.....#.#.#.#.......#.#.#.#.....#.#.#.......#.......#.#.#.#.#.#.#.#...O...#.#.#...#.#.#.#.#.#.#.#.#.#.#.....#.#.#.#.#.#.#.#.#.#.#.#.#.#.O...#.#.#.#.#...#.#.#.#.#.#.O.#.O.#.#.#.#.#.#.#.O.........#.#.#.#.#.#.#...............#.#.#.#.#.....................{ Z C P U T ! ! Q Q Q Q Q T J q.|.#.Q ! P *.aX2.] ] W D dX-.#.#.#.#.#.#.#.#.#.#.#.#.#.#.#.#.#.#.#.#.Q J ..8Xt.5.#.#.#.#.#.#.#.#.#.#.#.#.#.#.#.#.#.#.#.O.O.S I T Q Q D P ! Q Q A P T T T Q Q Q Q ! T T U D 1X=X5.......#...#...#.......#.#.#.#.#.#.........#.#.....#.#.........#.#.#.#.#...#.#.#...........#...#.#.#.#.#.#.#.#.......#.#.#.....O.#.#.#.#...#.#.#.#.O.#.#.#.#.#.#.#...#.#.#.#.#.#...#.#...#...#.#.#.#.#.#.#.#.#...#.#.#.#.#.....#.#.#.#.#.#.#.#.#.#.....#.#.#.#.....#.#.#...........................Y / T T ! ! ! Q Q Q Q ! P P =.dXq.Q Q T I Q.wX-.] Q Y D aXQ.-.#.#.#.#.#.#.#.#.#.#.#.#...Q T P H D D D N x 6XuX7Xi.#.*.-.2...#.#.#.#.#.#.#.#.#.#.#.#.#.#.#.#.#.#.#.#.#.#.#.#.#.#.",
"#.#.#.#.#.#.#.#.#.#.#.#.#.#.#.#.#.#.#.#.#.#.#.#.#.O.#.#.#.*.Q T T T T T T Q Q [ ..#.#.#.#.#.#.#...#.T C Y Q Q Y N P ! ! Q C D T T T Q Q Q Q Q ! T U G f.f.Q ......#.............#.#...#.#.#.#.#.#.#.#.#.#.#.......#.#.#.......#.#.#.......#.#.....#.#.#.#.#.#.#.O.......O.#.#.#.#.#.#.#.#.#.#.#.#.#.#.....#.#.#.#.#.#.#.#.#.#.#.#.#.#.....O.#.#.#.#...#.#.#.#.#.#.#.#.#.#.#.#.#.#.#.#.O.......#.#.#.#.#.#.#.#.................#.#.#.#.......#.....#.#.....{ Z C P T ! ! ! Q Q Q Q ! T J q.|.#.Q ! P *.aX2.] Q W H dX-.@.#.#.#.#.#.#.#.#.#.#.#.#.#.#.#.#.#.#.#.Q J ..uXt.5.#.#.#.#.#.#.#.#.#.#.#.#.#.#.#.#.#.#.#.O.O.S I T Q Q D P ! Q Q A P T T T Q Q Q Q ! T U U D 1X=X7...........#.....#.#.#.#.#.#.#.#...............#.#.#.#.......#.#.#.#.#.....#.#.#.......#.#.#...#.#.#.#.#.#.#.#.........#.#...#...O.#.#.#.#.#.#.#.#...#.#.#.#.#.#.#.O.#.#.#.#.#.#...#.#.#.#.#.#.#.#.#.#.#.#.#.......#.#.#.#.....O.#.#.#.#.#.#.#.#.#.....#.#.#.#.....#.#.#.....#.....................Y C T T ! ! ! Q Q Q Q ! Y P =.dXq.Q Q ! I Q.wX-.] Q Y D aXQ.-.#.#.#.#.#.#.#.#.#.#.#.#.O.Q T P J D D D C x aXpXuXi.[ *.2.2...#.#.#.#.#.#.#.#.#.#.#.#.#.#.#.#.#.#.#.#.#.#.#.#.#.#.",
"#.#.#.#.#.#.#.#.#.#.#.#.#.#.#.#.#.#.#.#.#.#.#.#.#...#.#.#.*.T T T T T T T ! Q [ ..#.#.#.#.#.#.#...#.T C Y ! Q Y N P T T Q C D T T T Q Q Q Q Q ! T U G u.f.Q ......#.............#.#.....#.#...........#.#.#.....#.#.#.#.........#.#...#.#.....#.#.#.#.#.#.#.#.....#.#.#.#.#.#.#.#.#.#.....#.#.#.#...#.#.#.#.#.O.#.#.#.#.#.#.O.#.#.#.#.#.#.#.#.#.#.#...#.#.#.#.#.#.#.#.#.#.#.#...............#.#.#.#.#.#.#.#.#.#.............#.#.#.#.#.......#.#...#.#.......S N P T ! Q Q Q Q Q Q T T J q.|.-.Q ! P *.aX2.] Q W H dX-.#.#.#.#.#.#.#.#.#.#.#.#.#.#.#.#.#.#.#.#.Q J ..=Xt.5.*.#.#.#.#.#.#.#.#.#.#.#.#.#.#.#.#.#.#.#.#.S I T Q Q D I ! Q Q A P T T T Q Q Q Q ! T T U D 1X=X7.......................#.#.......#.#.#.#.#.........#.#...#.....#.#.#.#.....#.#.#.#.#.#.#.......#.#.#.#.#.#.#.#.........#.#.#.#.#...#.#.........#.#.#.#.O.#.#.#.#.#.#.#.#.#.#.#.#.#.#.#.#.#.#.#.#.#...#...#.#.#.#.#.#.#.#.#.#.#.#.#.#.......#.#.#.#.#.#.#.#.#.#.......#.#.#.........................U C T T T ! ! ! Q Q ! T U P #.dXq.Q Q ! I Q.qX-.] Q T D aXQ.-.#.#.#.#.#.#.#.#.#.#.#.#...Q T P H D D D N x aXdX-Xu.#.*.2.5...#.#.#.#.#.#.#.#.#.#.#.#.#.#.#.#.#.#.#.#.#.#.#.#.#.#.",
"#.#.#.#.#.#.#.#.#.#.#.#.#.#.#.#.#.#.#.#.#.#.#.#.#...#.#.#.*.T T T T T T T T Q [ ..#.#.#.#.#.#.#.#.#.T C Y ! Q Y N P T T Q C D T T T Q Q Q Q ! ! T U G f.f.Q ......#...........#.........#.#.#.......#.#.#.#.....#.#.#.#.......#.#.#...#.#...#.#.#.#.#.#.#.#.#.....#.#.#...#.#.#.#.#.#.....#.#.#.#...#.#...#...O.#.#.........#.#.#.#.#.#...#.#.#.#.#.#.#.#.#.#.#.#.#.#.#.#.#.#...#.#.....#...#.#.#.#.....#.#.#.....#.........#.#.#.#.........#.#.#.#.#.......S x P T ! ! Q Q Q Q Q T T J q.|.-.Q ! P *.aX2.] Q W H dX-.*.#.#.#.#.#.#.#.#.#.#.#.#.#.#.#.#.#.#.#.Q J ..7Xq.5.*.#.#.#.#.#.#.#.#.#.#.#.#.#.#.#.#.#.#.#.#.S I T Q Q D I ! Q Q A P T T T Q Q Q Q T ! T U D 1X=X5.......................#.#.....#.#.#.#.#.#.........#.#.#.......#.#.#.#.....#.#.#.#.....#.#.........#.#.#.#.#.#.#.#...#.#.#.#.#.#.#.#.#...#.#...#.#.#.#.O.....#.#...#.#.#.#.#.#.....#.#.#.#.#.#.#.....#.#.#.#.#.#.#.#.#.#.#...#.#.#.#.....#.#.#.#.#.#.#.#.#.#.#.......#.#.#.........................T C T T T ! ! Q Q Q ! T U P #.dX9.Q Q ! I Q.qX=.] Q T D aXQ.-.#.#.#.#.#.#.#.#.#.#.#.#...Q T P D D D D N x 6XuX5Xu.#.*.:.8...#.#.#.#.#.#.#.#.#.#.#.#.#.#.#.#.#.#.#.#.#.#.#.#.#.#.",
"#.#.#.#.#.#.#.#.#.#.#.#.#.#.#.#.#.#.#.#.#.#.#.#.#.#.#.#.#.-.T T T T T T T ! Q [ ..#.#.#.#.#.#.#.#.#.T C Y T Q Y C P T ! Q C D T T T Q Q Q Q ! ! T Y D j.f.Q ......#.........#.#.#.#.#...#.#.#.#.......#.#.#.#.#.#.#.#.#.....#.#.#.#.#.#.#.#.#.#.#.#.....#.#.#...#.#.#.#.....#.#.#.#.#.#.#...#.#.....#.#...#...#.#.#.#...#.#.#.#.#.#.........#.#.#.#.#.#.#.#.#.#.#.#.#.#.#...#.O.#.#.#.#.#.#.#.#.............#.#.#.#.#.#.#.#.#.#.#.#.....#.....#.....#.......S x P T ! Q Q Q Q Q Q T T G q.|.-.Q ! P *.aX2.] Q W H dX,.*.#.#.#.#.#.#.#.#.#.#.#.#.#.#.#.#.#.#.#.Q J ..uXt.5.*.#.#.#.#.#.#.#.#.#.#.#.#.#.#.#.#.#.#.#.#.S I T Q Q D I ! Q Q A P T T T Q Q Q Q Q T T U D 1X=X7.................#.#...#.........#.#.#.#.#.#.#...#.#.#.#.#.....#.#.#.#...#.#.#.........#.#.#.#...#.#.#.#.#.#.#.#.#.#.#...#.#.O.#.#.#.#.#.#.#.#.#.#.#.#.#.#.........#.#.#.#.#.......#.#.....#.O.#...#.#.#.#.#.#.#.#.............#.#.#.#.#.#.#.#.#.#.#.#.#.#.#.#.....#.#.#...........................T C T T ! ! ! ! Q Q Q ! T P #.dX9.Q Q ! I Q.qX=.Q Q T D aXQ.-.#.#.#.#.#.#.#.#.#.#.#.#...Q T P J D D D C x iXpX8Xu.#.*.2.5...#.#.#.#.#.#.#.#.#.#.#.#.#.#.#.#.#.#.#.#.#.#.#.#.#.#.",
"#.#.#.#.#.#.#.#.#.#.#.#.#.#.#.#.#.#.#.#.#.#.#.#.#.#.#.#.#.-.Q T T T T T T Q Q [ ..#.#.#.#.#.#.#.#.#.T C Y T Q Y C P T ! Q C D T T T Q Q Q Q Q ! T Y D j.f.Q ......#.........#.#.#.#.#.#.#.#.#.#.......#.#.#.#.#...#.#.#.....#.#.#.#.#.#.#.#.#.#.................#.#.#.#.#.#.#.#.#.#.#.#.#...#.#.....#.#.#.#...#.#.#.#.#.#.#.#.#.#.#...........#.#...#.#.#.#.#...#.#.#.#.#.....O.#.#.#.#.#.#.#.#...........#.#.#.#.#.#.#.#.#.#.#.#.#.#...#.....#.............S x P T ! Q Q Q Q Q Q T T G q.|.-.Q ! P *.aX2.] Q W J dX-.*.#.#.#.#.#.#.#.#.#.#.#.#.#.#.#.#.#.#.#.Q J ..,Xs.6.*.#.#.#.#.#.#.#.#.#.#.#.#.#.#.#.#.#.#.#.#.S I T Q Q D P ! Q Q A P T T T Q Q Q Q Q T U Y D 1X=X7.................#.#...#.......#.#.#.#.#.#.#.#.....#.#.#.#.....#.#.#.......#.#.........#.#.O.#.#...#.#.#.#.#.#.#.#.#.#...O.#...#.#.#.#.#.#.#.#.#.#.O.#.#.#.#...#.#.#.#.#.............#.......#.#.#.#.#.#.#.#.#.#.O.........#.#.#.#.#.#.#.#.#.#.O.#.#...#.#.#.......#.#.#.#.........................T C ~ T ! ! ! ! Q Q Q ! ~ P C dXg.Q Q ! I Q.qX-.] Q T D aXQ.-.#.#.#.#.#.#.#.#.#.#.#.#.#.Q T P J D D D C x aXdX-Xu.[ *.2.5...#.#.#.#.#.#.#.#.#.#.#.#.#.#.#.#.#.#.#.#.#.#.#.#.#.#.",
"#.#.#.#.#.#.#.#.#.#.#.#.#.#.#.#.#.#.#.#.#.#.#.#.#.#.#.#.#.-.Q T T T T T T ! Q [ ..#.#.#.#.#.#.#.....T C Y ! Q Y C P T ! Q C D T T T Q Q Q Q ! ! T Y D x.f.Q ......#.....#.#.#.#.#.#.#.#...#.#.#.#.#.#.#.....#.#...#.....#.#.#.#.#.#.#.#.#.#.#.#.#.............#.....#.#.#.......#.#.#.#.#.#.#.#...#.#.#...#.#.#.#.#.#.#.#.......#.#.........#.#.#...#.#.#.#.#...#.#.#...#.#.#.#.#.#.#.#.#.#.#.#...............#.#.#.#.#.#.#.#.#.#.#.............#.#.........S x P T ! Q Q Q Q Q Q T T J t.|.-.Q ! P *.aX2.] T W D dX-.*.#.#.#.#.#.#.#.#.#.#.#.#.#.#.#.#.#.#.#.Q P ..5Xq.5.&.#.#.#.#.#.#.#.#.#.#.#.#.#.#.#.#.#.#.#.#.S I T Q Q D P ! Q Q A P T T T Q Q Q Q Q T U P D 1X=X5...............#.#.#.#.....#.#...............#.#.#.#.#.#.#.#.#.........#.#.....#.#.#.#...#.#.#.#.#.#.#.#.#.....#.#.#.#.....#.#.#...#.#.#.#.#.#.#.#...#.#.#...O.O...#.#.#.#.O.O.#...#.#...#.#.#.#.#.#.#.#.#.#.#.#.#.........#.#.#...#.#.#.#.#.#.#.#.............#.#.#.#.#.#.#.#.....................T C ~ T ! ! ! ! Q Q Q ! U P C dXg.Q Q ! I Q.qX-.Q Q T D aXQ.-.#.#...#.#.#.#.#.#.#.#.#.O.Q T P J D D D C x 5XdX5Xu.#.*.2.5...#.#.#.#.#.#.#.#.#.#.#.#.#.#.#.#.#.#.#.#.#.#.#.#.#.#.",
"#.#.#.#.#.#.#.#.#.#.#.#.#.#.#.#.#.#.#.#.#.#.#.#.#.#.#.#.#.-.T T T T T T T T Q [ ..#.#.#.#.#.#.#...#.T C Y ! Q Y C P Q Q Q C D Y T T Q Q Q ! ! T T U G x.f.Q ......#.....#.#.#.#.#.#.#.#.........#.#.#.#.....#.#.........#.#.#.#.#.#.#.#.#.#.#.#.#.#...........#...#.#.#.#.#...#.#...O.#.#.O.#.....#.#.#...#.#.#.#.#.#.#.#.#.....#.#...#.#.#.#.#.#...#.#.#.#.#...#.#.#...#.#.#.#.....#.#.#.#.#.#...............#.....#.#.#.#.#.#.#.#.........................S x P T ! Q Q Q Q Q Q T T J s.|.-.Q ! P *.aX2.] T W D dX-.*.#.#.#.#.#.#.#.#.#.#.#.#.#.#.#.#.#.#.#.Q J ..uXt.5.#.#.#.#.#.#.#.#.#.#.#.#.#.#.#.#.#.#.#.#.#.S I T Q Q D P ! Q Q A P T T T Q Q Q Q ! T U Y D 1X=X7...............#.#.#.#...#.#.#.............#.#.#.#.#.#.#.#.#.#.........#.#.....#.#.#.#...#.#.#.#.#.#.#.#.#.....#.#.#.#.#.#.#.#.....#.#.#.#.#.#.#.#...#.#.#...#.#...#.#.#.#.#.#.#...#.#.#.#.#.#.#.#.#.#.#.#.#.#.#.#.....#.#.#.#.....#.#.....#...#.#.............#.#.#.#...#.#.#.....................T C T T ! Q ! ! Q Q Q T U P C dXk.Q Q ! I Q.aX-.Q Q T D aXQ.-.#.#.#.#.#.#.#.#.#.#.#.#...Q T P D D D D C x iXpX8Xu.#.*.:.5...#.#.O.#.#.#.#.#.#.#.#.#.#.#.#.#.#.#.#.#.#.#.#.#.#.#.",
"#.#.#.#.#.#.#.#.#.#.#.#.#.#.#.#.#.#.#.#.#.#.#.#.#.O.#.#.#.-.Q T T T T T T ! Q [ ..#.#.#.#.#.#.#.....T C Y ! Q Y C P Q Q Q S D Y T T Q Q Q ! ! T T U ^ x.f.Q ......#.#.#...#.........#.#.#.#.....#.#.........#.#.#.#...#.#.#.........#.#.#.#.....#.#.#.#.#...#.#.....#.#.#.#...#.#...#.#.#.#.....#.#.#.#.#.#.#.#.#.#.#.#.........#.#.#.#.#.#.#.#.#.#...#.#.#.#.#.#.#.........#.#.........#.#.#.#.....#.#.#.#.#.#.........#.#.#.#.............................S N P U ! ! Q Q Q Q Q T T J s.}.-.Q ! P *.aX2.] Q W D dX-.*.#.#.#.#.#.#.#.#.#.#.#.#.#.#.#.#.#.#.#.Q J ..,Xq.5.#.#.#.#.#.#.#.#.#.#.#.#.#.#.#.#.#.#.#.#.#.S I T Q Q D P ! Q Q A P T T T Q Q Q Q ! T T U D 1X=X7...............#.#.........#.#.#.#...........#.#.#...#.............#.#.#.#.....#.#.#.#.O.#.#.#.#.#.#.#.#.#.....#.#.#.#.#.#.#.#...#...#.#.....#.#.#.#.#.#.#.#.#.#.#.#.#.#.#.#.#.#.#.#.#.#.#.#.#...#.#.....#.O...#.#.#...#.#.#.#.......#.........#.#.#.#.#.#.......#.......#.#.#.....................T C T T ! ! Q Q Q Q Q ! T P A dXv.Q Q ! I Q.aX-.] Q T D aX}.-.#.#.#.#.#.#.#.#.#.#.#.#.O.Q T P J D D S C x aXsXpXu.#.*.2.5.......O.#.#.#.#.#.#.#.#.#.#.#.#.#.#.#.#.#.#.#.#.#.#.#.",
"#.#.#.#.#.#.#.#.#.#.#.#.#.#.#.#.#.#.#.#.#.#.#.#.#.O.#.#.#.-.Q T T T T T T Q Q [ ..#.#.#.#.#.#.#.#...T C Y ! Q Y C P Q Q Q S D Y T T Q Q Q Q ! ! T U ^ 0.x.Q ......#.#...............#...#.......#.#.........#.#.#.#.#.#.............#.#.#.O.....#.#.#.#.#.#.#.#.....#.#.#.#.#.#.#.#.#.#.#.#...#.#.#.#.#.#.#.#.#.....#.#.#.......#.#.#.#.#.#.#.#.#.#...#.#.#.#.#.#.#.......#.#.#...........#.#.#.#...#.#.#.#.#.#...........#.#.#.........#...................Z N P U ! ! ! Q Q Q Q T T J s.}.-.Q Q P *.aX2.] Q W D dX-.*.#.#.#.#.#.#.#.#.#.#.#.#.#.#.#.#.#.#.#.Q J ..,Xq.5.=.#.#.#.#.#.#.#.#.#.#.#.#.#.#.#.#.#.#.#.#.D G T Q Q D P ! Q Q A P T T T Q Q Q Q T T T Y D 1X=X5...........#.#.#.#.........#.#.#.#.#.#.......#.#.#.............#.#.#.#.#.#.......#.#.#.#.#.#...#.#.#.#.#.#.#...........#.#.#.#.#.#.....#.#...#.#.#.#...#.#.#.......#.#.#.#.#.#.#.#.#.#.#.#.#.#.....#.#.........#.#.#.#.#.#.#.#.......#.........#.#.#.#.#.#.#...............#.#.#...#...............T C T ~ ! ! Q ! Q Q Q ! T J S dXv.Q Q ! I Q.aX-.Q Q Y D aX}.2.#.#.#.#.#.#.#.#.#.#.#.#.#.Q T P J D D S C x -XdX3Xf.[ *.2.5.........#.#.#.#.#.#.#.#.#.#.#.#.#.#.#.#.#.#.#.#.#.#.#.",
"#.#.#.#.#.#.#.#.#.#.#.#.#.#.#.#.#.#.#.#.#.#.#.#.#.#.#.#.#.-.Q T T T T T T ! Q [ ..#.#.#.#.#.#.#.#.#.T C Y ! Q Y C I ! Q Q Z D Y T T Q Q Q Q Q ! T U G 0.x.Q ......#.#.......#.#.#.#.#...#.#.#.#.#.#.#.#.#.#...#.#...#.#.#.#.#.#.O.#.........#.#.#...#.#.#.#.#.#...#.#.#...........#.#.#.#.........#.#.#.#.#...#.#.#.#.#.#.#.#...#.#...#.#.#.#.#.#.....#.#.#.#.#.#.......#.#.#.#.#.#.........#.#.#.#.#.......#.#.#.#.#.#.#.#.#.......#...#...................S b P T ! Q Q Q Q Q ! T T J s.}.-.Q Q P *.aX2.] Q W D dX-.*.#.#.#.#.#.#.#.#.#.#.#.#.#.#.#.#.#.#.#.Q J ..8Xt.6.=.#.#.#.#.#.#.#.#.#.#.#.#.#.#.#.#.#.#.#.#.D G T Q Q D P ! Q Q A P T T T Q Q Q Q T T T Y D 1X=X7...........#...#.#...........#.#.#.#.#.#.#.......#.#.#.#.#.#.#.#.#.......#.#.#.#.#.#.#.#.#.#.#.#.#.#.#.#.........#.#.#.#.#.#.#.#.#...#.#.#.#.#.O.#.#.#.#.#.#.#.#...#.#.#.#.#.#.#.#.#.#.#.#.....#.#.#.#.#.#.#.#.........#.#.#.#.#.#...#.#.#.#.#.#.#.#.#.#.#.#.#.#.#.#.......#.#.#.#.................T C T T ! Q ! ! Q Q Q ! T P S dXk.Q Q ! I Q.aX-.] Q T D aX}.2.#.#...#.#.#.#.#.#.#.#.#.#.Q T P J D D D C x yXuX8Xu.#.*.:.5...#.#.#.#.#.#.#.#.#.#.#.#.#.#.#.#.#.#.#.#.#.#.#.#.#.#.",
"#.#.#.#.#.#.#.#.#.#.#.#.#.#.#.#.#.#.#.#.#.#.#.#.#.#.#.#.#.-.T T T T T T T T Q [ ..#.#.#.#.#.#.#.#.#.T C Y ! Q Y C I ! Q Q Z D Y T T Q Q Q Q Q ! T U G 0.x.Q ........#.......#.#.#.#.#.#...#.#...#.#.#.#.#.#...#.....#.#.#.#.#.#.#.#.....#...#.#.#...#.#.#.#.#.#...#.#.#.........#.#.#.#.....#.#...#.#.#.#.#.O...#.#.#.#.#.#.#.#.#.#.....#.#.#.#.#.#...#.....#.#.#.#.........#.#.#.#.....#.#.#.#.#.#.#.#.....#.#.#.#.#.#.#.#.................#.#.............S b P T Q Q Q Q Q ! ! T T J s.}.-.Q Q P *.aX2.] T W D aX-.*.#.#.#.#.#.#.#.#.#.#.#.#.#.#.#.#.#.#.#.Q J ..-Xt.5.*.#.#.#.#.#.#.#.#.#.#.#.#.#.#.#.#.#.#.#.#.D G T Q Q D P ! Q Q A P U T T Q Q Q Q T T T Y D 1X=Xu.........#.#...#.#.........#.#.#.#.#.#.#.#.....#.#.#.#.#...#.#.#.#.........#.#.#.#.#.#.#.#.....#.#.#.#.........#.#.#.#.#.#...#.#.#.#.#.#.#.#.#...#.#.#.#.#.#.#.#...#.#.#.#.#.#.#.#.#.#.#.......#.#.#.#...#.#.#.#.O.....#.#.#.#.#.......#.#.#.#.#.#.#.#.#.#.#.#.#.#.#.......#.#.#.#.................T C T T T Q ! ! Q Q Q T T P S dXk.Q Q ! I Q.aX-.] Q T D aX}.2.#...#.#.#.#.#.#.#.#.#.#.O.Q T P D D D D C x qXsXuXx.#.*.:.5...#.#.#.#.#.#.#.#.#.#.#.#.#.#.#.#.#.#.#.#.#.#.#.#.#.#.",
"#.#.#.#.#.#.#.#.#.#.#.#.#.#.#.#.#.#.#.#.#.#.#.#.#.#.#.#.#.-.Q T T T T T T ! Q [ ..#.#.#.#.#.#.#...#.T Z Y ! Q Y C I ! Q Q S G Y T T Q Q Q Q Q ! T U G 0.x.Q ........#.......#.#.#.......#...........#.#.#.#.#.........#.........#.#.#.#.#.#.#.#.#...#.#...#.....#.#.#.#.#.#.#.#.#.#.#.#.#.#.#.#.#.#.......#.#.....O...#.#.#.#.#.#.......#.#.#.#.#.#.#.#.#.#.#.#.#.#.#.....O.#...#.#.#...#.#.#.#.#.#.#.#.......#.....#...#.#.#.#.....#.#.......#.............S b P T ! Q Q Q Q Q ! ! T G q.qX-.Q Q P *.aX2.] T W D aX-.*.#.#.#.#.#.#.#.#.#.#.#.#.#.#.#.#.#.#.#.[ J ..-Xt.5.*.#.#.#.#.#.#.#.#.#.#.#.#.#.#.#.#.#.#.#.#.D G T Q Q D P ! Q Q A P U T T Q Q Q Q T T T T D 1X=Xu...............#.#.....#.#.#.#...#.....#.......#.#.#.#.........#.#.....#.#.#.#.#.#.....#...........#.#...#.#.#.#.#.#.#.#.#.#.#.#.#.#.#.#.#.#.#.....#.#.#.#.#.#.#.#.#.#.#.#.#.#.#.#.#.#.#.#.....#.#.#.#.....#.#.#.#.....O...#.#.#.#.....#.#.#.......#.#.....#.#.#.#.#.#.......#.....................T C ~ T T ! ! ! Q Q Q ! T P S dXk.Q Q ! I Q.aX-.] Q T D aX}.,.#.#.#.#.#.#.#.#.#.#.#.#.#.Q T P J D D D C x E.dX-Xx.#.*.:.5...#.#.#.#.#.#.#.#.#.#.#.#.#.#.#.#.#.#.#.#.#.#.#.#.#.#.",
"#.#.#.#.#.#.#.#.#.#.#.#.#.#.#.#.#.#.#.#.#.#.#.#.#.#.#.#.#.-.Q T T T T T T Q Q [ ..#.#.#.#.#.#.#...#.T A Y ! Q Y C I ! Q Q S D Y T T Q Q Q Q Q ! T U G 0.v.Q ........#.......#.#.....#...............#.#.#.#.#.......#.#.........#.#.#.#.#.#.#.#.#.#.#.#.........#.#.#.#.#.#.#.#.#.#.#.#.#...#.#.#.#.........#.#...#.#.#.#.#...#.#...#.#...#.#.#.#.#.#.#.#.#.#.#.#.#.#.....#.#...#.#...#.#.#.#.#.#.#.#.#.......#.........#.#.#.#.....#.#.#...#...............S b P Y T Q ! Q Q Q Q Q T G q.qX-.Q Q P *.aX2.] T W D aX-.*.#.#.#.#.#.#.#.#.#.#.#.#.#.#.#.#.#.#.#.[ J ..8Xq.5.*.#.#.#.#.#.#.#.#.#.#.#.#.#.#.#.#.#.#.#.#.D G T Q Q D P ! Q Q S P T T T Q Q Q Q T T T T D 1X=Xu.........#...#.#.#.#.#.#.#.#.#.........#.......#.#.#.#.........#.#.....#.#.#.#.#.................#.#.#.#.#.#.#.#.#.#.#.#...#...#.#.#.#.#.#.#.#.O...#.#...#.#.#.#.#.#.#.#.#.#.#.#.#.#...#.#.......#.#.#.....#.#.#.#...#.....#.#.#.#.....#.#.........#.#.........#.#.#.#.....#.#.....................T C ~ ~ T ! ! ! Q Q Q ! T J S dXk.Q Q ! I Q.aX-.] Q U D aX}.,.#.#.#.#.#.#.#.#.#.#.#.#.#.Q T P J D D D C x 2XuX8Xx.[ *.2.5...#.#.#.#.#.#.#.#.#.#.#.#.#.#.#.#.#.#.#.#.#.#.#.#.#.#.",
"! #.#.#.#.#.#.#.#.#.#.#.#.#.#.#.#.#.#.#.#.#.#.#.#...#.#.#.-.Q T T T T T T ! Q [ ..#.#.#.#.#.#.#.....T Z Y ! Q Y C P Q Q Q S D Y T T Q Q Q Q Q ! T U ^ 0.m.Q ........#.................................#.#.#.#.....#.......#.#.#.#.O...#.#.#.#.#.#.#.....#.#.#...#.#.#.#.O.#.#.#.#.#.#.#.#.#.#.#.#.#.#.#.....#.#.#.#.#.#.#.#...#.#...#.#.......#.#.#.#.#.#.#...#.#.#.#.#.#.#.#...#.#.#.#.O.......#.#.....#.#.#.#.....#.#.#.#.#.#...#.#.#.#...#.....#.........S b P Y T ! Q Q Q Q Q Q T J q.qX-.Q Q P *.aX2.] T W D aX-.*.#.#.#.#.#.#.#.#.#.#.#.#.#.#.#.#.#.#.#.[ J ..uXv.5.=.#.#.#.#.#.#.#.#.#.#.#.#.#.#.#.#.#.#.#.#.D G T Q Q D P ! Q Q S P T T ! Q Q Q Q T T T Y D 1X[.u.........#.#.#.#.#.....#.....#.#.#.......#.#.#.........#.#.#...........#.#.#.#.#.#.........#.#.........#.#.#.#.#.#.#.#.......#.#.#.#.#.......#.#.#.#.#...#.#.#.#.#.#.#...#.#.#.........#.#.#.#...#.O.#.....#.#.#.#.#.#.........#.#.#.O.#.#.........O.#.....#.#.#.#...#.#.#.#.#.#.#.#.#.............T C ~ ~ ! ! Q Q Q Q Q ! T P S dXk.Q Q ! I M.aX-.] Q U D aX}.,.#.....#.#.#.#.#.#.#.#.#.#.Q T P J D D D C x qXsXuXx.[ *.:.5.....#.#.#.#.#.#.#.#.#.#.#.#.#.#.#.#.#.#.#.#.#.#.#.#.#.",
"Q #.#.#.#.#.#.#.#.#.#.#.#.#.#.#.#.#.#.#.#.#.#.#.#...#.#.#.-.T T T T T T T T Q [ ..#.#.#.#.#.#.#.#.#.T Z Y ! Q Y C P Q ) Q S D Y T T Q Q Q Q Q T T U G 0.m.) ........#...........#.#.....#.............#.#.#.#.#.............#.#.O...#.#.#.#.#.#.#.#.#...#.#...#.#.#.#.#.....#.#.#.#.#.#.#.#...#.#.#.#.#.....#.#.O.#.#.#.#.#.#.#.#...#.#.#.......#...#.#.#.#.#.#.#.#.#.....#...#.#.#.#.#.........#.O.#...#.#.#.......#.#...#.......#.#.#.....................S b P Y T ! Q Q Q Q Q Q T J q.qX-.Q Q P S aX2.Q T W H aX-.*.#.#.#.#.#.#.#.#.#.#.#.#.#.#.#.#.#.#.#.[ J ..=Xv.5.=.#.#.#.#.#.#.#.#.#.#.#.#.#.#.#.#.#.#.#.#.D G T Q Q D P ! Q Q S P T T T Q Q Q Q T T T Y D rX[.u.........#.....#.......#.#.#...#.#.......#.#.#.........#.#.#...............#.#.#.#.....O.....#.#.#.....#.#.#.#...#.#.#.....#.#.#.#...........#.O...#.#.#.#.#.#.#.#.#.#...#.#.#.#.#.....#.#.#.#...#.........#.#.#.#.#.#.....#.#.#.#.#.#.#.#.........#.#.....#.#.#.#.........#.#.#.#.....#...........T C T ~ T Q ! Q Q Q Q T T P A dXk.Q Q ! I M.aX-.] Q Y D qX}.,.#.#...#.#.#.#.#.#.#.#.#.#.Q T P D D D D C x qXdX=Xx.#.*.-.5.....#.#.#.#.#.#.#.#.#.#.#.#.#.#.#.#.#.#.#.#.#.#.#.#.#.",
"! #.#.#.#.#.#.#.#.#.#.#.#.#.#.#.#.#.#.#.#.#.#.#.#.....#.#.-.Q T T T T T T ! Q [ ..#.#.#.#.#.#.#.#.#.T Z I ! Q Y C I Q ) Q S D Y T T Q Q Q Q ! T T U J 0.m.) ..........#.#.#...#.#.#.#.#.#.#.......#.#.#.#.........#.....#.#.#.#.#.......#.#.O.#.........#.#.#.#.#.#.#.#.......#.#.#.#.#.#.......#.#.#.#.....#.#...#.#.#.#...#.#.#.#.#.#.#.#.#.#.#.......#.#.#.#.#.#.#.O...#.#.#.....#.#.#.#.......O.#.#.#.#.....#.#.#.#.............#.#.....................S b P Y T Q Q Q Q Q Q ! T J s.qX-.Q Q P S aX2.] Q W H aX-.*.#.#.#.#.#.#.#.#.#.#.#.#.#.#.#.#.#.#.#.[ J ..7Xj.5.=.#.#.#.#.#.#.#.#.#.#.#.#.#.#.#.#.#.#.#.#.D G T Q Q D P ! Q Q S P T T T Q Q Q Q Q T U T D  X=Xy.........#.......#.#.#.........#.#.#.#.....#.#.#.#.....#.#.#.#.....#.#.........#.#.#...#.#.#.#.#.#.#.#.#.O.#.#.#.#.#.#.#.#.#.#.#.#.#.#.#.#...#.......#.#.#.#...#.#.#.#.#.#.#.#.#.#.#.#.#.#.#.#.....#.#.#.#.#.#.#.#.#...#.#.#.#.#.#.#.#...........O.#.#...#.#.#...............#.#.#.................T N T T T Q Q Q Q Q Q T T P A dXk.Q Q ! I M.aX-.] Q Y D qX}.,.O.....#.#.#.#.#.#.#.#.#.#.Q T P J D D D C x =XuX9Xx.#.*.:.5...#...#.#.#.#.#.#.#.#.#.#.#.#.#.#.#.#.#.#.#.#.#.#.#.#.",
"! #.#.#.#.#.#.#.#.#.#.#.#.#.#.#.#.#.#.#.#.#.#.#.#.....#.#.-.Q T T T T T T Q Q [ ..#.#.#.#.#.#.#.#.#.T Z I ! Q Y C I Q Q Q S D Y T T Q Q Q Q ! T T U P r.v.Q ............#.#.#.#...#.#.#.#.#.........#.#.#.......#.#.#.#.#.#.#.#.#.....#.#.#.#.....#.#...#.#.#.#.#.#.#.#.#.#.#.#.O.#.#.#.#.#.#...#.#.#.......#.#.#.#.#.#.#.#.#.#.#.#.#.#.#.#.#.#.......#.#...#.#.#.#.#.#.O.#.#.#.#...#.#.#.#.#.....#.#.#.#.#.....#.#.#.#.............#.#.#.#.#...............S b P Y T Q Q Q Q Q Q ! T J s.qX=.Q Q P S aX2.] Q W H aX-.*.#.#.#.#.#.#.#.#.#.#.#.#.#.#.#.#.#.#.#.[ J ..uXx.5.=.#.#.#.#.#.#.#.#.#.#.#.#.#.#.#.#.#.#.#.#.D G T Q Q D P ! Q Q S P U T T Q Q Q Q Q ! T T D  X=Xu.....#...#.#.......#.#.........#.#.#.#.....#.#.#.#.#...#.#.#.#.#...#.#.....#...#.#.#.#.#.#.#.#.#.#.#.#.......#.#.#.#.#.#.#.#.#.#.#.#.#.#.#.#.#.#.....O.#.#.#.#.....#.#.#.#.#.#.#.#.#.#.#.#.#.#.....#.#.#.#.#.#.#.#.#...#.#.#.#.#.#.#.#.#...........#.#.#.#.#.#.........#.#.....#.#.................T C T T T ! Q Q Q Q Q ! T P A dXk.Q Q ! I M.aX-.] Q Y D qX}.2.#.....#.#.#.#.#.#.#.#.#.#.Q T P J D D D C x <XpXuXx.[ *.2.5...#.....#.#.#.#.#.#.#.#.#.#.#.#.#.#.#.#.#.#.#.#.#.#.#.",
"! #.#.#.#.#.#.#.#.#.#.#.#.#.#.#.#.#.#.#.#.#.#.#.#.#.#.#.#.-.Q T T T T T T ! Q [ ..#.#.#.#.#.#.#.....T Z Y ! Q Y C I ! Q Q Z D Y T T Q Q Q Q ! T T U ^ 0.v.Q ..................#...#.#.#.#.#.#.#.#.#.#.#.....#.#.#.#...........#.#.#.#.#.#.#.#.#.#.#.#.#.....#.#.#.#.#.#.#.#.#.#.#.#.#.#.#...#.#.#.#.#.......#.#.#.#.....#.#.#.#.#.#.#.#.#.#.#.#...#.#.#.#.#.#.#.O.#.#.#.#.#.#.#.#.#.#...#.#...#...#.#.#.#.#.....#.#.#.#.#...#.#.......#.....................S b P Y T ! Q Q Q Q Q ! T H q.qX-.Q Q P S aX2.] ] W H aX-.*.#.#.#.#.#.#.#.#.#.#.#.#.#.#.#.#.#.#.#.[ P ..,XM.5.*.#.#.#.#.#.#.#.#.#.#.#.#.#.#.#.#.#.#.#.#.D G T Q Q D P ! Q Q S P T T T Q Q Q Q ! ! T T D  X[.u...........#.....#...#.........#.#.#.#.....#.#.#.#...O.#...........#.#.#.#.....#.#.#.#.#.#.#.#.#.#.#.#.......#...#.#.#.#.#.#.#.#.#.#.#.#.#.#.#.#...#...#...#.#.#.#.#.#.#.#.#.#.#.#.#.#.#...#.#.#.#.#.#.#.#.#.#.#.#.#...#.#.....#.#.#.#...#.#.....#.#.#.#.#.....#.#.#.#.#.#.#.#.#.#.................T C T T T ! ! ! Q Q Q T U P A dXk.Q Q ! P M.aX-.] Q T D qX}.-.#.#.#.#.#.#.#.#.#.#.#.#.#.Q T P J D D D C x qXdXpXm.O.*.:.5...#.#.#.#.#.#.#.#.#.#.#.#.#.#.#.#.#.#.#.#.#.#.#.#.#.#.",
"Q #.#.#.#.#.#.#.#.#.#.#.#.#.#.#.#.#.#.#.#.#.#.#.#.#.#.#.#.-.T T T T T T T T Q [ ..#.#.#.#.#.#.#.....T Z Y ! Q Y C I ! Q Q Z D Y T T Q Q Q Q ! T T U ^ 0.v.Q ........#.#.......#.......#.#.#.#.#.#.#.#.#...#.#.#.#.#.O.......#.#.#.#.#.#.#.#.O.#.#.#.#.#...#.#.#.#.#.#.#.#.#.#.#.#...#.#.#.#.....#.#.#.#.....#.#.O.......#.#.#...#.#.#.#.#...#.#...#.#.#.#.#...#.#.#.#.#.#.#.#.#.....#.#.#.#.#.......#.#.#.#.....#.#.#.#...#.#.......#.#.....................S b P Y T ! Q Q Q Q Q ! T H s.qX-.Q Q P S aX2.] Q W H aXt.*.#.#.#.#.#.#.#.#.#.#.#.#.#.#.#.#.#.#.#.[ P ..5Xf.5.*.#.#.#.#.#.#.#.#.#.#.#.#.#.#.#.#.#.#.#.#.H G T Q Q D P ! Q Q S P T T T Q Q Q Q T ! T T D  X=Xu.......#...#...#.#...#.........#.#.#.#.....#.#.#.#...#.#.#.........#.#.#.#.#...#.#.#.#.#.#.#.#.#.#.#.#.....#.#.....#.#.#.#.#.#.#.#.#.#.#.#.....#.#.#.#.....#.#.#.#.#.......#.#.#.#.#.#...#.#.#.#.#.#.#.#.#.#.#.#.#.#...#.#.....#.#.#.#...#.#...#.#.#.#.#.#.....#.#.#.#.....#.#.#.#...........#.....T C T T T ! ! Q Q Q Q T U I A dXg.Q Q ! P M.iX-.] Q Y D qX'.,.#...#.#.#.#.#.#.#.#.#.#.#.Q T P D D D D C x *XdX5Xm.#.*.-.5...#.#.#.#.#.#.#.#.#.#.#.#.#.#.#.#.#.#.#.#.#.#.#.#.#.#.",
"! #.#.#.#.#.#.#.#.#.#.#.#.#.#.#.#.#.#.#.#.#.#.#.#.#.#.#.#.-.Q T T T T T T ! Q [ ..#.#.#.#.#.#.#...#.T Z Y ! Q T C I ! Q Q S D Y T T Q Q Q Q Q ! T U ^ 0.m.) ........#.........#.......#.#.#.#.#.#.#.........#.#.#.#.#.#.#.#.#.#.........#.....#.#.#...#.....#.#.#.#...#.#.#.#.#.#.#.#.#.....#...#.#.#.#.....#.#.O...#.#.#.#.........#...#.#.#.#.#.#.#...#.#.#.#.#.#.#.#.#.#.#.#.#.#.#.#.#.#.O.......#.#.#.#.#...#.#...#.....#.#.#.#.#.#.#.....#.............S x P T T ! Q Q Q Q Q T Y P *.qX-.Q Q P S aX2.] Q W H aXt.*.#.#.#.#.#.#.#.#.#.#.#.#.#.#.#.#.#.#.#.[ P ..8Xx.5.*.#.#.#.#.#.#.#.#.#.#.#.#.#.#.#.#.#.#.#.#.H G T Q Q D P ! Q Q S P Y T T Q Q Q Q Q ! T T D  X=Xu...........#...#.#.....#.......#.#...#...#.#.#.......O.#.#.#.#...#.#.#.#.#.........#.#.....#.#.#.#.#.#.#.#.#.#...#.#.#.#...#.#.....#.#.#.#.#.#.#.#.#.#...#.#.#.#.#.#.#.....#.#.#.#.#.#.O.#...#.#.#.#...#.#.#.#.#.#.#.#.#.......#.#.#.#.....#.#.#.#.#.#.#.#.....#...#.#.....#.#.........#.#.#.#.....Q C T T T ! ! ! Q Q Q T T I A dXk.Q Q ! I M.iX-.] Q Y D qX'.2.#...#.#.#.#.#.#.#.#.#.#.#.Q T P J D D D C x <XpX8Xm.[ *.:.8...#.#...#.#.#.#.#.#.#.#.#.#.#.#.#.#.#.#.#.#.#.#.#.#.#.",
"! #.#.#.#.#.#.#.#.#.#.#.#.#.#.#.#.#.#.#.#.#.#.#.#.O.#.#.#.-.Q T T T T T T Q Q [ ..#.#.#.#.#.#.#.#.#.T Z Y ! Q T C I ! Q Q S D Y T T Q Q Q Q Q Q T U ^ r.x.Q ..................#.#.#.#.#.#.#.#...#.#.........#.#.#.#.#.#.#.#.#.#.........#.#.....#.#.........#.#.#.#.........#.#.....#.#...O.#.O.#.#.#.#.O.O.#.#.#.O.#.#.#.#.#...O.......#.#.#.#.#.#.#.......#.#...#.#.#.#.#.#.......#.#.#.........#.#.#.#.#.#...#.#.........#.#.#.#.#.#.#.#.#.#.#.#.........D x P T T ! Q Q ! ! Q T P P =.qX-.Q Q P S aX2.] Q W H aXt.*.#.#.#.#.#.#.#.#.#.#.#.#.#.#.#.#.#.#.#.[ P ..-Xv.5.*.#.#.#.#.#.#.#.#.#.#.#.#.#.#.#.#.#.#.#.#.H G T Q Q D P ! Q Q D P U T T Q Q Q Q Q ! U T D  X[.u...........#.#.#.......#.....#.#.#.....#.#.#.#.........#.#.#.#.#.#.#.#.#.#.........#.#.....O.#.#.#.#.#.#...#.#...#.#.#.............#.#.#.#.#.#.#.#.#.#...#.#.#.#.#.#.#.....#.#.#.#.#.#.#.#...#.#.#.O.........#.#...#.#.......#.#.#.#.#...#.#.#.#.#.#.#.#.#...........#.......#.........#...........Q C T T ! ! ! ! Q Q Q ! U P Z dXB.! Q ! P M.iX-.] Q Y D qX}.2.#.....#.#.#.#.#.#.#.#.#.#.Q T P J D D D C x qXsXuXm.[ *.2.8...#.#...#.#.#.#.#.#.#.#.#.#.#.#.#.#.#.#.#.#.#.#.#.#.#.",
"Q #.#.#.#.#.#.#.#.#.#.#.#.#.#.#.#.#.#.#.#.#.#.#.#.........-.Q T T T T T T ! Q [ ..#.#.#.#.#.#.#.#.#.T Z I ! Q T C I Q Q Q S D Y T T Q Q Q Q Q ! T U P r.x.! ................#.#.#.#.#.#.#.#.....#.......#.#.#.#.#.#.#.#.#.#...#.#.#.#.#.......#.#.......#.#.#.#.#.............#.#.O.......#.#.#.#.....#.O.#.#.#.#.#.#.#...#.#.#.#.#.#.#.#.#.#.#.#.#.#.#.#.#.#.#...O.#.#.#.......#.#.....#.#.#.#.#.#.#.#.#.#.#.#.#...........#.#.#.#.......#...#.#.#.#.......D x P T T Q ! ! ! ! ! T P I =.qX-.Q Q P S aX2.] ] W H aXt.*.#.#.#.#.#.#.#.#.#.#.#.#.#.#.#.#.#.#.#.[ J ..5Xv.5.*.#.#.#.#.#.#.#.#.#.#.#.#.#.#.#.#.#.#.#.#.H G T Q Q D P ! Q Q D P U T T Q Q Q Q ! ! T T D  X$Xu...............#.#.#.#.....#...........#.#.....#.#.#.#.....#.#.#.#.#.#.#.#.#.#.......#.....#.#.#.#...O.#.#.....#.#.#.#...........#.#.#.#.#.O.#.#.#.#.#.#.#.#.#.#.#.#.#.#.#.#.#.....#.#.#.............#.#...............#.#.#.#.#.........#.#.#.#.#.#.#.#.#.#.#.......#.#.#.......#.#.#.............Q C T T ! ! ! ! Q Q Q T Y P D aXB.Q Q ! I M.iX-...Q Y D qX}.2.#.#...#.#.#.#.#.#.#.#.#.#.Q T P J D D D C x `.dX3Xm.[ *.:.8...#.#...#.#.#.#.#.#.#.#.#.#.#.#.#.#.#.#.#.#.#.#.#.#.#.",
"! #.#.#.#.#.#.#.#.#.#.#.#.#.#.#.#.#.#.#.#.#.#.#.#...#...[ -.T T T T T T T T Q [ ..#.#.#.#.#.#.#.#.#.T Z I ! Q T C I Q Q Q S D Y T T Q Q Q ! ! T T U P r.x.Q ..........#.....#.#.....#.#.#.#.....#.#.........#.#.#.#.#.#.#.#...#.#.#...#.......#.#.#.#.O.....#.#.#.#.......#.#.#.#.......#.#.#.#.#...#...O.#.#.O.#.#.#.#...#.#.#.#.#.#.#.#.#.#.....#.#...#.#.#.#.O.#.#.#.........#.#.#...#.#.#.#.#.#.#.#.#.#.#.#.#.......#...#.#.#.#.......#...#.....#.......D x P T T Q Q Q ! ! ! T P I =.<X-.Q Q P S aX2.] ] W J aXt.*.#.#.#.#.#.#.#.#.#.#.#.#.#.#.#.#.#.#.#.[ J N 8Xx.5.*.#.#.#.#.#.#.#.#.#.#.#.#.#.#.#.#.#.#.#.#.H G T Q Q D P ! Q Q D P U T T Q Q Q Q T ! T T D  X=Xu...............#...#.#...#.#.#.........#.......#.#.#.#.#...#.#.#.#.#.#.#.#.......#.#.O.#...#.#.#.#.....#.#...#.#.#.#.#.............#.#.#.#.#.#.#.#.#.#.#.#.#.#.#.#.#.#.#.#.#.#...#.#.#.#...#.......#.#.#.#.#...#...#.#.#.#.#.#.#.#...#.#.#.#.#.#.#.#.#.#.#...#.........#.#.#...#.#.#.#.............Q C T T T ! ! ! Q Q Q T P P D aXB.Q Q ! I M.iX=...Q T D qX'.-.#.#.#.#.#.#.#.#.#.#.#.#.#.] T P H D D D C x <XuX8Xm.#.*.-.8...#.#...#.#.#.#.#.#.#.#.#.#.#.#.#.#.#.#.#.#.#.#.#.#.#.",
"! #.#.#.#.#.#.#.#.#.#.#.#.#.#.#.#.#.#.#.#.#.#.#.#.#.#.#...-.Q T T T T T T ! Q [ ..#.#.#.#.#.#.#.....T Z I ! Q T C I Q Q Q S D Y T T Q Q Q Q ! T T U P r.x.Q ........#.#.#.#...#...#.#.#.#.......#...............#.#.#.#.......O.#.#.#.#...#.#.#...#.#.#.........#.#.....#.#.#.#.#.#.....#.#.#.#.#...#.#.#.#.#.#.#.#.#.#.#.#.#.#.#.#.#.#...#.#.......#...#.#...#.#.#.#.#.....#.#.#.#.........#.#...#.........#.#.#.#.......................#...#.....#.#.....D x P T ! Q Q Q Q Q ! T P I =.qX-.Q Q P S aX2.] Q W J aXt.*.#.#.#.#.#.#.#.#.#.#.#.#.#.#.#.#.#.#.#.[ J N -Xv.5.*.#.#.#.#.#.#.#.#.#.#.#.#.#.#.#.#.#.#.#.#.H G T Q Q D P ! Q Q D J U T T Q Q Q Q ! ! U T D  X[.u.O.O.......#...#.........#.#.#.#.#.#.#.#.#.....#.#.#.#.#.......#.#.#.#.........#.#.#.#.#.#.#.#.#.#.#.......O.#.#.#.#.#.#...#...#.#.#.#...#.#.#.#.#.#.#.#.#.#.#.O.......#.#.#.#...#.#.#.#.#.#.#.#.#.#.#.#.#.#.#.#.#.#.#.#.#.#.#.#.#...#.#.#.#...#.#.#.#.............#...#.#.....#.#.#.#.............Q C ~ ~ T ! ! ! Q Q ! T P P D aXA.Q Q ! P M.dX-...Q T G qX}.,.#.#.#.#.#.#.#.#.#.#.#.#.#.Q T P J D D D C x qXsXuXc.[ *.:.8...#.#...#.#.#.#.#.#.#.#.#.#.#.#.#.#.#.#.#.#.#.#.#.#.#.",
"! #.#.#.#.#.#.#.#.#.#.#.#.#.#.#.#.#.#.#.#.#.#.#.#.#.#.#...-.Q T T T T T T Q Q [ ..#.#.#.#.#.#.#.....T Z I ! Q T C I Q Q Q S D Y T T Q Q Q Q ! ! T U P r.x.Q ........#.#.#.....#...#.........#...#.................#.#.#.........#.#.#.....#.#.#.#.#.#.#.#.#.#...#.#.#...#.#.#.#.#.#...#.#.#.#.#.#.#.#.#.#.#.#.O.#.#.#.#.#.#.#.#.#.#.#.#...#.#.#...#.#.#.#.#...#.#.#.#.#.#.#.#.#.#.#...#.O...#.#.#...........#.#.#.............#.............#.#...#.#.......D x P T T Q Q Q Q Q Q T P P =.qX=.Q Q P S dX2.] Q W J aXt.*.#.#.#.#.#.#.#.#.#.#.#.#.#.#.#.#.#.#.#.[ J N -Xv.5.*.#.#.#.#.#.#.#.#.#.#.#.#.#.#.#.#.#.#.#.#.J G T Q Q D P ! Q Q D J U T T Q Q Q Q ! ! U T D  X[.u...............#.#...#...#.#.#.#.#.#.#.#.#.......#.#.#.#.......#.#.#...........#.#.#.#.#.#.#.#.#.#.#.O...#.#.O.#.#.#.#.#.#.#.#.#.#.#.#...#.#.#.#.#.#.....#.#.#.#.....#.#.#.#.#.#.O.#.#.#.#.#.#.#.#.#.#.#.#.#.#.#.#.#.O.#.#.#.#.#.#.....#...#.......#.#...........#.#.#.#.#.......#.................Q N ~ ~ T ! ! ! Q Q ! ! Y P D aXA.! Q ! P M.dX-...Q T G qX.X2.#.#.#.#.#.#.#.#.#.#.#.#.#.Q T P J D D S C x qXdX,Xm.[ *.:.8...#.#.#.#.#.#.#.#.#.#.#.#.#.#.#.#.#.#.#.#.#.#.#.#.#.#.",
"Q #.#.#.#.#.#.#.#.#.#.#.#.#.#.#.#.#.#.#.#.#.#.#.#.#.#.#...-.Q T T T T T T ! Q [ ..#.#.#.#.#.#.#.#.#.T Z Y ! Q T C I ! Q Q S D Y T T Q Q Q Q ! ! ~ U P r.x.Q ........#.#.....#.#.#.........#.#.#.#.#...................#.#.#.....O.#.#.#.#.#.#.#.......#.#.#.#...#.#.......#.#.#.#.#.#.#.#...#.#.#.#.............#.#.#.#.#...#.#.O.#.#.#.#.......#.#.#...O.O.#.#.#.......#.#.#.#.#.#...#.O...#.#.#.#.#.#.#.#.......#.#.#.#.#.#.#.#...#.#.........#.#.........D x P T T Q Q Q Q Q Q T P P =.qX-.Q ! P S dX2.] T Y H aXt.*.#.#.#.#.#.#.#.#.#.#.#.#.#.#.#.#.#.#.#.[ J C 7Xj.5.*.#.#.#.#.#.#.#.#.#.#.#.#.#.#.#.#.#.#.#.#.J G T Q Q D P ! Q Q D J T T T Q Q Q Q ! ! U T D  X=Xu.................#...#.........#.#.#.#.#.#.....#.#.#.#.....#.#.#.#...........#.#.#.#.#.#.#.#.#...#.#.#...#.#.#.#.#...O.#.#.#.#.#.#.#.#.#.#.#.#.........#.#.#.#.#.#...#.#.#.#.#.#.#.#.#.#.#.#.#.#.#.#.#.#.#.#.#.#.#.#.#.#.#...#.#...#.................#.....#.#.#.......#.#...#.....................Q N T T T ! Q Q Q Q Q T Y I D aXA.Q Q ! P M.dX-...Q T G qX.X2.....#.#.#.#.#.#.#.#.#.#.#.Q T P J D D D C x 2XuX8Xm.[ *.-.8...#.....#.#.#.#.#.#.#.#.#.#.#.#.#.#.#.#.#.#.#.#.#.#.#.",
"Q #.#.#.#.#.#.#.#.#.#.#.#.#.#.#.#.#.#.#.#.#.#.#.#.#.#.#...-.T T T T T T T T Q [ ..#.#.#.#.#.#.#.#.#.T S Y T Q T C P T Q Q S D Y T T Q Q Q Q ! ! ~ U P r.x.! ............#.#.#.#.........#.#.#.#.#.#...#...........#...#.#.#.....#.#.#.#...#...........#.#.#.#.#.#.#.....#.#.#.#.#.#.#.#.#...#.#.#.#.........#.#.#.#...#.O...#.#.#.#.#.#.#.......#.#.#.....O.#.#.O.....O.#...#.#.#.#...#.....#...#.#.#.#.#.#.#.......#.#...#.#.#...#.#.#.....................D x P T T Q Q Q Q Q Q Q T J *.qX-.Q ! Y S dX2.] Q Y H aXt.*.#.#.#.#.#.#.#.#.#.#.#.#.#.#.#.#.#.#.#.[ J C uXx.5.*.#.#.#.#.#.#.#.#.#.#.#.#.#.#.#.#.#.#.#.#.J G T Q Q D P ! Q Q D J T T T Q Q Q Q Q ! U T D  X[.u.................#.#.#.#.......#.#.#.#.#.#.....#.#.#.#.....#.#.#.#.O.......#.#.#...#.#.#.#.#.#.......#.......#.#.#.....#.#.#.#.#.#.#.#.#.#.#.#.....#...#.#.#.#.#.#.....#.#.#.#.....#.#.#.#.#.#.#.#.#.#.#...#.#.#.#.#.#.........#...#.#.#...............#.#.#.#.........#.....#.....................Q C T T T ! Q Q Q Q ! T Y I D aXA.Q Q ! P M.dX-...Q T G qX.X2...O.#.#.#.#.#.#.#.#.#.#.#.[ T P H D D D C x qXpX8Xn.#.*.-.8...#.....#.#.#.#.#.#.#.#.#.#.#.#.#.#.#.#.#.#.#.#.#.#.#.",
"Q *.#.#.#.#.#.#.#.#.#.#.#.#.#.#.#.#.#.#.#.#.#.#.#.#.#.#.#.-.Q T T T T T T ! Q [ ..#.#.#.#.#.#.#.#.#.T S Y ! Q T C P T ! Q S D Y T T Q Q Q Q Q ! T T ^ r.x.! ................#.#.....#...#.#.....#.#.#.#.#.#.#.#.#.#.....#.#.#.#.#.#.#.#.#.#.....#.#.#.#.#.#.#.#.#.#.#...#.#.#.#.#.#.#.#.#...#...#.#.#...#.#.#.#.#.#.#.#.#...#.#.#.#.#.#.#.#.....#.#.#.#.#.#.#.#.#.#.#...#...#.#.#.#.....#.#.#.#.........#...#...#.#.#.#.#.#.........#.#.#...#...............D x P T T Q ! Q Q Q Q Q T J #.qX-.Q ! Y S dX2.] Q T H aXt.=.#.#.#.#.#.#.#.#.#.#.#.#.#.#.#.#.#.#.#.[ J C =Xv.5.*.#.#.#.#.#.#.#.#.#.#.#.#.#.#.#.#.#.#.#.#.J G T Q Q D P ! Q Q D J T T T Q Q Q Q Q ! U T D  X[.u.................#.#...#.#.......#.....#.......#.#.#.#.....#.#.#.#.#...#.#.#.#.........#.#.#.#.....#.#...#.#.#.#.#.........#.#.#.#.#...#.#.#.#.#.#.#.#.....#.#.#.#.....#.#.#.#.........#.#.#.#.#.#.#.......#.#.#.#.#.#.#.#.#.#.#.#.#.#.#.#.........#.#.#.#.#.#.#.#.....#.#.#.#.....................Q C U T T ! Q ! Q Q ! T U P D aXA.Q Q ! P M.dX=...Q T J qX.X2...O.O.#.#.#.#.#.#.#.#.#.#.Q T P J D D D C x }.dX-Xn.[ *.-.8...#.#...#.#.#.#.#.#.#.#.#.#.#.#.#.#.#.#.#.#.#.#.#.#.#.",
"Q *.#.#.#.#.#.#.#.#.#.#.#.#.#.#.#.#.#.#.#.#.#.#.#.#.#.#.#.-.Q T T T T T T Q Q [ ..#.#.#.#.#.#.#.#.#.T S Y ! Q T C P T ! Q S D Y T T Q Q Q Q Q Q T T P x.x.Q ......#.........#.#.#.#.#.#.#.#.....#.#.#.#.#.#.#.#.#.#.#.#.#.#.#.#.....#.#.#.#.....#.#.#.#.#.#.#.#.#.#.#...#.#.#.#.#.O.#.#.#...#...#.#.#.#.#.#.#.#.#.#.#.#.#...#.#.....#.#.#.#.....#.#.#.#.#.#.#.#.#.#.#.#.....#.#.#.#.....#.#.#.#.........#.#.....#.#.#.#.#.#.........#.#.#.#.................D x P T T Q ! Q Q Q Q ! T J #.qX2.Q ! Y S dX2.] Q T H aXt.=.#.#.#.#.#.#.#.#.#.#.#.#.#.#.#.#.#.#.#.[ J N 7Xf.5.*.#.#.#.#.#.#.#.#.#.#.#.#.#.#.#.#.#.#.#.#.J G T Q Q D P ! Q Q D J T T T Q Q Q Q Q ! U T D  X=Xu...................#.....#.#.........#...........#.#.#.........#.#.#.#.#.#.#.#.......O.#.#.#.#.O...#.#...#.#.#.#.#.........#.#.#.#.....#.#.#.#.#.#.#.#.#.#.#.#.#.#.#.O.#.#.#.#.#.......#.#...#.#.#...........#.#.#.#.....#.#.#.#.#.#.#.#.#.#.......#.#.#.#.#.#.#.#.....#.#.#.......................Q C U T T ! Q Q Q ! Q ! U P S aXA.Q Q ! P M.dX=...Q T J qX.X2.O.#.O.#.#.#.#.#.#.#.#.#.#.Q T P J D D D C x E.dX8Xn.[ *.-.8...#.#...#.#.#.#.#.#.#.#.#.#.#.#.#.#.#.#.#.#.#.#.#.#.#.",
"Q *.#.#.#.#.#.#.#.#.#.#.#.#.#.#.#.#.#.#.#.#.#.#.#.#.#.#.#.-.Q T T T T T T Q Q [ ..#.#.#.#.#.#.#...#.T A Y ! Q T C P T ! Q S D Y T T Q Q Q Q Q ! T T P x.x.Q ..........#.......#.#...#...........#.#.#.#.#.#.#.#.#.#.#.#.#.#.#...#.#.#...#.#.#.#.#.#.#.#.#.#.#.#.#.#.#...#.#.#.#.......#.#...#...#.#.#.#.#.#.#...#.#...#.#.#.#.#.O.#.#.O.#.#.#.#.#.#.#.#.#.#.#.#.#.#.#.......#.#.#.#.#.#.#.......#.#.#...........#...#.#.#.#...........#.#.#.#...............D x P T T ! ! Q Q Q Q ! T J ;.qX2.Q Q Y S dX2.] Q Y H aXt.=.#.#.#.#.#.#.#.#.#.#.#.#.#.#.#.#.#.#.#.[ J N uXx.5.*.#.#.#.#.#.#.#.#.#.#.#.#.#.#.#.#.#.#.#.#.J G T Q Q D J ! Q Q D J T T T Q Q Q Q Q ! T T D  X[.u.....................#.#.#...#.....#.......#.#.........#.#.#.#.....#.#.#.#...#.#.#.#.#.#.#.#.#.#.#.#.#.#.#.#.#.#.#.#.#.....#.#.#.#.....#.#.#.#.#.#.#.#.#.#.#.#.#.#.#.#.#.#...#.#.#.#...#.#.#.#.#.#...........O...O.O...#.#.#.#.#.#.#.#.#.#.........#.#.#.#.#.#.#.#.#.#.........#.#.................) C U T T ! ! Q Q Q ! T T P S aXA.! Q ! P s.dX*...Q T J qX.X2.#.#.#.#.#.#.#.#.#.#.#.#.#.] T P J D D D C x }.pX8Xn.[ *.-.8...#.#.#.#.#.#.#.#.#.#.#.#.#.#.#.#.#.#.#.#.#.#.#.#.#.#.",
"Q *.#.#.#.#.#.#.#.#.#.#.#.#.#.#.#.#.#.#.#.#.#.#.#.#.#.#...-.T T T T T T T T Q [ ..#.#.#.#.#.#.#.#.#.T A Y ! Q T C P T ! Q S D Y T T Q Q Q ! Q T ~ U P x.x.Q ..................#.#...#...........#.#.#.#.#.#...#.....#.#.#.#.#...#.#.#...#.#.#.#.#.#.#.#.....#.#.#.#.#.#.#.#.#.#.#.#.#...#.......#.#.#.#.#.#.....#.#.#...#.#.#.#.#.#.#.#.#.#.#.#.#.#...#.#.#.#.#.#.#.........#.#.#.#.#.#.#.#.#...#.#.................#...#.#.........#.#.#.#.................D x P T T ! ! Q Q Q Q ! T J ;.qX2.Q Q Y S dX2.] Q T H aXt.=.#.#.#.#.#.#.#.#.#.#.#.#.#.#.#.#.#.#.#.[ J N ;Xv.5.*.#.#.#.#.#.#.#.#.#.#.#.#.#.#.#.#.#.#.#.#.H G T Q Q D J ! Q Q D J T T T Q Q Q Q T ! ! T D  X[.u.........#.#.#.......#.#.#.....#.#.#.#...#.#.#.........#.#.#.#...#.#.#.#.#...#.#.#.#.#.#.#.#.#.#.#.#.#.#.#.#.#.#.#.#.#.....#.#.#.#.....#.#.#.#.#.#...#.#.#.#.#.#.#.#.#.#.#...#.#.#.#.#.#...#.#.#.#.#.O.#.#...#.....#.#.#...#.#.#.#.#.#.#.#.O.#.....#.#.#.#.#...#.#.#.#.........#.#.................) C U ~ ! ! ! Q Q Q ! T T P S aXA.Q Q ! I s.dX*...Q T J qX.X2.#.#.#.#.#.#.#.#.#.#.#.#.#.[ T P J D D D C x }.sXuXn.#.*.-.8...#.#.#.#.#.#.#.#.#.#.#.#.#.#.#.#.#.#.#.#.#.#.#.#.#.#.",
"Q *.#.#.#.#.#.#.#.#.#.#.#.#.#.#.#.#.#.#.#.#.#.#.#.#.#.#.#.-.! T T T T T T Q Q [ ..#.#.#.#.#.#.#.#.#.T A Y ! Q T C P T ! Q S D Y T T Q Q Q Q Q ! T U P x.x.! ......#.........#.#...#.#.#.#.#.#.#.#.#.#.#.............#.#.#.#.....#.#.......#.#.#.#.#.........#.#.#.#...#.#.#.#.#.#.#.#.#.#.#.#...#.#.#.#.........O.#.#...#.#.#.#.#.#.#.#.#.#.#.#.O.......#.#.#.#.#.#.#.....#.#.#.#.#.#.#.....#.#.#.#.#.#.....#...........#.#...#.#.#.#.#.#.#...#.............D x P T T ! Q Q Q Q Q Q T J &.qX2.Q Q Y S dX2.] ] W H aXw.=.#.#.#.#.#.#.#.#.#.#.#.#.#.#.#.#.#.#.#.[ J N 5Xf.5.*.#.#.#.#.#.#.#.#.#.#.#.#.#.#.#.#.#.#.#.#.J D T Q Q D J ! Q Q D J Y T T Q Q Q Q ! ! ! T D  X$Xy.........#.#.#.............#...#.#.........#.#.#.#.....#.#...#.....#.#.........#.#.#.#.....#.#.............#.#.#.#.#.#...#.#.#.#.#.#...#.#.#.#.#.......#.#.....#.#.#.#.....#.#.#.#.#.#.....#.#.#.#.#.#.#.#.#.#.#.#.#.#.#.....#.#.#.#.#.#.#.#.#...#.#.#.#.#.........#.#.....#.#.#.#.................) C U ~ ! ! ! ! ! Q ! T T P S aXA.! Q ! I s.dX*...Q T J }..X2.#.#.#.#.#.#.#.#.#.#.#.#.#.] T P J D D D C x E.dX5XH.[ *.-.7...#.#.#.#.#.#.#.#.#.#.#.#.#.#.#.#.#.#.#.#.#.#.#.#.#.#.",
"Q *.#.#.#.#.#.#.#.#.#.#.#.#.#.#.#.#.#.#.#.#.#.#.#.#.#.#.O.-.Q T T T T T T Q Q [ ..#.#.#.#.#.#.#.#.#.T Z P T Q T C J T ! Q S D Y T T Q Q Q Q Q ! T U P x.x.! ................#.#...#.#.#.#.#.#.#...#.............#.#.#.#.#.#.....#.#.........#.#.#...........#.#.#.#...#.#...#.#.#.#.#.#.#.#.#.#...#.#.#.....#.#.#.#.#.#.#.#.#...#.#.#.#.#.#.#.#.........#.#.#.#.#.#.#...#.#.#.#.....#.#.#...#.O.#.#.#.#.#.#.#.#.........#.#...#.#...#.#.#.#...#.............D x P T T ! ! Q Q Q Q ! T J &.qX2.Q Q Y D dX2.] ] W H aXw.=.#.#.#.#.#.#.#.#.#.#.#.#.#.#.#.#.#.#.#.[ J N 8Xx.5.-.#.#.#.#.#.#.#.#.#.#.#.#.#.#.#.#.#.#.#.#.J D T Q Q D J ! Q Q D J Y T T Q Q Q Q ! ! T T D  X=Xy.........#.#.#.......#.#.#.#...#.#.#.#.....#.#.#.#.#.#.#.#...#.....#.#.........#.#.#.#.#.O.O.#.#.........#.#.#.#.#.#.....#.#.#.#.#.#.......#.#.#.....#.#.#.....#.#.#.#...#.#...#.#.#.#.....#.#.#.#.#.#.#.#.#.#.#.#.#.#.#.....#.#.#.#.#.#.#.#.#.#.#...#.#.#...............#.#.#.#.#.................) C U ~ T ! ! ! ! ! ! ! T P D aXA.! Q ! I s.dX*.[ Q T J }..X2.#.#.#.#.#.#.#.#.#.#.#.#.#.Q T P J D D D C x ].uXuXn.[ *.-.5...#.#.#.#.#.#.#.#.#.#.#.#.#.#.#.#.#.#.#.#.#.#.#.#.#.#.",
"Q *.#.#.#.#.#.#.#.#.#.#.#.#.#.#.#.#.#.#.#.#.#.#.#.#.#.#...-.! T T T T T T Q Q [ ..#.#.#.#.#.#.#.#.#.T Z P T Q T C J T ! Q S D Y T T Q Q Q Q Q ! T T P x.x.Q ..................#.#.#.#.......#.#...............#.#.#.#.#.#.#.....#.#.#.........#.....#.#.#.#.#.#.#...........#.#.#.#.#.#.#.#.#.#.....O...#.#.#.#.#.#.....#.O.....#.#...#.#.#.#.#.#.#.#.#.#.#.O.......#.#.#.#...#.....#.#.#.#.#.#.............#.#.#.#...#...#.#...#...#.#.#.#.................D x P Y T T ! Q Q Q Q ! T J &.<X2.] Q Y D dX2.] Q T H aXw.=.#.#.#.#.#.#.#.#.#.#.#.#.#.#.#.#.#.#.#.[ J N -Xv.5.-.#.#.#.#.#.#.#.#.#.#.#.#.#.#.#.#.#.#.#.#.J D T Q Q D J ! Q Q D J T T T Q Q Q Q ! ! U T D  X[.m.........#.......#.#.#.#.#.....#.#.#.#.....#.#.#.......#.#.#.......#.#.........#.#.#.#.#...#.#.#.......O.#...#.#.#.........#.#.#.#.O.....#.#.#.#.#.#.#.#.#.#.#.#.#.#.#.#.#.#...#.#.#.#.#.#.#.#...#.#.#.#.#.#.#.#...#.#.#.#.#.#.#.#.......O.#.#.#.#.....#.#...........#.#.#.#.#.#.#.................) C U ~ T ! ! ! Q Q ! T T P S aXB.Q Q ! I s.dX*...Q T J }..X2.#.O.#.#.#.#.#.#.#.#.#.#.#.[ T P J D D D C x }.sXuXC.[ *.-.5...#.#.#.#.#.#.#.#.#.#.#.#.#.#.#.#.#.#.#.#.#.#.#.#.#.#.",
"Q *.#.#.#.#.#.#.#.#.#.#.#.#.#.#.#.#.#.#.#.#.#.#.#.#.#.#.[ -.T T T T T T T T Q [ ..#.#.#.#.#.#.#.#.#.T Z P T Q T C J T ! Q S D Y T T Q Q Q Q Q ! T U P x.x.Q ..................#.#.#.#.......#.#...............#.#.#.#.#.#.#.....#.#.......#.........#.#.#...#.#.#.#.........O.#.#.#.#.#.#.#.#.#.........#.#.#.#.#.#.....#.#.#.#.#.#.#...#.#.#.#.#.#.#.#.#.#.#.....O.#.#.#.#...#.....#.#.#.#.#.#.#.#.........#.#.#.#...#.#.#.#.#.#.#...#...#.................D x P Y T ! ! Q Q Q Q ! T J &.<X2.] Q Y D dX2.] Q Y H aXw.=.#.#.#.#.#.#.#.#.#.#.#.#.#.#.#.#.#.#.#.[ J C 5Xv.5.-.#.#.#.#.#.#.#.#.#.#.#.#.#.#.#.#.#.#.#.#.J D T Q Q D J ! Q Q D J T T T Q Q Q Q Q ! U T D  X$Xm.........#.#.......#.#.........#.#.#.#.....#.#.#.#.....#.#.#.#.....#.#...#.#...#.#.#.#.O...#.#.#.O.....#.#.#.#.#.#.........#.#.#.#.....#.#.#.#.#.#...#.#.#.#.#.#.O.O.#.#...#...#.#.#.#.#.#.#.#...#.#.#.#.#.#.#.#...#.#.#.#.#.#.............#.#.#.......#.#.........#.#.....#.#.#.#.................) C U ~ T ! ! ! Q Q ! T T I S aXB.Q Q ! I s.dX*...Q T J }..X2.#...#.#.#.#.#.#.#.#.#.#.#.[ ! P J D D D C x L.dX3XF.#.*.-.5.#.#.#.#.#.#.#.#.#.#.#.#.#.#.#.#.#.#.#.#.#.#.#.#.#.#.#.",
"Q *.#.#.#.#.#.#.#.#.#.#.#.#.#.#.#.#.#.#.#.#.#.#.#.#.#.#...-.! T T T T T T Q Q [ ..#.#.#.#.#.#.#.#.#.T S P T Q T C J T ! Q S D Y T T Q Q Q Q Q ! T U P x.x.Q ..................#.#.#.#.........#.#.#.........#.#.....#.#.#.#.#.#.........#.#.#.#.#.#.#.#.#.............O.#.#.#.#...#.#.#.#.#.....#.#...#.#.#...#.#.#.#.#.#.#.#.#.#.#.#.......#.#.#.#.#.#.#.#.#.....#.#.#.#.#...#.......#.#.#.#...#...#.#.#.#.#.#.#.#.....#.#.#.#.......#...#.#...............D x P Y T ! ! Q Q Q Q ! T J &.<X2.] Q Y D dX2.] ! Y H aXw.=.#.#.#.#.#.#.#.#.#.#.#.#.#.#.#.#.#.#.#.[ J C 8Xj.5.-.#.#.#.#.#.#.#.#.#.#.#.#.#.#.#.#.#.#.#.#.J D T Q Q D J T Q Q D J Y T T Q Q Q Q Q ! U T D  X$Xm.........#.#.....#.#.#.........#...#.#.#.#.#.#.#.......#.#.#.#.......#...#.#...#.#.....#.#.#.#.#.#.....#.#...O.#...#.#.....#.#.#.#.......#.#.#.....#.#.#.#.#.#.#...#.#.#.......#.#.#.#.#.#.#.....#.#.#.#.#.#.#.#.#.#.#.#.#.#...#.#.#.......#.#.#.#...................#.......#.#.#.#.#.#...........) C U ~ T ! ! ! Q Q Q T U I Z aXB.Q Q ! I s.dX*...Q T J }..X2.#...O.#.#.#.#.#.#.#.#.#.#.[ T P J D D D C x ].uXuXF.[ *.-.5.#.#.#.#.#.#.#.#.#.#.#.#.#.#.#.#.#.#.#.#.#.#.#.#.#.#.#.",
"Q *.#.#.#.#.#.#.#.#.#.#.#.#.#.#.#.#.#.#.#.#.#.#.#.#.#.#...-.Q T T T T T T Q Q [ ..#.#.#.#.#.#.#.#.#.T S P T Q T C J T ! Q S D Y T T Q Q Q Q ! ! T ~ P x.x.Q ....................#.#.#.#.....#.#.#.#.#.#.......#...#.#.#.#.#.#.#.........#.#.#.#.#.#.#.#.O.......#.....#.#.#.#.#.....#.#.#.#.....#.#.#.#.#.....O.#.#.#.#.#.#.#.#.O.#.#.....#.#.#.#.#...#.#.#.#...#.#.#.#.#.#.........#.#.#.#.#...#.#.#.#.#.#.#.#.#.#.........#.#...............#.............D x P Y T Q ! Q Q Q Q Q T J &.rX2.] Q Y D dX,.] Q T H qXw.=.#.#.#.#.#.#.#.#.#.#.#.#.#.#.#.#.#.#.#...J C =Xk.5.-.#.#.#.#.#.#.#.#.#.#.#.#.#.#.#.#.#.#.#.#.P D T Q Q D J T Q Q D J T T T Q Q Q Q ! ! T T D <X[.m.........#.#.#.#.#.#.#.#.#.........#.#.#.#.#.#.#.......#.#.#.........#.#...#.#.#.#.....#.#.#.#.#.#.O.........#.#...#.#.#...#.#.#.#.......#.#.#.....#.#.#.#.#...O...#.#.#.#.#.#.#.#...#.#.#.#.O.....#.#.#.#.#.#.#.#.#.#.#.#.#...#.#.#.#.#...#.#.#.#.....#...........#.........#.#.#.#.#.#...........) C U ~ T ! ! ! Q Q Q ! U I Z aXB.! Q ! Y s.dX*...Q T J }..X2.#.....#.#.#.#.#.#.#.#.#.#.] T P J D D D C x }.pXuXF.[ *.-.5.#.#.#.#.#.#.#.#.#.#.#.#.#.#.#.#.#.#.#.#.#.#.#.#.#.#.#.",
"Q *.#.#.#.#.#.#.#.#.#.#.#.#.#.#.#.#.#.#.#.#.#.#.#.O.#.#...-.! T T T T T T Q Q [ ..#.#.#.#.#.#.#.#.#.T S P T Q T C J T ! Q S D Y T T Q Q Q Q ! ! ~ ~ P x.x.Q ................#.........#.#.#.....#.#.........#.#.....#.#.#.#.#.#.#.#.#.......#.#.#.#.#.#.#.#.#.#.#.#...#.#.#.#.#.....#.#.#.#.....#.#.#.#.#.#.....#.#.#.#.#.#.#.#.#.#.#.#.......#.#.#...#.#.O.#...#.#.#.#.#.#.#...........#.O.#.....#.#.#.#.#.#.#.#.#...........#.#.#.#.#.#.#.#.#.............D x P Y T Q Q Q Q Q Q Q T J &.rX2.] Q Y S dX,.Q Q W H qXw.=.#.#.#.#.#.#.#.#.#.#.#.#.#.#.#.#.#.#.#...J C ;Xx.5.-.#.#.#.#.#.#.#.#.#.#.#.#.#.#.#.#.#.#.#.#.P D T Q Q D J T Q Q D J T T T Q Q Q Q Q ! U T D '.[.m...........#...#.#.#.#.#.#.#.#.......#.#.#.#...#.#...#.........#.#.....#.#.#.#.#.#...#.#.......#.#.#.#.#.#.#.#.#...#.#.#.#.#.#.#.#.#.#.#.#.#.#...#.#.#.......#.#.#.O.#.#.#.#.#.......#.#.#.#.....O.#.#.#.#.#.#.#.#.#...........#.#.....#.#.#.#.#.#.#...#.#.........#.#.#.#.#.#.......................C U T T Q Q Q Q Q Q T U I S aXB.Q Q ! Y t.dX*.#.Q T J }..X2.#.#...#.#.#.#.#.#.#.#.#.#.[ T P J D D D C x }.dX,XF.[ *.-.5.#.#.#.#.#.#.#.#.#.#.#.#.#.#.#.#.#.#.#.#.#.#.#.#.#.#.#.",
"Q *.#.#.#.#.#.#.#.#.#.#.#.#.#.#.#.#.#.#.#.#.#.#.#...#.#.[ -.T T T T T T T T Q [ ..#.#.#.#.#.#.#.#.#.T A I T Q T C J T ! Q S D Y T T Q Q Q ! ! ! ~ ~ P x.x.! ..............#.#.#.........#.#.....#.#.........#.#.....#.#.#.#.O...#.#.#.#.....#.#...#.#.#.#.#.#.#.#.#.#.#.O...#.#.....#.#.#.#.#.#.#.#.#.#.#.#.#...#.#.#.#.O...#.#.#.#.#.#.O.....#.#.#.....#.....#.#.#.#.#.#.#.................#.#...#.#.#.#...#.#.#.#...#.........#.#.#...#.#.#.#.............D x P Y T Q Q Q Q Q Q ! T J &.rX2.Q Q Y S dX,.Q Q W H qXw.=.#.#.#.#.#.#.#.#.#.#.#.#.#.#.#.#.#.#.#...J C 7Xn.5.-.#.#.#.#.#.#.#.#.#.#.#.#.#.#.#.#.#.#.#.#.P D T Q Q D J T Q Q D J T T T Q Q Q Q Q ! U T D '.$Xm...........#...#.#.#...#.#.#.#.......#.#...#.#.#.#...#...#.#...#.....#.#.#.#.#.#.#...#.#.#.#...#.#.#.#.#.#.#.#...#.#.#...#.#.#.#.#...#.#.#.#.#.....#.#.......#.#.#.#...#.#.#.#.#.#...#.#.#.#.......#.#.#.#.#.#.#.#.#.#.........#.#.....#.#.#.#.#.#.#...#...#.#...#.#.#...#.#.#.#.#.#.................C U T T Q Q Q Q Q ! T T I S qX^.Q Q ! Y s.dX*.#.Q T J }..X2.#.#.#.#.#.#.#.#.#.#.#.#.#.[ Q P J D D D C x _.8X8XF.#.*.-.6.#.#.#.#.#.#.#.#.#.#.#.#.#.#.#.#.#.#.#.#.#.#.#.#.#.#.#.",
"Q *.#.#.#.#.#.#.#.#.#.#.#.#.#.#.#.#.#.#.#.#.#.#.#.....#...-.! T T T T T T Q Q [ ..#.#.#.#.#.#.#.....T Z P ! Q T C P Q Q Q S D Y T T Q Q Q Q ! ! T U P x.x.! ................#.#.....#.#.#.#.....#.#.#...#.#.#.#...#.#.#.#.......#.#.#.#.......#.....#...#.#.#.#.#.#.#.#.#.....#...#.#.#.#.#.#.#.#.#.#...#.#.#.#.#.#.#.#.#...#.#.#.#.#.#.#.#.#.#.#.#.#.#.#.#.#.#...O.#.#.#.#.#.#.....#...#.#.#.#...#.#...#.#.#.#.............#.#.#.#...........#.....#.......D x P Y T Q Q Q Q Q Q Q T J &.rX2.Q Q Y D dX,...Q W J qX9.=.#.#.#.#.#.#.#.#.#.#.#.#.#.#.#.#.#.#.#...J C uXH.5.-.#.#.#.#.#.#.#.#.#.#.#.#.#.#.#.#.#.#.#.#.P D T Q Q D J T Q Q D J T T T Q Q Q Q Q ! T T D '.[.m...........#.#.............#.......#.#.#.#...#.....#.#.#.#.#.#.#.#...#.#...#.#.#.#.#.#.#.#.#...#.#.#.#.#.#.#.#.#.#.#.#...#.#.#.#.#.#.#.O.#.#...#.#.#.#.O...#.#.#.#.......#.#...#.#.#.#.#.#.#.........#.#.#.#.#.....#.#.#.#.#.#.#.#.......#.#.#.#.#.#.#.#...#.#...#.#.#...#.#.#.#.....................C U T T ! Q Q Q Q Q T T I S qX^.Q Q ! Y s.dX*.#.Q T J }..X2.#.#.#.#.#.#.#.#.#.#.#.#.#.[ T P J D D D C x }.pXuXH.[ *.-.5.#.....#.#.#.#.#.#.#.#.#.#.#.#.#.#.#.#.#.#.#.#.#.#.#.#.",
"Q *.#.#.#.#.#.#.#.#.#.#.#.#.#.#.#.#.#.#.#.#.#.#.#.....#...-.Q T T T T T T Q Q [ ..#.#.#.#.#.#.#.....T Z Y ! Q T C I Q Q Q S D Y T T Q Q Q Q ! ! T U I x.x.! ................#.#...#...#.#.#.....#.#.....#.#.#.#...#.#.#.........#.#.#.#.......#.....#...#.#.#.#.#.#.#.#.#...#.#.#.#.#.#...#.#.#.#.#.#...#.#.#.#.#.#...#.#...#.....#.#.#.#.#.#.#.#.#.#.#.#.#.#.#.#.#.#.#.#.#.#.#.#.#.#.#.#.#.#.#...#.#.....#.#.#.............#.#.#.#.........................D x P Y ! Q Q Q Q Q Q Q T J &.rX2.Q Q Y D aX2...Q W J qX9.=.#.#.#.#.#.#.#.#.#.#.#.#.#.#.#.#.#.#.#...J C -XP.5.-.#.#.#.#.#.#.#.#.#.#.#.#.#.#.#.#.#.#.#.#.P D T Q Q D J T Q Q D J T T T Q Q Q Q Q ! T T D '.[.m.............#.#.#.........#.........#.#.#.......#.#.#.#.#.#.#.#.#...#.#.#.#.#.#.#.#.#.#.#.#...#.#.#.#.#.#.........#.#...#.#.#.#.#.#.#...#.#.#.#.#.#.#.#.#.#.#.#.#.#.#...#.#.#.#.#.#.#.#.#.#.....#.#.#.#.#...#.#...#.#.#.#.#.#.#.#.....O.#.#.#.#.#.#.#.#.#.#...#.#.#.#...#.#.#.......................C U T T ! Q Q Q ! ! ! T I S qX^...Q ! Y s.dX9.#.Q T J }.rX2.#.#.#.#.#.#.#.#.#.#.#.#.#.[ T P J D D D C x }.sXpXH.[ *.:.5.#.......#.#.#.#.#.#.#.#.#.#.#.#.#.#.#.#.#.#.#.#.#.#.#.",
"! *.#.#.#.#.#.#.#.#.#.#.#.#.#.#.#.#.#.#.#.#.#.#.#.#.#.#...-.! T T T T T T Q Q [ ..#.#.#.#.#.#.#.#.#.T S Y ! Q T C I ! Q Q A D Y T T Q Q Q Q ! T U U I x.x.! ................#.#.........#.#.............#.#.#.#.#.#.#.#.................#.#.#.#.#.#.#.#.#.......#.....#.#.#.#...#.#.....#.#.#.#.O...#.#.#.#.#...#.#.....#.#.#.#.....#.#.#.#...#.#.#.#.#.#.#.#.#.#.#.#.#.#.#.#.......#.#.#.......#.#.#.#.#.#...#.#.#.#.#.#.#.#.#.#.#.#.#.#.#.#...............D x P Y T ! Q Q Q Q Q Q T P &.rX2.Q ! Y D aX2...Q W J qX9.=.#.#.#.#.#.#.#.#.#.#.#.#.#.#.#.#.#.#.#...J C 6Xm.5.-.#.#.#.#.#.#.#.#.#.#.#.#.#.#.#.#.#.#.#.#.P D T Q Q D P T Q Q D P T T T Q Q Q Q ! ! T T D '.$Xm...........#.#.#.#.#.....#.#.......#.#.#.#.#...............#.#.#.#.#.#.#.#.....#.#.#.#.#.........#.#.#.#.......#.#.#.#.....#.#.#.#.#.#.....#.#...#...#.#.......#.#.#.#.....#.#.#.#.#.#.#.#.#.#.#.#.#...#.#.#.#.#.#.#.....O.#.#.#.#.....#.#.#.#.#.#.........#...#.#.....#.#.#.......#.#...............C U T T ! ! ! ! ! ! T T I S qX^...Q ! Y s.dX9.#.Q T J }.rX5.O.O.#.#.#.#.#.#.#.#.#.#.#.[ T P J D D D C x ).dX8XH.[ *.-.6.#.#.#.#.#.#.#.#.#.#.#.#.#.#.#.#.#.#.#.#.#.#.#.#.#.#.#.",
"! *.#.#.#.#.#.#.#.#.#.#.#.#.#.#.#.#.#.#.#.#.#.#.#.#.#.#.[ -.T T T T T T T T Q [ ..#.#.#.#.#.#.#.#.#.T S Y ! Q T C I ! Q Q S D Y T T Q Q Q Q ! T T U I x.x.! ................#.#.........#.#...#.........#.#.#.#.#.#.#.#.......#.........#.#.#.#.#.#.#.#.......#.#...#.#.#.#.#.#.#.#.#.#...#.#.#.#...#.#.#.#.#.#.#.#.#...#.#.#.#.....#.#.#.#.#.#.#.#.#.#.#.#.#...#.#.#.#.#.#.#...#.#.#.#.........#.#.#.#.#.#.....#.#.#.#.#.#...#.....#.#...#.#...............D x P Y T ! Q Q Q Q Q Q T P &.rX2.Q Q Y D aX2...Q W J qX9.=.#.#.#.#.#.#.#.#.#.#.#.#.#.#.#.#.#.#.#...J C 8XZ.5.-.#.#.#.#.#.#.#.#.#.#.#.#.#.#.#.#.#.#.#.#.P D T Q Q D P T Q Q D J T T T Q Q Q Q T ! T T D '.[.m...........#.#.#.#.#.#.#.#.........#.#.#.#.......#.........#.#.#.#.#.#.#.#.....#.#.#.#.........#.#.#.#.#...........#.#.....#.#.#.#.#.#.#...#.#.#.#...#.#.....#.#.#.#.#.....#.#.#.#...#.#.#.#.#.#.#.....#.#.#.#.#.#.......#.#.#.#.#.......#.#.#.#.......#.#.#.#.........#.#.......#.#.#...............C U T T T ! ! ! ! ! T T I S qX^...Q ! Y s.dX9.#.Q T J }.rX5.O.@.@.#.#.#.#.#.#.#.#.#.#.[ Q P J D D D C x }.uX8XH.#.*.-.6.#.#.#.#.#.#.#.#.#.#.#.#.#.#.#.#.#.#.#.#.#.#.#.#.#.#.#.",
"! *.#.#.#.#.#.#.#.#.#.#.#.#.#.#.#.#.#.#.#.#.#.#.#.#.#.#...-.! T T T T T T Q Q [ ..#.#.#.#.#.#.#.#.#.T S Y ! Q T C I ! Q Q S D Y T T Q Q Q Q Q ! T U I x.x.! ..............#.#.#.....#.#.#.#.#.#.#.#.....#.#.....#.#.#.#.....#.#.....#...#.#.....#.#.#.#.#.O.#.#.#.#.#.#.#.#.#.#.#.#.#.#.#.#.#.#.#...#.#.#.#.#.#.#.#.........#.#.#.#.#.#.#.#.#.#.#.#.#.#.......#...#.#.#.#...#.#.#.#.#.#.#.#.....#.#...............#.#.#...#...........#.....#...............D x P Y T Q Q Q Q Q Q Q T P &.rX2.Q Q Y D aX2...Q W J qX9.=.#.#.#.#.#.#.#.#.#.#.#.#.#.#.#.#.#.#.#...J C -XA.5.-.#.#.#.#.#.#.#.#.#.#.#.#.#.#.#.#.#.#.#.#.P D T Q Q D J T Q Q D J Y T T Q Q Q Q ! ! T T D '.[.m...........#.#.........#.#.#.#...#.#.#.........#.#.#.#.#.#.#.#.#.#.#...#.......#.#.#.#.#.#.#.#.#.#.#.#.#.#...#.............#.#.......#.#.#.#.#.#.#.#.#.#.#...#.#.#.#.#...#.#.#.#.....#...#.....#.....#.#.#.#.#.#.#.#.#.#.#.#.#.#.#...........#.....#.......#.#.#...#.............#.#.................C Y T T ! ! ! ! ! Q T T I S qX^...Q ! Y s.dX9.#.Q T J }.rX5.O.O.O.#.#.#.#.#.#.#.#.#.#.[ T P J D D D C x Q.sXuXH.[ *.-.6.#.#.#.#.#.#.#.#.#.#.#.#.#.#.#.#.#.#.#.#.#.#.#.#.#.#.#.",
"! *.#.#.#.#.#.#.#.#.#.#.#.#.#.#.#.#.#.#.#.#.#.#.#.O.#.#...-.Q T T T T T T Q Q [ ..#.#.#.#.#.#.#.O.#.T C P ! Q T C I ! Q Q S D Y T T Q Q Q Q Q ! T U I x.x.! ................#.#.....#.#.#.#.#.#.#.#.#.#.#.#.........#.#.#...#.#.#.#.#.#.#.#.........#.#.#.#.#.#.....#.#.#.#...#.#.#.#.#...#.#.#.#.#.#.#.#.#.#...#.#.........#.#.#.#.#.#.#.#.#.#.#.#.#.#.....#.#.O.#.#.#.#.#.#.#.#.#.#.#.#.#.....#.................#.#.#.#.#.#...............................D x P Y T Q Q Q Q Q Q Q T J &.rX2.Q Q Y D aX2...] T J qXv.=.#.#.#.#.#.#.#.#.#.#.#.#.#.#.#.#.#.#.#...J C 5Xm.5.-.#.#.#.#.#.#.#.#.#.#.#.#.#.#.#.#.#.#.#.#.P D T Q Q D J T Q Q D J Y T T Q Q Q Q ! ! T T D '.$Xm.......................#.#.#.......#.#.........#.#.#.#.#.#.#.#...O...............#.#.#.#.#.#.#.#.#.#.#.#.#.#.#.............#.#.#.......#.#.#.#.#.#.#.#.#.#.#.#.#.#.#.#...#.#.#.#...............#.....#.#.#.#.#.#.O.O.#.#.#.#.#...............#...#.#.......#.#.#.#.#.#.....#.#.#.#...................C Y T T Q ! ! Q Q Q ! T I S qX^...Q ! Y s.dX9.#.Q T J }.rX5.O.O.O.#.#.#.#.#.#.#.#.#.#.[ T P J D D D C x F.dX7XU.[ *.:.6.#.#.#.#.#.#.#.#.#.#.#.#.#.#.#.#.#.#.#.#.#.#.#.#.#.#.#.",
"! *.#.#.#.#.#.#.#.#.#.#.#.#.#.#.#.#.#.#.#.#.#.#.#.#.#.#...-.! T T T T T T Q Q [ ..#.#.#.#.#.#.#...#.T C I ! Q T C P Q Q Q S D Y T T Q Q Q Q ! ! T U I x.x.! ........................#.#...#.#.#.#.#.#.#.................#.#.#.#.#.#.#.#.........#...#.#.#.#.#.#.#.#.#.#.#.#.#...#.#.#.#...#.#.#.#.#.#.#.#.#.#.#.#.#.#.#.......#.#.#.#.#.#.......#.#.#.#.#.#.#.#.#.#.#.#.#.#.#.#.#.#.....#.#.#.#.....................#.#.#.#.....#.......#.#.#.#.............D x P Y T Q Q Q Q Q Q T T J &.rX2.Q Q Y D aX,...] T H qXv.=.#.#.#.#.#.#.#.#.#.#.#.#.#.#.#.#.#.#.#...J C 8XZ.5.=...#.#.#.#.#.#.#.#.#.#.#.#.#.#.#.#.#.#.#.P D T Q Q D J T Q Q D J T T T Q Q Q Q Q ! T T D '.[.m.................#.#...#.....#...#.#.#.#.#.#.......#.#.#.#.#.#.#.#.......#.#.#.#.......#.#.#.#...#.#.#.#.#.....#.#.#...#.#.#.#.#.#.#.#.#.#.#.#.#.#.#.#.#.#.#.....#.#.#.#.#.#...#.#.#.#.#...........#.#.#.#.#.#.#.#.#...#.#.....#.#.#.#.#.#.#.#.....#.#...#.#.#...#...#.#.#.#.#.........#.............C Y T T Q Q Q Q Q ! T T I S qX^...Q ! Y s.dX9.#.Q T P }.rX5.#.#.O.#.#.#.#.#.#.#.#.#.#.[ T P J D D D C x P.uXuXJ.[ *.-.6.#.#.#.#.#.#.#.#.#.#.#.#.#.#.#.#.#.#.#.#.#.#.#.#.#.#.#.",
"! *.#.#.#.#.#.#.#.#.#.#.#.#.#.#.#.#.#.#.#.#.#.#.#.#.#.#...-.T T T T T T T T Q [ ..#.#.#.#.#.#.#.#.#.T C I ! Q T C J T ! Q S D Y T T Q Q Q ! ! ! ~ T I x.x.! ......#.#...........#.#.#.#...#.#.#.#.#.#.#.................#.#.#.#.#.#.#.#.......#.#.......#.#.#.#.#.#.#.#.#.#.....#.#...#.......#...#.#.#.#.#.#.#.#.#.#.......#.#.#.#.#.#.................#.#.#.#.#.O.#.#...#...#.#.#.#...#.#.#.#.#.#.....#...........#.#.#.#.....#...#...#.#.#.#.............D x P Y ! Q Q Q Q Q Q ! T J Z rX2.Q Q P D aX,...] T H qXv.=.#.#.#.#.#.#.#.#.#.#.#.#.#.#.#.#.#.#.#...P A `.A.5.=...#.#.#.#.#.#.#.#.#.#.#.#.#.#.#.#.#.#.#.P D T Q Q D J T Q Q D J T T T Q Q Q Q Q ! ! T D '.+Xm...................#.#.......#.#.#.#.#.#.#.#.#.....#.#...#.....#.#...#...#.#.#.#.......#.#.#.#...#.#.#.#.#.....#.#.#.#.#.#.#.#.#.#.#.#.#.O.#.#.#.#.#.#.#.#.#.......#.#.#.#.#...#.#.#.#.#.#.#...#.#.#.#.O.O.#.#.#.#.#...#.......#.#.#.#.#.#.#.#.......#.....#.#.#.#.#.#.#.#.#.........................C Y T T ! Q Q Q ! T T T I S qX^...Q ! Y s.dX9.#.Q T P }.rX5.#.#.#.#.#.#.#.#.#.#.#.#.#.[ Q P J D D D C x Q.pXuXJ.#.*.-.6.#.#.#.#.#.#.#.#.#.#.#.#.#.#.#.#.#.#.#.#.#.#.#.#.#.#.#.",
"! *.#.#.#.#.#.#.#.#.#.#.#.#.#.#.#.#.#.#.#.#.#.#.#.#.#.#.#.-.! T T T T T T Q Q [ ..#.#.#.#.#.#.#.#.#.T C I T Q T C J T ! Q S D Y T T Q Q Q Q ! ! ~ ~ I x.x.! ........#.#...#.......#.........#.#.....#.#.#.#.#.#.#.#...#.#.#.O.......#.#.#.#.#.#.#.#.#.#.#.#.....#.#.#.#.#.#.#.#.#.#.....#.....#...#.#.#.#.#.#.#...#.#...#.#.#.#.#.#.#.#.#.#.....#.#...#.#.#...#.#.#.#.#...#.#.#.#.#.......#.#.#.#.#.#.#.#.#...............#.#...#.#.......#...#.............D x P Y T Q Q Q Q Q Q Q T J S rX2.Q ! Y D aX,...] ! J qXv.=.#.#.#.#.#.#.#.#.#.#.#.#.#.#.#.#.#.#.#...P A =XA.5.=.#.#.#.#.#.#.#.#.#.#.#.#.#.#.#.#.#.#.#.#.P D T Q Q D J T Q Q D J T T T Q Q Q Q ! ! T T D '.[.m.................#.#.#.....#.#.#.#.....#.#.#.#.......#.........#.#.#.#.....#.#.#.#.........O.#.#.#.#.#.#.#.....#.#.#.#.#.#...#...#.#.#.#.O.......#.#.#.#.#.#.....#.#.#.#.#.........#.#.#.#.#.#.#.#.#.#.#.......#.#.#...#.#...#.#...#.#.#.#.#.......#.#.#.#.#.#.#.#.....#.#.........#.#...#.#.#.......C Y ~ T T ! Q ! ! ! T T I S qX^...Q ! Y =.dX9.#.Q T P Q.rX5.#.#.#.#.#.#.#.#.#.#.#.#.#.[ T P J D D D C x Q.dX5XL.[ *.-.6.#.#.#.#.#.#.#.#.#.#.#.#.#.#.#.#.#.#.#.#.#.#.#.#.#.#.#.",
"! *.#.#.#.#.#.#.#.#.#.#.#.#.#.#.#.#.#.#.#.#.#.#.#.#.#.#.#.-.Q T T T T T T Q Q [ ..#.#.#.#.#.#.#.#.#.T A I T Q T C J T ! Q S D Y T T Q Q Q Q Q ! ~ ~ I x.x.! ......#.#.#.#.#.#...............#.#.......#.#.#.#.#.#.#.#.#...........#.#.#.#.#.#.#.#.#.#.#.........O.#.#.#.#.#.#.#.#.......#.....#...#.#.#.#.#.#.#.#.O.....#.#.#.#.#.#.#.#.#.#.#...#.#...#.#.#...O.#.#.#.....#.#.#.#.#.......#.#.#.#.#.#.#.#.#...............#.#.#.#.#.......#.................D x P Y T Q Q Q Q Q Q Q T J S rX2.Q ! Y D aX,...Q T J qXv.=.#.#.#.#.#.#.#.#.#.#.#.#.#.#.#.#.#.#.#...J A ,Xn.5.=.#.#.#.#.#.#.#.#.#.#.#.#.#.#.#.#.#.#.#.#.P D T ! Q J J T Q Q D J T T T Q Q Q Q ! ! U T D '.$Xm...............#.#.#.........#.#.#.....#.#.#.#.......#.........#.#.#.#.....#.#.#.#.#.............#.#.#.#.#.....#.#.#.#.#.#.#.....#.#.#.#.#.#.....#.#.#.#.#.#.#...#.#.#.#.#...#.#.#.#.#.#.#.#.#.#.#.#.#.#.#.#.#.#.#...#.#.#...#.#...#.#.#.#.#.......#.#.#.#.#.#.#.#.......#...#.....#.#...#.#.#.......C I ~ T ! ! ! ! ! Q T T I S qX^...Q ! Y =.dX9.#.Q T P Q.rX5.#.#.#.#.#.#.#.#.#.#.#.#.#.[ T P J D D D C x Y.8XuXK.[ *.-.6.#.#.#.#.#.#.#.#.#.#.#.#.#.#.#.#.#.#.#.#.#.#.#.#.#.#.#.",
"! *.#.#.#.#.#.#.#.#.#.#.#.#.#.#.#.#.#.#.#.#.#.#.#.#.#.#.#.-.! T T T T T T Q Q [ ..#.#.#.#.#.#.#.....T A I ! Q T C J T ! Q S D Y T T Q Q Q Q ! ! T T I x.x.#...........#.#.......#.........#.#.#.....#.#.#.#.#.........#.#.#.........#.#.#.#.#.#.....O.#.#.#.....#.#.#.#.#.#.#.#.#.......#...#.#...O.#.#.#.#.#.#.#.#.#.#.#.#.#.#.#.#...#.#.#.#.#.#.#.#.#.#.......O.O.#...#.#.#.#.#.#.......#.#.#...........#.#.#.#.....#.....#.#.#.#.#.#.....................D x P Y T Q Q Q Q Q Q Q T J S rX2.Q ! Y D aX-.[ T T J qXM.-.#.#.#.#.#.#.#.#.#.#.#.#.#.#.#.#.#.#.#...J A `.H.6.-.#.#.#.#.#.#.#.#.#.#.#.#.#.#.#.#.#.#.#.#.P D T Q Q J D T Q Q D J T T T Q Q Q Q ! ! T T D '.[.m...............#.#.......#.#.#.#.#.....#.#.#.#.........#.#.#.#.#.#.#.#.....#.#.#.......#.#.#.#.#.#.....#.#.#.#.....#.#.#.O.#.#.#.#.#.#.#.#.#.........#.#...#.#.#.#.#.#.#.#.#.#.#.#.#.#.#.#.#...#.#.#.#...#.#.#.#...#.#.#.#.#.#.#.#.#...........#.#...#.#.#.#.#.#.....#.#.#.#.......#.#.#.#.#.........C I T T Q Q Q ! ! ! T T I D qX^...Q ! Y =.dX9.#.Q T P Q.rX5.#.O.O.#.#.#.#.#.#.#.#.#.#.[ ! P J D D D C x Q.pXuXK.[ *.-.5.#.#.#.#.#.#.#.#.#.#.#.#.#.#.#.#.#.#.#.#.#.#.#.#.#.#.#.",
"! *.#.#.#.#.#.#.#.#.#.#.#.#.#.#.#.#.#.#.#.#.#.#.#.#.#.#...-.T T T T T T T T Q [ ..#.#.#.#.#.#.#.....T A I ! Q T C J T ! Q D D Y T T Q Q Q Q ! ! T T I 8.x.#...........#.#.#.........#.......#.#.....#.#.#.#.......#.#.#.#.#.........#.#.#.#...#.....#.#.#.#.....#.#.#.#.#.#...#...#.....#...#.#.....#.#.#.#.#.#.#.#.#.#...#.#.#.#.#.#.#.#.#.#.#.#.#.#...#.#.........#...#.#.#.#.#.#.....#.#.#.#.........#.#.#.#.#.#.#.#.....#.#.#.#.......#.................G x P Y T Q Q Q Q Q Q Q T J S rX2.Q Q Y D aXs...! T H qXM.-.#.#.#.#.#.#.#.#.#.#.#.#.#.#.#.#.#.#.#...J A *XA.6.-.#.#.#.#.#.#.#.#.#.#.#.#.#.#.#.#.#.#.#.#.P D T Q Q J D T Q Q D J T T T Q Q Q Q ! ! T T D '.[.m.................#.........#.#.#.#.....#.#.#.#.........#.#.#...#.#.#.#.#.#.#.#.........#.#.#.#.#.#.#.#.#.#.#.#...#.#.#.#...#.#.#.#.#.#.#.#.#.#.#.#.#.#.#...#.#.#.#.#.#.#.#...#.#.#.#.#.#.#.....#.#.#.#...#.#.#.#.....#.#.#.#.#.#.#.#...........#.#.#.#.....#...#.#.#.#.#...#.......#.#.#.#.#.........C I ~ T Q Q Q ! ! ! T T P S qX^...Q ! Y =.dX9.#.Q T J Q.rX5.#.....#.#.#.#.#.#.#.#.#.#.[ Q Y J D D D C x Q.dXpXK.#.*.-.5.*.#.#.#.#.#.#.#.#.#.#.#.#.#.#.#.#.#.#.#.#.#.#.#.#.#.#.",
"! *.#.#.#.#.#.#.#.#.#.#.#.#.#.#.#.#.#.#.#.#.#.#.#.#.#.#.#.-.! T T T T T T Q Q [ ..#.#.#.#.#.#.#.....T A I ! Q T C J T ! Q D D Y T T Q Q Q Q Q ! ~ ~ I 8.v.#.........#.#.#.#.#...#.#.#.#...........#.#.#...........#.#.#.#.#.#.#.....#.#.............#.#.#.#.#.#.....#.#.........#.#.#.#.#.#.#.#...O.#.#.#.O.#.#.#.#.O...#...#.#.#.#.#.#...#...#...#.#...#.#.#.#.#.#.#...#.#.#.#.#.......#.#.#.#.....#.#.#.#.#.#.#.#...#.....#.#...........#...#.............G x P Y T Q ! Q Q Q Q Q T P S rX2.Q Q T D aXs...Q T H qXz.=.#.#.#.#.#.#.#.#.#.#.#.#.#.#.#.#.#.#.#...J A ;Xm.6.-.#.#.#.#.#.#.#.#.#.#.#.#.#.#.#.#.#.#.#.#.P D T Q Q J D T Q Q D J T T T Q Q Q Q Q ! U T D '.[.m...............................#.#.#.......#.#...#.....#.#.....#.#.#.#.#.#.#.#.#.#.....#.#.........#.#.#.#.#.#.....#.#.#...#.#.#.#.....O.....#.#.#.#.#.#.#.....#.#.#.#.#.........#.#.#.#.#.#.#.O.O.#.#.....#.#.#.#...#.#...#...#.#.#.#.#.#...#.....................#.#.#...#.#.....#.#.#.......#.....C I ~ T ! Q Q Q ! Q T T I D qX^...Q ! Y =.dX9.#.Q T P Q.rX5.#.....#.#.#.#.#.#.#.#.#.#.[ ! P J D D D C x J.dX8XK.[ *.-.6.*...#...#.#.#.#.#.#.#.#.#.#.#.#.#.#.#.#.#.#.#.#.#.#.#.",
"! *.#.#.#.#.#.#.#.#.#.#.#.#.#.#.#.#.#.#.#.#.#.#.#.#.#.#.#.,.Q T T T T T T Q Q [ ..#.#.#.#.#.#.#.....T A I ! Q T C J T ! Q D D Y T T Q Q Q Q Q ! ~ ~ I 8.v.#.......#.#...#.#.#...#.#.#.#...........#.#.#...............#.#.#.#.#.....#.#.........#.#.#.#.#.#.#.#.....#.#.......O.#.#.#.#.#.#.#.#.....#.#...#.#.#.#.#.#.#.#.#.#.#.#.#.#.#.....#.#...O.#.#.#.#.#.#.#.#.#...#.#.#.#.#.......#.#.#.#.#.#.#.#.#.#.#.#.#.#.........#.#.........#...#.#.#...........G x P Y T Q ! Q Q Q Q ! T J S rX2.Q Q T D aXs...Q W H qXz.=.#.#.#.#.#.#.#.#.#.#.#.#.#.#.#.#.#.#.#...J A 5XN.6.-.#.#.#.#.#.#.#.#.#.#.#.#.#.#.#.#.#.#.#.#.P D T Q Q J D ! Q Q G J T T T Q Q Q Q ! ! T T G '.[.m.................#.............#.#.........#.#.#.#.#.#.#.#.........#.#.#.#.#.#.#.#.#.#...............#.#.#.#.#.....#.#.#...#.........#.#.....#.#.#.#.#.#.#.....#.#.#.#...........#.#.#.#.#.#.#.#.#.#.#.....#.#.#.#.#.#.#.......#.#.#.#.#.#.#.#.......#.............#.#.#.#.#.#.#.#...#.#.......#.....C I ~ T Q Q Q ! ! Q T T I D qX^...Q ! Y =.dX9.#.Q T P Q.rX5.#.....#.#.#.#.#.#.#.#.#.#.[ T P J D D D A x Q.uXuXL.[ *.:.6.*.......#.#.#.#.#.#.#.#.#.#.#.#.#.#.#.#.#.#.#.#.#.#.#.",
"! *.#.#.#.#.#.#.#.#.#.#.#.#.#.#.#.#.#.#.#.#.#.#.#.#.#.#.#.,.! T T T T T T Q Q [ ..#.#.#.#.#.#.#.....T A I ! Q T C J T ! Q D D Y T T Q Q Q Q Q ! ~ T I 8.x.#.......#.....#.#.#...#.#.......#.#.#.#.......#.#.#.#.#.#.#.#.#.#.#.#.......#...#.#.#.#.#.#.#.#.#.#.#.#.#.#.#...#.#.#.#.#.#.#.#.#.#.#...#.#.#.#.#.#.#.#.#.#.#.#.#.#.#.#.#.........#.#.....#.#.#.#.#.#.#.#.#.#...#.#.......#.#.........#.#.#.#.#.#.#.#.#.......#.#.#.#...#.#.#.....#.#.#...........D x P Y T ! ! Q Q Q Q ! T P S rX2.Q Q T D aXs...Q T J qXv.=.#.#.#.#.#.#.#.#.#.#.#.#.#.#.#.#.#.#.#...J Z `.N.5.-.#.#.#.#.#.#.#.#.#.#.#.#.#.#.#.#.#.#.#.#.P D T Q Q P D ! Q Q D J T T T Q Q Q Q ! ! T T G '.[.m.................#.....#.#.#.#.......#.........#.#.#.#.#.............#.#.#.#.#.#.#.#.#.#.#.#.......#.#.O.#.....#.#.#.#.#.#.........#.#.#.#...#.#...#.#.#.#.#.#.#.#.#...#.#.#.....#.#.#.#.O...#.#.........#.#.#.#.#.#.#.#...#.#.#.#...#.#.#.........#.#.....#.#...#.#.........#.#.#.#.#.#.............C Y T T Q ! Q Q Q Q T U I D qX^...Q ! Y =.dX9.#.Q T P Q.rX5.#.#...#.#.#.#.#.#.#.#.#.#.[ Q Y J D D D A x Q.sXuXL.[ *.-.6.*.#.#.#.#.#.#.#.#.#.#.#.#.#.#.#.#.#.#.#.#.#.#.#.#.#.#.",
"! *.#.#.#.#.#.#.#.#.#.#.#.#.#.#.#.#.#.#.#.#.#.#.#.#.#.#...-.T T T T T T T T Q [ ..#.#.#.#.#.#.#.#.#.T A I ! Q T C J T ! Q D D Y T T Q Q Q ! Q ! ~ ~ I 8.x.#.............#.#.#.#.#.#.....#.#.#.#.#.......#.#.#.#.#.#.#.#.#.#.#.#.......#...#.#.#.#.#.#.#.#.#.#.#...#.#.#...#.#.#.#.#.#.#.#.#.#.#...#.#.#.#.#.....#.#.....#.#.#.#.#.#.....#.#.#.#.#.#.#.#.....#.#.#.#.#.#.#...#.O.#.#.#.#.........#.#.#.#.#.#.#.#.......#.....#.#.#.#.#.#.....#.#.#...#.......D x P Y T ! ! ! Q Q Q ! T P S rX5.Q Q T D aXs...] T P qXv.-.#.#.#.#.#.#.#.#.#.#.#.#.#.#.#.#.#.#.#...J A -Xm.5.-.#.#.#.#.#.#.#.#.#.#.#.#.#.#.#.#.#.#.#.#.P D T Q Q P D T Q Q D J T T T Q Q Q Q Q ! T T G '.[.m...................#.#.#.#.....#.....#.....#...#.#.#.#.#.#.............#.#.#.#.#.#.#.#.#.#.#.....#.#.#.............#.#.#.#...#.#.#.#.#.#.#.#.#.....#.#.#.#.#.#.#.#.....#.#.#.....#.#.#.#.#.#.#.#...#.....#.#.#.#.#.#.#.....#.#.#.#.....#.#.....#.#.#.#.......#...#.............#.#...................A Y T T T ! Q Q Q Q T U P D qX^...Q ! Y =.dX9.#.Q T P Q.rX5.#.#...#.#.#.#.#.#.#.#.#.#.[ Q Y J D D D A x H.dX8X`.#.#.-.6.*.#.#.#.#.#.#.#.#.#.#.#.#.#.#.#.#.#.#.#.#.#.#.#.#.#.#.",
"! *.#.#.#.#.#.#.#.#.#.#.#.#.#.#.#.#.#.#.#.#.#.#.#.#.#.#.#.,.! T T T T T T Q Q [ ..#.#.#.#.#.#.#.#.#.T A I ! Q T C J T ! Q D D Y T T Q Q Q Q ! ! T T I 8.x.#...............#.....#.......#.#.#.#.#.#.....#.#.#.#.#.#.....#.#.#.#.........#.#.#.#.#.#...#.#.#.#.#.#.#.#.#.#.#.#.#.#.#...#...#.#.#...#.#.#.#.#.#.O.#.#.#.#.#.#...#.#.....#.#.#.#.#.#.#.#.#.........#...#.#.....#.O.#.#.#.#.#.#...#...#.........#.#.#.#...#.........#.#.#.#.......#.............D x P Y T ! Q Q Q Q Q Q T P S rX5.Q Q T D aXs...] T P qXv.-.#.#.#.#.#.#.#.#.#.#.#.#.#.#.#.#.#.#.#...J A 5XN.5.=.#.#.#.#.#.#.#.#.#.#.#.#.#.#.#.#.#.#.#.#.P D U ! Q P D T Q Q D J Y T T Q Q Q Q Q ! T T G '.[.J...................#.#.#.#.#.#.#...#.#.#...#.#.#.#.....#.......#.#.#.#.#.#.#.......#...#.#.#.#.....#.#.#.#.........#...#.#.#.#.#.#.#.#.#.#.#.#.#...#.#.....#.#.#.#.#.#...#.#...#.#.#.#.#.#.#.#.#.#.....#.#.#.#...#.#.....#.#.#.#.#.....#.#.....#.#.#.........#.#.#.#.#.....#.#.#.#...................A I ~ T T ! ! Q Q ! T T I D qX}...Q ! Y =.dX9.#.Q T P Q.rX5.#.#.#.#.#.#.#.#.#.#.#.#.#.[ Q Y J D D D A x Q.uXpXU.[ *.-.5.*.#.#.#.#.#.#.#.#.#.#.#.#.#.#.#.#.#.#.#.#.#.#.#.#.#.#.",
"! *.#.#.#.#.#.#.#.#.#.#.#.#.#.#.#.#.#.#.#.#.#.#.#.#.#.#.#.,.Q T T T T T T Q Q [ ..#.#.#.#.#.#.#.#.#.T S I ! Q T C J T ! Q D D Y T T Q Q Q Q ! ! T T I 8.x.#.....................#.......#.#.#.#.#.#.......#.#.#.#.#.........#.#.#.#.#.#.#.#.#.#.......#.#.#.....#.#.#.#.#.#.#.#.#.....#.....#.#.#.#...#.#.#.#.O.#.#.#.#.#.#.....O.#...#.#.#.#.#.#.#.#.#...#.#.........#.#.#.O.#.#.#.#.#.#.#.#.#.........O...#.#.#...............#.#.#.#...........#.........D x P Y T ! ! ! Q Q Q Q T J S rX5.Q Q T D aXs...] T P qXv.-.#.#.#.#.#.#.#.#.#.#.#.#.#.#.#.#.#.#.#...J A `.B.5.=.#.#.#.#.#.#.#.#.#.#.#.#.#.#.#.#.#.#.#.#.P D U ! Q P D T Q Q D J T T T Q Q Q Q Q ! U T G '.[.H.....................#.#.#.#.......#.#.#...#.#.#.#.#...#.......#.#.#.#.#.#.............#.#.#.#.#...#.#.#.#.#.#.#.#.#.....#.#.#.#.#.#.#.#.#.#.#.#...#.#.#.#.#.#.#.#.#.#.#.#.#.#.#.#.#.#.#.#.#.#.#.#.#.#.#.#.#.#.#.#.#...#.#.#.#.#.......#.#.....#.#.#...#.#.#.#...#.#.#.....#.#.#.#...................A I ~ T T ! ! Q Q ! T T I D }.}...Q ! Y =.dX9.*.Q T P Q.rX5.#.#.#.#.#.#.#.#.#.#.#.#.#.[ T Y J D D D S x Q.sXuXT.[ *.:.6.*.#.#.#.#.#.#.#.#.#.#.#.#.#.#.#.#.#.#.#.#.#.#.#.#.#.#.",
"! *.#.#.#.#.#.#.#.#.#.#.#.#.#.#.#.#.#.#.#.#.#.#.#.#.#.#.#.,.! T T T T T T Q Q [ ..#.#.#.#.#.#.#.#.#.T Z I ! Q T C J T ! Q D D Y T T Q Q Q Q ! ! T T I 8.x.#.......#.#.........#.#.#.#.#.......#.#.#.#.#.#.#.#.......#.#.#.#.#.#.#.#.#.......#.#.#.#.#.#.#.#.......#...#.#...#.#.#.#.#.#.#.#.#.#.......#.#.#.#.#.#.#.#.#.#.#.....#.#.#.#.#.......#...#...#.#.#.#.....#.#.#.#.#.#.#.#...#.#.#.#.#.#.#.#.#.#...#.#.#.#.#.#.#.#.#.....#.#.#...#.#.#.#.#.#.#.....D x P Y T ! ! ! Q Q Q ! T P Z rX6.Q Q T D aXs...] W P qXM.-.#.#.#.#.#.#.#.#.#.#.#.#.#.#.#.#.#.#.#...J A =Xm.6.-.#.#.#.#.#.#.#.#.#.#.#.#.#.#.#.#.#.#.#.#.P D U Q Q P D T Q Q D J T T T Q Q Q Q Q ! T T G '.[.H.................#.....#.#.............#.#.#.#.#.#.....#.#.......#.....#.#.#.#.#.#.........#.#.#.....#.#.....#.#.#.#...#.#.#.#.#.#.#.#.......#.#.#.....#.#...#.#.#.#.#.#.#.#.#.#.#.#.#.#.#.#.#.#.#...O.#.#.#.#.#.#.#...........#.#.#.#.#.#.#.#...........#.#.......#.......#.....#.........#.........A I T T T ! ! ! Q ! T T I D }.}.*.Q ! Y =.dXv.*.Q T P Q.rX5.....#.#.#.#.#.#.#.#.#.#.#.[ Q Y J D D D A x F.dX8X`.[ *.-.5.*.....#.#.#.#.#.#.#.#.#.#.#.#.#.#.#.#.#.#.#.#.#.#.#.#.",
"! *.#.#.#.#.#.#.#.#.#.#.#.#.#.#.#.#.#.#.#.#.#.#.#.#.#.#...-.T T T T T T T T Q [ ..#.#.#.#.#.#.#...#.T S P ! Q T C J T Q Q D D Y T T Q Q Q Q ! ! T ~ I 8.x.#.......#.#.......#.#.#.#.#.#.......#.#.#.#.#.#.#.........#.#.#.#...#.#.#.#.#.#.#.#.#.#.#.#.#.#.#.....O.#.#.#.#.#.#.#.#.#.......#.#.#...#.#.#.#.#.#.#...#.#.#.#.#.....#.#.#.#.#.#...#.....#.#.#.#.#.#...#.#.#.#.#.#.#.#.#...#.#.#.#.#.#.#.#.#.....#.#.#.#.#.#.#.#.#.#...#.#.#.......#.#.#...#.....D x P Y T ! ! ! Q Q Q ! T P Z rX6.Q Q T D aXt...] T P qXv.-.#.#.#.#.#.#.#.#.#.#.#.#.#.#.#.#.#.#.#...J A 5Xn.6.-.#.#.#.#.#.#.#.#.#.#.#.#.#.#.#.#.#.#.#.#.P D U Q Q P D T Q Q J J T T T Q Q Q Q Q ! T T G XX[.H.................#.....#.#.#.#.....#...#...#.#.#.#.....#.#.#.#.....#...#...#.#.#.#.#.....#.#.#.#.....O.#.#.#.#.#.#.#...#.#.#.#.#.#.#.#.......#.#.#.#...#.#.....#.#.#.#.#.#.#.#.#.#.#.#.#.#.#.#.#.#.....#.#.#.#.#.#.#.#...#.#...#.#.#.#.#.#.#.#.......#.#.#.#.#...#.........#.#.#.#.........#.........A I T T ! ! ! ! Q ! T T P D }.}.*.Q ! Y =.dXv.*.Q T P Q.aX5.......#.#.#.#.#.#.#.#.#.#.[ Q Y J D D D A x Q.8XpXE.#.*.-.5.*...#.#.#.#.#.#.#.#.#.#.#.#.#.#.#.#.#.#.#.#.#.#.#.#.#.",
"! *.#.#.#.#.#.#.#.#.#.#.#.#.#.#.#.#.#.#.#.#.#.#.#.#.#.#.#.,.! T T T T T T Q Q [ ..#.#.#.#.#.#.#.#...T S P ! Q T C P ! Q Q D D Y T T Q Q Q Q ! ! T T I 8.x.#.......#.........#.#.#.#.#.#.....#.#.....#...#.#.#.#.....#.#.#.......#.#.#.#.#.#...#.....#.#.#.#.#.#.#.#.#.#.#.#.O.#.#.....#...#.#.#...#.#.#.#.#.#.#.........#.#.#.#.....#.#.#.#.#.#.....#.#.#.#.#.#.#.#.#.#.#.#.....#.........#.#.#.#.#.#.#.......#.....#.#.#.#.#.#.#.#.#...#.....#.......#.....D x P Y T ! ! Q Q Q Q ! T P S rX6.Q Q T D aXt...] T P qXv.-.#.#.#.#.#.#.#.#.#.#.#.#.#.#.#.#.#.#.#...J A `.N.6.-.#.#.#.#.#.#.#.#.#.#.#.#.#.#.#.#.#.#.#.O.P D U Q Q P D T Q Q J J T T T Q Q Q Q ! ! U T G XX[.H...........................#.#.#.#...#.........#.#.....#.#.#.#.#.#.#.#.........#.#.#...#.#.#.#.#.......#.#.......#.#.#.#.#.#.#.#...#.#.....#.#.#.#.#.O.#.#.#.#.#.#.#.#.#.....#.....#.#...#...O.#.........#.#.#.#.#.#.#...#.#...#.#.#.#.#.#.#.#.....#.#.....#.#.#.#.#.#.....#.#.#.#.........#.#.......A I T T ! ! ! ! Q Q T T P D }.}.*.Q ! U =.dXv.*.Q T P Q.aX5...#.O.#.#.#.#.#.#.#.#.#.#.[ Q Y J D D D S x M.pXuXE.[ *.-.5.*.#.#.#.#.#.#.#.#.#.#.#.#.#.#.#.#.#.#.#.#.#.#.#.#.#.#.",
"! *.#.#.#.#.#.#.#.#.#.#.#.#.#.#.#.#.#.#.#.#.#.#.#.#.#.#.#.,.Q T T T T T T Q Q [ ..#.#.#.#.#.#.#.#...T S P ! Q T C P ! Q Q D D Y T T Q Q Q Q Q ! T T I 8.x.#.................#...#.#.........#.#.........#.#.#.#.....#.#.#.......#.#.#.#.#.#.............#.#.#.#.#.#.#.#...#.O.#.#.#...#.#.#.#.#...#.O.#.#.#.#.#...#.#.#.#.#.#.#.....#.#.#.#.#.#.#.#.O.#.#.#.#...#.#.#.#.#...........#.#...#.#.#.#.#.#...................#.#.#...#.............#.......#.....D x P Y T ! ! Q Q Q Q ! T P D rX6.Q Q T D aXt...] T P qXv.-.#.#.#.#.#.#.#.#.#.#.#.#.#.#.#.#.#.#.#...P A *XN.6.-.#.#.#.#.#.#.#.#.#.#.#.#.#.#.#.#.#.#.#.O.T D U Q Q P D T Q Q J J T T T Q Q Q Q T T T T J Q.[.H...............#.#.#.#.#.#.#.#.#.#.#.#.........#.#.....#.#.#.#.#.#.#.#.........#.#.#...#.#.#.#.#.....#.#.#.......#.#.#...#.#.#.#...#.#.....#.#.#.#.#.#.#.#.#.#...#.#.#.#...........#.#.......#.#.........#.#.#.#.#.#.#.#.#.#...#.#.#.....#.#.#.....#.#...#.#.#.#.#.#.#.#.#.#.#.#.#.......#.#.#.......A I ~ T ! ! ! Q Q ! T T I D }.}.=.Q ! U =.dXv.*.Q T P Q.aX5.#.#.#.#.#.#.#.#.#.#.#.#.#.[ T Y P H D D S N M.dX8X`.[ *.:.5.*...#.#.#.#.#.#.#.#.#.#.#.#.#.#.#.#.#.#.#.#.#.#.#.#.#.",
"! *.#.#.#.#.#.#.#.#.#.#.#.#.#.#.#.#.#.#.#.#.#.#.#.#.#.#.#.,.! T T T T T T Q Q [ ..#.#.#.#.#.#.#.#.#.T S P T Q T C P ! Q Q D D Y T T Q Q Q Q Q ! T T I 8.x.#.........#.#...#...#.#.......#.#.#.#.....#.#.#.#.#.#.#.#.......#.#.#...#.#.#.#.#.#.#.O.#.#.#...O.#.#.#.#.#.......#.#.#.#.#.#.#.......#.#.#.#.#.#.#.#.#.#.#.#.#.#.#.#...O.#.#.#.#.#.#.#.#.#.#.....#...#.#.#.#.#.#.........#.#...#.#...........#.#.........#.#.#.#.....#.............#.............D x P Y T ! ! Q Q Q Q ! T P D rX6.Q Q T D aXs.[ Q W P qXg.-.#.#.#.#.#.#.#.#.#.#.#.#.#.#.#.#.#.#.#...P S ;XY.6.-.#.#.#.#.#.#.#.#.#.#.#.#.#.#.#.#.#.#.#.#.T D U Q Q P D T Q Q J J T T T Q Q Q Q T T T T J Q.[.H...............#.#.#.#.#.#.#.#.#.#.#.#.#.#.#...........#.#.#.#.#.#.#.#.#.#.#...............#.#.#.#.#.#.#.#.#.#.......#.....#.#.#.....#...#.#.#.#.#.#.#.#.#.#.#.O.#.#.#.#.#.......#.#.#.#.#.#.#.#.#.#.#.#.#.#.#.#.#.....#.#.#.#.............#...#.#.#.#.....#.#.#.#.#...#.#.#.#.#.#.#.....#...........A I T T ! ! ! Q Q Q T T P D }.}.=.Q ! U =.dXv.*.Q T P Q.aX5.#.#.#.#.#.#.#.#.#.#.#.#.#.[ Q Y P J D D S N x.7XpXE.[ *.:.6.*.#.#.#.#.#.#.#.#.#.#.#.#.#.#.#.#.#.#.#.#.#.#.#.#.#.#.",
"! *.#.#.#.#.#.#.#.#.#.#.#.#.#.#.#.#.#.#.#.#.#.#.#.#.#.#.O.-.T T T T T T T T Q [ ..#.#.#.#.#.#.#.#.#.T S P T Q T C P ! Q Q D D Y T T Q Q Q Q ! ! ~ T I 8.x.#.................#.#.........#.#.#.#.....#.#...#.....#.......#.#.#.#.....O...#.#.#.#.#.#.#.#...#.#.#.#.#.#...#.#.#.#.#.#.#.#.#.......#.#.#.#.#...#.#.#.O.#.#.#.#.#.#...#.#.#.O.#.#.#.#.#.#.#...O.#.....#.#.#.#.#.........#.#...O.............#.#.#.......#.#.#.#.................#...#...#.......G x P Y T ! ! Q Q Q Q ! T P D rX6.Q Q T D aXs.[ ! W P |.g.-.#.#.#.#.#.#.#.#.#.#.#.#.#.#.#.#.#.#.#...P S W.^.6.-.#.#.#.#.#.#.#.#.#.#.#.#.#.#.#.#.#.#.#.#.T D U Q Q P D T Q Q J J T T T Q Q Q Q T T T T J Q.[.H.................#.#.#.#.#.#.#.#.#.....#.#.#...........#.#.#.#.#.#.....#.#.#.................#.#.#.#.#.#.#.#.#.......#.......#.....#.#.#.#.#.#.#.#.#.#.#.#.#...#.#.#.#...#.........#.#.#.#.#.#.#.#.#.#.#.#.#.#.#.#.....#.#.#.#.............#.O.#.#.#.#.....#.#.#.#.#...#.#.#.#.#.#.#...#.#...........A I T T ! ! ! Q Q Q T T P D }.}.*.Q ! U =.dXv.*.Q T P Q.aX5.#.#.#.#.#.#.#.#.#.#.#.#.#.[ Q Y J J D D S N M.pXuXE.#.*.-.6.*.#.#.#.#.#.#.#.#.#.#.#.#.#.#.#.#.#.#.#.#.#.#.#.#.#.#.",
"! *.#.#.#.#.#.#.#.#.#.#.#.#.#.#.#.#.#.#.#.#.#.#.#.#.#.#.#.,.! T T T T T T Q Q [ ..#.#.#.#.#.#.#.#.#.T S P ! Q T C P ! Q Q D D Y T T Q Q Q Q ! ! T ~ I 8.x.#...........#.....#.#...#.......#...#.#.#.#.#.........#.#.......#.#.#.....#.#.#.#.....#.#.#.#...#.#...#.#.#.#.#.#.#.#.#...#.#.#.#.....#.#.#.#.#...#.#.#.#.#.#.#.#.#.#.#.#.#.#.#.#.......#.#.#.....#.#...#.....#.#.#.O.....#.#.#.#...#.....#.#.#.#.......#.#.#.........#.#...#.....#.....#.#.......G x P Y T Q Q Q Q Q Q Q T P F aX6.Q Q T D aXs...Q W P }.z.-.#.#.#.#.#.#.#.#.#.#.#.#.#.#.#.#.#.#.#...P S *X^.6.-.#.#.#.#.#.#.#.#.#.#.#.#.#.#.#.#.#.#.#.#.T D U Q Q P D T Q Q P J T T T Q Q Q Q T T T T J Q.[.H...............#...#.#.#.#.#.#.........#.#.#.#.....#.#.#.#.#.#.........#.#.#.#.....#.#.O.#.O.#.#.#.#.#.#.#.#.#.....#.#.#.#.#.#.....#.#.#.#.#.#.#.#.#.#.#.#.#...#.#.#.#...#.....#.#.#.#.#.#.#.#.#...#.#.#.#.#...#.#.#.......#.#.O.#.#.#.#.#.#.#.#.#.........#.#.#.#.#...#.#...#.....#.................A I T T ! ! Q Q Q Q T T P D }.}.*.Q ! U =.dXz.*.Q T P Q.aX5.#.#.#.#.#.#.#.#.#.#.#.#.#.[ Q Y P G D D S N M.dXpX_.[ *.-.6.*.#.#.#.#.#.#.#.#.#.#.#.#.#.#.#.#.#.#.#.#.#.#.#.#.#.#.",
"! *.#.#.#.#.#.#.#.#.#.#.#.#.#.#.#.#.#.#.#.#.#.#.#.#.#.#.#.,.Q T T T T T T Q Q [ ..#.#.#.#.#.#.#.#.#.T S P ! Q T C P ! Q Q D D Y T T Q Q Q Q Q ! ! ~ I 8.x.#...........#...#.#.#...#...........#.#.#.#.#.........#.#.......#.#.#.......#.#.#.....#.#.#.#.........#.#.....#.#.#.#.....#.#.#.#.#...#.#.#.......#.#.#.#.#.#.........#.#.#.#.O...O...O.#.#.#.#.#.#.#.O.....#.#.#.#.#.....#.#.#.#.#.#.#.#.#.#.#.#.....#.#.#.#.........#.#.#.#...#.#.#...#.#.#.....G x P Y T ! Q Q Q Q Q Q T P F aX6.Q Q T D aXs.#.Q W P |.z.-.#.#.#.#.#.#.#.#.#.#.#.#.#.#.#.#.#.#.#...P S -XJ.6.-.#.#.#.#.#.#.#.#.#.#.#.#.#.#.#.#.#.#.#.#.T D U Q Q P D T Q Q P J T T T Q Q Q Q T T T T J Q.[.H.....................#...#.#.#.........#.#.#.#.#...#.#.#.#.#...........#.#.#.#.#...#.#.#.#.#.#...#.#.#.#.#.#.......#.#.#.#.#.#.#...#.#.#.#.#.#.#.#.#.#.#.#.#...#.#.#.#.#.#.#.#.#.#.#.#.#.#.#.O...#.#.#.O.#.#...#.#.#.#.....#.#.#.#.#.#.#.#.#.#.........#...#.#...#.....#.#...........................Z I T T ! Q Q Q Q Q ! T I D }.}.*.Q ! U D dXz.*.Q T P M.aX5.#.#.#.#.#.#.#.#.#.#.#.#.#.[ Q Y P G D D D N x.dXpX_.[ *.:.5.*.#.#.#.#.#.#.#.#.#.#.#.#.#.#.#.#.#.#.#.#.#.#.#.#.#.#.",
"! *.#.#.#.#.#.#.#.#.#.#.#.#.#.#.#.#.#.#.#.#.#.#.#.#.#.#.#.,.! T T T T T T Q Q [ ..#.#.#.#.#.#.#.O.#.T S I T Q T C P ! Q Q D D Y T T Q Q Q Q ! ! T T I 8.x.#.............#.#.#.#.....#.#.#.......#.#.#.#.........#.#.......#.#.#.#.#.#.#.#.#...#.#.#.#.#.....#.#.#.#.....#.#.#.#.....#.#.#.O.....#.#.#.#.#...#.#.#.#.#...#.#.#.#.#.#...#.#.#.#.#.#.#.#.#.....#.#.#.......#.#.#.#.....#.#.#.............#.#.#.....#.#.#.#.........#.......#...#.#.............G x P Y T ! ! Q Q Q Q ! T P F aX6.Q Q T D aXs.#.Q T J |.v.-.#.#.#.#.#.#.#.#.#.#.#.#.#.#.#.#.#.#.#.O.P S 5XU.5.-.#.#.#.#.#.#.#.#.#.#.#.#.#.#.#.#.#.#.#.#.T D U Q Q P D T Q Q P J T T T Q Q Q Q T T T T J Q.[.H.........#.#.#.......#...................#.#.#.#.#.#.#...............#.#.#.#.#.#.#.#.#.#.#.#.#.#.#.#.....#.#...#.#.#.#.#.#.#.#.#.#.#.#.....#.#.#.#...O.#.O.#.#.#.#...#.#.#.........#.#.#.#.#.#.#.#.#.#.#.O.#...#.#.#.#.....#.#.#.#.#.#.......#.#.#.....#.#.#.#.....#.#.#...#.#.#.......#.#.#.#.......Z I T T T Q Q Q Q ! T T P D }.}.*.Q Q U D dXz.*.Q T P M.aX5.#.#.#.#.#.#.#.#.#.#.#.#.#.[ ! Y P G D D S N M.uXsXW.[ *.-.6.*.#.#.#.#.#.#.#.#.#.#.#.#.#.#.#.#.#.#.#.#.#.#.#.#.#.#.",
"! *.#.#.#.#.#.#.#.#.#.#.#.#.#.#.#.#.#.#.#.#.#.#.#.#.#.#.O.-.T T T T T T T T Q [ ..#.#.#.#.#.#.#.O.#.Q S P T Q T C P ! Q Q D D Y T T Q Q Q Q ! ! T T I 8.x.#.............#.#.#.#...#.#.#.#.......#.#.#.#.......#.#.#.........#.#.#...#.#.#.#...#.#.#.#.#.....#.#.#.#.#.#.#.#.#.#.#...#.#.#.O.....#.#.#.#.#.O.#.#.#.#.#.#.#.#.#.#.#.#.#.#.#.#.#.#.#.#.#.#.....#.#.#.......#.#.#.#.#.#.#.#.#...........#.#.#.#.....#.#.#.#.........#.......#.#.#.#.............G x P Y T ! ! Q Q Q Q ! T P D aX6.Q Q T D qXs.#.Q T J |.v.-.#.#.#.#.#.#.#.#.#.#.#.#.#.#.#.#.#.#.#.O.P S [.^.5.-.#.#.#.#.#.#.#.#.#.#.#.#.#.#.#.#.#.#.#.#.T D U Q Q P D T Q Q P J T T T Q Q Q Q ! T T T J Q.[.H.........#.#.#.......#.................#.#.#.#.#.#.#.#.................#.#.#.#.#.#.#.#.#.#.#.#.#.#.#.......#...#.#.#.#.#.#.#.#.#.#.#.#.#...#.#.#.#.........#.#.#.....#.#.#.........#.#.#.#.#.#.#.#.#.#.#.#.#...#.#.#.#...O.#.#.#.#...#.......#.#.#.#.#.#.#.#.#.......#.....#.#.#.........#...#.......Z I ~ T ! ! Q Q Q Q T T P D }.}.*.Q Q U D dXg.*.Q T P M.aX5.O.O.#.#.#.#.#.#.#.#.#.#.#.[ Q Y P G D D S N M.sXpX`.#.*.-.6.*.#.#.#.#.#.#.#.#.#.#.#.#.#.#.#.#.#.#.#.#.#.#.#.#.#.#.",
"! *.#.#.#.#.#.#.#.#.#.#.#.#.#.#.#.#.#.#.#.#.#.#.#.#.#.#.#.,.! T T T T T T Q Q [ ..#.#.#.#.#.#.#.O.#.Q S P T Q T C P ! Q Q D D Y T T Q Q Q Q ! ! T T I 8.x.#.........#.#...#...#.#...#.#.#.#.#...#.#.#.#.....#.#.#.#.....#.#.#.#.....O...#.#.#...#.#.#.#.....#.O.#.#.#.#.....#.#.#.#.#.#.#.#.....#.#.#.#.#.#.#.#.#.#.#.#.#...#.#...#.#...#.#.#.#.#.#.#.#.#...#.#.#.#.....#.#.#.#.#.#.#.#.#.#...........#.#.#.#.#.#.#.#.#.....#.#.#.#.....#...#.#.............G x P Y ! ! ! Q Q Q Q ! T P D aX6.Q Q T D qXt.O.Q T J |.v.-.#.#.#.#.#.#.#.#.#.#.#.#.#.#.#.#.#.#.#.O.P S :XH.6.-.#.#...#.#.#.#.#.#.#.#.#.#.#.#.#.#.#.#.#.T D U Q Q P D T Q Q P J T T T Q Q Q Q Q ! T T J Q.[.H.............#...........#.........#.#.#.#.#.#.#.#.....#.#.........#.#...#.#.#.#.#.........#.#.#.#.#.#.#.#.#.#...#.O.....#.#.#.#.#.#.#.#.....#.#.#.#.........#.#.#.#.#.#.#...#.#.#.#.#.#.#...#.#.........#.#...#.#.#.#...#.#.#.............#.#.#.#.#.#.#.#.#.#.....#.#.........#...#.....#.....#.....Z I T T ! ! ! Q Q ! T T I D }.}.*.Q Q U D dXg.*.Q T P M.aX5.#.O.O.#.#.#.#.#.#.#.#.#.#.[ Q Y P J D D S N x.dXuX-X[ *.-.6.-.#.#.#.#.#.#.#.#.#.#.#.#.#.#.#.#.#.#.#.#.#.#.#.#.#.#.",
"P *.#.#.#.#.#.#.#.#.#.#.#.#.#.#.#.#.#.#.#.#.#.#.#.#.#.#.#.,.Q T T T T T T Q Q [ ..#.#.#.#.#.#.#.#.#.Q S P T Q T C P ! Q Q D D Y T T Q Q Q Q ! ! ! T I 8.x.............#...#.#.......#...#.#.#.#...#.#.#.....#.#.#.#.....#.#.#.#.........#.#.........#...#.#.#.#.#.#.O.#.....#.#.#.#.#.#.#.#.#.O.#.#.#.#.#.#.#.#.#.#.#.#.#...#.#.#.#.#.#.#.#.#.#.#.#.#.#.....#.#.#.#.#...#.#.#.#.#.#.#.#.#.#.#.#.......#.#.#.#.#.....#.#.#...#.#...#.........#.#.............G x P Y ! ! ! Q Q Q Q ! T P D aX6.Q ! U D qXt.#.Q T J |.v.-.#.#.#.#.#.#.#.#.#.#.#.#.#.#.#.#.#.#.#.O.P S 5XU.6.-.#.#.#.#.#.#.#.#.#.#.#.#.#.#.#.#.#.#.#.#.T D U Q Q P D T Q Q P J T T T Q Q Q Q Q ! T T J Q.[.H.............#...........#.#.#.#.#.#.#.#.#.#.#.#.......#.#.#.......#.#.#.#.#.#.#.............#.#.#.#.#.#.#.#.#...#.#.O.#.#.O.#.#.#.#.#.#.....#.#.#.#.#.#.#.#.#.#.#.#.#.#.#.#.#.#.#.#.#.#.O...#.#.#.#.#.#.#.#.#.#.#.......O.#.#.........#.#.#.#.#.#.#.#.#.#.........#.#.........#.........#...........Z G T T ! ! ! Q Q ! ! T I D }.}.*.Q ! U D dXg.*.Q T P M.aX5.#.O...#.#.#.#.#.#.#.#.#.#.[ Q Y P J D D S N M.uXsX`.[ *.:.6.-.#.#.#.#.#.#.#.#.#.#.#.#.#.#.#.#.#.#.#.#.#.#.#.#.#.#.",
"P *.#.#.#.#.#.#.#.#.#.#.#.#.#.#.#.#.#.#.#.#.#.#.#.#.#.#.#.,.! T T T T T T Q Q [ ..#.#.#.#.#.#.#.#.#.Q S P T Q T C P ! Q Q D D Y T T Q Q Q Q Q ! ! U I 8.x.#.....................#.#.#.......#.#.........#.#.#.#.#.#.#.#.#.......#.#.#.#.......#.........#.#.#.#.#.#.#.#.....#.#.#.#.#.#.#.#.#.#.....O...#.#.#.#.#.#.#.#.#.O.O.#.#.#.#.#.#.#.#.#.#.#.#.#.#.#.#.#.#.#.#.#.........#.#.#.#.#.#.#.#.#.#.#.#.....#.#.........#.#.#.#.....#.#.....................G x P Y ! ! ! Q Q Q Q ! T P D aX6.Q Q T D qXt.#.Q T H }.z.-.#.#.#.#.#.#.#.#.#.#.#.#.#.#.#.#.#.#.#.O.P S `.^.6.-.#.#.#.#.#.#.#.#.#.#.#.#.#.#.#.#.#.#.#.#.T D U Q Q P D T Q Q I J T T T Q Q Q Q ! ! ! T J Q.[.H.............#.....#.....#.#.#.....#.#.....#.#.#.#.....#.#.........#.#.#.#.#.#.#.#.........#.#.#.#...#.#.#.#.#.#.#.#.#...#...#.#...#.#.#.#.#.#.#...#.#.#.#.#.#.#.#.#.#.#.#.#.#.#.#.......#.O.#.#.#.#.#.#.#.#.#.........#.........#.#.#.#.#.#.#.#.#.#.#.#.......#.#.#.#.#.#.#...#.#...#...............Z G T T T ! ! ! ! Q T T P D }.}.=.Q Q U D dXg.*.Q T P M.aX5.#.#...#.#.#.#.#.#.#.#.#.#.[ Q Y P J D D D N M.sXpX`.[ *.-.5.-.#.#.#.#.#.#.#.#.#.#.#.#.#.#.#.#.#.#.#.#.#.#.#.#.#.#.",
"P *.#.#.#.#.#.#.#.#.#.#.#.#.#.#.#.#.#.#.#.#.#.#.#.#.#.#.O.-.T T T T T T T T Q [ ..#.#.#.#.#.#.#.O.#.! S P T Q T C P ! Q Q D D P T T Q Q Q ! Q ! ! U I f.x.#.................#.#.#...#.....#.#.#.........#.#.#.#...#.#.#.#.......#.#.#.#.......#.....#...#.#.#.#.#.#...#...O.#.#.#.#.#.#.#.#.#.#.....#.#.#.#.#.#.#.#...#.#.#.#.#.#.#.#.#.O.#.#.#...#.#.#.#.#.#.#.#.#.#.#.........#.#.#.#.#.#.#.#.#.#.#.#.....#.#.........#.#.#.#.#.#.#.#.....................G x P Y T ! ! Q Q Q ! ! T P D aX6.Q Q T D qXt.#.Q T H }.D.-.#.#.#.#.#.#.#.#.#.#.#.#.#.#.#.#.#.#.#.#.P S =Xn.6.-.#.#.#.#.#.#.#.#.#.#.#.#.#.#.#.#.#.#.#.O.T D U Q Q P D T Q Q P J Y T T Q Q Q Q ! ! T T J Q.[.H.................#.#.#.#.#.#.......#.#.....#.#.#.#.....#.#.........#.#.#.O.#.#.#.#.........#.#.#.#.......#.#...#.#.#.#...#.#.#.....#.#.#.#.#.#.#...#.#.#.#.#.#.#.#.#.#.#.#.#.#.#.#.#.....#.#.#.#...O.#.#.#.#.O.........#.#.....#.#.#.#.#.#.#.#...#.#.#...........#.#.#.....#.#.#.#.#.#...#.....#.....Z G T T ! ! ! Q ! ! T T P D }.}.=.Q Q U D dXg.*.Q T P M.aX5.#.#.#.#.#.#.#.#.#.#.#.#.#.[ Q T P J D D D N x.dXuX-X#.*.-.5.-.#.#.#.#.#.#.#.#.#.#.#.#.#.#.#.#.#.#.#.#.#.#.#.#.#.#.",
"K *.#.#.#.#.#.#.#.#.#.#.#.#.#.#.#.#.#.#.#.#.#.#.#.#.#.#.[ ,.! T T T T T T Q Q [ ..#.#.#.#.#.#.#.....! S I T Q T C P ! Q Q D D P T T Q Q Q Q Q ! ! U I f.x.#.........#.#.#.#.#.#.#...........#.#.#.#.....#.#.........#.#.#.#.....#.#.#.#.....#.#.#.#.#.#.#.#.....#.#.#.O...#.#.#.#.#...#.#...#.#.O.#.#.#.#.#...#...#.#...#.#.#.#.#.#.#.#.#.#.#.#.......#.#.#.#.#...#.#...#...#.#.#.#.........#...#.#.........#.#.#.#...#.#.#.....#...#.#.......#.............G x P Y T Q Q Q Q Q Q ! ! P D aX6.Q Q T D qXt.O.Q T P }.B.-.#.#.#.#.#.#.#.#.#.#.#.#.#.#.#.#.#.#.#.#.P S *XU.6.-.#.#.#.#.#.#.#.#.#.#.#.#.#.#.#.#.#.#.#.O.T D U Q Q P D T Q Q P J Y T T Q Q Q Q ! ! U T J Q.[.H.........#.......#.#.#.#.#.#.......#.#.......#.#.#.#...#.#.#.....#.#.#.......#.#.#.#.....#.#.#.#.#.............#.#.#.#.O.#.#.#.#.#.#.#.#.#...#.#...#.#.#.#.#.#.#.#.........#.#.#.#.#...#.#.#.#.#.#.#.#.#.#.#.#.#...#.#.#.#.....#.#.#.#...#...#.....#.#.#.#...........#.#.....#.......#.....#.#.......Z G T T ! ! ! ! Q Q T T P D }.}.=.Q Q U D dXg.*.Q T P M.aX5.#.#.#.#.#.#.#.#.#.#.#.#.#.[ Q T P J D D D N v.8XsX[.#.*.-.5.-.#.#.#.#.#.#.#.#.#.#.#.#.#.#.#.#.#.#.#.#.#.#.#.#.#.#.",
"K *.#.#.#.#.#.#.#.#.#.#.#.#.#.#.#.#.#.#.#.#.#.#.#.#.#.#.[ ,.Q T T T T T T Q Q [ ..#.#.#.#.#.#.#.....! S I ! Q T C P ! Q Q D D P T T Q Q Q Q Q ! ! T I f.x.#.........#.#.#.#.#.#.#.#.........#.#.#.#.#.#.............#.#.#.#.....#.#.#.......#.#.#.#.#.#.#.#.O.....#.#.O.O.#.O.#.#.#...#.#.#.#.#.#.#.#.#.#.#.......#.#.....#.#.#.#.#.#.#.#...........#.#.#.#.#.....#.....#.#...#.#.#.............#.#.#.......#.#.#.#.#.#.............#.#.#.....#.............G x P Y ! Q ! ! Q Q Q ! ! P D wX6.Q Q T D qXt.O.Q T P |.B.-.#.#.#.#.#.#.#.#.#.#.#.#.#.#.#.#.#.#.#.#.P S R.^.6.-.#.#.#.#.#.#.#.#.#.#.#.#.#.#.#.#.#.#.#.#.T D U Q Q P S T Q Q P J Y T T Q Q Q Q Q ! U T J Q.[.H.............#.#.#.#.#.#.#.#.......#.#.........#.#.#...#.#.#...#.#.#.#.........#.#.#.....#.#.#.#.#.....#.......#.#.#.#.#.#.#.#.#.#.#.#.#.#.#.......#.#...#.#.#.............#.#.#.#.....#.#.#.#.#.#.#.....#.#.#.#.#.#.#.#.#.....#.#.#.#.......#.....#.#.#.#...........#.#.#...........#.#...#.#.......D G ~ T ! ! ! ! Q Q ! T I D Q.<X*.Q Q U D dXg.*.Q T P M.aX5.#.#.#.#.#.#.#.#.#.#.#.#.#.[ Q Y P J D D D N M.pXuX[.#.*.:.5.-.#.#.#.#.#.#.#.#.#.#.#.#.#.#.#.#.#.#.#.#.#.#.#.#.#.#.",
"K *.#.#.#.#.#.#.#.#.#.#.#.#.#.#.#.#.#.#.#.#.#.#.#.#.#.#.[ ,.! T T T T T T Q Q [ ..#.#.#.#.#.#.#.#.#.! S I ! Q T C P ! Q Q D D P T T Q Q Q Q Q ! T ~ I f.x.#.........#.......#...#...#.#.#...#.......#.#.#.#.#.#...#.#.#.#.#.........#.#.#.#.#.#.#.#.#.#.#.#.#.#...O.#.....#.#.#.#.....#.#.#.#.#.#.#.#.#.#.#.#.#.#.#.#.#...#.#.#.#.#.#.#.#.#...#.#.....#.#...#...#.#.O.#.#.#.#.#.#.#.#.#.#.#.#.#.#...#.#.#.#.#.#.............#.#.............................G x P Y ! ! Q ! Q Q Q Q ! P D wX6.Q Q T D qXt.#.Q T P |.D.-.#.#.#.#.#.#.#.#.#.#.#.#.#.#.#.#.#.#.#.#.P S W.^.6.-.#.#.#.#.#.#.#.#.#.#.#.#.#.#.#.#.#.#.#.#.T D U Q Q P S T Q Q P J Y T T Q Q Q Q Q ! U T J Q.[.H.........#.#.#.......#.#.......#.#.#.#.....#.#.#.#.....#.#.#.#.........#.#.....#.#.#.#.#.#.#.#.#.#.#...#.......#.#.#.#.O.#.#.....#.#...#.#.........#.#.#...O.#.#.#.#.#.#.#.....#.#.#.#.#.#.#.#.#.#.#.........#...#...#.#.#.........#.............#.#.#...........#.#.#.#.......#.....#.#.............D G ~ T ! ! ! Q Q ! T T P D Q.@X*.Q Q U D dXg.*.Q T P M.aX5...O.#.#.#.#.#.#.#.#.#.#.#.[ Q T P H D D D N M.dXsX=X#.*.-.6.-.#.#.#.#.#.#.#.#.#.#.#.#.#.#.#.#.#.#.#.#.#.#.#.#.#.#.",
"P *.#.#.#.#.#.#.#.#.#.#.#.#.#.#.#.#.#.#.#.#.#.#.#.#.#.#.[ -.T T T T T T T T Q [ ..#.#.#.#.#.#.#.#.#.! S I ! Q T C P ! Q Q D D P T T Q Q Q ! Q ! ~ ~ I f.x.#.........#.#.#.#.#...#...#.#.#.#.#.#.....#.#.#.#...#...#.#.#.#.#.....O...#.#.#.#.#.#.#.#.#.#.#.#.#.#...#.....#...#.#.......#.#.#.#.#.#.#.#...#.#.#.#.#.#.#.#...O.#.#.#.#.O.#.#.#.#.#.#.....#.#.#.....#.#.#.#...#...#.#.#.#.#.#.#.#.#.....#.#.#.#.#.#.........#.#.#.#...........#.................G x P Y T T Q Q Q Q Q Q ! P D wX6.Q Q T D qXt.#.Q T P |.B.-.#.#.#.#.#.#.#.#.#.#.#.#.#.#.#.#.#.#.#.#.P S %XJ.6.-.#.#.#.#.#.#.#.#.#.#.#.#.#.#.#.#.#.#.#.#.T D U Q Q P S T Q Q P J Y T T Q Q Q Q ! ! U T J Q.[.H.........#.#.#.......#.#...#...#.#.#.#.....#.#.#.........#.#.#.........#.#.#.#.#.#.#.#.#.#.#.#.....#...#.#.#.#.#.#.#...#.#.#.#.#.#.#.#.#.#...#.#...#.#.#.#.#.#.#.#.#.#.#.#.#...#.#.#.#.....#.#.#.#...#.#.....#.#.#...#.#.#...#.........#.......#.#.#.#.............#.#.#.......#.....#.#.............D G ~ T ! ! ! Q Q Q T T I D Q.@X:.Q Q U D dXB.*.Q T P M.aX5.#.O.O.#.#.#.#.#.#.#.#.#.#.[ Q T P J D D D N v.dXpX[.*.*.-.6.-.#.#.#.#.#.#.#.#.#.#.#.#.#.#.#.#.#.#.#.#.#.#.#.#.#.#.",
"P *.#.#.#.#.#.#.#.#.#.#.#.#.#.#.#.#.#.#.#.#.#.#.#.#.#.#.[ ,.! T T T T T T Q Q [ ..#.#.#.#.#.#.#.#.#.Q S I ! Q T C P ! Q Q D D P T T Q Q Q Q ! ! ~ ~ I f.x.#.........#.#.#.....#.....#.#.#.#.#.#.....#.............#.#...#.#.#...#.#.#.#.........#.#.#.#.....#.#.#.#.#.#.#.#.#.#.#.#...#.#.#.#.#.#.#.......#.#.#.#.#.#.#...#.#.#.O.O.#.#.#.#.#.#.#.#.#.#.#.#.#.#.#.#...........#...#.#.#.#.#.#...............#.#.#...#.#.#.#.#.#.#.#.....#.#.#.#.............P x P P T ! Q Q Q Q Q Q T K D wX6.Q Q T D qXt.#.Q W P |.B.-.#.#.#.#.#.#.#.#.#.#.#.#.#.#.#.#.#.#.#.#.P S L.^.6.-.#.#.#.#.#.#.#.#.#.#.#.#.#.#.#.#.#.#.#.#.T D U Q Q P D T Q Q P J Y T T Q Q Q Q ! ! U T J Q.[.H.........#.........#.#.#.#.........#.#.....#.#.#.#.........#.#.#.#.....#.O...#.#.#...#.#.#.#.#.....#.#.#...#.#.#.#.#.#.#.#.#.#.#.#...#.#.#.#.#.#.#.#.#.#.#.#.#.#.#.....#...#.O.#.#.#.#.........#.#.#.#.#.#.#.#.#.O.....#.#.#.#.#.#.#.#.#.#.#.#.#.#.#.#.#.#.............#.#.....#.#...#.#.............D G T T ! ! ! Q Q Q T T P D Q.@X:.Q Q U D dXB.*.Q T Y M.dX5.#.#.#.#.#.#.#.#.#.#.#.#.#.[ Q T P J D D D N 9.uXuXOX*.*.-.5.-.#.#.#.#.#.#.#.#.#.#.#.#.#.#.#.#.#.#.#.#.#.#.#.#.#.#.",
"P *.#.#.#.#.#.#.#.#.#.#.#.#.#.#.#.#.#.#.#.#.#.#.#.#.#.#.[ ,.Q T T T T T T Q Q [ ..#.#.#.#.#.#.#.#.#.Q S I ! Q T C P ! Q Q D D P T T Q Q Q Q ! ! ~ ~ I f.x...........#.#.#.......#.....#.#.#.#.......#.............#.#...#.#.#...#.#.#.#.......#.#.#.......O.#...#.#.#.#.#.#.#.#.#.#.#.#.O.#.#.#.#.........#.#.#...#.#.#...#.#.#.....#.#.#.#.#.#.#.#...#.#.#.#.#.#.#...............#...#.#.#.#.................#.#.#.#.#.#.#.#.#.#.#.....#.....#.............P x P P T ! Q Q Q Q Q Q T P D tX6.Q ! U D qXM.#.Q T P |.B.-.#.#.#.#.#.#.#.#.#.#.#.#.#.#.#.#.#.#.#.#.P S E.^.5.-.#.#.#.#.#.#.#.#.#.#.#.#.#.#.#.#.#.#.#.#.T D U Q Q P D T Q Q P J Y T T Q Q Q Q ! ! U T J Q.[.H...................#.#.#.#.........#.#.....#.#.#.#.........#.#.#.#...#.#...#.#.#.#.......#.#.#...O.#.#.#...#.#.#.#.#.O.#.#.#.#.#.#.#.#.#.#.#.#.#.#.#.#.#.#.#.#.#.#...#...#.#.....#.#.#.......#.#.#.#.#.#.#.#.#.#.....#.#.#.#.#.#.#.#.#.#.#.#.#.#.#.#.#.#.#.#.#...#.#.#.#.#.#...#.....#.#.............D G T T ! ! ! Q Q Q ! T P D Q.@X:.Q Q U D dXB.*.Q T P M.dX5.#.#.#.#.#.#.#.#.#.#.#.#.#.[ Q T P J D D D N 9.dXsX=X*.*.:.5.-.#.#.#.#.#.#.#.#.#.#.#.#.#.#.#.#.#.#.#.#.#.#.#.#.#.#.",
"P *.#.#.#.#.#.#.#.#.#.#.#.#.#.#.#.#.#.#.#.#.#.#.#.#.#.#.[ ,.! T T T T T T Q Q [ ..#.#.#.#.#.#.#.#.#.Q S I ! Q T C P ! Q Q D D P T T Q Q Q Q Q ! ~ ~ I f.x.#.........#...#.#.#.....#.#.#.#.#.....#.........#.#.#.#.#.#...#.#.#.#.#.#.#.#.#.#...#.#.....#...#.#...#.#.#.#.#.#.#.#.#.#...#.O...#.#...........#.#.#.........#...#.#.....#.#.#.#.#.#.#.#.#.#.#.#.#.#...O.#.#.#.#...O.....#.#.#.#.....................#.#.#.#.#.#.#.#.#.#.........#.#.............P x P P T ! ! ! Q Q Q ! T K D wX6.Q Q T D qXM.#.Q T P |.B.-.#.#.#.#.#.#.#.#.#.#.#.#.#.#.#.#.#.#.#.#.P S `.H.6.-...#.#.#.#.#.#.#.#.#.#.#.#.#.#.#.#.#.#.#.T D U Q Q P D T Q Q P J Y T T Q Q Q Q ! ! T T J Q.[.U.....................#.....#.#.......#...#.#.#.#.#.#...........#.#.#.#.#.#.#.#.............#.#.#.#.#.#.#.#.#.#.........#.#.#.#.#.#.#.#.....#.#.#.#.#.#.#.#.#.#.#.#.#.#...#.O.....#.#.#.#.#.#.#.#.#.#.#.#.#.#.O.....#.#.#.#.#.#.#.#.#.#.#.#.#.#.#.#.#.#.#.#.......#.#.#.#.#...#.....#...#.............D G T T ! Q Q Q Q Q T T P D Q.@X:.Q Q U D dXB.*.Q T P M.dX5.#.#.#.#.#.#.#.#.#.#.#.#.#.[ Q T P J D D D N 8.dXpX7X*.*.-.5.-.#.#.#.#.#.#.#.#.#.#.#.#.#.#.#.#.#.#.#.#.#.#.#.#.#.#.",
"P *.#.#.#.#.#.#.#.#.#.#.#.#.#.#.#.#.#.#.#.#.#.#.#.#.#.#.[ -.T T T T T T T T Q [ ..#.#.#.#.#.#.#.#.#.Q S I T Q T C P T Q Q D D P T T Q Q Q Q Q ! T ~ I f.x...............#.#.......#.#.#.#.#.....#.......#.#.#.#.#.#.#...#.#.#.#...#.#.#.#.#...#.#.....#.#.O.#...#.#.#.#.#.#.#.#.#.#...#.....#.#...#.#...#.#.#.#.#.#.....#.#.#.#.#.#.#.#.O.#.#.#.#.#.#.#.#.#...#.....#.#.#.#.#.#.#...#.#.#.#...........#.....#.#.#.#.#.#.#.#.#.#.#.#.....#.....#.............P x P T T ! ! ! Q Q Q Q T K D wX6.Q Q T D qXM.#.Q T P |.B.-.#.#.#.#.#.#.#.#.#.#.#.#.#.#.#.#.#.#.#.#.P D *XU.6.-.....#.#.#.#.#.#.#.#.#.#.#.#.#.#.#.#.#.#.T S U Q Q P D T Q Q P J Y T T Q Q Q Q Q ! T T J Q.[.U.......................#.#...#.....#.#.....#.#.#.#.#...#...#.#.#.#.#.#.#.#.................#.#.#.#.#.#.#.#.#.#.#.#.....#.#.#.#.#.#.#.#.#.#.#.#.#.#.#.#.#.#.#.#.#.#.#.#...#.......#.#.O.#.#.#.#.#.#.#.#.#.#.#.#.#.#.#.#.#.#.#.#.#.#...#.#.#.#.#.#.#.#.#.#.#.......#.#.#.#.#.......#.#.#...............D G T T ! Q Q Q Q Q T T Y D Q.@X:.Q Q U D dXB.*.Q T P M.dX5.#.#.#.#.#.#.#.#.#.#.#.#.#.[ Q T P J D D D N 9.uXsX=X-.*.-.5.-.#.#.#.#.#.#.#.#.#.#.#.#.#.#.#.#.#.#.#.#.#.#.#.#.#.#.",
"P *.#.#.#.#.#.#.#.#.#.#.#.#.#.#.#.#.#.#.#.#.#.#.#.#.#.#.[ ,.! T T T T T T Q Q [ ..#.#.#.#.#.#.#.#.#.Q S P T Q T C P U ! Q D D P T T Q Q Q Q Q ! ! T I f.x.#.............#.#...#...#.#.#.#.......#.#.....#.#.#.#.#.#.#.#.....#.#.........#.#.#.......#.#.#.#.#.#...#.......#.#.#.#.#.....#.#.#.#.#.#.#...#.#.#.#.#.#.#.#.#.#.....#.#.#.#.....#.#.#.#.#.#.#.......#...#.#.#.#.#.#.#...#.#.#...........#.#.#.#.#.#.............#.#.#.......#.....#.............P x J T ! ! ! Q Q Q Q Q T P D wX6.Q Q T H qXM.O.Q T P |.B.,.#.#.#.#.#.#.#.#.#.#.#.#.#.#.#.#.#.#.#.#.P D E.U.6.-.#.#.#.#.#.#.#.#.#.#.#.#.#.#.#.#.#.#.#.O.T S U Q Q P D T Q Q P J Y T T Q Q Q Q Q ! T T J Q.[.U.......................#...#.........#.#.#.#.#.#.#.#.#.#.#.#.#.#.#.#.....#.....#.#.#.#.#.#.#.#.#.#.......#...#.#.#.#.#.#...#.#.#.#.#.#.#.#.#.#.#.#.#.#.#...#.#.#...#...........#.#.#.#.#.#.#...#.#.#.#.#.#.#.#.#.#.#.#.#.#...#...............#.#.#...#.#.#.#...#.#.#.#.#.#...#.....#.................D D T T T Q Q Q Q ! T T Y D Q.@X:.) Q U D dXB.-.Q T P M.dX5.#.#.#.#.#.#.#.#.#.#.#.#.#.[ Q T P J D D D N 9.sXpX=X*.*.-.5.-.#.#.#.#.#.#.#.#.#.#.#.#.#.#.#.#.#.#.#.#.#.#.#.#.#.#.",
"P *.#.#.#.#.#.#.#.#.#.#.#.#.#.#.#.#.#.#.#.#.#.#.#.#.#.#.[ ,.Q T T T T T T Q Q [ ..#.#.#.#.#.#.#.#.#.Q S P T Q T C P ! Q Q D D P T T Q Q Q Q Q ! ! T I f.x.#.......#.......#.#.#.....#.#.#.......#.#.......#.#.#.#.#.O.#.#...#.#.........#.#.#.#.....#.#.#.#.#.#...........#.#.#.#.#.....#.#.#.#.#.#.....#.#.#.#.#...#.#.#.#.....#.#.#.#.......#.#.#.#.#.#.......#.#.#.#.....#.#.....#.#.#.#.........#.#.#.#.#.#.........#.#.....#.....#.#.....#.............P x J T ! ! ! ! Q Q Q Q T J D wX9.Q Q T H qXM.O.Q T P |.B.,.#.#.#.#.#.#.#.#.#.#.#.#.#.#.#.#.#.#.#.#.P D W.H.6.-.#.#.#.#.#.#.#.#.#.#.#.#.#.#.#.#.#.#.#.#.T S U Q Q P D T Q Q P D Y T T Q Q Q Q Q ! T T J /.[.U.................#.#.#.#.............#.#.#.#.#.#.#.#.#.#.#.#.#.#.#.#...........#.#.#.#.#.#.#.O.#.#.......#.....#.#.#.#.#...#...............#.....#.#.#.....#.#.#.#.....#.#.#.#.#.#.#.#.#.#.#.......#.#...O...#.#.#.#.#...#.#.#.#.............#.#.#...#.#.#.....#.#.#.#...#...#.#...#.#...............D D T T T Q Q Q Q Q ! T Y D Q.@X:.Q Q U D dXB.=.Q T Y M.dX5.#.#.#.#.#.#.#.#.#.#.#.#.#.[ Q T P J D D D N 3.dXpX6X*.*.:.5.-.#.#.#.#.#.#.#.#.#.#.#.#.#.#.#.#.#.#.#.#.#.#.#.#.#.#.",
"P *.#.#.#.#.#.#.#.#.#.#.#.#.#.#.#.#.#.#.#.#.#.#.#.#.#.#.[ ,.! T T T T T T Q Q [ ..#.#.#.#.#.#.#.#.#.Q S P T Q T C P ! Q Q D D P T T Q Q Q Q Q ! ! U I f.x...........#.#.#.......#...#.#.....#.#.#.#.#.#.#.#.#...#.#.#.......#.#.#.#.#.#.#.#...#...#.#.#.........#.#.#.#.#.#.#.#.#.#.#.#.......#.#.#.#.#.#.#.#.#.........#.#.#.....#.#.#.#.#.#.#.#...#.#.#.......#...#.#.#.#.#.#.#...#.#.#.#.#.#.#.#.#.#.#.#.#.#.#...........#.......#...#...................P x J T T ! ! Q Q Q Q Q T P D tX9.Q Q T H qXM.#.Q T P |.B.,.#.#.#.#.#.#.#.#.#.#.#.#.#.#.#.#.#.#.#.#.P D *XU.6.2.#.#.#.#.#.#.#.#.#.#.#.#.#.#.#.#.#.#.#.O.T S U Q Q P D T Q Q Y D Y T T Q Q Q Q Q ! T T J /.[.U.................#.#.#.#.................#.#.#.#.#...#.#.#.....#.#.#.#.#.#.#.......#.#.#.#.......#.#.#.#.#.#.#.#.#.#.#.#.#.....#.....#.#.#.#.#.#...#.#.#.#.#.#.#.#.#.#.#.#...#.#.#.....#.#.#.#.#.#.#.#.#...#.#.#.#.............#.#.#.#.#.#.#.........#.....#.#.#.#.....#.#.........#.#...............D D T T T ! Q Q Q Q T U Y D Q.@X:.Q Q U D iXB.=.Q T P w.dX5.#.#.#.#.#.#.#.#.#.#.#.#.#.[ Q T P J D D D N 9.8XsX=X-.*.-.5.-.#.#.#.#.#.#.#.#.#.#.#.#.#.#.#.#.#.#.#.#.#.#.#.#.#.#.",
"P *.#.#.#.#.#.#.#.#.#.#.#.#.#.#.#.#.#.#.#.#.#.#.#.#.#.#.[ -.T T T T T T T T Q [ ..#.#.#.#.#.#.#.#.#.Q S P T Q T C P ! Q Q D D P T T Q Q Q ! Q ! ! U I f.x.#.........#.#.#.#.....#...#.#...#.#.#.#.#.#.#.#.#.......#.#.......#.#.#...#.#.#.#...#.#.#.#.#.........O.O.#.#.#.#.#...#.#.#.#...O...#.#.#.#.#.#.#.#.#.....#.#.#.#.#.....#.#.#.#.#.#.#.#.#.#.#.#.......#...#.#.#.#...#.#.#.#...#.#.#.#.#.#.#.#.#...#.#.#.#.........#.#.....#...#.........#.........P x J T T ! ! Q Q Q Q Q T P D tX9.Q Q T H qXM.#.Q W P |.B.,.#.#.#.#.#.#.#.#.#.#.#.#.#.#.#.#.#.#.#.#.P D R.^.6.2.#.#.#.#.#.#.#.#.#.#.#.#.#.#.#.#.#.#.#.O.T S U Q Q P D T Q Q Y D Y T T Q Q Q Q ! ! T T J B.[.U.................#.#.#.#.#.........#.....#.#.#.#.#.....#.#.....#.#.#.#.#.#.#.......#.#.#.#.O.....#.#.#.#.#.#.#.#.#.#.O.#.#.....#.#.#.#.#.#.#.#.#.#.....#.#.#.#.#.#...#.#.#.#.#.#.#.....O.#.#.#.......#.#...#.#.#.#.....#.#.....#.#.#.#.#.#.................#.#.#.......#.#.........#.#.#.............D D T T ! ! Q Q Q ! T T Y D Q.@X:.Q Q U D iXB.-.] T P t.dX5.#.#.#.#.#.#.#.#.#.#.#.#.#.[ Q T P J D D D N 9.pXuX=X-.*.-.5.2.#.#.#.#.#.#.#.#.#.#.#.#.#.#.#.#.#.#.#.#.#.#.#.#.#.#.",
"K *.#.#.#.#.#.#.#.#.#.#.#.#.#.#.#.#.#.#.#.#.#.#.#.#.#.#.[ ,.! T T T T T T Q Q [ ..#.#.#.#.#.#.#.#.#.Q D P T Q T C P ! Q Q D D P T T Q Q Q Q Q ! T T I f.x.#.........#.#...#.#...#.#.#.......#.......#...#.#.#.#.#.#.O.........#.#.#.........#.#.#.#.#.#.#.#...#.#.#.......O.#...O.#.#.#...#.#.#.#...#.#.#.#.#.#.#.#.#.#.#...#.#...O.#.O.#.#.#.#.#.#.#.#.#.#.....#...#.#.#.#.#.#.#.#.....#.#.#.#.#.#.#.#.#.#.....#...........#.#.....#...#.#.................P x J T T ! ! Q Q Q Q Q T P D tX9.Q Q T H qXM.#.Q W P |.B.,.#.#.#.#.#.#.#.#.#.#.#.#.#.#.#.#.#.#.#.#.P D W.n.6.2.#.#.#.#.#.#.#.#.#.#.#.#.#.#.#.#.#.#.#.O.! D T Q Q P D T Q Q Y D Y T T Q Q Q Q ! ! T T J B.[.U...................#...#.#.#.#.#.#.#.#.#.#.............#.......#.#.#.#.#.#.#.#.......#...#.#...#.#.#.#.#.#.......#...#.#.#.....#...#.#.#.....#.#.#.#.#.#.#.#...#.#.#.#.#.#.#.#.#.#...#.#.#.#.........O.#...#.#.#.#...#.#.#.O.#.#.#.............#.#.#.#.....#.#.#.#.....#.......#.#.#.#.#.............D D T T ! ! ! Q Q Q T T Y D Q.@X:.Q Q U G iXB.*.Q T P q.dX5.#.#.#.#.#.#.#.#.#.#.#.#.#.[ Q T P J D D D N 9.dXuX5X-.*.-.6.2.#.#.#.#.#.#.#.#.#.#.#.#.#.#.#.#.#.#.#.#.#.#.#.#.#.#.",
"P -.#.#.#.#.#.#.#.#.#.#.#.#.#.#.#.#.#.#.#.#.#.#.#.#.#.#.[ ,.Q T T T T T T Q Q [ ..#.#.#.#.#.#.#.#.#.Q D I T Q T C P ! Q Q D D P T T Q Q Q Q Q ! T T I f.x...........#.....#.......#.....#...#...........#.#.#.#.#.#.#.#.......#.#.#...#.#...#.#.#.#.#.#.#.#.#.#.#.#...#.....#...#.#.#.#.#.#.#.#.#...O.#.#.#.#...#.#.#.#.#.#.#.#.#.....#.#.#.....#.#.#.#.#.#...........#.#.#.#...#.#.....#.#.#.....#.#.#.#.#.....#.......#.#.#.#...#.#...#.#.................P x J T T ! ! Q Q Q Q Q T P D tX9.Q Q T D qXM.O.Q T P |.B.,.#.#.#.#.#.#.#.#.#.#.#.#.#.#.#.#.#.#.#.#.P D *XL.6.2.#.#.#.#.#.#.#.#.#.#.#.#.#.#.#.#.#.#.#.O.! D U Q Q P D U Q Q Y D Y T T Q Q Q Q ! ! ! T J B.[.U...................#...#.#.#.#.#.#.#.#.#...........#.............#.#.#.#.#.#.#.....#.#.#.#.#.#.#.#.#.#...#...#.......#.#.#.#.#.....#.#.#...#.#.#.#.#.#.#.#.#.......#.#.#.#.#.#.#.#.#.#.#.#.#.#.............#.#.#.#...O.#.#.#.#.................#.#.#.#.....#.#.#.#.......#.......#.#...#.............D D T T ! ! ! Q Q Q Q U I D Q.@X:.Q Q U G iXB.*.Q T P q.dX5.#.O.O.#.#.#.#.#.#.#.#.#.#.[ Q T P J D D D C 9.6XsX=X-.*.-.5.2.#.#.#.#.#.#.#.#.#.#.#.#.#.#.#.#.#.#.#.#.#.#.#.#.#.#.",
"K *.#.#.#.#.#.#.#.#.#.#.#.#.#.#.#.#.#.#.#.#.#.#.#.#.#.#.[ ,.! T T T T T T Q Q [ ..#.#.#.#.#.#.#.#.#.Q D I ! Q T C P ! Q Q D D P T T Q Q Q Q ! ! T T I f.x.#.................#...#.........#.#.#.....#.#.#.#.#.#.#.#.........#.#.#.#...#.#.....#.#.#.#.#.#.#.#.#.#.#.#.#...#.#.#.#.#.O...#.#.#.#.....#.#.#.#.....#.#.#.#.#.#...#.#.#.#.#.........#.#.#.#.#.#.#.#.#.#.#.#.#.#.#.#.#.#.................#.#.#.#.....#.#...........#.#.#.#.#.#.#.#...............P x J T T ! ! Q Q Q Q Q T P D wX9.Q Q T D qXM.#.Q T P |.B.,.#.#.#.#.#.#.#.#.#.#.#.#.#.#.#.#.#.#.#.#.P D L.^.5.,.....#.#.#.#.#.#.#.#.#.#.#.#.#.#.#.#.#.#.! D U Q Q P D T Q Q Y D Y T T Q Q Q Q ! ! ! T J B.[.U.......................#.#.#...#.#.#.#.#.#.#.......................#.#.........#.#.#.#.#.#.#.#.#.............#.#.......#.#.....#...#.#.....#.#.#.#.#.#.#.#.....#.#.#.#.#.#.#.#.#.#.#.#.#.O.#.#...........#.#.#.#.#.#...#.#.......#.#.#.#.#.#.......#.#...#.#.#.#.#.#.......#...........#.............D D T T ! ! ! Q Q Q ! U Y D Q.@X:.Q Q U G iXB.*.Q T Y s.dX5.#.#.O.#.#.#.#.#.#.#.#.#.#.[ Q T P J D D D C 9.pXuX-X:.*.-.5.2.#.#.#.#.#.#.#.#.#.#.#.#.#.#.#.#.#.#.#.#.#.#.#.#.#.#.",
"P *.#.#.#.#.#.#.#.#.#.#.#.#.#.#.#.#.#.#.#.#.#.#.#.#.#.#.[ -.T T T T T T T T Q [ ..#.#.#.#.#.#.#.#.#.Q D I ! Q T C P ! Q Q D D P T T Q Q Q Q ! ! T U I f.x.#.....................#...#.......#.#.....#.#...#.....#.#.....#...#.#.#.#...#.#.#.#.#.#.#.#.#.#.#.#.#.#.#.#.#...#.#.#.#.#.....#.#.#.#.....#.#.#.#.#...#.#.#.#.#.#...#.#.#.#.#.#.#.#...#.#.#.#.#.#.#.#.#.#.#.#.#.#.#.#.#.#.................#.#.#.#.....#.#...........#.#.#...#.#.#.#...............P x J T T ! Q Q Q Q Q Q T P D qX9.Q Q T D qXM.#.Q T P |.B.,.#.#.#.#.#.#.#.#.#.#.#.#.#.#.#.#.#.#.#.#.P D W.].5.,.#...#.#.#.#.#.#.#.#.#.#.#.#.#.#.#.#.#.#.! D U ! Q P D T Q Q Y D Y T T Q Q Q Q ! ! T T J B.[.U.......................#.#.#...#.#.....#...#.#.......#...#.........#.#.#.......#.....#.#.#.#.#.........#.#...#.#.#.#.#.#.#.O.O.#.#.#.#...#.#.#.#.#.#.#.#.#.#...#...#.#.#.#.#.#.#.#.#.#.#.#.#.#.#.#.#.#...#.#.#.#.#.#.#.#.#.....#.#.#.#.#.#.#.#.....#.#.....#.#.#.#.#.....#.#...#.......#.............D D T T Q ! ! Q Q ! T T Y D Q..X:.Q Q U G iXB.*.] T Y s.dX5.#.#.#.#.#.#.#.#.#.#.#.#.#...Q T P J D D D C 9.dXsX5X2.*.-.5.2.#.#.#.#.#.#.#.#.#.#.#.#.#.#.#.#.#.#.#.#.#.#.#.#.#.#.",
"P *.#.#.#.#.#.#.#.#.#.#.#.#.#.#.#.#.#.#.#.#.#.#.#.#.#.#.[ ,.! T T T T T T Q Q [ ..#.#.#.#.#.#.#.#.#.Q D I ! Q T C P ! Q Q D D P T T Q Q Q Q Q ! ! T I f.x.#.................#.#.#.#.#.#.......#.#.#.#.#.........#.O.#...#.#.#.#.#.#.O.O.#.#.#.#.#.#.........#.#.#.#.#.......#.#.#.#.....#.#.#.#...#.#.#.#.#.#...#.#.#.#.#.#.#...#.#.#.#.#.#.#.#.#.#.........#.#.#.#.....#.#.#.#.......#.....#.#.......#.#.#.#...#.#.#.#...#.#.#.......#.#.#.#...............P x J T T ! Q ! Q Q Q ! T P D qX9.Q Q T D qXM.#.Q T P ^.B.,.#.#.#.#.#.#.#.#.#.#.#.#.#.#.#.#.#.#.#.#.P D `.E.6.2.#.#.#.#.#.#.#.#.#.#.#.#.#.#.#.#.#.#.#.#.! D U ! Q P D T Q Q T D Y T T Q Q Q Q ! ! T T J B.[.U.........#.......#.....#.#.#.#.........#...#.#.....#.#.....#.#.#.#...#.#.#.#.#.#.#...#.#...#.#.#.#.....#.#.#.#.#.#.#.#.#.#.#.#.#.#.#.#.#.#.#.#.......#.#.#.#.....#.....#...#.#.#.#.#...#.#.#.#.#.#.#.#.#.#.#.#.#.#.#.#.#.......#.#.#.#.#.#.#.#.......#.#.#.#.#.#.#.#.#.....#...#.#...#.#.............D D ~ T Q ! ! Q Q Q ! U Y D Q..X:.Q Q U G iXB.*.] T P s.dX5.#.#.#.#.#.#.#.#.#.#.#.#.#.[ Q T P J D D D C 9.dXsXuX1.*.-.5.2.#.#.#.#.#.#.#.#.#.#.#.#.#.#.#.#.#.#.#.#.#.#.#.#.#.#.",
"P -.#.#.#.#.#.#.#.#.#.#.#.#.#.#.#.#.#.#.#.#.#.#.#.#.#.#.[ ,.Q T T T T T T Q Q [ ..#.#.#.#.#.#.#.#.#.Q D I ! Q T C P U ! Q D D P T T Q Q Q Q Q ! ! T I f.x.#.................#.#.#.#.............#.#.#.#.........#.#.....#.#.#.#.#.#.#.#.O.#.O.#.#.#...........#.#.#.#.......#.#.#.#.#...#.#.#.......#.#.#.#.O.....#.O.O.#.O.#.O...#.#.#.#.#...#.#.#.........#.#.#.#.O...#.#.#.#.#.......#.#.#.#.......#.#.#.....#.#.#.#.....#.#...#.#.#.#.#.#...............P x J T T ! ! ! Q Q Q ! T P D qX8.Q Q T D qXM.#.Q T P ^.B.,.#.#.#.#.#.#.#.#.#.#.#.#.#.#.#.#.#.#.#.#.P D L.{.6.2.#.#.#.#.#.#.#.#.#.#.#.#.#.#.#.#.#.#.#.#.! D U ! Q P D U Q Q T D Y T T Q Q Q Q ! ! T T P B.[.U...............#.#.....#.#.#...........#.#.#.#.....#.#.#.#.#.#.#.#.#.#.#.....#.#.#.#.#.#...#.#.#.#.....#.#.#.#.#.#.#.#.#.#.#.#.#.#.#.#.#.#.#.#.......#.#.#.#.....#.....#.#.#.#...#.....#.#.#.#.O.O.O.#.#.#.#.#.#.#.#.O.#.#.....#.#.#.#.#.#.#.#.......#.#.....#.#.#.#.#.....#.#.#.#.....#.............D D ~ T ! ! Q Q Q Q ! T Y D Q..X:.Q Q U G iXB.-.] T P s.dX5.#.#.#.#.#.#.#.#.#.#.#.#.#.[ Q T P J D D D C 9.uXdX-X1.*.-.5.2.#.#.#.#.#.#.#.#.#.#.#.#.#.#.#.#.#.#.#.#.#.#.#.#.#.#.",
"P *.#.#.#.#.#.#.#.#.#.#.#.#.#.#.#.#.#.#.#.#.#.#.#.#.#.#.[ ,.! T T T T T T Q Q [ ..#.#.#.#.#.#.#.#.#.Q A I ! Q T C P U ! Q D D P T T Q Q Q Q Q ! ! U I f.x.-...............#.#.#.............#...#.#.#.#...........#.....#.#.#.#.#.#.#.#.#.#.#.#.....#.#.#.#.#.#.#.#.#.......#.#.#.#.#.#.#.#.....#.#.#...#.#.#.#.........#.#.#.#.#.#.#.#.#.#.#.#.#.#.#.#.#...#.#.#.#.#.#.#.#.#.#.#.#.........#.#.#.#.....#.#.#.#.....#.#...............#.#.#.................I x J T ! ! ! Q Q Q Q Q T P D qX9.Q Q T D qXM.O.Q T P ^.B.,.#.#.#.#.#.#.#.#.#.#.#.#.#.#.#.#.#.#.#.#.P D W.{.6.2.#.#.#.#.#.#.#.#.#.#.#.#.#.#.#.#.#.#.#.#.! D Y ! Q P D U Q Q U D Y T T Q Q Q Q ! ! T T P B.[.U...............#.#.#.#.#.#.#.#.#.#.......#.#.#.#.#.#.#.#.#.#.#.#.#.#.......#.#.#.#.#.#.#.#...#.#.#.......#...#.#.#.#.#.#.#.#.#.#.#.#.#...#.#.#.#.....#.#.#.#.#.#.#.#.#.#.#.#.#.#.#.#.#.#.#.#...#.#.#.#.#...#.#.#.....O.#.....#.#.......#.#.#.#.....#.#.#.#...#.#.#.#.#.....#.#.....#...#.............D D T T ! ! Q Q Q Q ! T Y D Q.rX:.Q Q U G iXB.-.] T P s.dX5.#.....#.#.#.#.#.#.#.#.#.#.[ Q T P J D D D C 9.dXpX3X1.*.-.5.2.#.#.#.#.#.#.#.#.#.#.#.#.#.#.#.#.#.#.#.#.#.#.#.#.#.#.",
"P *.#.#.#.#.#.#.#.#.#.#.#.#.#.#.#.#.#.#.#.#.#.#.#.#.#.#.[ -.T T T T T T T T Q [ ..#.#.#.#.#.#.#.#...Q A I ! Q T C P ! Q Q D D P T T Q Q Q Q Q ! ! U I 5.x.-...............#...#.#.......#...#.#...#.#.#.#.......#.......#.#.#.#.#.#.#.#.#.#.#.#.....#.#.#.#.#.#.#.#.#...#.#.#.#.#.#...#.#.#.....#.#.#...#.#.#...#.......#.#.#.#.#.#.....#.#.#.#.#.#.#.#.....#.#.#.#.....#.#.#.#.#.#.........#.#.#.#.......#.#.#...#.#.#.#...........#.#.#.#.........#.......I x J T ! ! ! Q Q Q Q Q T P D aX9.Q Q T D qXM.#.Q T P ^.B.,.#.#.#.#.#.#.#.#.#.#.#.#.#.#.#.#.#.#.#.#.P D `.T.6.2.#.#.#.#.#.#.#.#.#.#.#.#.#.#.#.#.#.#.#.#.! D Y ! Q P D T Q Q U D Y T T Q Q Q Q ! ! T T P B.[.U.................#.#.#.#...#.#.#.#.......#.#.#.#.#.#.#.#.#.#.#.#.#.#.#.....#.#.#.#.#.#.#.#...#.#.#...#.........#.#.#.#.#.#.#.....#.#.#.#.#.#.#.#.....#.#.#.#.#.#.#.#.#...#.#.#.#.#.#.#.#.#.#...#.#.#.#.#...#.#.#.............#.#.#.#...#.#.#.#.....#.#.......#.#.#.#.#.....#.#.....#...#.............D D ~ T Q Q Q Q Q Q T T U D M.rX:.Q Q U J iXB.-.] T P s.dX5.#.....#.#.#.#.#.#.#.#.#.#...Q T P J D D D C 9.dXpXuX4.*.-.5.2.#.#.#.#.#.#.#.#.#.#.#.#.#.#.#.#.#.#.#.#.#.#.#.#.#.#.",
"P *.#.#.#.#.#.#.#.#.#.#.#.#.#.#.#.#.#.#.#.#.#.#.#.#.#.#.[ ,.! T T T T T T Q Q [ ..#.#.#.#.#.#.#.#.#.Q A P T Q T C J ! Q Q D D P T T Q Q Q Q Q ! ! U I 5.x.-...............#...#.#...#.#.#.#.#.#.....#.#...#.....#.#.....#.#.#.#.....#.O.#.#.#.#.#.#...#.#.#.#.#.#.#.#.#...#.#.#.#.....#.#.#.#.#.#.#.#.#.#.#.....#.#.#.#.#.#.#.#.#.#.#.#.#.#.#.#.#.#...#...#.#.#.........#.#.#.#.#.#.#.#...#.#.#.#.#.....#.#.#.#.....#.#.#.#.#.#.#.#.#.#...#.................I x J T ! ! Q Q Q Q Q Q T P D aX8.Q Q T D qXM.*.Q T P ^.B.,.#.#.#.#.#.#.#.#.#.#.#.#.#.#.#.#.#.#.#.#.P D =X{.6.2.#.#.O.#.#.#.#.#.#.#.#.#.#.#.#.#.#.#.#.#.! D U ! Q P D T Q Q U D Y T T Q Q Q Q ! ! T U P B.[.U.........#.....#.#.#.#.........#.......#.#.#.#.#.#.........#.#.#.#.#.#.......#.#.#...O.#.#.#.#...#.#.#.#.#.#.#...#.#.#.#.#.#.......#.#.#.#.#.#.#...#.#.#...#.#.#.#.#.....#.#.#.#.#.#.#.#.#.#.#.#...#.#.#.....O.#...#.#.....#.#.#.#.#.#.#.#.#.#.....#.#.......#...#.................#...#.............D D ~ T ! ! Q Q Q Q ! T Y D M.rX5.Q Q U J iX/.-.] T P s.dXh.*.#.#.#.#.#.#.#.#.#.#.#.#.[ Q T P J D D D C ..8XdX;X4.*.-.5.2.#.#.#.#.#.#.#.#.#.#.#.#.#.#.#.#.#.#.#.#.#.#.#.#.#.#.",
"P -.#.#.#.#.#.#.#.#.#.#.#.#.#.#.#.#.#.#.#.#.#.#.#.#.#.#.[ ,.Q T T T T T T Q Q [ ..#.#.#.#.#.#.#.#.#.Q A P T Q T C J ! Q Q D D P T T Q Q Q Q ! ! ! U I 5.x.-...........#.#.#.#.#.#.#.#.#.#.#.#.#.....#.#.#.#.#.#.#.#.....#.#.#...........#.#.#.#.#.#.....#.#.....#.#.#.#...#.#.#.#.......#.#.#.#.#.#.#.#.#.#.....#.#.#.#.O.#.#.#.....#.#.#.#.#.#.#.#.#.....#.#.#.........#.#.#.#.#.#.#.#.....#.#.#.#.........#.#.....#.#.#.#.#.#.#.#.#.#.....................I x J T ! ! Q Q Q Q Q Q T P D aX9.Q Q T D qXM.*.Q T P ~.B.,.#.#.#.#.#.#.#.#.#.#.#.#.#.#.#.#.#.#.#.#.P D W.`.6.2.#.#.O.#.#.#.#.#.#.#.#.#.#.#.#.#.#.#.#.#.! D U ! Q P D T Q Q U D P T T Q Q Q Q Q ! ! T P B.[.U.........#.......#.#.#.........#.#.....#.#.#.#...........#.#.#.#.#.#.#.....#.#.#.#.....#.#.#.#.#.#.#.#.#.#.#.#.#.....#.#.#.#.O...#.#.#.#.#.#.#.#...#.......#.#.#.#.#.....#.#...#.#.#.#.......#.#...#.#.#.........#.#.#.#...#.#.#.#.#...#.#.........#.#.....#.#.........#.....#.#...#.#...............D D ~ T ! ! Q Q Q Q Q T Y D M.rX5.Q Q U J iX/.-.] T P s.dXh.*.#.#.#.#.#.#.#.#.#.#.#.#.[ Q T P J D D D C ..sXpX,X2.*.-.5.2.#.#.#.#.#.#.#.#.#.#.#.#.#.#.#.#.#.#.#.#.#.#.#.#.#.#.",
"P *.#.#.#.#.#.#.#.#.#.#.#.#.#.#.#.#.#.#.#.#.#.#.#.#.#.#.[ ,.! T T T T T T Q Q [ ..#.#.#.#.#.#.#.#.#.Q A P T Q T C J ! Q Q D D P T T Q Q Q Q ! ! ! T I 5.x.-.............#.........#.#.#.#.#.#.#.........#.#.#.#.#.#.#.#.............#.#.#...#.#.#.#...#...#.........#.#.#.#.#.#.#.#.....#.#.#.#.#.#.#...#.#.#...#.#.#.#.#.#.#.#.#.#.#.#.#.#.#.#.........#.#.........#.#.#.............#.#.#.#.#.#...#.#.......#.....#.#.#.#.#.......#...#.#.................I x J T ! ! ! ! Q Q Q Q T P D aX9.Q Q T D }.M.*.Q T P ~.B.,.#.#.#.#.#.#.#.#.#.#.#.#.#.#.#.#.#.#.#.#.P D `.U.5.,.O.O.#.#.#.#.#.#.#.#.#.#.#.#.#.#.#.#.#.#.! D U ! Q P D T Q Q T D P T Q Q Q Q Q ! ! ! T P B.[.U.[ ....................#.#.#.........#.....#.#.#.#.........#.#.#.#.O.O.#.#...#.#.#.#.#.....#.#.#.#...#.#.#.#.#.#.#...#.#.#.#.#...#.#.#...#.....#.#.#.#...O.#.#.#.#.#.#.#.#.#.#.#.#.....#.#.#.#.#.#.#.#.#.#.........#.#.#.#.#.#.#.#.....#.......#.#.#.#...........#.#.#.#.#.#.#.....#.#...............D D T T ! ! Q Q Q Q ! T Y D M.rX5.Q Q U J iX/.-.] T P s.dXh.*.#.#.#.#.#.#.#.#.#.#.#.#...Q T P J D D D C | dXpXuX4.*.-.5.2.#.#.#.#.#.#.#.#.#.#.#.#.#.#.#.#.#.#.#.#.#.#.#.#.#.#.",
"P *.#.#.#.#.#.#.#.#.#.#.#.#.#.#.#.#.#.#.#.#.#.#.#.#.#.#.[ -.T T T T T T T T Q [ ..#.#.#.#.#.#.#...#.Q A P T Q T A J ! Q Q J D P T T Q Q Q ! Q ! ! T I 5.v.-.........................#.#.#.#.#.#.....#.#.#.#.#.#.#.#.#.#.........#.#.#.#.....#.#.#.....#.....#.#.........#.#.#.#.#.#.#.#.#.#.#.#.#.#.#.#.#.#.#.#.#.#.#.#.#.#.#.#.#.#.#.#.#.#.#.#.........#.........#.#.#...........#.#.#.#.#.#.#.#.#.#.#.............#.#.#.#.#.....#.....#.#...#.............I x J T T ! ! ! Q Q Q Q T P D aX9.Q Q T D }.M.*.Q T P ~.B.,.#.#.#.#.#.#.#.#.#.#.#.#.#.#.#.#.#.#.#.#.P D =X`.5.,.O.O.#.#.#.#.#.#.#.#.#.#.#.#.#.#.#.#.#.#.! D U ! Q Y D T Q Q T D P T ! Q Q Q Q ! ! T T P B.[.U...........#...........#.#.#.........#.....#.#.#.#.........#.#.#.#.....#.#.#.#.#.#.#.#.....#.#.#.#.#.#.#.#.#.#.#.#...#.#.#.#.#...#.#.#.......#.#.#.#.#.....#.#.#.#.#.#.#.#.#.#.#.#.........#.#.#.#.#.#.#.#...#.....#.#.#.#.#.#.#.#.#.#.#.#.....#...#.#.............#.#...#.#.#.#.#.#.................D D T T T ! ! Q Q Q T T U D M.rX5.Q Q U J iX/.-.] T P s.dXh.*.#.#.#.#.#.#.#.#.#.#.#.#...Q T P J J D D C ..7XdX,X4.*.-.5.2.#.#.#.#.#.#.#.#.#.#.#.#.#.#.#.#.#.#.#.#.#.#.#.#.#.#.",
"K *.#.#.#.#.#.#.#.#.#.#.#.#.#.#.#.#.#.#.#.#.#.#.#.#.#.#.Q ,.! T T T T T T Q Q [ ..#.#.#.#.#.#.#.....Q A P T Q T A J ! Q Q J D P T T Q Q Q Q Q ! ! T I 5.v.-.........#...#.#.............#.#.#.#.#.#.#.#.#.#.#...............#.#.#.#.#.#.............#.#.#.#.#.#.....#.#.#.#...#.#.#.#.#.#.#.#.#.....#.#.#.#.#.#.#.O.#.#.#.#.#.#.#.#.#.#.#.......#.#.#.#.#.#.......#.#.#.#.#.......#.#...#.#...#.............#.#.#.#.#.#.#.#.............#.#.#.#.............I x J T T ! ! ! Q Q Q Q T P D aX9.Q Q T D }.M.*.Q T K ~./.,.#.#.#.#.#.#.#.#.#.#.#.#.#.#.#.#.#.#.#.#.P D E. X6.2.O.O.#.#.#.#.#.#.#.#.#.#.#.#.#.#.#.#.#.#.! D U ! Q Y S T Q Q T D P T ! Q Q Q Q Q ! T T P B.[.Y...........#.#.........#.#.#.#.....#.#.........#.#.#.......#.#.#.......#.#.........#.#.........#.#.#.#.#.....#.#.#.#.....#.#.#...#.#.#.#.#.#.#.#.#...#...#.#.#.#...#.#.#...#.#.#.#.....#.#.....#.#.#.#.#.#.#.#...O.#.#...#.#.#.#.#.#.#.#.#...............#.....#.#.#.#...#.#...#...#.................D D T T T ! ! Q Q Q ! T U D M.rX5.Q Q U G iX/.-.] T P s.dXh.*...#.#.#.#.#.#.#.#.#.#.#...Q T P J D D D C ..pXpX,X4.*.-.5.,.#.#.#.#.#.#.#.#.#.#.#.#.#.#.#.#.#.#.#.#.#.#.#.#.#.#.",
"P -.#.#.#.#.#.#.#.#.#.#.#.#.#.#.#.#.#.#.#.#.#.#.#.#.#.#.[ ,.Q T T T T T T Q Q [ ..#.#.#.#.#.#.#.....Q A P T Q T A J ! Q Q J D P T T Q Q Q Q Q ! ! T I 5.v.-.........#...#.#.#...........#.#.#...#.#.#.#.#.#.#...........#.#.#.#.#.#.#.#.............#.#.#.#.#.#.....#.#.#.#...#.#.#.#.#.#.#.#.#.#.#.#.#.#.#.#.#.#.#.#.#.#.#.#.#.....#.#.#.......#.#.#.#.#.#...#.#.#.#.#.#.#.#.#...#.O.#.#.#.............#.#...#.#.#.#.#.#...............#.#.#...............I x J T T ! Q Q Q Q Q Q T P D aX9.Q Q T H }.M.*.Q T K ~./.-.#.#.#.#.#.#.#.#.#.#.#.#.#.#.#.#.#.#.#.#.P D L.J.6.2...#.#.#.#.#.#.#.#.#.#.#.#.#.#.#.#.#.#.#.Q D U ! Q Y S T Q Q T D Y T Q Q Q Q Q ! ! T T P B.[.U.[ ....................#...#.......#.#.........#.#.#.#.....#.#.#.#.....#.#.........#.#.......#.#.#.#...#.#...#.#.#.#.....#.#.#.#.#.#.#.#.#.#.#.#.#...#.O.#.#.#.....#.#.O.#.#.#.#...#.#.#.#.....#.#.#.#.#.#.#.#.#.#.#.#...#.#.#.#.#.#.#.#.#.............#.#.#.#.#.#.#.#...#.#.......#.#...............D D ~ T T ! ! ! Q Q ! T Y D M.rX5.Q Q U G iX/.-.] T P s.dXh.*.#.#.#.#.#.#.#.#.#.#.#.#.[ Q T P J D D D C ..dXdXuX4.*.-.5.,.#.#.#.#.#.#.#.#.#.#.#.#.#.#.#.#.#.#.#.#.#.#.#.#.#.#.",
"P *.#.#.#.#.#.#.#.#.#.#.#.#.#.#.#.#.#.#.#.#.#.#.#.#.#.#.Q ,.! T T T T T T Q Q [ ..#.#.#.#.#.#.#.#.#.Q Z P T Q T A J T ! Q G D P T T Q Q Q Q Q ! ! U I 5.v.-.......#.#...#.#.#.#.#.#.#.#.........#.#.....#.#.#.#.#.#.........#.#.#.......#.#.#.#.O.#.#.#.O...#.#...#.#.#.#.#.....#.#.#.#.#...#.#.#.#.#...#.......#.#.#.#.#.#.....O.#...........#.#.#.#.#.#.#.#.#.#.O.#.#.#.O.#.#.#.#.#.#.#.#.......#.#.#...#.........#.#.#.#.....#.#.....#.#.................I x P T T ! Q Q Q Q Q ! T I D aX9.Q Q T H }.M.*.Q T P ~./.,.#.#.#.#.#.#.#.#.#.#.#.#.#.#.#.#.#.#.#.#.P D W._.6.2.#.#.#.#.#.#.#.#.#.#.#.#.#.#.#.#.#.#.#.O.! D U ! Q Y S T Q Q U D U T ! Q Q Q Q Q ! T T P B.[.U.........#.....#.....#.#...........#.#.#.#.....#.#.#.#.#.#.#.#.......#.#.#...#.#.#.#.#.......#.#.#.....#.#.#.#.#.#.#.#.....#.#.#.#.#.#.#.#.........#.#.#.#.#.#.#.#.#.#.#.#.#.#.#.#.#.#.#.#.#.#.#.#.#.#.O.#.#.#.#.#.........#.#.#.#.#.#.......#.#.#.....#.#.#.#.#.#.#.#.......#.#.....#...............D D T T ! Q Q ! Q Q T T U D M.rX5.Q Q U G <X/.-.] T P s.dXh.*.#.#.#.#.#.#.#.#.#.#.#.#...Q T P J D D D C [ dXsX3X3.*.-.5.2.#.#.#.#.#.#.#.#.#.#.#.#.#.#.#.#.#.#.#.#.#.#.#.#.#.#.",
"P *.#.#.#.#.#.#.#.#.#.#.#.#.#.#.#.#.#.#.#.#.#.#.#.#.O.#.Q -.T T T T T T T T Q [ ..#.#.#.#.#.#.#.#...Q Z P T Q T A J U ! Q G D P T T Q Q Q ! Q Q ! ~ I 5.x.-.......#.#...#...#.#.#.#.............#.#.....#.#.#.#.#.#.........#.#.#.......#.#.#.#.#.#.#.#.....#.#...O.#.#.#.#.....#.#.#.#.....#.#.#...#.#.O.#.....#.#.#.#.#.#.....#.#.........#.#.#.#.#.#.#.#...#.#.#.#.#.....#.#.#.#.#.#.#.#.....#.#.#.#.............#.#.#.#.....#.#...#...#.#...............I x P P T ! Q Q Q Q Q ! T I D qX9.Q Q T H }.M.*.Q T P ~./.,.#.#.#.#.#.#.#.#.#.#.#.#.#.#.#.#.#.#.#.#.P D F.].8.2.#.#.#.#.#.#.#.#.#.#.#.#.#.#.#.#.#.#.#.O.! D U ! Q Y D T Q Q U D P T ! Q Q Q Q ! ! T T P B.[.Y.........#.#.......#.#.#.#.........#.#.#.......#.#.#.#.#.#.#.#.......#.#.#.....#.#.#.#.....#.#.#.#.....#.#.#.#.#.#.#.#.....#.#.#.#.#.#.........#.#.#.#.#.#.#.#.#.#.#.#...O.#.#.#.#.#.#.#.#.#.#.........#.#.#.#.#.#.........#.#.#.#.#.#.........#.#.#.#.#.#.#.#.#.#.#.#.....O.#.#.....#...............D D T T Q Q ! Q Q ! T T U D M.rX6.Q Q U G <X/.-.] T P *.dXh.*.#.#.#.#.#.#.#.#.#.#.#.#...Q T P P J D D C #.pXuX5X8.*.-.5.2.#.#.#.#.#.#.#.#.#.#.#.#.#.#.#.#.#.#.#.#.#.#.#.#.#.#.",
"P *.#.#.#.#.#.#.#.#.#.#.#.#.#.#.#.#.#.#.#.#.#.#.#.#.#.#.] ,.! T T T T T T Q Q [ ..#.#.#.#.#.#.#.#.#.Q Z I ! Q T A J T Q Q J D P T T Q Q Q Q Q ! T ~ I 5.x.-.......#.#...#...................#.#.#.......#.#.#.#.#.#.#.#...#.#.#.#.#...#.#.#.#.#.#.#.#.#.#.#.O.#.....#.#.#.#.#...#.#.#.#.....#.#.#.#.#.#.#.#.#.#.#.#.#...#.#.....#.#...........#.....#.#.#.#.#.#.#...#.#.#...#.#...#.#...#.#.#.#.#.#.#.#.#.#.........#.#.#.#.#...#.#.#.#.....#...............I x P P T ! Q Q Q Q Q ! T I D qX9.Q Q T H }.M.*.Q T P ~./.,.#.#.#.#.#.#.#.#.#.#.#.#.#.#.#.#.#.#.#.#.P D L.{.8.2.#.#.#.#.#.#.#.#.#.#.#.#.#.#.#.#.#.#.#.O.! D U ! Q Y D T Q Q U D P T ! Q Q Q Q Q ! T T P B.[.)...................#...#.#.#.#.....#.#.#.#.......#.#.#.#...#.#...................#.#.#.......#.#.#.#.#.#.#.#.#.....#.#.......#.#.......#.#.#.#.#.#.#.#.#.#.#.#.#.#.#.#...#.#.#.....#.#.#.#.#.#.#.#.....#.#.#.#.#.#.....#.....#...#.#.......#.#.#.#.#.#.....#.#.#.#.#.#.#.#.....#.....................D D T T Q ! ! Q Q Q T T U D M.rX5.Q Q ~ G <X/.-.] T P &.dXh.*.#.#.#.#.#.#.#.#.#.#.#.#...Q T P J D D D C #.dXsX8X8.*.-.5.2.....#.#.#.#.#.#.#.#.#.#.#.#.#.#.#.#.#.#.#.#.#.#.#.#.",
"P -.#.#.#.#.#.#.#.#.#.#.#.#.#.#.#.#.#.#.#.#.#.#.#.#.#.#.[ ,.Q T T T T T T Q Q [ ..#.#.#.#.#.#.#.#.#.Q Z I ! Q T A J ! Q Q G D P T T Q Q Q Q Q ! T ~ I 5.x.-.......#.#.#.................#.#.#.#...........#.#.#.#.#.#.#.....#.#.#.#...#.#...#.#.#.#.#.#.#.#...#.....O.#.#.#.#.#.#.#.#.#...O.#.#.#.#.#.#.#...#.#.#.#.#...#.#.....#.#.#.#.......#...#.#.#.#.#.#.#...#.#.#.#.#.#.#...#.#...#.#.#.#.#.#.#.#.#.#.#.......#.#.#.#.#...#.#.#.......#.#.............I x P P T ! ! Q ! Q Q ! T I D qX9.Q Q T H }.M.*.Q T P ~./.,.#.#.#.#.#.#.#.#.#.#.#.#.#.#.#.#.#.#.#.#.P D W.E.8.2.#.#.#.#.#.#.#.#.#.#.#.#.#.#.#.#.#.#.#.O.! D U ! Q Y S T Q Q T D P T T T Q Q Q Q ! T T P B.[._.................#.....#.#.#.#.....#.#.#.#...#...#.........#.#.#.#.#.#...........#.#.#.......#.#.#.#.#.#.#.O.......#.#.....#.#.#.....O.#.#.#.#.#.#.#.#.....#.#.#.#.#...O.#.#.O.........#.#.#...#.#.........#.#.#.#.#.#.#.....#...#.#.......#.#.#.#.#.#.....#.#.#...#...#.#.#.........................D F T T Q ! ! Q Q Q Q T U G M.rX5.Q Q ~ J <X/.-.] T Y &.dXh.*.....#.#.#.#.#.#.#.#.#.#.[ Q T P J D D D C [ dXsXpX8.*.-.5.2.....#.#.#.#.#.#.#.#.#.#.#.#.#.#.#.#.#.#.#.#.#.#.#.#.",
"P *.#.#.#.#.#.#.#.#.#.#.#.#.#.#.#.#.#.#.#.#.#.#.#.#.#.#.[ 2.! T T T T T T Q Q [ ..#.#.#.#.#.#.#.....Q D I ! Q T A J ! Q Q J D P T T Q Q Q Q Q ! T T I 5.x.-...........#.#.#.......#.#.......#.#.....#.#...............#.#.#.#.#.#.#.#.#.#.....#.#.#.#.#.#.#.#.#.#.#.#.#...#.#.#.....#...#.#.#.#.#.#.#.#.#.#.#.#.#.......#.#.....#.#.........#.#.....#.#.#.#.#.#.....#.#.#.#.#.#...#.#.#.#.#.#.#.#.#.#.#.#.#...#.#.#.#.#.#.#.#.#.....#.#.....#.#.............Y x P P T ! ! Q Q Q Q ! T P D qX9.Q Q T H }.M.*.Q T P ~./.,.#.#.#.#.#.#.#.#.#.#.#.#.#.#.#.#.#.#.#.#.Y H F.{.5.2.O.#.#.#.#.#.#.#.#.#.#.#.#.#.#.#.#.#.#.#.Q Z U ! Q Y S T Q Q T D P T T ! Q Q Q ! ! T T P B.[._.................#.........#.#.#.#.#.#.#.#.#.#.................#.#.#.#.....#.#.....#...#.#.#.#...#.#.#...#.#.......#.#.....#.#.#...#.#.#.#.#.#.#.#.#.#.....#.#.........#.#.......#.#.#.........#.#...........#...#.#.#.#.........#...#.#.#.#.#...#.#.#.....#.#.#.#.....#.#.......#.#.#...............G F ~ T T Q Q Q Q Q T T U G M.rX5.Q Q T P qX/.-.] T Y =.dXh.*.#...#.#.#.#.#.#.#.#.#.#...Q T P P D D D C #.uXdX5X8.*.-.5.2...#.#.#.#.#.#.#.#.#.#.#.#.#.#.#.#.#.#.#.#.#.#.#.#.#.",
"P *.#.#.#.#.#.#.#.#.#.#.#.#.#.#.#.#.#.#.#.#.#.#.#.#.#.#.[ 2.T T T T T T T T Q [ ..#.#.#.#.#.#.#.....Q D I ! Q T A J ! Q Q J D P T T Q Q Q Q Q ! T T I 5.x.-.............#.#...#.#.#.#.#.....#.#...#.#.#.............#.#.#.#.#.#.#.#.#.#.........#.#.#.#.#.#.#.#.#.#.#.#...#.#.#...#.....#.#.#.#...#.#.#.#.#.#.#...#.#...#.#.#.#.#.#.#...#.#.#.#.#...#.#...#.#...#...#.#...#.#.#.....#.#...#.#...#.#.#.#.#.#.#.#.#.#.#.#...#.#.........#...#.#...............Y x P P T Q Q Q Q Q Q ! T P D qX9.Q Q T H }.Q.*.Q T P ~./.,.#.#.#.#.#.#.#.#.#.#.#.#.#.#.#.#.#.#.#.#.P J L.`.5.2.O.#.#.#.#.#.#.#.#.#.#.#.#.#.#.#.#.#.#.#.Q Z U ! Q Y S T Q Q T D P T T ! Q Q Q Q ! T T P B.[.).................#.........#.#.#.#...#.#.#...#.................#.#.#.#.....#.#.........#.#.#.#.#.#.#.#...#.#.......#.#...#.#.#.#.#.#.#.#.#.#.#.#.#.........#.#.....#...#.#...#.#.#.#.#.........#.......#.#.#.#.#.#.#.#.#...........#.#.#.#.#.#...#.#.#.....#.#.#.#.....#.......#.#...#...............G F ~ T T Q Q Q Q Q T T U G M.rX6.Q Q T P qX/.-.] T Y =.dXh.*.#.#.#.#.#.#.#.#.#.#.#.#...Q T P P J D D C #.dXpX8X8.&.-.5.2.....#.#.#.#.#.#.#.#.#.#.#.#.#.#.#.#.#.#.#.#.#.#.#.#.",
"P *.#.#.#.#.#.#.#.#.#.#.#.#.#.#.#.#.#.#.#.#.#.#.#.#.#.#.[ 2.! T T T T T T Q Q [ ..#.#.#.#.#.#.#.....Q D I ! Q T A J ! Q Q J D P T T Q Q Q Q Q ! T ~ I 5.x.-.............#...#.#.#.#.#.#.....#.#.....#.#.#.#...........#.#.#...#.....#.......#.#.#.#.........#...#.#.#.......#.#.#.#.#...#.#.#.......#.#.#.#.....#.#.#.#.#.#.#.#.#.#.#...#.#.#.#.#.#.#.#.........#.#.#.#...#.#.#...#.#.#.........#.#...#.....#.#.#.#.........#.#.#.#.....#.#.#...............Y x P P T ! ! ! Q Q Q ! T P D qX9.Q Q T H }.P.#.Q T P ~./.,.#.#.#.#.#.#.#.#.#.#.#.#.#.#.#.#.#.#.#.#.P J W.U.5.,.O.#.#.#.#.#.#.#.#.#.#.#.#.#.#.#.#.#.#.#.Q Z U ! Q Y S T Q Q T D P T T Q Q Q Q Q ! T U P Q.[.).................#.#.#.........#.#...#.........#...#.#.#.#.#.#.#.#.#.......#.#.#.#...#...#.......#.#.#.#.#.........#.#.....#.#.#.#.#.#.#.#.#.#.#...#.#.#.#.#.#.#.#.#.#.#.#...#.#.#.#.#.#.#.#.#.#.#.#.#.#.#.#.#.#.#.#.#.....#...#.#.#.#.#.#.........#.#...#.#.#.#.......#...#...#.#...#.#.............G A ~ T Q ! Q Q Q Q Q T U G M.rX5.Q Q T P <X/.=.] T Y =.dXh.*.#.#.#.#.#.#.#.#.#.#.#.#...Q T P P D D D C [ dXsXpX8.*.-.5.2.#.#.#.#.#.#.#.#.#.#.#.#.#.#.#.#.#.#.#.#.#.#.#.#.#.#.",
"P -.#.#.#.#.#.#.#.#.#.#.#.#.#.#.#.#.#.#.#.#.#.#.#.#.#.#.[ 2.Q T T T T T T Q Q [ ..#.#.#.#.#.#.#.....Q D I ! Q T A J T Q Q J D P T T Q Q Q Q Q ! ~ ~ I 5.x.-.............#.#.#.#.#.#.#.......#.#.....#.#.#.#.#.#.......#.#.#.................#.#.#.#.........#.#.#.#.#.......#.#.#.#.#.O.#.#.O...#.#.#.#.#.#.#...#.#.#.#.#.#.#.#.#.#.#...#.#.#.#.#...#.#.........#.#.#.#...#.#.#.#.#.#.#.........#.#...............#.........#...#.#.........................Y x P U T ! ! ! Q Q Q ! T P D qX9.Q Q T H }.Q.*.Q T P ^./.-.#.#.#.#.#.#.#.#.#.#.#.#.#.#.#.#.#.#.#.#.P J ).`.5.,.O.#.#.#.#.#.#.#.#.#.#.#.#.#.#.#.#.#.#.#.Q Z U ! Q Y S T Q Q T D P T T Q Q Q Q ! ! T T P Q.[._...................#.#.......#.#.#.............#.#.#.#.#.#.#.#.#.#.#.......#.#.#.#.#.#.#.#.#.....#.#.#.#.#...#.#.#.#.#.....#.#.#.#.#.#.#.#.#.#.#.O.#.#.#.#.#.#.#.#.#.#.#.#...#.#.#.#.#.#.#.#.#.#.#.#.#.#.#.#.#.#.#.#.#.#.#.#.#.#.#.#.#.#...........#.#.....#.#.#.......#...#...#.#...#.#.............G A ~ T ! Q Q Q Q Q Q T U G M.rX5.Q Q T P <X/.=.] T Y =.dXh.*.#.#.#.#.#.#.#.#.#.#.#.#...Q T P P D D D C #.8XdX6X8.*.-.5.2.#.#.#.#.#.#.#.#.#.#.#.#.#.#.#.#.#.#.#.#.#.#.#.#.#.#.",
"P *.#.#.#.#.#.#.#.#.#.#.#.#.#.#.#.#.#.#.#.#.#.#.#.#.#.#.[ 2.! T T T T T T Q Q [ ..#.#.#.#.#.#.#.#...Q S P T Q T A D T ! Q J D P T T Q Q Q Q Q ! T T I 5.v.-.......#...#.#.#.#.#.#.#.#...#...........#.#.#.......#.#.#.#.#.#...........#.#.#.#.#.#.#...#.#.#.#.#.#.#.#.#.#.#.......#.#.#.#.#.#.#.#.#.#...#.#.....#.#.#.#...O.#.#.#.#.#.#.#.#.#...#.......#.#.#...#.#.#.#...#.#.O.#.#.....#.#.#.#.#...............#.#.#...........#.#.#.#.....................Y x J T T ! ! ! Q Q Q ! T I D qX9.Q Q T H }.Q.*.Q T P Q./.,.#.#.#.#.#.#.#.#.#.#.#.#.#.#.#.#.#.#.#.#.P J L.`.5.5.O.O.#.#.#.#.#.#.#.#.#.#.#.#.#.#.#.#.#.#.Q S U ! Q Y S U Q Q T D P T T ! Q Q Q Q ! T T P M.[.)...................#.#.#.#.#.#.#.#.#.#.#.#.#.#.#.#.#.#.............#.#.#.......#.#.#.#.#.#.....#.#.#.#.#.#.#.#.#.#.#.#...#.#.#.#.#.O.....#.#.#.#.#.#...#.#...#.....#.#.#.#.#.........#.#.#.#.#.#.#.#.#.#.#.#.#.#.#.#.#.........#.#.#.............#.#.#.........#.#.#.#.#.#.......#.#.#.#.............G A T T ! ! Q Q Q Q Q T U G M.rX5.Q Q ~ P <X/.-.] ! P *.dXh.*.O.O.#.#.#.#.#.#.#.#.#.#...Q T P P D D D C #.sXpX8X9.*.-.5.2.#.#.#.#.#.#.#.#.#.#.#.#.#.#.#.#.#.#.#.#.#.#.#.#.#.#.",
"P *.#.#.#.#.#.#.#.#.#.#.#.#.#.#.#.#.#.#.#.#.#.#.#.#.#.#.[ 2.T T T T T T T T Q [ ..#.#.#.#.#.#.#.#.#.Q S P T Q T A D T ! Q J D P T T Q Q Q ! Q ! T T I 5.v.-.......#.....#.......#.#.#.#.............#.#.#.#.........#.#.#.#.........#.#.#.#.#.#.#.#.....#.#.#.#.#...#.#.#.#.......#.#.#.....#.#.#.#.O...#.#.#...#.#.#.#...#.#.#.#.#.#.#...#.#.#.#.....#.#.#.#...#.#.#.#...#.#.#.#.#.....#.#.#.#.................#.#...#.......#.#.#...#.....................Y x J T T ! ! ! Q Q Q ! T P D qXt.Q Q T J }.Q.*.Q T P Q./.,.#.#.#.#.#.#.#.#.#.#.#.#.#.#.#.#.#.#.#.#.P J W.K.6.5.O.#.#.#.#.#.#.#.#.#.#.#.#.#.#.#.#.#.#.#.] S U ! Q Y S T Q Q T D P T T Q Q Q Q Q ! T T P M.[.).........................#.#.#.#.#.#.#.....#...#.#.#.#.........#...#.#.#.........#.#.#.#.#.....#.#.#.#.....#.#.#.#.#.#.#.#.#.#.#.#.#.....O.#.#.#.#.#...#.#...#.....#.#.#.#.........#.#.#.#.#.#.#.#.#.#.#.#.#.#.#.#.#.#.........#.#.#.#.............#.#.........#.#.#.#.....#.#...#.....#.............G A ~ T T ! Q Q Q Q ! T U G 9.aX6.Q Q ~ P qX/.-.] ! P =.dXh.*.O.O.#.#.#.#.#.#.#.#.#.#...Q T P P J D D C #.dXpXpX0.*.-.5.2.#.#.#.#.#.#.#.#.#.#.#.#.#.#.#.#.#.#.#.#.#.#.#.#.#.#.",
"K *.#.#.#.#.#.#.#.#.#.#.#.#.#.#.#.#.#.#.#.#.#.#.#.#.#.#.[ 2.! T T T T T T Q Q [ ..#.#.#.#.#.#.#.#.#.Q D P ! Q T A D T ! Q J D P T T Q Q Q Q Q ! T T I 5.v.-.........#...........#...#.#.....#...#.#.#.#.#...............#.#.#.#.#.#.#.#.#.#...............#.#.#.#.....#.#.#.#...#.#.#.#.......#.#.#.#.#.#.#.#.#.#.#.#.#.#.#.#.#.#.#.#.#...#.#.#.#...#.#.#.#.........#.#.O.#.#.#.#.#.#.......#.#.#.#.........#.#.#.#...#.#.#...#.#.#.{ ......................Y x J T T ! ! ! Q Q Q ! T P D qXt.Q Q T J }.Q.*.Q T P ^./.,.#.#.#.#.#.#.#.#.#.#.#.#.#.#.#.#.#.#.#.#.P J ).`.6.5.O.#.#.#.#.#.#.#.#.#.#.#.#.#.#.#.#.#.#.#.] S U ! Q Y S T Q Q T D P T T Q Q Q Q ! T T T P M.[.)...........................#.#.#.#.................#.#.#.#.#.#.#.#.#.#.#.#.....#.#.......#.....#.#.#.#.........#.#.#.#.#.#.#.#.#.#.#.#.O.#.#.#...#.....#.#.#.#...#.#.#.#.........#.#...#.#.#.#.#.#.....#.#.......#.#.#.#...#.#.#.#.#.#.#.#.#.#.....#.......#...#.#.........#.#...#...................P A T T T ! ! Q Q Q Q T U G 9.aX6.Q Q ~ P qX/.-.Q ! Y =.dXh.*.#.#.#.#.#.#.#.#.#.#.#.#...Q T P P H D D C #.5XdX7X9.*.-.5.2.#.#.#.#.#.#.#.#.#.#.#.#.#.#.#.#.#.#.#.#.#.#.#.#.#.#.",
"P -.#.#.#.#.#.#.#.#.#.#.#.#.#.#.#.#.#.#.#.#.#.#.#.#.#.#.[ 2.Q T T T T T T Q Q [ ..#.#.#.#.#.#.#.#.#.Q D P T Q ! A D T ! Q J D P T T Q Q Q Q Q ! T ~ I 5.v.-.........#.#.....#.#.....#.#...#.#.#.#.#.#.#.#...............#.#...#.#.#.#.#.#.................#.#.#.........#.#.#.O.#.#.#.#.......#.#.#.#.#.#.#.#.#.#.#.#.#.#.#.#.#.#.#.#.......#.#.....#.#.#.#.........#.#.#.#.....#.#.#.......#.#.#.#.......#.#.#.#.#.#.#.#.#.#.#.....{ ......................Y x J T T ! ! ! Q Q Q ! T I D qXt.Q Q T J }.Q.*.Q T P ^./.,.#.#.#.#.#.#.#.#.#.#.#.#.#.#.#.#.#.#.#.#.P J L.].6.5.O.#.#.#.#.#.#.#.#.#.#.#.#.#.#.#.#.#.#.#.] S U ! Q Y S T Q Q T S P T T Q Q Q Q Q T T T P M.[.).........................#.#.#.#.#.#...............#.#.#.#.#.#.#.#.#.#.#.......#.#.........#.....#.#.#.......#.#.#.#.#.#.#.#.#.#.O.#.#...#.#.#.........#.#.#.#...#.#.#.#.........#.#.#.....#.#.#.#.#.#.........O.#...#.#.#.#.#.#.#.#.#.#.#.#.#.........#.#.#.#.#.#.........#.#.#.#.#.................P A T T ! ! ! Q Q Q Q T Y J 9.aX8.Q Q ~ P qX.X-.Q ! Y =.dXM.=.#.#.#.#.#.#.#.#.#.#.#.#...Q T P P D D D C N pXpX7X9.*.-.5.2.#.#.#.#.#.#.#.#.#.#.#.#.#.#.#.#.#.#.#.#.#.#.#.#.#.#.",
"P *.#.#.#.#.#.#.#.#.#.#.#.#.#.#.#.#.#.#.#.#.#.#.#.#.#.#.[ 2.! T T T T T T Q Q [ ..#.#.#.#.#.#.#.....Q D I ! Q ! A D T ! Q J D P T T Q Q Q Q Q ! T ~ I 5.x.-...........#.......#.......#...#.#.#.#.#.....#.#.#.#.#.#.#.......#.#.#.#.#.#.#.#.....#...#.#.O.#.#.#.#.#.#...#.#.#.#.#.#.#.....#.#.#.#.#.#.#.#.#.#.#.......#.#.#.#.#.#.#.#.#.#.#.#.#...#.#.#.#.#...........#.#.#.#.#.#.#.#.#.......#.#.#.........#.#.#.#.#.#.#.#...........#.....................Y x J T T ! ! Q Q Q Q ! T P D qXq.Q Q T J }.Q.*.Q T P ^./.,.#.#.#.#.#.#.#.#.#.#.#.#.#.#.#.#.#.#.#.#.Y J W.H.6.5.O.#.#.#.#.#.#.#.#.#.#.#.#.#.#.#.#.#.#.#.] S Y ! Q Y S T Q Q T S P T T Q Q Q Q Q ! T T P M.[.)...........................#.#.#.#...........#.........#.#.#.#.#.#.#.#.#.#.....#.#.#.......#.#.........#.#.#.#.#.#.#.#.#...#.#.#.#.#.#...#.#.#.#.#.#.#.......#.#.#.#.#.#.#.......#.#.#.#.#.#.#...#.........O.#...#.....#.#.#.#.#.#.#.#.#.#.....#.#.#.#.#.#.#.#...#.........#...#...#.................P A T T ! ! ! Q Q Q Q T U J 9.aX8.Q Q ~ P qX.X-.] ! Y =.dXM.=.#.#.#.#.#.#.#.#.#.#.#.#...Q T P P H D D A N dXsXpXr.@.-.5.2.#.#.#.#.#.#.#.#.#.#.#.#.#.#.#.#.#.#.#.#.#.#.#.#.#.#.",
"P *.#.#.#.#.#.#.#.#.#.#.#.#.#.#.#.#.#.#.#.#.#.#.#.#.#.#.[ 2.T T T T T T T T Q [ ..#.#.#.#.#.#.#.....Q D I ! Q ! A D T ! Q J D P T T Q Q Q ! Q ! ! ~ I 5.x.-...........#.....#.#.........#.#.#.#.#.#.....#.#.#.#.#.#.#.#.....#.#.#.#.#.#.#.#.......#.#.O.#.#.#.#.#.#.#.#.#.#.#.#.#.#.#...#.#.#.#.#.#.#.#.O.........#...#.#...#.#.......#.#.#.#.#.#.#.#.#.#.#...#.....#.#.#.#.#.#.#.#...#.....#.#.#.#.........#.#.#.#.#.#.#.#.........#.#.....................Y x J T T ! ! Q Q Q Q ! T P D qXt.Q Q T J }.Q.*.] T P ^./.,.#.#.#.#.#.#.#.#.#.#.#.#.#.#.#.#.#.#.#.#.Y J ).=X6.5.O.#.#.#.#.#.#.#.#.#.#.#.#.#.#.#.#.#.#.#.] S Y ! Q Y S T Q Q T S P T T ! Q Q Q Q Q T T P M.[.)...........................#.#.#.#...........#.....#...#...#.#.#.#.#.#.#.#.....#.#.#.#.......#.....#...#.#.#.#.#.#.#.#.....#.#.#.#.#.#...#.#.#.#.#.#.#.....#.#.#.#.#.#.#.#.#.#.#.#.#.#.#.#.#.#.#.#.........#.#.....#...#.#.#.#.#.#.#.#.#.#.....#.#.#.#.#.#.#.#...#.........#.......#.#.#.............P A T T ! ! ! Q Q Q ! T U J 9.aX9.Q Q ~ P qX.X-.] Q Y =.dXM.=.#.#.#.#.#.#.#.#.#.#.#.#...Q T P P J D D C N dXdXsXr.#.-.5.2.#.#.#.#.#.#.#.#.#.#.#.#.#.#.#.#.#.#.#.#.#.#.#.#.#.#.",
"P *.#.#.#.#.#.#.#.#.#.#.#.#.#.#.#.#.#.#.#.#.#.#.#.#.#.#.[ 2.! T T T T T T Q Q [ ..#.#.#.#.#.#.#.....Q D I ! Q ! A D T ! Q J D P T T Q Q Q Q ! ! ! T I h.x.-.................#.#.#.#.#.#.#.#.....#.#.........#.#.#.#.#.#.....#.#.........#.#.#.......#.#.#.#.O.#.#.#.#...#.#.#.#.#.#.....#.#.#.#.#.#.#.#.#.#.......#.#.#.#.#...#.#.#.#.#.#.#...#.#.#.#.#.#.#.#.#.#.#.#.#.#.#.#.#...............#.#.#.#.....#.#.#.#...#.#.........#.#.#.......#...............Y x P P T ! ! Q Q Q Q ! T P D qXt.Q Q T J }.Q.*.Q T P ^./.,.#.#.#.#.#.#.#.#.#.#.#.#.#.#.#.#.#.#.#.#.Y J L.<X6.2.O.#.#.#.#.#.#.#.#.#.#.#.#.#.#.#.#.#.#.#.] S Y T Q Y S T Q Q T S P T T ! Q Q Q Q ! ! T P M.[.).............................#.#.#.........#.#.#.#.#.#.........#.#.#.#.#.#.#.#.#.....#.....#.#.#.#.#.#.#.#.#.O.#...#.#...#.#.#.#.#.#.#...#.#...#.#.#.#.......#.#.#.....#.#.#.#.#.#.#.#.......#.#.#.#.......#.#.#.#.#.#...#.........#.#.#.......#.#.#.#.....#.#.#...#.#.#.#...#.......#.#.............P C ~ T ! ! ! Q Q Q Q T U J 9.aX8.Q Q T P qX.X-.] Q Y =.dXM.-.#.#.#.#.#.#.#.#.#.#.#.#...Q T P P J D D C N uXdX7Xr.#.-.5.2.#.#.#.#.#.#.#.#.#.#.#.#.#.#.#.#.#.#.#.#.#.#.#.#.#.#.",
"P -.#.#.#.#.#.#.#.#.#.#.#.#.#.#.#.#.#.#.#.#.#.#.#.#.#.#.[ 2.Q T T T T T T Q Q [ ..#.#.#.#.#.#.#.....Q D I ! Q ! A D T ! Q J D P T T Q Q Q Q ! ! ! T I h.x.-.................#.#...#.#.#.#.#.....#.#.......#.#.#.#.#.#.O.....#.#.........#.#.#.#.....#.#.#.#.#...#...#.#.#...#...#.#.#...#.#.#.#.#.#.#.#.#.#.#.........#.#.#.#.#.#.#.#.#.#.......#.#.#.#.#.#.#.#.#.#.#.#.#.#.#.....#.#.........#.#.#.#.#...#.#.#.....#.#.........#.#.#.......#...............Y x P P T ! ! Q Q Q Q Q T P D qXt.Q Q T J }.Q.*.Q T P ^./.,.#.#.#.#.#.#.#.#.#.#.#.#.#.#.#.#.#.#.#.#.Y J E.2X6.2.[ #.#.#.#.#.#.#.#.#.#.#.#.#.#.#.#.#.#.#.] S Y ! Q Y S T Q Q T S P T T Q Q Q Q ! T T T P M.[.)...........................#...#.#.........#.#.#.#.#.#.............#.#.#.#.#.#.#.#.#.#.....#.#.#.#.#.#.#.#.#.......#.#...#.#.#.#.......#.#.#...#.#.#.#.......#.#.#...#.#.#.#.#.#.#.#.#.#.....#.#.#.....O.#.#.#.#.#.#.#.............#.#.#.......#.#.#.#...#.#.#.#.#.#.#.#.....#.........#.............P C ~ T ! ! ! Q Q Q Q T U J 9.aX8.Q Q T P qX.X-.] Q Y =.dXM.-.#.#.#.#.#.#.#.#.#.#.#.#...Q T P P D D D C N dXsXuXr.#.-.5.2.#.#.#.#.#.#.#.#.#.#.#.#.#.#.#.#.#.#.#.#.#.#.#.#.#.#.",
"P *.#.#.#.#.#.#.#.#.#.#.#.#.#.#.#.#.#.#.#.#.#.#.#.#.#.#.[ 2.! T T T T T T Q Q [ ..#.#.#.#.#.#.#.#.#.Q D I ! Q ! A D T ! Q J D P T T Q Q Q Q Q ! ! U I h.x.-.................#.#.....#.#.#.#.....#.#.#.#.#.#.............#.#.#.#.........#.#.#.#.....#.#.#.......#.#.#...#.#.#.#.#.#.#.#.....#.#.#.#.#.....#.#.#.#.#.#.#.#.#.#.#.#.#.#.#.#.#.#.#.#.#.#.#.#...#.#.#.#.#.#.#.#.#.#...#.#.......#.#.#.......#.#.#.#.....#.#.#...#.#.#.#.#.#...#.#...............Y x P P T ! ! Q ! ! Q Q T I D qXq.Q Q T J }.Q.*.Q ~ P M./.,.#.#.#.#.#.#.#.#.#.#.#.#.#.#.#.#.#.#.#.#.Y J E.[.6.2.O.#.#.#.#.#.#.#.#.#.#.#.#.#.#.#.#.#.#.#.] Z Y ! Q Y S T Q Q T S P T T Q Q Q Q ! T T T P M.[.).........................#.#.......#.#...#.#.#.........#.#.#.#.#.#...#.#...#.#.#.#.......#.#.#.#.#.#.....#.#.........#...#.#...#.#.#...#.#.#.....#.#.#.......#.#.#...#.#.#.#.#.#.#.#.#.#.#.....#.#.#.#.#.#.#.#.........#.#.#.#.#.#.#.#.#.#.#.......#.#.....#.#.#.#.#.#.#...#.#.........#.............P C T T ! Q Q Q Q Q Q T U P 9.aX8.Q Q ~ P qX.X-.] Q Y =.dXM.-.#.#.#.#.#.#.#.#.#.#.#.#...Q T P P J D D C N dXdXsXt.#.-.5.2.#.#.#.#.#.#.#.#.#.#.#.#.#.#.#.#.#.#.#.#.#.#.#.#.#.#.",
"P *.#.#.#.#.#.#.#.#.#.#.#.#.#.#.#.#.#.#.#.#.#.#.#.#.#.#.[ 2.T T T T T T T T Q [ ..#.#.#.#.#.#.#.#.#.Q D I ! Q Q A D T ! Q J D P T T Q Q Q Q Q ! ! T I h.x.-.................#.......#.#.#.#.....#.#...#.#.#.........#...#.#.#.#.#.......#.#.#.#.#...#.#.#.......#.#.#.#.#.#.....#.#.#.#.#...#.#.#.#.#...#.#.#...#.#.#.#.#.#.#.#.#.#.#...#.#.#.#.#.#.#.#.#...#.#.#.#.#.#.#.#.#.#...#.#.#.#...#.#.#...#...#.#...#.....#.#.#.....#.#.#.........#.#.............Y x P P T ! Q Q ! ! Q ! T I D qXt.Q Q T J }.Q.*.Q T P M./.,.#.#.#.#.#.#.#.#.#.#.#.#.#.#.#.#.#.#.#.#.Y J L.2X5.5.O.#.#.#.#.#.#.#.#.#.#.#.#.#.#.#.#.#.#.#.] Z Y ! Q Y S T Q Q T S P T T Q Q Q Q ! T T T P M.[.).................................#.#.#.#.#.#.#.........#.#.#.#.......#.#.....#.#.#.....#.#.#.#.#.#.#...#.#.O.#.#.#.#.#...#.#.#.#.#.#...#.#.#.....#.#.#.........#.#.#.#.#.#.#.#.#.#.#.#.#.#.#...#.#.#.#.#.#.#.#.........#.#.#.#...#.#.....#.#.....#.#.#.....#.#.#.#...#.......#.....#.#.#.#...........P C ~ T ! Q Q Q Q Q ! T U P 9.aX9.Q Q T P qX.X-.] Q Y =.dXM.-.#.#.#.#.#.#.#.#.#.#.#.#.O.Q T P P J D D C C uXdX7Xy.#.-.5.5.#.#.#.#.#.#.#.#.#.#.#.#.#.#.#.#.#.#.#.#.#.#.#.#.#.#.",
"P *.#.#.#.#.#.#.#.#.#.#.#.#.#.#.#.#.#.#.#.#.#.#.#.#.#.#.[ 2.! T T T T T T Q Q [ ..#.#.#.#.#.#.#.#.#.Q D P T Q ! A D T ! Q J D P T T Q Q Q Q Q ! ! ~ I h.x.-...............#.#...........#.#.#...........#.#.#.#.#.#.#.#...#.....#.#.....#.#.#.#.#.#.#.#.#.#.......#.#.#.#.......#.#.#.#.#.#.#.#.#.#.#.#.#.#...#.#.#.#.#.#.#.#.....#.#.......#.#.#.#.#.#.#...#.........#.#.O.#.#.#...#.#.#.#.#.#.#.#.....#.#...#.......#.........#.#...........#.............Y x P P T ! Q Q ! ! Q Q T I D qXt.Q Q T J }.Q.*.Q T P M./.,.#.#.#.#.#.#.#.#.#.#.#.#.#.#.#.#.#.#.#.#.Y J E.:X6.5.O.#.#.#.#.#.#.#.#.#.#.#.#.#.#.#.#.#.#.#.] Z Y ! Q Y S T Q Q T S P T T Q Q Q Q ! T T T P M.[.)...................................#.#.#.#.#.#.#.#.....#.#.....#.#.........#.#.#.#.....#.#.#.#.#.#.#.#.#.#...#.#...#.#.#.#.#.#.#.#.#.#.#.#.#.#.#.#.#.#...#.#.#.#.#.#.#.#...#.#.#.#.#.#.#.#.#.O.#.#.#.#.#.#.#.#.#.#.....#.#.......#.#.....#.#.#.#.#.#.......#.#.................#.#.#.#...#.#...#.....P C ~ T ! Q Q Q Q Q ! T U P 9.aX8.Q Q T P }..X-.] Q Y D dXM.=.#.#.#.#.#.#.#.#.#.#.#.#...Q T P P J D D C N sXpXuXy.#.-.5.5.#.#.#.#.#.#.#.#.#.#.#.#.#.#.#.#.#.#.#.#.#.#.#.#.#.#.",
"P -.#.#.#.#.#.#.#.#.#.#.#.#.#.#.#.#.#.#.#.#.#.#.#.#.#.#.[ 2.Q T T T T T T Q Q [ ..#.#.#.#.#.#.#.#.#.Q D P T Q ! A D T ! Q J D P T T Q Q Q Q Q ! ! ~ I h.x.-...............#.#.#.........#.#.............#.#.#.#.#.#.#.#.........#.#.....#.#.#.#...#.#.#.#.#.#.#...#.#.#.#.......#.#.#.......#.#.#...#.#.......#...#...#.#.#.#.....#.........#.#.#.#.#.#.....#...........#.#.....#.#.#.#.#.#.#.#.#.#.......#.#.#.....#.#.#.......#.#...........#.............Y x P P T ! ! Q ! ! Q Q T I D qXk.Q Q T J }.Q.*.] ! P M./.,.#.#.#.#.#.#.#.#.#.#.#.#.#.#.#.#.#.#.#.#.Y J E.`.6.5.O.#.#.#.#.#.#.#.#.#.#.#.#.#.#.#.#.#.#.#.] S Y ! Q Y S T Q Q T S P T T Q Q Q Q Q T T T P M.[.)...................................#.#.#.#.#.#.#.#.#...#.#.#...#.#.....#...#.#.#.#.....#.#.#.#.#.#.#.#.#.#.#.#.....#.#.#.#.O.....#.#.#.#.#.#.#.#.#.#.#...#.#.#.#.#.#.#.....#.#.#.#.#...#.#.#.#.#.#.#.#.#.#.#.#.#.#.#...#.#.......O.........#.#.#.#.........#.#.................#.#.#.....#.#.#.#.....P A ~ T ! ! Q Q Q Q ! T U P 9.aX8.Q Q T P }..X-.] Q Y D dXM.=.#.#.#.#.#.#.#.#.#.#.#.#...Q T P P D D D C N dXsXpXt.#.-.5.5.#.#.#.#.#.#.#.#.#.#.#.#.#.#.#.#.#.#.#.#.#.#.#.#.#.#.",
"P *.#.#.#.#.#.#.#.#.#.#.#.#.#.#.#.#.#.#.#.#.#.#.#.#.#.#.[ 2.! T T T T T T Q Q [ ..#.#.#.#.#.#.#.....Q D I ! Q Q A D T Q Q J D P T T Q Q Q Q Q T T U I h.x.-...............#.....#.#.#.#.......#.....#.#.#...#.#.#.#.......#.#.#.#.#.#.#.........#.#.#.#.#.#.#.#.#.#.#.#...#.#.#.O.......#.#.#.#.#.#.#.#.....#.#...#.#.#.#.#.#.......#.#.....#.....#...#.....#.#.#.#...#.#.#.....#.#.#.#.#.#.#.#.#.#.#.#...........#.#...#.#.#.#.............#...............Y x P P T ! ! ! Q ! Q ! T P D qXk.Q Q T J }.Q.*.] ! P M./.,.#.#.#.#.#.#.#.#.#.#.#.#.#.#.#.#.#.#.#.#.Y J _.2X6.5.O.O.#.#.#.#.#.#.#.#.#.#.#.#.#.#.#.#.#.#.] S Y ! Q T S U Q Q T S P T T Q Q Q Q Q T T T P M.[.)...........................#.....#.#.#.#.#.#.#.#.#.#...........#.#.......#.#.#.#.#.#.......#.#.#.#...#.#.#...#.#...#.#.#...#.#.#.#.#.#.#.#.#.#.#...#...#.#.#.#.#.#.#.#.#.#.#.#.#.#.....#.#.#.#.#...#.#.#.#.#.#.#.#.#.#.#.........#.#.....#.#.#.#.#.#.......#.#...#.#.#.#.#.#...#.........#...........P A T T ! ! ! Q Q Q Q T U G 9.aX8.Q Q T P }..X-.] Q Y D dXM.=.#.#.#.#.#.#.#.#.#.#.#.#...Q T P P J D D A C 7XdX7Xy.#.-.5.5.#.#.#.#.#.#.#.#.#.#.#.#.#.#.#.#.#.#.#.#.#.#.#.#.#.#.",
"P *.#.#.#.#.#.#.#.#.#.#.#.#.#.#.#.#.#.#.#.#.#.#.#.#.#.#.[ 2.T T T T T T T T Q [ ..#.#.#.#.#.#.#.....Q D I ! Q Q A J T Q Q J D P T T Q Q Q ! Q T ~ T I h.x.-.......#.#.#.#.....#.#.#.#.#.......#.#.#.#.#...#.#...#.#.....#.#.#.#.#.#.#.#.........#.#.#...#.#.#.#.#.#.#...#.#.#.#.#.......#.#.#.#.#.#.O...#.O.#.#...#.#.#.#.#.#.......#.#...O.#...#.#...#.#...#.#.#.#...#.....#...#.O.#.#.#.#.#.#.#.#...#.........#.#.#...#.#.#.#.#.#.....#...................U x P P T ! ! ! Q Q Q ! T P D qXk.Q Q T J Q.P.*.Q T P M./.,.#.#.#.#.#.#.#.#.#.#.#.#.#.#.#.#.#.#.#.#.Y J R.=X6.5.O.O.#.#.#.#.#.#.#.#.#.#.#.#.#.#.#.#.#.#.] S Y ! Q T A U Q Q T S P T T ! Q Q Q Q T T T P M.[.).........................#.#.......#.#.#.#.#.#.#.#.............#.......#.#.#.#.#.#.........#.#.#.#.....#.#...#.#...#.#.....#.#.#.#...#.#.#.O.#.#.#.#.#.#...#.#.#.#...#.#.#.............#.#.........#.#.#.#.#...#.#.#.#.#.#.......#.#...#.#.#...#.O.#.#.....#.#...#.#.#.#.#.#.#.......#...#.#.........P A T T ! ! Q Q Q Q Q T U J 9.aX9.Q Q T P }..X-.Q Q Y D dXM.=.#.#.#.#.#.#.#.#.#.#.#.#.#.Q T P P J D D A C sXpX8Xi.#.-.5.5.#.#.#.#.#.#.#.#.#.#.#.#.#.#.#.#.#.#.#.#.#.#.#.#.#.#.",
"K *.#.#.#.#.#.#.#.#.#.#.#.#.#.#.#.#.#.#.#.#.#.#.#.#.#.#.[ -.! T T T T T T Q Q [ ..#.#.#.#.#.#.#.....Q D I ! Q Q A J U ! Q J D P T T Q Q Q Q Q ! ~ T Y h.x.-.........#.#.......#.#.#.#.#.....#.#.#.#.#.#...#.O...#.......#.#.#.#.....#.#.....#.#.#.#.........#...#.#.#.#.#.#.#.#.#.#.#.#...#.O.#.#.#.#.#.#.#.#.#...#.#.#.#.#.#.....#.#.#.#.#.#.#.#.#...#.#.#...#.#.#.#.#.#.#.#.#...O.....#.#.#.#.....#.......#.#.#.#.........#.#...#.#.#.#.#.................U x P P T ! ! Q ! Q Q ! T P D qXk.Q Q T J Q.Q.=.Q T I M./.,.#.#.#.#.#.#.#.#.#.#.#.#.#.#.#.#.#.#.#.#.Y J E.E.6.5.O.#.#.#.#.#.#.#.#.#.#.#.#.#.#.#.#.#.#.#.] S Y ! Q T A U Q Q T S P T T Q Q Q Q ! T T T P M.[.).........................#.#.............#.#.#.....#.#.#.#.#.#.#.#.......#.#.#.#.#.#.#.......#.#.#.#...#.#...#.#.#.#.#.#.#.#.#.#.#.#.#.#.#.#.#.#.#.#.#.#.#.....#.#.#.#.#.#.#.#.....#.#.#.#.........#.#.#.#.....#...#.#.#.#.#.#.#.#.O...#.#.#.#.O.O.#.#.........#.#.#.#.#.#.#.#.....#.#.#.#...........P A T T ! ! ! Q Q Q Q T U J 9.aX8.Q Q T P }..X=.Q ! Y D dXM.=.#.#.#.#.#.#.#.#.#.#.#.#...Q T P P J D D A C dXdXpXy.#.-.5.5.#.#.#.#.#.#.#.#.#.#.#.#.#.#.#.#.#.#.#.#.#.#.#.#.#.#.",
"P -.#.#.#.#.#.#.#.#.#.#.#.#.#.#.#.#.#.#.#.#.#.#.#.#.#.#.[ -.Q T T T T T T Q Q [ ..#.#.#.#.#.#.#.....Q D I ! Q Q A J U ! Q G D P T T Q Q Q Q Q ! T T Y h.x.-...........#.........#.#.#.......#.#.#.#.#.#.........#.......#.#.#.#.......#.#...#.#.#.#.....#.#.....#.#.#.#.#.O.#.#.#.#.#.O.........#.#.#.#.#.#.#.#.#.#.#.#...#.#...#.#.#.#.#.#.#.#.#.....#.#.#.#...#.#.#.#.#.#.#.#.........#.#.#.#...........#.#.#.#.#.........#.....#...#.#.#.................U x P P T ! ! Q Q Q Q ! T P D qXk.Q Q T J Q.P.=.Q T I M./.,.#.#.#.#.#.#.#.#.#.#.#.#.#.#.#.#.#.#.#.#.Y J J.:X6.5.O.#.#.#.#.#.#.#.#.#.#.#.#.#.#.#.#.#.#.#.] S Y ! Q T A U Q Q T S P T T ! Q Q Q ! ! T T I M.[.).........................#.#.#...........#.#...........#.#.#.#.#.#.......#.#.#.#.#.#.#.........#.#.#...#.#.O...#.#.#.#.#.#.#.#.#.#.#.#.#.#.#.#.#.#.#.#.#.#.....#.#.#.#.#.#.#.#...#.#.#.#.#.........#.#.#.#.............#.#.#.#.#.#.O...#.#.#.#.#.#.#.#.#.#...#.#.#.#.#.#.#.#.#.....#.#.#.#...........I C ~ T ! ! ! Q Q Q Q T U G t.aX8.Q Q T P }..X=.Q T Y D dXM.=.#.#.#.#.#.#.#.#.#.#.#.#...Q T P P D D D A C dXdX6Xy.#.-.5.5.#.#.#.#.#.#.#.#.#.#.#.#.#.#.#.#.#.#.#.#.#.#.#.#.#.#.",
"P *.#.#.#.#.#.#.#.#.#.#.#.#.#.#.#.#.#.#.#.#.#.#.#.#.#.#.] -.! T T T T T T Q Q [ ..#.#.#.#.#.#.#.#.#.Q D P T Q ! A G ! Q Q J D P T T Q Q Q Q Q ! T ~ Y h.x.=...........#.#.#.........#.#.#.#.#.#.#.#.....#.#.#.#.....#.#.#.#...........#.#.....#.#.#...#.#.#.....#.#.#.#.#.#.#.#.#.#.#.#.#.#.#.....#.#.#.#.#.#.#.#.#.....#.#.#.#.#.#.#.#.#.#.#.#.#.#.......#.#.#.#.#.......#.#.#...............#.....#.#.#.......#.#.#.#...#.....#.#.........................U x P P T ! ! Q Q Q Q ! T P D qXk.Q Q T J Q.P.*.Q ! I M./.,.#.#.#.#.#.#.#.#.#.#.#.#.#.#.#.#.#.#.#.#.Y J F.<X6.5...#.#.#.#.#.#.#.#.#.#.#.#.#.#.#.#.#.#.#.] S Y ! Q T A U Q Q T S P T T ! Q Q Q Q ! T T I M.[.[...................#.....#.#.#.#...#.#...#...#.#.#.#.#.............#.#.#.............#.#.#.#.#.#.#.#.#.#.#.#.....#.#.#.#.#...#.#.#.#.#.#.#.#.......#.#.#.#.......#.#.#.............#.#.#.#.............#.#.#.#.....#.#.#.#.....#.#.#.#.......#.#.#...O.#.#.#.#.#.#.#.#.#.#.#.#.#.#.#.#.....#.........I C T T ! ! ! Q Q Q Q T ~ G q.aX8.Q Q T P }..X=.] ! Y D dXM.=...#.#.#.#.#.#.#.#.#.#.#...Q T P P J D D A C pXuX7Xu.#.-.5.5.#.#.#.#.#.#.#.#.#.#.#.#.#.#.#.#.#.#.#.#.#.#.#.#.#.#.",
"P *.#.#.#.#.#.#.#.#.#.#.#.#.#.#.#.#.#.#.#.#.#.#.#.#.#.#.Q -.T T T T T T T T Q [ ..#.#.#.#.#.#.#.#.#.Q D P T Q Q A J ! Q Q J D P T T Q Q Q ! Q ! T ~ Y h.x.-...........#.#.........#.#.#.#.#.#.#.#.#.....#.#.#.#.......#.#.#.........#.#.#...#.#.#.#.O.#.#.#.#...#.#.#.#.#.......#.#.#.#.#.#.#.....#.#.#.#.#.#.#.#.#.#.#.#.#.#.#.#.#.#.#.#.#.#.#.#.#.......#.#.#.#.O.....#.#.#.#.....................#.#.#...........#.#.#.......#.#...#.......#.............U x P P T ! ! Q Q Q Q ! T P D qXk.Q Q T J Q.P.*.Q T I M..X,.#.#.#.#.#.#.#.#.#.#.#.#.#.#.#.#.#.#.#.#.Y J H.U.6.5...#.#.#.#.#.#.#.#.#.#.#.#.#.#.#.#.#.#.#.] S Y ! Q T S U Q Q T S P T T ! Q Q Q Q ! T T I M.[.[.............................#...#.#.#...#.......#.#.#.#.#.....#...#.#.#.............#.#.#.#.#...#.#.#.#.#.#.#...#.#.#.#.#.#.#.#.#.#.#.#.#.#.#.....#.#.#.#.......#.#.#.#.#.......#.#.#.#.#.....#.#.#.#.#.#.#.#.....#.#.#.#.....#.#.#.#.....#.#.#.#...#.#.#.#.#.#.#.#.#.........#.#...#...............I C T T ! ! ! Q Q Q Q T T G q.aX9.Q Q T P }..X-.] ! Y D dXM.=...#.#.#.#.#.#.#.#.#.#.#.#.Q T P P J D D A C dXsXpXu.#.=.5.5.#.#.#.#.#.#.#.#.#.#.#.#.#.#.#.#.#.#.#.#.#.#.#.#.#.#.",
"P *.#.#.#.#.#.#.#.#.#.#.#.#.#.#.#.#.#.#.#.#.#.#.#.#.#.#.] -.! T T T T T T Q Q [ ..#.#.#.#.#.#.#.#.#.Q D I ! Q Q A G ! Q Q J D P T T Q Q Q Q Q ! ! T I h.x.=.......#.#.#.#...#.#.#.#.............#.#.....#...#.#.....#.#.#.#.....#.#.#.#.....#...#.#.#.#.#.#.#.#.#.#.#.....#...#.....#.#.#.#.#.#.....#.#.#.#.O...#.#.#.#.#.#.....#.#.#.#...#...#.#.....#.#.#.#.#...#.#.#.#.#.#.#.#.#.........#.#...#.#.#.#...........#...#.......#.#.#.#...#.#.#.............U x P P T ! ! Q Q Q Q ! T P D qXk.Q Q T J Q.Q.*.Q T I M..X,.#.#.#.#.#.#.#.#.#.#.#.#.#.#.#.#.#.#.#.#.Y J Y.+X6.5...#.#.#.#.#.#.#.#.#.#.#.#.#.#.#.#.#.#.#.] S Y ! Q T S U Q Q T S P T T ! Q Q Q Q ! T T I M.[.[.............................#...#.....#...#.#...#.#.#.#.#.#.#.#.#.#.#.#.#.........#.#.#.#.......O.#.#.#...#.#...#.#.#.#...#.#.#.#.#.#.#.#.#.#...#.#.#.#.#.#...#.#.#.#.#.#.#.#...#.#.#.#.#.#...#.#.#.#.#.#.#.#...#.#.#.#.#.....#.#.#.#.......#.#.#.#.#.....#.#.#.#.......................#.#.........I C ~ T ! ! ! Q Q Q Q T U J t.aX8.Q Q T P }..X-.] Q Y D dXM.=.O.#.#.#.#.#.#.#.#.#.#.#...Q T P P J D D A C dXdXsXu.#.-.5.5.#.#.#.#.#.#.#.#.#.#.#.#.#.#.#.#.#.#.#.#.#.#.#.#.#.#.",
"A -.#.#.#.#.#.#.#.#.#.#.#.#.#.#.#.#.#.#.#.#.#.#.#.#.#.#.[ -.Q T T T T T T Q Q [ ..#.#.#.#.#.#.#.#.#.Q D P ! Q Q C G ! Q Q P D P T T Q Q Q Q ! ! T ~ I h.x.=.................#.#.#.#.#.#.........#.#.........#.#.....#.#.#.#.....#.#.#.#...#.#.#.#.#.#.#.#.#.#.#.#.#.#.....#.O.#.#.#.#.#.#.#.#.#.....#.#.#.#.#...#.#.#.#.#.#...#.#.#.#.#.......#.#.....#.#.#.#.#...#.#.#.#.#.#.#.#.#.#.......#.#.#.#.#.#.#...............#.#.....#.....#.#.#...#.............U x J T T ! ! ! Q Q Q Q T P D qXk.Q Q T J Q.Q.*.Q T I M..X,.#.#.#.#.#.#.#.#.#.#.#.#.#.#.#.#.#.#.#.#.Y J n.2X6.5...#.#.#.#.#.#.#.#.#.#.#.#.#.#.#.#.#.#.#.] A Y ! Q T S U Q Q T S P T T ! Q Q Q Q ! T T I M.[.[.........................#.....#.........#.#.....#.#.....#.#.#.#.#.#.#.#.......#...#.#.#.#.......#.#.#.....#.#...#.#.#.#...#.#...#.#.#.#.#.#.#.#.#.#.#.#.#.#.O.#.#.#.#.#.#.#.#.#.#.#.#.#.#.#.#.#.#.#.#.#.#.#.......#.#.#.#.......#.#.#.#.....#.#.#.#.#...#.#.#.#.#.#.............#.#...#.#...........I C ~ T ! ! ! Q Q Q Q T U J #.dX8.Q Q T P }.wX-.] Q Y D dXM.-...#.#.#.#.#.#.#.#.#.#.#...Q T P P D D D A C 6XdX6Xu.#.-.5.5.#.#.#.#.#.#.#.#.#.#.#.#.#.#.#.#.#.#.#.#.#.#.#.#.#.#.",
"A *.#.#.#.#.#.#.#.#.#.#.#.#.#.#.#.#.#.#.#.#.#.#.#.#.#.#.[ -.! T T T T T T Q Q [ ..#.#.#.#.#.#.#.....Q D P ! Q ! C G ! Q Q P D P T T Q Q Q Q ! ! T ~ I h.x.-.....................#.#...#.#.#.....#.#.#.#.......#...#.#.#.#.#.#...#.#.#.#...#.#.#.#.#.#.#.#.#.#.#.........#.#.O.#.O...#.#.#.#.#.#...#.#.#.#.#.#...#.#.#.#.#.....#.#...#.#.#.#.....#.#...#.#...#.#.#.#.#.#.#.#.#.#.#.#.........#.#.#.#.#...#.#.#.#.#...#.........................#.............U x D T T ! ! ! ! ! Q ! T P D }.k.Q Q T J P.Q.*.Q T I M..X,.#.#.#.#.#.#.#.#.#.#.#.#.#.#.#.#.#.#.#.#.Y J H.:X6.5...#.#.#.#.#.#.#.#.#.#.#.#.#.#.#.#.#.#.#.] A Y ! Q T S U Q Q T S P T T Q Q Q Q Q ! T T I M.>X[...........................#.#.#.#.........#.#...........#.#.#.#.#.#.#.#.#.........#.#.#.........#.#.#.....#.#...#.#.#.#.#.#.#...#.#.#.#.........#.#.#.#.#.#.#.#.#.#.#...#.#.#.#.#.#...#.#...#.#.#.#.#.........#.#.....#.#.#.#.O.....#.#.#.#.#.#.#.#.#.....#.#.#.#.....#.#.#.#...#.#...#.#...#.......Y C U T ! Q Q Q Q Q ! T U G #.dXq.Q Q T P }.wX-.] Q Y D dXQ.-.#.#.#.#.#.#.#.#.#.#.#.#.O.Q T P P J D D A C iXsXuXu.#.-.2.5.#.#.#.#.#.#.#.#.#.#.#.#.#.#.#.#.#.#.#.#.#.#.#.#.#.#.",
"A *.#.#.#.#.#.#.#.#.#.#.#.#.#.#.#.#.#.#.#.#.#.#.#.#.#.#.[ -.T T T T T T T T Q [ ..#.#.#.#.#.#.#.....Q D P ! Q ! C G ! Q Q P D P T T Q Q Q Q Q ! T ~ I h.x.-.............................#.#...#.#.#...#.......#...#.#.#.#.#.....#.#.....#.#.#.#.#.#.#.#.#.#...#...O.....#.O.........#.#.#.#.........#.#.#.#.#...#.#...#...#...#.#...#.#.#.#.....#.#.#...#...#.#.#.#.#.#.#.#.#.#.#.#.........#.#.#.#.#...#.#.#.#.#.#.#.#...........#.#.......................U x D T T T ! ! ! ! Q T T P D }.k.Q Q T J P.Q.*.Q T I M..X2.#.#.#.#.#.#.#.#.#.#.#.#.#.#.#.#.#.#.#.#.Y J J.`.6.5.O.#.#.#.#.#.#.#.#.#.#.#.#.#.#.#.#.#.#.#.] A Y ! Q T S U Q Q Q S P T T Q Q Q Q Q ! T T I t.>X[...................#.........#.#.#...........#.............#.#.#.#.#.#.#.#.........#.#.#.#.......#.#.#.....#.#.....#.#.#.#.#.....#.#.#.#.......#.#...........#.....#.......#.#.#.#.#...#.......#.#.#.#.........#.#.........#.#.#...#...#.#.#.#.....#.#.....#.#.#.#.......#.#.#.....#.....#.#.#.......Y C P T ! T Q Q Q Q T T T P #.dXq.Q Q T P }.wX-.] ! Y D dXQ.-.#.#.#.#.#.#.#.#.#.#.#.#.#.Q T P P J D D A C aXdXsXf.#.*.2.5.#.#.#.#.#.#.#.#.#.#.#.#.#.#.#.#.#.#.#.#.#.#.#.#.#.#.",
"A *.#.#.#.#.#.#.#.#.#.#.#.#.#.#.#.#.#.#.#.#.#.#.#.#.#.#.[ -.! T T T T T T Q Q [ ..#.#.#.#.#.#.#...#.Q D P ! Q ! C G ! Q Q P D P T T Q Q Q Q Q ! T ~ Y h.x.-.......................#.....#.#.#.#.............#.#.#.#.#.#.#.#.#.#.#.......#.#.#.#.#.#...#.#.....#.#.#.#.#.#.#.#.O.....#.#.#.......#.#.#.#.#.#.#.#.#.....#.#.#.#.#.#.#.....#.#.#...#.#.#.#...#.#...#.#.....#.#.#.#.#.#.#.....#.#.#.#.#.........#.#.#.#...#...{ ......#.........................U x D T T T ! ! ! ! Q T T P D }.k.Q Q T J P.P.*.Q T I M..X2.#.#.#.#.#.#.#.#.#.#.#.#.#.#.#.#.#.#.#.#.Y J n.2X6.5.O.#.#.#.#.#.#.#.#.#.#.#.#.#.#.#.#.#.#.#.] A Y ! Q T S U Q Q Q S P T T Q Q Q Q Q ! T T I t.>X[...............................#.#.#.......#.#.#.#.#.#.........#.#.#.#.#.#.#.#...#.#.#.#.#.......#...#.#.#.#.#.....#.#.#.#.#.#.#.#.#.#.#.#.#.#.#.#.........#.#.#.#.#.#.#.#.#.#.#.#.#...#.#.#...#.#.#.#.#...#.#.#.#...#.O...#.#.#.#.O.#.#.#.........#.#.....#.#.#.#.........#.#...#.....#.............Y C Y T ! ! Q Q Q Q ! T U P #.dXq.Q Q T P }.wX-.] ! Y D dXQ.-.#.#.#.#.#.#.#.#.#.#.#.#.O.Q T P P J D D A C 5XdX6Xu.#.=.2.5.#.#.#.#.#.#.#.#.#.#.#.#.#.#.#.#.#.#.#.#.#.#.#.#.#.#.",
"A -.#.#.#.#.#.#.#.#.#.#.#.#.#.#.#.#.#.#.#.#.#.#.#.#.#.#.[ -.Q T T T T T T Q Q [ ..#.#.#.#.#.#.#.#.#.Q D P ! Q ! C G ! Q Q P S P T T Q Q Q Q Q ! ! T Y h.x.-...............#.............#.#.#.#.............#.#.#.#.#.#.#.#.#.#.#.......#.#.#.#.#.#...........#.#.#.#.#.#.#.#.#.....#.#.#.#.....#.#.#.#.#.#.#.#.#...O.#.#.#.#.#.#.#.....#.#.#.#.#.#.#.#.O.#.#.#...#.O.....#.#.#.#.#.#...#.#.#.#.#.#.........#.#.#.#...#.#.{ #.....#.......#.#.#.............U x D T T T ! Q ! ! Q ! T P D }.k.Q Q T J P./.*.Q T I M..X2.#.#.#.#.#.#.#.#.#.#.#.#.#.#.#.#.#.#.#.#.Y J H.=X6.5.O.#.#.#.#.#.#.#.#.#.#.#.#.#.#.#.#.#.#.#.] Z Y ! Q T S U Q Q Q S P T T ! Q Q Q Q ! T T P t.>X[.........................#.#...#.#...#.....#.#.#.#.#.#.........#.#.#...#.#.#.#...#.#.#.#.#.......#...#.#.#.#.#...#.#.#.#.#.#.#.#...#.#...#.#.#.#.#...#.....#.#.#.#.#.#.#.#.#.#.#.#.#...#.#.#.....#...#.#.#.#.#.#.#...#.#.#.#.#.#.#.#.#.#.#.#.O.#...#.#.....#.#.#.#.........#.#...#...................Y C Y T ! ! Q Q Q Q Q ~ U P #.dXq.Q Q T P }.wX-.] Q Y D dXQ.-.#.#.#.#.#.#.#.#.#.#.#.#...Q T Y P D D D A C iXpXuXu.#.-.2.5.#.#.#.#.#.#.#.#.#.#.#.#.#.#.#.#.#.#.#.#.#.#.#.#.#.#.",
"A *.#.#.#.#.#.#.#.#.#.#.#.#.#.#.#.#.#.#.#.#.#.#.#.#.#.#.[ -.! T T T T T T Q Q [ ..#.#.#.#.#.#.#.#.#.Q D P T ! ! C G ! Q Q I S P T T Q Q Q Q Q ! ! T I h.x.-...............#.#...#.......#.#.#.#.....#.#.#...O...#.#.#.#.#.#.#.#.#.......#.#.#.#.#.#.#.#.#.#.#.#.#...#.#.#.#.#.#.#.#.#.......#.#.#.#.......#.#.#.#.#.#.#.#.O.#.#.#.#.....#.#.#.#.#...#.#.#.#.#.#.#.#.#.#.#.#.....#.#.#.#.........#.#.#...............#.#.#.#.#.#...#.....#.#.................T x D T T T ! ! ! ! ! Q T P D }.k.Q Q T P Q./.*.Q T I V..X2.#.#.#.#.#.#.#.#.#.#.#.#.#.#.#.#.#.#.#.#.Y J J._.6.5.O.#.#.#.#.#.#.#.#.#.#.#.#.#.#.#.#.#.#.#.[ Z Y ~ Q T S U Q Q Q S P T T ! Q Q Q Q ! T T P q.>X[...............................#.#.#.......#.#.#.......#.#.#.#.#.#.......#.#.#.....#.#.#.#.......#.....#...........#.#.#.#.#.#.#.#.#.#...#.#.#.#.#.#.#...#.#.#.#.#.#.#.#.#.#.#.#.#.O...#.#.#.#.#.#.#.#.#.#.#.#.#.#.#.#...#.#.#.#.#.#.#.#.....#.#.#.#.#.#.#...#.#.#.#.#.......#.#.#.#.................Y C P T ! Q Q Q Q Q Q T U P #.dXq.Q Q T P }.tX-.] Q Y D dXQ.-.#.#.#.#.#.#.#.#.#.#.#.#.#.Q T P P J D D A C aXsXpXf.#.=.2.5.#.#.#.#.#.#.#.#.#.#.#.#.#.#.#.#.#.#.#.#.#.#.#.#.#.#.",
"A *.#.#.#.#.#.#.#.#.#.#.#.#.#.#.#.#.#.#.#.#.#.#.#.#.#.#.[ -.T T T T T T T T Q [ ..#.#.#.#.#.#.#.#.#.Q D P T ! ! C G ! Q Q P S P T T Q Q Q ! ! ! T ~ Y h.v.-...............#...#.#.......#.#.#.#.#.#.#.#.........#.#.#.#.#.#.....#.#.#.#.#...#.#.#.....#.#.#.#.#.....#.#.#.#.#.#...#.#...#.#.#.#.#.#.#.#...#.#.#.#.#.#.#...#.#.#.#.......#.#.#.#.#.#...#.#.#.#.#.#.#.#.#.#.#.....#.#.#.#.......#.#.#.......#...........#.#.#.#.#.............................T x D T T T ! ! ! ! Q ! T P D }.k.Q Q T J Q./.*.Q T I V..X5.#.#.#.#.#.#.#.#.#.#.#.#.#.#.#.#.#.#.#.#.Y J P.:X6.5.O.#.#.#.#.#.#.#.#.#.#.#.#.#.#.#.#.#.#.#.[ Z Y T Q T S U Q Q Q S P T T Q Q Q Q Q ! T T P q.>X[...............................#.#.#...#...#.#.........#...#.#.#.#.....#.#.#.#.......#.#.#.........#...#.#.........#.#.#.#.#.#.#.....#.#.#.#.#.#.#.#.#...#.#.#.#.#.#.#.#.#...#.#.#.#.#.#.#.#.#.#.#.#.#.#.#.#...#.#.#...#.#.#.#.#.#.#.#.......#.#...#.#.#.#.#...#.#.#.#.......#...#.......#.#.........Y C P T ! ! Q Q Q Q Q T ~ P #.dXq.Q Q T P }.tX-.] Q Y D dXQ.-.#.#.#.#.#.#.#.#.#.#.#.#.#.Q T P P J D D A C -XdX6Xj.#.*.2.5.#.#.#.#.#.#.#.#.#.#.#.#.#.#.#.#.#.#.#.#.#.#.#.#.#.#.",
"A *.#.#.#.#.#.#.#.#.#.#.#.#.#.#.#.#.#.#.#.#.#.#.#.#.#.#.[ -.! T T T T T T Q Q [ ..#.#.#.#.#.#.#.....Q D P ! Q ! C G ! Q Q P S P T T Q Q Q Q ! Q T T Y h.x.4.........#.#.#.#...#.#.#.....#.#.#.#.#.#.#.#.#.#.......#.................#.#.#.#.......O.O.#.....#.O.#.#.#.#.#.#.#.#.#.#.#...#.#.#.#.#...#.#.#.#.#.#.#.#.#.#.#.....O.#.#.....#.#.#.#.#.#.O...O...#.#...#.#...#.#.........#.#...#.#.#.........#.#.#.#.#.#...#.#...................................T x G ~ T Q ! ! Q ! Q Q T P D }.k.Q Q T J Q./.*.Q Q I M..X5.#.#.#.#.#.#.#.#.#.#.#.#.#.#.#.#.#.#.#.#.Y J F.OX6.5.O.#.#.O.#.#.#.#.#.#.#.#.#.#.#.#.#.#.#.#.[ Z Y ! Q T S U Q Q Q S P T T T Q Q Q Q Q T T I 9.>X[.........................#.#...#.#.....#.#.#.#.#.#.......#.....#.......#.#.#.#.....#.#.#.#.#.#.#.#.#.#.#.#.#.#...#.#.#.....#.#.....#.#.#.#.#.O.#.#.#.#.#.#.#.#.........O.......#.#.#.#.#.#.....#.#.#...O.#.#...#.#.#.#...#.#.#.#.#.#...#.#.#.#.....#.#.#.#.........#.#...#.#.#...#.....#.#.#.#.#.....Y C Y T ! ! ! ! Q Q Q T U P #.dXq.Q Q T I Q.qX-.] Q Y D aXQ.-.#.#.#.#.#.#.#.#.#.#.#.#.#.Q T P P J D D A C yXpX8Xf.#.*.2.8.#.#.#.#.#.#.#.#.#.#.#.#.#.#.#.#.#.#.#.#.#.#.#.#.#.#.",
"A -.#.#.#.#.#.#.#.#.#.#.#.#.#.#.#.#.#.#.#.#.#.#.#.#.#.#.[ -.Q T T T T T T Q Q [ ..#.#.#.#.#.#.#...#.Q D P ! Q ! C G ! Q Q P S P T T Q Q Q Q ! Q T T Y :.x.4...........#.#.#...#.#.#.......#.#.#.#.#.#.#.#.#.....#...............O.#.#.#.#.#.#...#.#.#.#.......#...#.#.#.#.#.#.#.#.#.O.#.#.#.#.#.#...#.#.#.#.#.#.#.#.#.#.#...#.#.#.#.....#.#.#.....#.....#.#.#.#...#.#...#.#.........#.#...#.#.#.........#.#.#.#.#...#.#.#.#.#...............................T x G ~ T Q ! ! Q Q Q Q T P D }.k.Q Q T J Q./.*.Q T I M..X2.#.#.#.#.#.#.#.#.#.#.#.#.#.#.#.#.#.#.#.#.Y J J.E.6.5.O.#.#.#.#.#.#.#.#.#.#.#.#.#.#.#.#.#.#.#.[ Z Y ! Q T S Y T Q Q A P T T Q Q Q Q Q ! T U P q.>X[...............................#.......#...#.#.#.#.............#.......#.#.#.#.....#.#.#.#.#.#.#.#.#.#.#.#.#.#...#.#.#.....#.#.#.#.#.#.#.#.#.O.#.#.#.#.#.#.#.#.#.#.#.#.O.#.#...#.#.#.#.#.#.....O.#.#.....#.#...#.#.#.#...#.#.#.#.#.#...#.#.#.#.........#.#.........#.#.....#.#...#.#.....#.#.........Y N Y T ! ! ! ! Q Q Q T U P #.dXq.Q Q T I Q.qX-.] ! Y D aXQ.-.....#.#.#.#.#.#.#.#.#.#.O.Q T Y P D D D A C aXsXpXf.#.-.2.8.#.#.#.#.#.#.#.#.#.#.#.#.#.#.#.#.#.#.#.#.#.#.#.#.#.#.",
"A *.#.#.#.#.#.#.#.#.#.#.#.#.#.#.#.#.#.#.#.#.#.#.#.#.#.#.[ -.! T T T T T T Q Q [ ..#.#.#.#.#.#.#.#.#.Q D P T Q ! S G ! Q Q P S P T T Q Q Q Q Q ! T T I :.x.4...........#.#.....#.#.#.#.#.........#.#.#...#.#.#.#.........#.......O.#.#.#.#.#.#...#.#.#.#.....#.#.#.#.#.#.#.#.#.#.#.#.#...#.#.#.#.#.#.#.#.#.#.#...#.#.#.#.#.#.#.#.#.#.#.#.#...#...........#.O.#.#.#.#.#.O.......#.........#.#.#.#.#.#.#.......#.#.#...#.#.#.#.................................T x D ~ T T ! Q Q Q Q Q T P D }.v.Q Q T P Q./.*.Q T I M..X,.#.#.#.#.#.#.#.#.#.#.#.#.#.#.#.#.#.#.#.#.T J P.=X6.5.O.#.#.#.#.#.#.#.#.#.#.#.#.#.#.#.#.#.#.#.[ Z Y ! Q U S Y T Q Q A P T T Q Q ! Q T T T T P q.>X[.......................................#.....#.#.#.#.#.#.#.#...#...........#.#.#.#.#.#.#.#.#.#.#.#.#.#.......#.#.#.#...#.#.#.#.#...#.#.#.#.#.#.#.#...#.#...#.#.#.#.#.#.O.#.#.#.#.#.#.#.#.#...#.#.#.#.......#.#.#.#.#.#...#.#.#.#.#.....#.#.....#.#.#...#.#.#.........#.#...#.#.#.#.#.#.#.#.#.........Y N Y Y T ! ! ! Q Q ! T T P #.dXq.Q Q T I Q.wX-.] Q Y D aXQ.-.O...#.#.#.#.#.#.#.#.#.#.#.Q T P P J D D S C aXdXsXj.#.*.2.8.#.#.#.#.#.#.#.#.#.#.#.#.#.#.#.#.#.#.#.#.#.#.#.#.#.#.",
"A *.#.#.#.#.#.#.#.#.#.#.#.#.#.#.#.#.#.#.#.#.#.#.#.#.#.#.[ -.T T T T T T T T Q [ ..#.#.#.#.#.#.#.#.#.Q S P T Q Q Z G ! Q Q P S P T T Q Q Q ! ! ! T T Y :.x.4.........#...#...#.#.#.#...#.........#.#.#...#.#.#.#.#.#.....#...#...#.#...#.#.#.#.....O.O.......#.#.#.O.#.#.#.#.#.#.#.#.....#.#.#.#...#.#.#.#.#...#.#.#.#.#.#.#.#.#.#.#.#.#.#.#.....O...........O.O.#.#.#.#.......#.....#...#.#.#...#.#.#.#.....#.#.#.....#.#.#.................................T x D U T T T Q Q Q Q ! T P D }.v.Q Q T P Q./.*.] Q I M..X,.#.#.#.#.#.#.#.#.#.#.#.#.#.#.#.#.#.#.#.#.T J H.2X6.5.O.#.#.#.#.#.#.#.#.#.#.#.#.#.#.#.#.#.#.#.[ S Y ! Q U S Y Q Q Q A P T T Q Q Q ! T T T Y P s.>X[.........................#...#...#.....#.......#.#.#.#.#.#.#...#.#.#.......#.#.#.#.#.#.#.#.#.#.#.#.........#.#.#.#.#...#.#.#.#.O...#.#.#.#.#.#.#.#...#.....#.#.#.#.O.#.#.O.#.#.#.#.#.#.#.........#.#.#.#.#.#.#.#.#.......#.#.#.#.#.....#.#.....#.#.#.#...#.........#.#.#.#...#.#.#.#.........#.#.....Y N Y Y T ! ! ! Q Q T T T P #.dXq.Q Q T I Q.wX-.] Q Y D aXQ.-.O...#.#.#.#.#.#.#.#.#.#.#.] T P P J D D S C 6XdX8Xx.#.*.2.8.#.#.#.#.#.#.#.#.#.#.#.#.#.#.#.#.#.#.#.#.#.#.#.#.#.#.",
"A *.#.#.#.#.#.#.#.#.#.#.#.#.#.#.#.#.#.#.#.#.#.#.#.#.#.#.[ -.! T T T T T T Q Q [ ..#.#.#.#.#.#.#.#.#.Q S P ! Q Q Z G ! Q Q I S P T T Q Q Q Q Q ! T ~ I :.x.4...........#.#...#.#.............#.#.#.#.........#.#.#.#.#.#.#.#.......#.#.#.#.#.#.#.....#...#.#.#.#.#.....#.#.#.#.#.................#.#.#.#.#.#.......#.#.#.#...#.#.#.O.O...#.#.#.#.#.#.#.#.#.#.#.#.#.#.#.#.#...#.#.#.#.#.#.#.#.....#.#.#.#.......#.....#...#...................................T x D U T T ! Q Q Q Q Q T P D }.v.Q Q T P Q./.*.] Q I M..X,.#.#.#.#.#.#.#.#.#.#.#.#.#.#.#.#.#.#.#.#.T J Y.).6.5.O.#.#.#.#.#.#.#.#.#.#.#.#.#.#.#.#.#.#.#.[ S Y ! Q T S Y ! Q Q A P T T Q Q Q ! T T T T P s.>X[...............................#.#.#.#.#...........#.#.#...#.#.....#.#.#.#...#...#.........#.#.#.#.........#.#.#.#.....#.#.#.#...#.#.#...#.#.#.#.............#.#.#.#.#.#.#.#.#.#.#...#.#.#.#.#...#.#.#.#.#.#.#...#.......#.#.#.#...#...#.......#.#.#.#.#.........#...#.#.#...#.#...#...#.....#.#.....Y C Y Y T Q ! Q Q Q ! T T P #.dXq.Q Q T I Q.wX-.] Q Y D aXQ.-.#.#.#.#.#.#.#.#.#.#.#.#.#.Q T P P J D D S C aXsXuXx.#.*.2.8.#.#.#.#.#.#.#.#.#.#.#.#.#.#.#.#.#.#.#.#.#.#.#.#.#.#.",
"A -.#.#.#.#.#.#.#.#.#.#.#.#.#.#.#.#.#.#.#.#.#.#.#.#.#.#.[ -.Q T T T T T T Q Q [ ..#.#.#.#.#.#.#.#.#.Q S P ! Q Q Z D T Q Q P S P T T Q Q Q Q Q ! T T I :.x.2...........#.#.#...............#.#.#.#.#...........#.#.#.#.#.#.#.......#.#.#.#.#.#.#.#...#.#.#.#.#.#.#.........#.#.#.#.....O.........#.#.#.#.#.#.#.........#.#...#.#.#...#...#.#.#.#.#.#.#.#.#.#.#.#.#.#.#.#.#.#.#.#...#.#.#.........#.#.#.#.......#.........#.....#.............................T x D U T T ! ! Q Q Q Q T I D }.v.Q Q T P Q./.*.Q Q I M..X,.#.#.#.#.#.#.#.#.#.#.#.#.#.#.#.#.#.#.#.#.T J P.-X6.5.O.#.#.#.#.#.#.#.#.#.#.#.#.#.#.#.#.#.#.#.[ S Y ! Q T S Y U ! Q A P T T Q Q Q Q T T T T P s.>X[.....................#.....#...#.#.#.#.#.#.............#.#.#...#...#.#.#.#...#.............#.#.#.........#.#.#.#.#.....#.#.#.#...#.#.#...#.#.#...............#.#.#.#.#.#.#.#.#.........#.#.#.#...#.#.#.#.#.#.#...#.#.........#.#.#.#...........#.#.#.#.#.............#.#.#.............#.............Y C Y Y T Q ! ! Q Q Q ! U P #.dXq.Q Q T I Q.wX-.Q Q Y D aXQ.-.#.#.#.#.#.#.#.#.#.#.#.#.#.Q T Y P D D D S C aXdXsXx.#.-.2.5.#.#.#.#.#.#.#.#.#.#.#.#.#.#.#.#.#.#.#.#.#.#.#.#.#.#.",
"A -.#.#.#.#.#.#.#.#.#.#.#.#.#.#.#.#.#.#.#.#.#.#.#.#.#.#.[ -.! T T T T T T Q Q [ ..#.#.#.#.#.#.#.....Q S P ! Q ! Z D T Q Q Y S P T T Q Q Q Q Q ! T ~ Y :.x.4...............#.#.#...#.#.#.#.#.#.#.#...#.#.#.#.#.#.#.........#.#.#.#.#.#.........#.#...#.#.#.......#.#.#.....#.#.#.#...#.#.#.#.#.#.#.#.#.#.#.#.#.#.......#.#.#.#.#.#.O.#...#.#.#.....#.#.#.#.#.#...#.#.#.#.#.#.#.#.#.#.#.#.#.......#.#.#.#...........#.......#.#...............................T x D U T T ! Q ! ! Q T T P D }.v.Q Q ! P Q./.*.Q T P M..X,.#.#.#.#.#.#.#.#.#.#.#.#.#.#.#.#.#.#.#.#.T J H.6X6.5...#.#.#.#.#.#.#.#.#.#.#.#.#.#.#.#.#.#.#.[ S Y ! Q T S Y T Q Q A P T T ! Q Q Q T T T T P s.>X[...........................#.....#.....#.#.#.......#.#.#.#.#.#.........#.#.#.#.........#.#.#.#.#.#.#...#.#.#.#.#.......#.#.#...#.#.#.#.#.#.#.#...#.#.#.#.O...#.#.#.#.#.#.#.#.#.....#.#.#.O.#.#.#.#.#.#.#.#.#.#...#.#.#.#.#.#.#.#...#.#.#.#.#.#.........#.#...#.#.#.#.........#.#...#.#...............Y C Y Y T ! ! ! Q Q Q ! ~ P #.dXq.Q Q ! I Q.qX-.] Q T D aXQ.-.#.#.#.#.#.#.#.#.#.#.#.#.#.Q T P P J D D S C 5XdX6Xx.#.*.2.8.#.#.#.#.#.#.#.#.#.#.#.#.#.#.#.#.#.#.#.#.#.#.#.#.#.#.",
"A -.#.#.#.#.#.#.#.#.#.#.#.#.#.#.#.#.#.#.#.#.#.#.#.#.#.#.[ -.T T T T T T T T Q [ ..#.#.#.#.#.#.#.....Q S P ! Q ! Z D T ! Q Y S P T T Q Q Q ! ! ! T ~ Y :.x.4.......................#.#.#.#.#.#.#.....#.#.#.#.#.#.#.#.........#.#.#.#.......#...#.#...#.#.#.#...#.#.#.#...#.#.#.#.#.#.#.#.#.#.#.#.#.#.#...#.#.#.#.#.#...#.#.#.#.#...#.#...#.#.#.....#.#.#.#.#.#...#.#.#.#.#.#.#.#.#.#.#.#.#.#.......#.#.#...............#...#.#...............................T x D U T T ! ! ! ! Q T T Y D }.M.Q Q ! P Q./.=.Q T P M..X,.#.#.#.#.#.#.#.#.#.#.#.#.#.#.#.#.#.#.#.#.T J J.,X6.5...#.#.#.#.#.#.#.#.#.#.#.#.#.#.#.#.#.#.#.[ Z P ! Q T S Y T Q Q A P T T T Q Q ! T T T T P q.>X[.[ ........................#.#.........#.#.#.#.....#.#.#.#.#.#.........#.#.#.#.........#.#.#.#.#.#.#...#.#.#.#.#.#.#.#.O.#.....#.#.#.#.#.#.#.#...#.#.#.#.#.#.#.#.#.#.#.#.#.#.#...#.#.#.#...#.#.#.#.#.#.#.#.#.#...#.#.#.#.#.#.#.....#.#...#.#.#.........#.#...#.#.#...........#.#.....................U N T T T ! ! ! Q Q Q T U P #.dXq.Q Q ! I Q.qX=.Q Q T D aXQ.-.#.#.#.#.#.#.#.#.#.#.#.#.#.[ T P P J D D S C iXpXuXx.#.*.2.8.#.#.#.#.#.#.#.#.#.#.#.#.#.#.#.#.#.#.#.#.#.#.#.#.#.#.",
"A -.#.#.#.#.#.#.#.#.#.#.#.#.#.#.#.#.#.#.#.#.#.#.#.#.#.#.[ -.! T T T T T T Q Q [ ..#.#.#.#.#.#.#.....Q S P ! Q ! Z D T ! Q Y S P T T Q Q Q Q ! Q T T Y :.x.2.........................#.#.#.#.#...............#.#.#.#.#.#...#.#.#.........#.#.#.#.#.#.#.#.#.#...#.#.#.#.#.....#.#.#.#.#.#.#.#.#...............#.#.#.#.#.#.#.#.#.#.#.#...#.#.#.#.#.....#.#.#.#.....#.#.................#.#.#.#.#.#.....#.#...#.#.#.#.....#...#.#...............................T x D U T T T ! ! ! Q ! T P D }.v.Q Q T P Q./.*.Q T P s..X,.#.#.#.#.#.#.#.#.#.#.#.#.#.#.#.#.#.#.#.#.T J P.=X6.5.O.#.O.#.#.#.#.#.#.#.#.#.#.#.#.#.#.#.#.#.[ A P ! Q T S Y Q Q ! C P T T T Q Q Q ! T U T P q.>X`.[ [ ..[ ......[ ..#.....#.#.#.#.......#.#.#.#.......#.....#...#.#.#.#.#.#.#.#.#.#.......#.....#.O.......#.#.#.#.#.#.#.O.#.#...#.#...#.#.#.#.#...O.#.#.#.#.#.#.#.#...#.#.#.#.#...#.#.O.O...#.O.#.#...O.#.#.#.#...#.#.#.#.#.........#.#.....#.#.#.#.........#.#.#.#.#.#.....#.#.#.#.....#.............U C T T ! ! ! Q Q Q Q T Y I *.dXq.Q Q ! I Q.qX-.Q Q T D aXQ.-.......#.#.#.#.#.#.#.#.#.#.Q T Y P J D D S C aXdXpXx.#.*.2.6.#.#.#.#.#.#.#.#.#.#.#.#.#.#.#.#.#.#.#.#.#.#.#.#.#.#.",
"A -.#.#.#.#.#.#.#.#.#.#.#.#.#.#.#.#.#.#.#.#.#.#.#.#.#.#.[ -.Q T T T T T T Q Q [ ..#.#.#.#.#.#.#.#.#.Q S P ! Q ! S D T ! Q Y S P T T Q Q Q Q ! ! T ~ I :.x.2...................#...#.#.#.#.#.#.................#.#.#.#.#...#.#.#.....#.#.#.#.#.#.#.#.#.#.#.#...#.#.#.#.#.#.#.#.#.#.#.#.#.#.#.#.....#.#.....#.#.#.#.#.#.#.#.#.#.#.#.#...#...#.#.#.#.#.#.#.#.O.....#.#.................#.#.#.#.#.#.....#.#.#.#.#.#.#.#.#.#...#.................................T x D U T T ! ! Q Q ! ! T P D }.v.Q Q T P Q./.*.Q T P s..X,.#.#.#.#.#.#.#.#.#.#.#.#.#.#.#.#.#.#.#.#.T J F.6X6.5.O.#.O.#.#.#.#.#.#.#.#.#.#.#.#.#.#.#.#.#.[ A P T Q T S Y Q Q ! C P T T ! Q ! ! ! T U T P s.#X{.[ [ [ [ [ ..[ [ ........#.#.#.#...#...#.#.#.........#.........#.#.#.#.#.#.#.#.#.#.#.....#.....#.........#.#.#.#.#.#.#.#.#.#.#.#.#...O.#.#.#.#.....#.#.#.#.#.#.#.#.#.#.#.#.#.#.#.#.#.#.....#.#.#.#.....#.#.#.....#.#.#.#.#.........#.#.....#.#.#.#...#...#.#.#.#.#.#.#.....#.#.#.#.#.................U C T T ! ! ! ! Q Q Q T P I *.dXg.Q Q ! I Q.qX-.Q Q T D aXQ.-.......#.#.#.#.#.#.#.#.#.#.Q T Y P D D D S N OXdX5Xx.#.-.2.5.#.#.#.#.#.#.#.#.#.#.#.#.#.#.#.#.#.#.#.#.#.#.#.#.#.#.",
"A -.#.#.#.#.#.#.#.#.#.#.#.#.#.#.#.#.#.#.#.#.#.#.#.#.#.#.[ -.! T T T T T T Q Q [ ..#.#.#.#.#.#.#.#.#.Q S P ! Q ! S D T ! Q Y S P T T Q Q Q Q Q ! T ~ I :.x.2.........................#.#.#.#.........................#.#.#.#.#.#...#.#.#.....#.#.#.#.#.#.#.#.#.#.......#.#.#.#.#.#.#.#.#.#.#...#.O.#.#.#.#...O.#.#.#.#.#.#.#.#.#.#.#.........#.#.#.#.O.#.#.#.#.#.#.#.................#.#.#...#.#.........#.#.#.#...#.#.#...#.#...............................T x D ~ T T ! Q Q ! ! T T P D }.v.Q Q T P Q./.*.Q T P s..X,.#.#.#.#.#.#.#.#.#.#.#.#.#.#.#.#.#.#.#.#.T J J.-X6.5.O.#.#.#.#.#.#.#.#.#.#.#.#.#.#.#.#.#.#.#.[ A P T Q T A Y ! Q ! C P T T T Q ! T T ! T U I q.#X{.[ ..[ [ [ ..[ ..........#...#...#.#.....#.................#.....#.#.#.#.#.#.#.#.#.#.#.#.#.#.......#.#.....#.#.#.#.#.#.#.#.#.#.#.#.....#.#.....#.#.#.#.#.#.#.#.#...#.#.........#.#.#.#...#.#.#.#.#.#...#...#.O...#.#.#.#.......#.#.#.#.........#.#.#.#.....#.#.#.#.#.#.#.#.#.#.#.#.#.#...............T C T ~ ! ! ! ! Q Q Q T P I S dXg.Q Q ! I Q.aX-.] Q T D aX'.:.....#.#.#.#.#.#.#.#.#.#.#.Q T Y P J D D S C <XpXuXm.#.*.2.6.#.#.#.#.#.#.#.#.#.#.#.#.#.#.#.#.#.#.#.#.#.#.#.#.#.#.",
"A -.#.#.#.#.#.#.#.#.#.#.#.#.#.#.#.#.#.#.#.#.#.#.#.#.#.#.[ -.T T T T T T T T Q [ ..#.#.#.#.#.#.#.#.#.Q D P ! Q ! S D T ! Q Y S P T T Q Q Q Q Q ! T ~ I :.x.2...............#...#.....#.#.#.#...........#.....#.#.....#.#.#.#.#.#.#.#.#.#.....#.#.#.#.#.#.#.#.#.#.......#.#.#.#.O.#.#.#...#.#...#.#.O.#.#.#...#.#...#.#.#.#.#.#.#.#.#.........#.#.#.#...#.#.#.#.#.#.#.............#.#.#.#.....#.#.....#.#.#.#.#...#.#.#.#.#.#.{ ..#...........................T x D ~ T T T Q Q ! ! T T P D }.A.Q Q T P Q./.*.Q T P s..X,.#.#.#.#.#.#.#.#.#.#.#.#.#.#.#.#.#.#.#.#.T J P.OX5.5.O.#.#.#.#.#.#.#.#.#.#.#.#.#.#.#.#.#.#.#.[ A P T Q T A Y T ! ! C P T T T T ! ! ! Q T U I s.#X`.[ [ [ [ [ ..[ ..............#.#.#.#.#.....................#.#...#.#.#.#.#.#...#.#.#.#.#.#.#.......O.#.....#.#...#...#.#.#.#...O.#...O.#.#.....#.#.#.#.#.#...#.#...#.#...#.#...#.#.#.#.O.#.#.#.#.#.....#...#.O.....#.#.#.#.....#.....#.....#.#.#.#.#.#.#...#.#...#.....#.#.#...#.#...#...............T C T ~ ! ! ! Q Q Q Q T Y I S dXv.Q Q ! I Q.aX-.] Q T D aX}.2.#...#.#.#.#.#.#.#.#.#.#.#.[ T P P J D D A C qXsXpXm.#.*.2.8.#.#.#.#.#.#.#.#.#.#.#.#.#.#.#.#.#.#.#.#.#.#.#.#.#.#.",
"A -.#.#.#.#.#.#.#.#.#.#.#.#.#.#.#.#.#.#.#.#.#.#.#.#.#.#.[ -.! T T T T T T Q Q [ ..#.#.#.#.#.#.#...#.Q D P ! Q Q S D T Q Q Y S P T T Q Q Q Q Q ! T ~ Y :.x.4.................#.#.....#.#.#...........#.#.#.#.#.#.........#.#.#.#.#.#.#.#.......#.#.#.#.#.....#.......#.#.#.#...O.#.#.....#.#.#.#.#.#.#.#.#.#.#.#.#.#.#.#.#.#.#.#.#.#.#.#...#.#.#.#.#.#.#.O...#.#.#.#.#.#.#.#.#...#.#.#.#.........#.#.#.#.#.#.........#...#.....#.............................T x D Y T T Q Q ! T T T T P D }.A.Q Q T P Q./.-.Q T P s..X,.#.#.#.#.#.#.#.#.#.#.#.#.#.#.#.#.#.#.#.#.T J Q.5X5.5.O.#.#.#.#.#.#.#.#.#.#.#.#.#.#.#.#.#.#.#.[ A P T Q T A Y T ! ! A P T T T T T T ! ! T T P s.#X`.[ [ [ [ [ ..[ [ ..................#.#.....#.#...#.....#.#.#.#.......#.#.#.#.......#.#.#.#.#.#.....#.#.#.#...#.......#.#.#.#.#.#...#.#.#.#.#.#...............#.#...#.#.#.#.#.#.#.#.#...#.#.#.#.#.#.#.#.#...#.........#.#...........#.#.#.#.#.#.#.#.#...#.#.#.#.........#.#...........................T C ~ ~ ! ! Q Q Q Q Q T Y P S dXk.Q Q ! I Q.aX-.] Q T D aX}.2.#...#.#.#.#.#.#.#.#.#.#.#.Q T Y P J D D A C W.dX5Xm.#.*.2.6.#.#.#.#.#.#.#.#.#.#.#.#.#.#.#.#.#.#.#.#.#.#.#.#.#.#.",
"A -.#.#.#.#.#.#.#.#.#.#.#.#.#.#.#.#.#.#.#.#.#.#.#.#.#.#.[ -.Q T T T T T T Q Q [ ..#.#.#.#.#.#.#...#.Q D P T Q Q S D T Q Q Y S P T T Q Q Q Q Q ! ! T Y :.x.4.................#.#.....#.#.#.#.........#.#.#.#.#.#.......#.#.#.....#.#.#.#.......#.#.#.........#.........#.#.#.....#.#.....#.#.#.#.#.#.#.#.#.#.#.#.#.#...#.#.#.#...#.#.....#.#.#.#.#.#.#.#...#.#.#.#.#.#.#.#.#.#.#.#.#.#.#.........#.#.#.#.#.............#.#.{ #.#.............................T x P P T T Q Q ! T T T Y P D }.A.Q Q T P Q./.-.Q T I s..X,.#.#.#.#.#.#.#.#.#.#.#.#.#.#.#.#.#.#.#.#.T J x.-X5.5.O.#.#.#.#.#.#.#.#.#.#.#.#.#.#.#.#.#.#.#.[ A P T Q T S Y ! Q ! A P Y T T T T T T T Y U P s.#X=X[ [ [ [ [ ....[ ....................#.#.#.#.#.#.#.#.#.#.#.#.......#.#.#.#.#...........#.#.#.#.#...#.#.#.#.#.#.............#.#.#.#.#.#.#.#.#.#.................#.#.#.#.#.#.#.#.#.#.#...#.#.#.#.#.#.#.#.#.....#.......#.#.........#.#.#.#.....#.#.#.#.....#.#.#.........#.#...........................T C ~ ~ ! ! ! Q Q Q Q T P P S dXv.Q Q ! I Q.aX-.] Q T D aX}.2.#...#.#.#.#.#.#.#.#.#.#.#.Q T Y P D D D S N 2XpXuXm.#.-.2.5.#.#.#.#.#.#.#.#.#.#.#.#.#.#.#.#.#.#.#.#.#.#.#.#.#.#.",
"A -.#.#.#.#.#.#.#.#.#.#.#.#.#.#.#.#.#.#.#.#.#.#.#.#.....[ -.! T T T T T T Q Q [ ..#.#.#.#.#.#.#.#.#.Q D P T Q ! S D T Q Q Y S P T T Q Q Q Q Q ! ! U P :.x.4...............#.#.....#.....#.#.#.#.#.#.#.#.#.#.#.#.#.......................#.#.#.#.#...#.#.#.#.#.#.#.#.#.#.#.#.....#.#.#.#.#.#.....#.#.#.#.#.#.#.#.#.#.#.#.#.#.#...........#.#.#.#...#.#.#.#.#.#.#.#.#.....#.#.#.#.#.#.....#.#.#.#.#.#.....#.#.#.#.#.#.#.#.....#.#.............................T x P P T T ! ! T T T T P P D }.A.! Q T P v./.-.Q T I s..X2.&.#.#.#.#.#.#.#.#.#.#.#.#.#.#.#.#.#.#.#.T J x.`.5.5...#.#.#.#.#.#.#.#.#.#.#.#.#.#.#.#.#.#.#.[ A P ! Q T S P ! Q ! C P Y T T T T T T U T T I t.#X=X[ [ [ ..[ ....[ ....................#.#.#.#.#.#.#.#.#.........#.#.#...#.#.#.....#.#.#.#.#.#.#.O...#.#.....#.#.#...........#.#.#...#.#...#.#.#.#.#...#.O...#.#.#.....#.#.#.#.#.#.#.........#.#.#.#.#.#.#.#.......#.#.#.#.#.......#.#.#.#.#.#.#.#.#.......#.#.#.........#.#...#...#.#...#.............T C T ~ T ! ! Q Q Q ! ! U P S dXv.Q Q ! P Q.aX-.] Q Y D aX}.,.#.#.#.#.#.#.#.#.#.#.#.#.#.Q T Y P J D D A C qXsXpXm.#.*.2.5.#.#.#.#.#.#.#.#.#.#.#.#.#.#.#.#.#.#.#.#.#.#.#.#.#.#.",
"A -.#.#.#.#.#.#.#.#.#.#.#.#.#.#.#.#.#.#.#.#.#.#.#.#.....Q -.T T T T T T T T Q [ ..#.#.#.#.#.#.#.#.#.Q D P T Q Q D D T Q Q Y S P T T Q Q Q ! Q ! ! T P :.x.4...............#.#...#.......#.#.#.#.#.#.#.#.#.#.#.#.#.#.............#...O.#.#.#.#.#.....#.#.#.#.#.#.#...#.#.#.#.....#.#.#.#.#.......#.#.#.#.#.#.#.#.#.#...#.#.........#.....#.#.#.#.#.#.#...#.#.#.#.#.#.........#.#.........#.#.#.#.#.#.....#.#.#.#.#...#.#...#.................................T x P P T T T T T T T Y P P D }.B.! Q T P v./.-.Q ~ I s..X2.&.#.#.#.#.#.#.#.#.#.#.#.#.#.#.#.#.#.#.#.T J M.,X5.5...#.#.#.#.#.#.#.#.#.#.#.#.#.#.#.#.#.#.#.[ A P ! ! T S P T ! ! C P Y Y Y T T T Y T T U J t.#X>X......................................#.#.#...#.#.#.#.......#.#.#.#...#.#.#.#.#.#.#.#.#.#.#.#.....#.#...#.#.#.#.......#.#.#.#.#...#.#...#.#.#.#.#...#.#.#.#.#.#.#...#.#.#.#.#.#.#...O.....#.#.#.#.#.#.#.#.#...#.#.#.#.#.#.#.#...#...#.#...#.#.#.#.......#.#.#.#.........#.....#.#.#.#.#.............T C T ~ T ! ! Q Q Q Q ! T P Z dXv.Q Q ! I Q.aX-.] Q Y D aX}.,.#.#.#.#.#.#.#.#.#.#.#.#.#.[ T P P J D D A C qXdXsXm.#.*.2.6.#.#.#.#.#.#.#.#.#.#.#.#.#.#.#.#.#.#.#.#.#.#.#.#.#.#.",
"A -.#.#.#.#.#.#.#.#.#.#.#.#.#.#.#.#.#.#.#.#.#.#.#.#.#.#.[ -.! T T T T T T Q Q [ ..#.#.#.#.#.#.#.#.#.Q D P ! Q Q D G ! Q Q Y S P T T Q Q Q Q Q ! ! T P :.x.2...............#.#.#.#.#.....#.#.#.#.#.#.#.#.#.#.....#.......#...#.#.#...#.#.#.#...#.............#.#.#.....#.#.#.#...#.#.#.#.#.#...#.....#.#.#.#.#...#.#...#.#...#.#.#.#.....#.#.#.#.#.#.....O...#.#.#.#.#.#...#.#.#...#.#...#.#...#.#.......#.#.#.#.........#.#...[ ............................! x P P T T T T T U U Y P J D }.B.! Q T P v./.-.Q ~ I s.qX:.&.#.#.#.#.#.#.#.#.#.#.#.#.#.#.#.#.#.#.#.T J x.6X5.5...#.#.#.#.#.#.#.#.#.#.#.#.#.#.#.#.#.#.#.[ A J T ! T S P T ! ! C J P Y Y Y Y Y Y Y Y Y J w.<X=X..................................#.......#.#.#.#.........#.#.#.#...........#.#.#.....#.#.#.#.....#.#...#.#.#.#.#...#.#.#.#.#.#.#...#...#.#...#.#.#.#.#.#.#.#.#.#.#.#.#.#...O.#...#.#.......#...#.....#.#.#.#.#.#.#.#.#.#.#.#.#.#...#.........#.#.........#.#.#.#.............#.#...................T C T ~ T ! ! ! Q Q ! ! T P S dXk.Q Q ! I Q.aX-.] Q T D aX}.,...#.#.#.#.#.#.#.#.#.#.#.#.] T Y P J D D A C 2XdX8Xm.#.*.2.8.#.#.#.#.#.#.#.#.#.#.#.#.#.#.#.#.#.#.#.#.#.#.#.#.#.#.",
"A -.#.#.#.#.#.#.#.#.#.#.#.#.#.#.#.#.#.#.#.#.#.#.#.#.#.O.[ -.Q T T T T T T Q Q [ ..#.#.#.#.#.#.#.#.#.Q D P ! Q Q D D T Q Q Y S P T T Q Q Q Q Q ! T T P :.x.2...............#.....#.#.........#.#...#.#.#.#.#.....#...#.#.#.#.#.#.#.#.#.#.#.#.................#.#.#...#.#.#.#.#.#.#.#.#.#.#.#.#...#.#...#.#.#.#.#.#.#.#.#.#.#.#.#.#.#...#.#.#.....#.#.O.....#.#.#.#.#.#.#.#.#.#.#.#.#.#.#.#.#...............#.#.#.........#.#.................................! x J P T T T T U Y Y Y P D Z }.B.T ! T P v./.-.Q ~ Y s.qX:.#.#.#.#.#.#.#.#.#.#.#.#.#.#.#.#.#.#.#.#.T J x.).5.5.[ #.#.#.#.#.#.#.#.#.#.#.#.#.#.#.#.#.#.#.[ C J T ! T S P T ! T N D P P Y Y P Y Y P P P J 9.>X=X................................#.#.....#.#.#.#.#.#.......#.#.#.#.........#.#.#.......#.#.#.......#.#.#.#.#.#.#.#...#.#.#.#.#.#.#.......#.#...#.#.#.#.#.#.#.#.#.#.#.#.#.#.#...#.#.#.#...O.#.#.#.......#.#.#.#.#.#.#.#.#.#.#.#.#.#.#...........#.#.O.#.....#.#.#.#...#...........#...................T C T ~ ! ! ! ! Q Q Q ! U P S dXk.Q Q ! I M.aX-.] Q T D qX}.,.....#.#.#.#.#.#.#.#.#.#.#.Q T Y P D D D A N qXsXpXm.#.-.2.8.#.#.#.#.#.#.#.#.#.#.#.#.#.#.#.#.#.#.#.#.#.#.#.#.#.#.",
"A -.#.#.#.#.#.#.#.#.#.#.#.#.#.#.#.#.#.#.#.#.#.#.#.#.#.#.[ -.! T T T T T T Q Q [ ..#.#.#.#.#.#.#.#.#.Q D ^ ! Q ! S D T Q Q Y S P T T Q Q Q Q Q ! T T Y :.x.2...............#.....#.#...#.......#.....#.#.#.#.....#.#.#.#.....#.#.#.#.#.#.#.#.................#.#.#.#.#.#.#.#.#.#.....O...#.#.#.#.#.#.#.#.#.#.#.#...#.#.#.#.#.#.#.#.#.#.#.#.#.......#.#.#.O.#.#.#.#.#.#.#.#.#.#.#.#.#.#.#.............#.#...........#.#...#...#.#.............................T x J P T T Y Y Y Y P I J D Z }.B.~ ! T P v./.-.! ~ I s.qX:.&.#.#.#.#.#.#.#.#.#.#.#.#.#.#.#.#.#.#.#.T J M.-X5.5.[ #.#.#.#.#.#.#.#.#.#.#.#.#.#.#.#.#.#.#.[ C J T ! T S P T ! T N D J P P P P P P P P P J #.>X=X................................#.#.......#.#.#.#.....#.#.#.#.#...........#...#...#.#...#.#...#.#.#.O.#.#.#.#.#.#.#.#.#.#.#.#.#.#.#.#.#.#.#.......#.#.#.#.#.#.#.#.#.#.#.#.#...#.#.......#.#.#.#.#.#.#.#.....#.....#.#.#.#.#...#.....#.#.#.#...#.#.#.#.......#.#.#.#.#.....#.#.#.....................T C T T ! ! ! ! Q Q ! ! T P Z dXk.Q Q ! I M.aX-.] Q U D qX'.-.....#.#.#.#.#.#.#.#.#.#.#.] T Y P J D D A N qXdXsXm.#.=.2.8.#.#.#.#.#.#.#.#.#.#.#.#.#.#.#.#.#.#.#.#.#.#.#.#.#.#.",
"A -.#.#.#.#.#.#.#.#.#.#.#.#.#.#.#.#.#.#.#.#.#.#.#.#.#.#.Q -.Q T T T T T T T Q [ ..#.#.#.#.#.#.#.#.#.Q D ^ ! Q ! S D T Q Q Y S P T T Q Q Q ! Q ! T T Y :.x.2.............#.#.#.#.#.#.#.#.............#.#.#.#.....#.#...#.....#.#.#.#.#.#.#.#.................#.#.#.#.#.#.#...#.#.....#.#.#.#.#.#.#.#.#.#.#.#.O.#...O.#.#.#.#.#.#.#.#.#.#.#.#.......#.#.O.#.#.O.#.#...#.#.#.#.#.#.#.#.#.#.#.#.......#.#.#.........#.#.#.#...................[ [ [ [ ......[ [ T x J P P Y P P P P P P J H A }.V.Y Y Y P v./.-.! U P s.qX-.#.#.#.#.#.#.#.#.#.#.#.#.#.#.#.#.#.#.#.#.T J x.6X5.5.[ #.#.#.#.#.#.#.#.#.#.#.#.#.#.#.#.#.#.#.[ C J T ! T S P T ! T x D J P P I P P P P P P D #.<X+X..................................#.#.......#.#.#.....#.#.#.#.#.#.........#...#...#.#...#.#...#.#.#...#.#.#.#.#.#.#.#.#.#.#.#.#.#.#.#.#.#.#.#.....#.#.#.#.#.#.#.#.#.#.#.#.#.#.#.#.#.#...O.#.#.#.#.#.#.#.#.#.#.#.#.#.#.#.#.#.#.#...#.#.#.#.#...O.#.O.#.......#.#.#...#.....#.#.......................T C T ~ ! ! ! ! Q Q Q ! T P Z dXk.Q Q ! I M.aX-.] Q T D qX'.-.....#.#.#.#.#.#.#.#.#.#.#.[ T P P J D D S C =XdX7Xm.#.*.2.8.#.#.#.#.#.#.#.#.#.#.#.#.#.#.#.#.#.#.#.#.#.#.#.#.#.#.",
"A -.#.#.#.#.#.#.#.#.#.#.#.#.#.#.#.#.#.#.#.#.#.#.#.#.#.#.[ -.Q T T T T T T Q Q [ ..#.#.#.#.#.#.#.#.#.Q D ^ ! Q ! S D T Q Q Y S P T T Q Q Q Q Q ! T T Y :.x.2.............#.#.#.#.............#.#.......#.#.#.#...#.#.#.#.....#.#.....#.#.#.#.#.#...#.#...#.#.#.#.#.#.#.......#.#.#.#.#.#.#.#.#.#.....#.#.#.........#.#.#...#.#...#.#.#.#.#.#.#.#.#.#.....#.#.#.#.O.....#.#.#.#.#.....#.#.#.#.#.#.....#.#.#.#.....#.#.#.#...................[ [ [ [ ......[ ] T x D P P P P P P P P P J D A Q.V.P Y Y J v./.-.Q U P s.qX-.#.#.#.#.#.#.#.#.#.#.#.#.#.#.#.#.#.#.#.#.T J x.-X5.5.[ #.O.O.#.#.#.#.#.#.#.#.#.#.#.#.#.#.#.#.[ C J T ! T S P T T T x D D J P I P P I I P J D #.#X+X..................................#.#.........#.#...#.#.#.#.#.#.#.#.#.#.#.#.....#.#.#.....#.#.#.#.#.......#.#.#.#.#.#.#.#.....#...#.#.#.#.#.#.....#.#.#.#...#...#.#.O.#...#.#.#...#.#.#.#.#...#.#.#.#.....#.#.#.#.....#.#.#.#.....#.#.#.#.#.#.......#.#.#...#.#.#.........#.#.#.#...................T C ~ ~ T ! ! ! Q Q Q ! T P Z dXk.Q Q ! I M.aX-.Q Q T D qX}.,.#.#.#.#.#.#.#.#.#.#.#.#.#.[ T Y P H D D S N <XpXuXm.#.*.2.8.#.#.#.#.#.#.#.#.#.#.#.#.#.#.#.#.#.#.#.#.#.#.#.#.#.#.",
"A -.#.#.#.#.#.#.#.#.#.#.#.#.#.#.#.#.#.#.#.#.#.#.#.#.#.#.[ -.Q T T T T T T Q Q [ ..#.#.#.#.#.#.#.#.#.Q D ^ ! Q Q S D T Q Q Y S P T T Q Q Q Q Q ! T ~ Y s.x.2...........#...#.................#.#.......#.#.#.....#.#.#.......#.#.......#.#.#.#.#.#.#.#.#.#.#.#.#.#.#.#.#.....#.#.#.#.#.#.#.#.O.O.....#.#.#.......#.#.#.#...#.#.#.#.#.#.#...#.#.#.#.#...#.#.#.#.#.#.......#.#.#.......#.#.#.#.#.#.....#.#.#.#.#.#.#.#...#.................[ [ [ [ [ ....[ [ ] T x S P P P P P P P P P D D A Q.V.P Y U J v./.-.Q T P s.qX-.#.#.#.#.#.#.#.#.#.#.#.#.#.#.#.#.#.#.#.#.T J M.=X5.5.[ O.O.O.#.#.#.#.#.#.#.#.#.#.#.#.#.#.#.#...C P T T T S P T T T x D D D J J J P I P J J D ..[.[.[ ......[ [ [ [ ..........................#.#.#.#.......#.#.#.#.#.#.#...#.#.#.#.#.#.#...#.#.#.#.#.........#.#.#.#.#.O.#.#.....#...#.#.#.#.#.#.....#.#.#.#.......#.#.#.#.#.#.#.#...#.#.#.#.#.O.#.#.#.#.....#.#.#.#.#.......#.#.#.......#.#.#.#.#...#.#.#.#.#.#.#.#.#.......#.#.#.#.#.#...............T C ~ ~ T Q Q Q Q Q Q ! T P Z dXk.Q Q ! I M.iX-.Q Q T D qX'.,.#.#.#.#.#.#.#.#.#.#.#.#.#.Q T Y P D D D S N qXdXpXm.#.*.2.8.#.#.#.#.#.#.#.#.#.#.#.#.#.#.#.#.#.#.#.#.#.#.#.#.#.#.",
"A -.#.#.#.#.#.#.#.#.#.#.#.#.#.#.#.#.#.#.#.#.#.#.#.#.#.#.[ -.Q T T T T T T Q Q [ ..#.#.#.#.#.#.#.#.#.Q D P ! Q Q S D T Q Q Y S P T T Q Q Q Q Q ! T ~ I s.x.2.....................#...#.......#.#.........#.#.#.#.#.#.#.#...........#.#.#.#...#.#...O.#.#.#.#.........#.#.#.#.#...#.#.#.#.#.#...O.....#.#.#.#...#.#.#.#.#.#.#.#...#.#.#.#.#.#.#.#.#...#.#.#.#...#.#...#.#.#.#.#...#.#...#.#.#.#.#.....#.#.#.#.#.#.#.#.....................[ [ [ [ [ ......[ ] T x S J P P P P P P P J D D A Q.V.P P Y J M./.-.! T P s.qX-.#.#.#.#.#.#.#.#.#.#.#.#.#.#.#.#.#.#.#.#.T J x.6X5.5.[ #.#.#.#.#.#.#.#.#.#.#.#.#.#.#.#.#.#.O...A P T T T A P T T T x D D D J J J P P P P J D #. X{...[ [ ..[ [ [ [ ..............................#.#.#.......#.#.#.#.......#.#.#.#.#.........#.#.#.#...#.#.#.#.#.#.#.....#.#...........#.#.#...................#.#.#.#.#...#.#.#.#.#.#.#.#.#.#.#.#.#.#.#.#...#.#.#.#.#.#.#.#.#.#.#...#.#.#.#.#.#.#.#.#.#.#.#.....#.#.#.#.#.....#...#.#.#...............T C T T T Q Q Q Q Q ! ! T P Z dXk.Q Q ! I M.iX-.] Q T D qX/.-...#.#.#.#.#.#.#.#.#.#.#.#.[ T Y P H D D S N [.dX5Xn.#.*.2.8.#.#.#.#.#.#.#.#.#.#.#.#.#.#.#.#.#.#.#.#.#.#.#.#.#.#.",
"A -.#.#.#.#.#.#.#.#.#.#.#.#.#.#.#.#.#.#.#.#.#.#.#.#.#.#.] -.Q T T T T T T T Q [ ..#.#.#.#.#.#.#.#.#.Q D P ! Q Q S D T Q Q Y S P T T Q Q Q Q Q ! T ~ I s.x.2.................#...#...#.#.....#.#.#.......#.#.#.#.#.#.#.#.............#.#.#.#.#.#.#.#.#...#.#.............#.#.#.#...#.#.#.#.#.O.O.O...#.#.#.#...#.#.#.#.#.#.#.#.....#.#.#.#.#.#.#...#.#.#.#.#.......O.#.#.#.#.O...#.#.#.#...#...#.....#.#.#...#.#.#.#.....................[ [ [ [ [ ......[ ] T x S J P Y P P P P P J D D A Q.V.P P I J b..X-.! T P s.tX-.#.#.#.#.#.#.#.#.#.#.#.#.#.#.#.#.#.#.#.#.T J x.-X5.5.#.#.#.#.#.#.#.#.#.#.#.#.#.#.#.#.#.#.#.O...A J T T T A P P T T x D D D D J P P J P P J D #.>X[.[ [ [ ..[ [ [ [ ............................#.#.#.#.......#.#.#.#.........#.#.#.#.........#.#.#.#...#.#.#.#.#.#.#.....#.#.......#...#.#.#...#...............#.#.#.#.#...#.#.#.#.#.#.#.#.#.#.#.#.#.#.#.#.O.#.#.#.#.#.#.#.#.#.#.....#.#.#.#.#.#.#.#.#.#.#.#.....#.#.#.#.#.#...........................T C T T T ! Q Q Q Q ! ! T P S dXk.Q Q ! I M.iX-.] Q T D qX/.-.....#.#.#.#.#.#.#.#.#.#.#.[ T Y P J D D S C <XuXuXn.#.*.2.8.#.#.#.#.#.#.#.#.#.#.#.#.#.#.#.#.#.#.#.#.#.#.#.#.#.#.",
"A -.#.#.#.#.#.#.#.#.#.#.#.#.#.#.#.#.#.#.#.#.#.#.#.#.#.#.[ -.Q T T T T T T Q Q [ ..#.#.#.#.#.#.#...#.Q D P ! Q Q S D T Q Q Y S P T T Q Q Q Q Q ! T ~ I s.x.2.......#.#.#.#.#.#.#.#.#.#.#...#.#.#.#.#.....#.#.#.#.#.#.#.#.....#.#.#.#.#.#.#.#.#.#.#.#.#.#.#.#.........#.#.#.#.#.#.#.#.#.#.#.#.#.#.#.O.#.#.#.#...O.#.#.#.#.#.#.....O.#.........#.#...#.#.#.#.#.#.#...#.#.#.O.#.#.#.#.#...........#.#.#.#.#.........#.......................[ [ [ [ [ ......[ ] T x A J J P P J G G D D D S C Q.M.P P I J v..X=.T U P s.qX-.#.#.#.#.#.#.#.#.#.#.#.#.#.#.#.#.#.#.#.#.T J M.OX5.5.#.#.#.#.#.#.#.#.#.#.#.#.#.#.#.#.#.#.#.....A J T T T A P P Y T x D D D D J D J J J G D D O.[.`.[ [ [ ..[ [ [ [ ..........................#.#.#...#.....#.#.#.....#.#.........#.#.#.....#.#.#.#.#...#.#.#.#.#.#.#.#.......#.#.#.#.#.#.#.#.#.#.#.#.#.#.#...#.#.#.#.#.#.#.#.#.#.#.#.....#.#.#.#.#.#.#.#.#.....#.#.#.#.#.#.#.#...........#.#.#.#.#.#.#.#.#.......#.#.#.#.#.#.......#.#.#.#.............T N T T T ! ! ! Q Q ! ! T P S dXk.Q Q ! P M.iX-.] Q T D qX'.-.#.#.#.#.#.#.#.#.#.#.#.#.#.[ T Y P H D D S N qXsXpXn.#.*.2.8.#.#.#.#.#.#.#.#.#.#.#.#.#.#.#.#.#.#.#.#.#.#.#.#.#.#.",
"A -.#.#.#.#.#.#.#.#.#.#.#.#.#.#.#.#.#.#.#.#.#.#.#.#.#.#.[ -.Q T T T T T T Q Q [ ..#.#.#.#.#.#.#.....[ D P T Q Q S D T Q Q Y S P T T Q Q Q Q Q ! T ~ I s.x.2.......#...#.#.#.#.#.#.#.#.#...#.#.#.#.#.....#.#.#.......#.#.#...#.#.#.#.#.#.#.#.#.#.#.#.#.#.#.#.#...#...#.#.#.#.#.#.#...#.#.#.#.#.#.#.O.#.#.#.#...#.#.#.#.#.#.#.......#.......#...#...#.#.#.#.#.#...#.#.#.#...#.#.#.#.#...#.........#.#.#.#.........#.#.....................[ [ [ [ [ ....[ [ ] T x S J G D G D D D D D D A N Q.M.J I P D v..X&.T U P s.qX,.#.#.#.#.#.#.#.#.#.#.#.#.#.#.#.#.#.#.#.#.T J M.5X5.5.#.#.#.#.#.#.#.#.#.#.#.#.#.#.#.#.#.#.#.#...A J T T T A P P P T x S D D H D D D J G D D D ..{.).) [ [ [ [ [ [ ....................................#.#.#.#.....................#.#.#...#.#.#.#.#.......#.........#.#...#.#.#.#.#.#.#.#.#.#.#.#.#.#.#.#.#.#.#.#.#.#.#.#.#.#.#.#.#.......#.#...#.#.#.#.....#.....#.....#...#.#.................#.#.#.#.............#.#.#.#.#...#.....#.#.#.............T N T T T ! ! ! Q Q ! T T P S dXk.Q Q ! P M.iX-...Q T D qX'.,.#.#.#.#.#.#.#.#.#.#.#.#.#.Q T Y P D D D S N qXdXsXn.#.*.2.8.#.#.#.#.#.#.#.#.#.#.#.#.#.#.#.#.#.#.#.#.#.#.#.#.#.#.",
"A -.#.#.#.#.#.#.#.#.#.#.#.#.#.#.#.#.#.#.#.#.#.#.#.#.#.#.[ -.Q T T T T T T Q Q [ ..#.#.#.#.#.#.#.#.#.[ D J T ! Q S D T ! Q Y S P T T Q Q Q Q Q ! ! U Y s.x.2.......#...#...#.#.#.........#.#.#...#.#.#.#.............#.#.#.#.#.#.#.#.#.....#.#.#.#.#.#.#.#.#.#.#.#.#.#.#...#.#.#.#.#.#.#.#.#.#.#.#.#.#.#.#.#.#.#.#.....#.#.................#.O.#.#.#.#.#...#.#...#.#.#.#...#.#.#.....#.#.#.......#.#.#.#.#.#.....#.#.#.#.................[ [ [ [ [ ..[ ) ) Q T x D G G D D D D S D D A C N Q.M.G P D D M..X%.T U P t.qX-.#.#.#.#.#.#.#.#.#.#.#.#.#.#.#.#.#.#.#.#.T J x.=X2.5.#.O.#.#.#.#.#.#.#.#.#.#.#.#.#.#.#.#.#.....C J T T Y A J P J P x A D D D D D D D D D D D ..].E.Q [ [ ) [ [ [ ............................#.........#.#.......#.#.#.#.#.#.#.#.......#.#.#...#.#.#.#.#...#.#...#.#.O...#.#.#.#...#.#.#.#.#.#.#.#.#.#.#.#.#.#.#.#.#.#.#.#.#.#.#.#.#.....#.#.#.#.#.#.......#.#...#.........................#.#.#.#.#...........#.............#.#.#.#...#.....#.........! N T T T ! Q Q Q Q T T T P Z dXB.Q Q ! I M.iX-...Q T D qX'.,.#.#.#.#.#.#.#.#.#.#.#.#.#.[ T Y P H D D S N _.dXuXC.#.*.2.8.#.#.#.#.#.#.#.#.#.#.#.#.#.#.#.#.#.#.#.#.#.#.#.#.#.#.",
"A -.#.#.#.#.#.#.#.#.#.#.#.#.#.#.#.#.#.#.#.#.#.#.#.#.#.#.[ -.Q T T T T T T T Q [ ..#.#.#.#.#.#.#.#.#.[ D J T ! Q D D T ! Q Y A P T T Q Q ! ! Q ! ! T Y s.x.2.......#...#...#.............#.#.#...#.#.#.#...#.........#.#.#.#.#.#...#.#.#.#.O.#.#.#.#.#...#.#.#.#.#.#.#.#.#.#.#.#.#.#.#.#.#.#.#.#.#.#.#.#.#.#.#.#.#.#.#.#.#.#.....#.........#.#.#.#.#.#.#...#.#.#.#.#.#...#.#.#.#...#.#.#.#.........#.....#.#...#...#.#...................[ [ [ [ [ ....[ [ ] T x S D G D D D D S S Z A C b P.M.G D D S M.|...T U P t.qX-.#.#.#.#.#.#.#.#.#.#.#.#.#.#.#.#.#.#.#.#.T J v.`.2.5.#.O.#.#.#.#.#.#.#.#.#.#.#.#.#.#.#.#.#.....C J Y T P C D J J J k C S D D D D D D D D S A [ ).Y.T Q [ [ [ [ [ ..[ ..[ ....................#.....#...#.#.......#.#.#.#.#.#.#.#.......#.#.#...#.#.#.#.#.....#.#.#.#.....#.#.#.#...#.#.#.#.#.#.#.#.#.#.#.#.#.#.#.#.#.#.#.#.#.#.#.#.#.........#.#.#.#...#...#.O.#.....#.#.#.#.....#...........#.#.#.#.......#...#.............#.#.#.#...................! N U T T ! Q Q Q Q ! ! T I Z aXB.Q Q ! I M.iX-...Q T D qX.X2.#.#.#.#.#.#.#.#.#.#.#.#.#.[ T Y P J D D S C }.pXuXC.#.*.2.8.#.#.#.#.#.#.#.#.#.#.#.#.#.#.#.#.#.#.#.#.#.#.#.#.#.#.",
"A -.#.#.#.#.#.#.#.#.#.#.#.#.#.#.#.#.#.#.#.#.#.#.#.#.#.#.[ -.Q T T T T T T Q Q [ ..#.#.#.#.#.#.#.#.#.[ D J T ! Q S D T ! Q Y A P T T Q Q ! Q Q ! ! T Y s.x.2.......#...#.#...........#.#.#.#.........#.#.#.#.#.#.#.#.....#.#.....#.#.#.#.#.....#.#.#.........#.#...#.....#.#.#.#.#.#.#.#.#.#.#...#.#.#.#.#.#.#.#.#.#.#.#.#.#.#.#.#.#.....#.#.#.#.#.#.#.#.....#.#.#.#.#...#.#.....#.#.#.#.#.#.#...........#.#.#.#...#.#.......................[ [ [ ....[ [ ] T x C D D Z A Z A A A A C N x P.v.D Z D A M. X) Y U J t.qX-.#.#.#.#.#.#.[ ` V q 9 9 k P #.#.#.#.#.#.! J M.,X,.5.#.#.#.#.#.#.#.A d 2 2 9 d G #.#.#.#.#.#...C J P P J C D H D D g C A Z Z S A A A A A C N Q !.F.Y T Q [ [ ......[ ..[ ....................#.#.#.#.....#.#.....#.#.#.#.#.#.#.#.....#.#.#.#.........#.#.#.#.#.#.#.#.....#.#.#.#.#.#...#.#.#.....#.#.#.#.O.#.#...#.#.#.#.......O.#.#.#.....#...#.#.....#.#...#.#.#.#.#.#.#.#.#.#.#.#.......#.#.#.#...........#.#.#.#.....#...#.#.#.....#...............) b P P T ! Q ! ! Q Q ! T I A aXB.Q Q ! I M.dX-...Q T G qX.X2.#.#.#.#.#.#.#.#.#.#.#.#.#.[ T Y P H D D S N }.dXsXn.#.*.2.8.#.#.#.#.#.#.#.#.#.#.#.#.#.#.#.#.#.#.#.#.#.#.#.#.#.#.",
"A -.#.#.#.#.#.#.#.#.#.#.#.#.#.#.#.#.#.#.#.#.#.#.#.#.#.#.[ -.Q T T T T T T Q Q [ ..#.#.#.#.#.#.#.#.#.[ D J T ! Q S D T ! Q Y A P T T Q Q Q Q ! ! ! T Y s.x.2.........#.............#.#.#.#.#.................#.#.#.#.#.#.........#.#.#.#.#.....#.#.#...............#.....#.#.#.#.#.#.#.#.#.#.O...O.#.#.#.#.#.#.#.#...#.#.#.#.#.#.#.#.#.#.#.#.#.#.#.#.#.#.#...#.#.#.#.....#.....#.#.#.#.#.#.#.#...........#.#.#.#...#...#.#...............[ [ [ [ [ ) ) ) ] ] T x C D Z C C C C C C C N x x P.x.A A D A M. X! P P D t.qX-.#.#.#.#.#.` ( w w 0 3 * @ + , Q #.#.#.#.! J x.uX,.5.#.#.#.#.#.T 9 3 4 5 3 2 2 * 9 Q #.#.#.#...C D P P J C D D D D g C C A A C C C C C N C x Q P.m.P Y T Q [ ......[ ..[ [ ..................#.#.#.#.....#.#.......#.#.#.#.#.#.......#.#.#.#.#.#.....#.#.#.#.#.#.#.#.#...#.#.#.#...#...#.#.#.......#.#.#.O.#.O...#.#.#.#.#.#.#...#.#.#.#.....#.#.#.#...#.#.O.#.#.#.#.#.#.#.#.#.#.#.#.#.#.....#.#.#...........#.#.#.#.#.#.#.#.#.......#.#...............) b P P T ! Q ! ! Q ! ! T I D aXA.Q Q ! I M.dX-...Q T G qX.X2.#.#.#.#.#.#.#.#.#.#.#.#.#.] T Y P D D D S N E.dX8Xn...*.2.8.#.#.#.#.#.#.#.#.#.#.#.#.#.#.#.#.#.#.#.#.#.#.#.#.#.#.",
"A -.#.#.#.#.#.#.#.#.#.#.#.#.#.#.#.#.#.#.#.#.#.#.#.#.#.#.[ -.Q T T T T T T Q Q [ ..#.#.#.#.#.#.#.#.#.[ D J T ! Q S D T ! Q Y Z P T T Q Q Q ! ! ! ! U Y s.x.2...............#.#.#.#...#...#...........#.#.#.#...............#.#.#.#...#.#.#.#.....#.#...#.#.#.#.#.#.#.#.....#.#.#...#.#.#.#.#.....#.#.#.#.#.#.#.#.#.#.#.......#.#.#.#.#.#.#.#.#.#.#.#.#.#.#.#.#.#.#.#.#.........#.#.#.#.#.#.#.#.#.#...#.#...#.#.#...#...#.................[ [ [ [ [ [ [ [ ] ] T x C S Z C C C C C C C N x k P.g.C C C C M.{.Y D D S 9.qX-.#.#.#.#.' ( ( q @ @ @ + + + O , Q #.#.#.! J v.OX,.5.#.#.#.#.T 3 5 5 2 2 2 2 2 2 $ 9 Y #.#.#...C D P P D x C A S S g b C C C C C C C N N N x Q Y.m.P P T Q ........[ ....[ ..................#.#.#.#.....#.#.#.#.............#.#.#.#.#.#.#.#.#.#.O.......#.#.#.#.#.#.#.O.#.#.....#.#.#.#.#.#.#.#.#.#.#.#.#.#.#.O.#.#.#.#.#.#.#.#.#.#.#.#.#.#.#.#.#.#.#.#.#.#.#.#.#.#.......#.#...#.#.#.#.#.#.#.#.....#.#...#.#.#.#.#.#.#.#...........#.#...............Q N Y Y T ! ! ! ! Q Q ! T I D aXP.Q Q ! I M.dX-...Q T G qX.X2.#.#.#.#.#.#.#.#.#.#.#.#.#.[ T Y P H D D S N }.pXpXC.#.*.2.8.#.#.#.#.#.#.#.#.#.#.#.#.#.#.#.#.#.#.#.#.#.#.#.#.#.#.",
"A -.#.#.#.#.#.#.#.#.#.#.#.#.#.#.#.#.#.#.#.#.#.#.#.#.#.#.[ -.Q T T T T T T T Q [ ..#.#.#.#.#.#.#.#.#.[ D G T Q Q S D T ! Q Y Z P T T Q Q Q T Q Q ! U Y s.j.2.......#.#.#.#.#.#.#.#.......#.#.........#.#.#...............#.#.#.#.#...#.#.#.#.....#.#...#.#.#.#.#.#.#.#.#.....#.#.....#.#.#.#...#.#.#.#.O.#.#.#.#.#.#.#.#...#.#.#.#.#.#.#.#.#.#.#.#.#.....#.#.#.#.#.#.#...........#.#.#.#.#.#.#.#...#.#.........#.#...#.#.................[ [ [ [ [ [ [ ] Q Q T x C Z Z A C C N C N N N x k H.f.C C x N M.`.J Z A C 8.<X*.[ #.#.| ( ( 0 @ + o X   o + + o , #.#.#.T J M.5X,.5.#.#.#.] & 4 5 2 2 $ @ @ @ + @ # 7 Q #.#...C C A D C k x C C C s x N C C C C N N N C C x Q Y.m.J I T Q ........[ ..[ [ ..................#.#.#.#.....#.#.#.#...#.........#.#.#.#.#.#.#.#.O.#.#.......#.#.#.#.#.#.#.#.#.#.....#.#.#.#.O.#.#.#.#.#.#.#.#.#.#.#.....#.#.#.#.#.#.#.#...O.#.#.#.O.#.#.#.#.#.#.#.#.O...............#.#.#.#.#.#.#.....#.#.#.#.#.#.#.#.#.#.#.#.#.....#.#...................Q N Y Y T ! ! ! ! Q ! ! T I A aXP.Q Q ! I M.dX=...Q T G qX.X2.#.#.#.#.#.#.#.#.#.#.#.#.#.[ T Y P J D D S N }.sXpXF.#.*.2.8.#.#.#.#.#.#.#.#.#.#.#.#.#.#.#.#.#.#.#.#.#.#.#.#.#.#.",
"A -.#.#.#.#.#.#.#.#.#.#.#.#.#.#.#.#.#.#.#.#.#.#.#.#.#.#.[ -.Q T T T T T T Q Q [ ..#.#.#.#.#.#.#.#.#.[ D ^ T Q Q S D T Q Q Y Z P T T Q Q Q ! Q ! ! U Y s.j.2.......#.......#.............#.#.#.#...#.#.#.#...........#.#.#.#.#.#.#.#.#.#.#...#.#.#.....#...#.#.#.#.#.#.#.......#.#.#.#.#.#.#.#.#.#.#.....#.#.#.#.#.#.#.#.#.#.#.......#.#...#...........#.#.#.#.#.....#.#.....#.#...#.#.#.#.#.#.#.....#.#.#.#...............................[ [ [ [ [ [ ] Q Q U k N A C C C C N N N x x x g P.f.N C M x k.W.D C C C 9.2X[ [ #.#.' ( q # + 5 0 0 2 & + + o . D #.#.T H x.uX*.2.#.#.O.d 3 5 & & + + m * # + + @ + k #.#.O.N C A S C k M C C C s x b C C N N N N N N N x Q P.m.D P Y T [ [ ....[ [ [ [ ..................#.#.#.#.........#...#.#.#.#.#.#.#.#.....#.O.......#.#...#.#.#.#.#.#.#.#...#.#.#.....#.#.#.#.....#...#.#.#.#.#.#.#.#.#.#.#.#.#.#.#.#.#.#.....#.#.#...#.#.#.#.#.#.#.#.#.#.....#.#.#.#.#.#.#.#.#.#...#.#...#.#.#.#.#.#.#.#.....#.......#.#...................Q N Y Y T ! ! Q Q Q ! ! T I A aXA.Q Q ! I M.dX=...Q T D qX.X2.#.#.#.#.#.#.#.#.#.#.#.#.#.[ T Y P H D D S N W.dX7XF...*.2.8.&.#.#.#.#.#.#.#.#.#.#.#.#.#.#.#.#.#.#.#.#.#.#.#.#.#.",
"A -.#.#.#.#.#.#.#.#.#.#.#.#.#.#.#.#.#.#.#.#.#.#.#.#.#.#.[ -.Q T T T T T T Q Q [ ..#.#.#.#.#.#.#.#.#.[ D ^ T Q Q S D T Q Q Y Z P T T Q Q Q Q Q ! T T Y s.x.2.......#.#.#.................#.#.#.#.#.#.#.#.#.......#.#.#.#.#.#.#.#.#.O.#...#.#.#.#.#.........#.#.#.#.#.#.#.......#.#.#.#.#.#.#.#.#.#.#.O...O.#.#.#.#.#.#.#.#.#.........#...#.............#.#.....#.#.........#.#.#...#.#.#.#.#.#.......#.#.#.#...............................[ [ [ [ [ [ [ Q Q U j x C 9 # 1 1 1 7 9 9 9 9 i f.} s k j s 5.W.D C N b 8.2X[ [ #.` w w O o @ 0 4 5 5 5 4 # O o t #.#.T D M.6X#.:.#.#.O.& 4 2 & % + $ 2 2 2 4 @ o o , #.#.O.x A S A C g N C C | u h g h s s u t t t 9 , , D 9 1 $ k Y T ) [ ....[ [ [ ........................#.#.............#.#.#.#.#.#.#.#.....#.#.....O.......#.#...#.#.#.#.#.#.#.#.#...#.#.#.....O.O.O...#.#.#.#.#.#.#.#.#.#.....#...#.#.#.#...O.#.#.....#.#.#.#.#.#.#.#.#.#.O...#.....#.#.#.#.#.#.#...#.#...#.#...#.#.#.#.#.....#.........#...................Q N Y Y T ! ! Q Q ! ! ! T I Z aXA.Q Q ! P M.dX*...Q T D qX.X2.#.#.#.#.#.#.#.#.#.#.#.#.#.[ T Y P D D D S N }.uXuXF...*.2.7.&.#.#.#.#.#.#.#.#.#.#.#.#.#.#.#.#.#.#.#.#.#.#.#.#.#.",
"A -.#.#.#.#.#.#.#.#.#.#.#.#.#.#.#.#.#.#.#.#.#.#.#.#.#.#.[ -.Q T T T T T T Q Q [ ..#.#.#.#.#.#.#.....[ D P T Q Q S D T Q Q Y S P T T Q Q Q Q Q ! T U Y s.j.2.......#.#.#...#.....#.#.#.#.....#.#.#.#.#...#.#.#.#.#.#.#.#.#.#.#.#.#.....#.#.#.#.#.#...#.#.................#.#.#.#.#.#.#.#.#.#.#.#.#.#.#.#.#.#.O.#.#.......#.#.#.#.....#.#.#.#.........#.#.#.#...#.#...#.......#.#.....#.#.#.#.......#.#...#.#.#.........#.................[ [ [ [ ) [ [ ) Q Q U k x C 8 * * * * # & & & & 6 6 2 2 2 & & & & & & 6 6 L L a n n m 0 3 @ + 3 * 4 5 5 5 5 4 o O , #.#.T H M.5X#.-.#.#.J & 4 * # o $ 2 2 2 4 4 2 o d o B A B d a a 9 9 5 0 2 2 & & $ $ $ # # # # # # @ @ + + + # * k Y T ) ) ) ..[ [ [ ........................#.#.#.#.....#...#.#.#.#.#.#.#.#.#.#.#.......#.#.#.#.#.#.....#.#.#.#...#.#.#.#.#.#...#...#.#.#.O.#...#.#.#.....#.#.#.......#.#.O.#.#.#.#.#.#.#...#.#...#.#.#.#.#.#.#.#.#.#.#.#.#.#.#.#.#.#...#.#.#.#.#.#.....#.#.#.#.....#.#...........................Q C T U T ! ! Q Q Q Q ! T I Z aXA.Q Q ! I s.dX*...Q T J }..X2.O.O.#.#.#.#.#.#.#.#.#.#.#.[ T Y P D D D S N }.sXpXF...*.1.8.&.#.#.#.#.#.#.#.#.#.#.#.#.#.#.#.#.#.#.#.#.#.#.#.#.#.",
"A -.#.#.#.#.#.#.#.#.#.#.#.#.#.#.#.#.#.#.#.#.#.#.#.#.#.#.[ -.Q T T T T T T T Q [ ..#.#.#.#.#.#.#.....[ D P T Q Q S D T Q Q Y S P T T Q Q Q Q ! ! T T Y s.j.2...............#...#...#.#.#.#.#.#...#.#.#...#.#.#.#.#.#.#.#.#.#.#.#.#.#.#.O.#.#.#.#.#.#.#.#...#.............#.....#.#.#.#.#.#.#.#.#.#.#.#.#.#.#.O.#.#.#.#...#.#.#.#.....#.#.#.#...#.#.#.#.#.#.#.#.#.#.#.#.#...#.#.#.#.#.#.#.#...........#.#...#.#.#.......#.................[ [ [ [ [ [ [ ) Q Q U k x C 9 & & & * * & * * 2 2 2 2 2 2 & & & & & 2 & 2 2 & 2 3 4 5 5 5 5 4 O 4 5 5 5 5 5 4 o O . Q #.T H x.uX#.-.#.#.J & & & + . # 2 2 & 6 4 2 + @ & 4 4 4 4 2 2 4 4 2 2 & & & $ $ # # # # # # # # @ @ + + + @ $ k Y ! Q [ ) [ ..[ ..........................#.#.#.......#.....#.#.#...#.....#.#...#.#.#.#.#.....#.#.....#.#.#.#.....#.#...#.#.......#.#.#.O.....#.#.......#.#.#.....#.#.#.#.#.#.#.#.#.#...#.#.....#.#.#.#.#.#.#.#.#.#.#.#.#.#.#.#.#.#.#.#.#.......#.....#.#.#.#.....#.#...#.......................) C U T T T ! Q Q ! ! ! T I A aXA.Q Q ! P s.dX*...Q T J }..X2.#.#.#.#.#.#.#.#.#.#.#.#.#.[ T Y P J D D S N L.dXsXH.[ *.,.8.&.#.#.#.#.#.#.#.#.#.#.#.#.#.#.#.#.#.#.#.#.#.#.#.#.#.",
"A -.#.#.#.#.#.#.#.#.#.#.#.#.#.#.#.#.#.#.#.#.#.#.#.#.#.#.[ -.Q T T T T T T Q Q [ ..#.#.#.#.#.#.#.....[ D P T Q Q S D T Q Q Y S P T T Q Q Q Q ! ! ! U I s.j.2.............#.#.#.#...#.#.#.#.......#.#.........#.....#.........#.#.#.#.#...#.#.........#.#.#.#.......#.#.#.#.#...#.#...#.#.#.#.........#.#.#.#.O.....#.#.#.#.#...#...#.#.#.#.#.#.#.#.#.#.#.#.#.#.#.#.#.#.#...#.#.#.#.#...#.#...#...#.#.#.#...#.#.#.....#...................[ [ [ [ [ [ [ ] Q Q U k x C 9 & & & & * & * * & & & 2 & & & & & & & & & & 6 2 4 4 5 5 5 5 5 3 . 4 4 5 5 5 4 2 o O X ) #.T H M.5X#.:.#.#.J * & & O   # & 6 4 6 2 4 o @ * & & & $ $ 2 4 4 2 & & & $ $ $ $ # # # # @ # $ # # @ @ @ # * k Y Q ] [ [ [ ..[ ......................#.#.#.......#.#.#.#.......#.........#.#.#.#.#.#.#.#...#.#.#.......#.#.#.#...............#.#...#.#.#.#.#.#.#.#.#.#.#.#.#.....#.#.#.#.#.#.#.#.#.#...#.....#.#.#.#.....#.#.#.#.#.......#.#.#.#.............#.#.......#.#.#.#...#.#.#.#.....#...........#.....) C U T T T Q Q Q ! ! Q T P S aXA.Q Q ! P s.dX*...Q T J }..X2.#.#.#.#.#.#.#.#.#.#.#.#.#.[ ! Y P D D D S N ].uXuXL.[ *.,.7.&.#.#.#.#.#.#.#.#.#.#.#.#.#.#.#.#.#.#.#.#.#.#.#.#.#.",
"A -.#.#.#.#.#.#.#.#.#.#.#.#.#.#.#.#.#.#.#.#.#.#.#.#.#.#.[ -.Q T T T T T T Q Q [ ..#.#.#.#.#.#.#.#.#.[ D P T Q Q S D T Q Q Y Z P T T Q Q Q Q Q ! ! U Y s.j.2...............#...#...#.#.#.........#.#.......#.#.#.............#.#.#.#.....#...........#.#.#.#.#.#...#.#.#.#.#...#.#.#.#.#.#.......#.#.#.#.#.#.....#.#.#.#.#.#...#.#.#.#.#...#.#.#.#.#.#.#.#.#.#.#.#.#.#.#.#.#.#.#.O.#...#.#.......#.#.#.#...#.#.............................[ [ [ [ [ [ ] Q Q U k x A r & & & * # # @ @ @ # @ # @ # # @ S 1 9 9 7 9 9 i.B B G n & # . . 3 6 4 4 4 2 2 $ o O X #.#.T H 8.,X#.:.#.#.Y $ # & @   + 2 4 6 & & 2 o . . B Y J p g p p i 7 7 7 7 1 1 % % + + + + + $ $ $ $ # @ @ # * k Y Q ] [ [ [ [ [ [ ....................#.#.#.#.....#.#.#.#.......#.........#.#.#.#.#.#.#.#.#.#...........#.#.#.....#.......#.#.#.#.#.#.#.#.#.#.#.#.#.#.#.#.#.#...#.#.#.#.#.#.#.#.....#...#.....#.#.#.#.....#.#...#.#.#.#...#.#.#.#...#.#.........#.......#.#.#.....#.#.#.#.....#.#.#.......#.....) C U T T ! Q Q Q ! ! Q T P S aXA.Q Q ! P s.dX*...Q T J }..X2.#.#.#.#.#.#.#.#.#.#.#.#.#.[ ! Y P D D D S N }.pXuXH.[ *.1.5.&.#.#.#.#.#.#.#.#.#.#.#.#.#.#.#.#.#.#.#.#.#.#.#.#.#.",
"A -.#.#.#.#.#.#.#.#.#.#.#.#.#.#.#.#.#.#.#.#.#.#.#.#.#.#.[ -.Q T T T T T T Q Q [ ..#.#.#.#.#.#.#.#.#.[ D P T Q Q S D T Q Q Y S P T T Q Q Q Q Q ! T T Y s.j.2...............#...#...#.#.#.....#...#.#.....#.#.#.#.#.#.#.......#.#.#.#.#.#.#.#.........#.#.#.#.......#.#.#.#.#.....#.#...#.#...#.#.#.#.#.#.#.#.#...#.#...#.#.#.O.#.#.#.#.#.........#.#.#.#.#.#.#.#.#.#.#.#.#...#.#.........#.#.#...#.#.#.#...#.#.............................[ [ [ [ ) ) [ Q Q U k x S h 8 9 i i p p p g s s g.N.x C C M M.`.P A A C ..<X#.#.#.T 5 3 o o X # & 4 2 & $ o @ o k #.#.T J 8.uX=.2.#.#.] $ @ # # +   # 4 6 4 4 @ o O   #.O...C A Z D Z x C A A A g N C b N N x x g g g u t 7 -.S 9 N T Q ] ......[ [ [ ....................#...#.#.....#.#.#.#.....#.#.........#.#.#.#.#.......#.#.#.#.#.#.#.#.........#.#.......#...#.#.#.#.#.#...#.#.#.#.....#.#.#.#.#...#.#.#.#.#.#.#.#.#.#.#.#.#.....#.#.#.#.#.#.#.#.#.#.O.#.#.#.#...#.#.......#.#.........#.#.#.#.#.#.#.#...#.#...........#.....) C U ~ ! ! Q Q Q ! ! Q T P Z aXA.Q Q ! I s.dX*...Q T J }..X2...O.O.#.#.#.#.#.#.#.#.#.#.[ ! Y P D D D S N }.dXpXH.[ *.1.8.&.#.#.#.#.#.#.#.#.#.#.#.#.#.#.#.#.#.#.#.#.#.#.#.#.#.",
"A -.#.#.#.#.#.#.#.#.#.#.#.#.#.#.#.#.#.#.#.#.#.#.#.#.#.#.[ -.Q T T T T T T T Q [ ..#.#.#.#.#.#.#.#.#.[ D P T Q Q S D T T Q P S P T T Q Q Q ! Q ! T T Y s.j.2...............#.#.#...#.#.#.........#.#.....#.#.#.#.#.#.........#.#.#.#...#.#.#.........#.#.#.#.........#.#.#.#.........#.#.#.#.#.#.....#.#.#.#.........#.#.#.#.O.#...#.#.#.#.......#.#.#.....#.#.#.#.#.#.#.......#.......#.#.#.#.......#.....#.#.#...#...#...........................[ ) ) Q Q T x b D D D D D D D D S S C x Q.P.S A A C 8.`.P D D S #.qX*.#.#.#.d 2 * @ O X   @ @ . X @ @ X P #.#.! J 8.,X-.5.#.#.#.H @ @ # + o X o @ # + O + o h #.#...C Z D D D x C Z D S g C A S A S D D D D D D S .. XK.*.T Q ] ] [ ....[ [ ......................#.#.#.#.....#.#.#.#.......#.........#.#.#.#.........#.#.#.O.#.#.#.#.........#.#.#.#.....#.#.#.#.#.#...#.#.#.#.......O.O.#.O.#...#.#.#.#.#.#.#.#.#.#.#.#.#.O.#.#.#.#.#.#.#.#.#.#.#...#.#.#.#.#.#.#.......#...#.......#.#.#.#...#.#.#...........#.#.#.#.....) C U ~ ! ! Q ! Q Q ! Q T I Z aXA.Q Q ! I s.dX*...Q T J }..X2.....#.#.#.#.#.#.#.#.#.#.#.[ ! Y P G D D S N _.dXuXK.[ #.1.8.&.#.#.#.#.#.#.#.#.#.#.#.#.#.#.#.#.#.#.#.#.#.#.#.#.#.",
"A -.#.#.#.#.#.#.#.#.#.#.#.#.#.#.#.#.#.#.#.#.#.#.#.#.#.#.[ -.Q T T T T T T Q Q [ ..#.#.#.#.#.#.#.#.#.[ D P T Q Q S S T T Q Y C P T T Q Q Q Q ! ! T T Y s.j.2.................#.#.....#.#.#.#.....#.......#.#.#.#.#.#.#.#.....#.#.........#.#.#.#...#.#.#.#.#.........#.#.#.#.#...#.#.#.#.#.#.#.#...#.#.#.....#.#...#.#.#.#.#.#.#.#...#.#...#.#...#.#.O.#.#.#.#.#.#.#.#.#.....#.#...#.#...#.#...................#...#.#.............................[ ) ) Q Q T x C D D D D D D D D D S C M Q.Q.D D S C 9.{.T D D D &.qX-.#.#.#.Q @ O + @ @ O O o + @ @ o t #.#.#.! J 9.=X-.5.#.#.#.] a + + + + O o o O + + O , #.#.O...C D D J J N S D D D k C A S D D D D D D D D D .. XU.-.Q ] ] [ [ [ ..[ [ [ [ ..................#.#.#.#.#...#.#.#.#.....#.#...#.....#.#.#.#...#.....#.#.#.#.#...#.#.....#...#.#.#.#.#.#.#.#.#...#.#...#...#.#.......#.#.#.#.#.#.#.......#.#.#.#.#...#...#.O.#...#.#.#.#...#.#.#.........#.#.#.#.#.#.#.#.#...#.#.....#.#.#.#.....#.#.#.........#.#.#.#.....) C U ~ T ! Q ! ! Q ! ! T P Z aXA.Q Q ! I s.dX*...Q T J }..X2.#.#.#.#.#.#.#.#.#.#.#.#.#.[ Q Y P D D D S N }.uXpXH.[ *.,.5.&.#.#.#.#.#.#.#.#.#.#.#.#.#.#.#.#.#.#.#.#.#.#.#.#.#.",
"A -.#.#.#.#.#.#.#.#.#.#.#.#.#.#.#.#.#.#.#.#.#.#.#.#.#.#.[ -.Q T T T T T T Q Q [ ..#.#.#.#.#.#.#.#.#.[ D P T Q Q S D T ! Q Y A P T T Q Q Q Q ! ! T T Y =.j.8.................#.......#.#.#.#...#...........#.#.#.#.#.#.#.....#.#.........#.#.#.#.#.#.#.#.#.............#.#.#.#.#.#.#.#.#.#.#.#.#.#.#.#.#...#.#...#.#.#.#.#.#.#.......#.#.#.#.#.#.#.#...#.#...#.#.#.#.........#.#.#.#.#...#.#.............#.....#.#.#.#.............................[ ) ) ) Q T x C G G D D G D D D D S C N Q.Q.D D D A 9. X[ P D D *.qX-.#.#.#.#.D O o O + @ # # # @ X t #.#.#.#.! J 9.7X-.5.#.O.#.#.Q 7 O O O @ @ # # @ O , P #.#.#...C D J P Y C D J D D x C S D D D D D J D D D D C #XE.2.Q ] ] [ ..[ ..[ [ [ [ ..........#.#.......#.#.#.......#.........#.#.#.#.#.#.#.#.....#.#.#.#.#.#...#.#...#.#.#.#.#.#.#.#.#.#.#.#.#.#.#.#.#.#.#.#.#.#.#.......#.#.#.#.#...........#.#.#...............#.#.#.#.#.....#.#.........#.#.#.#.#.#.#.#.#.#.#.#.#.....#.#.#...........#.#...........#.#.....) C U ~ T ! Q ! Q Q ! ! T P S aXA.Q Q ! I s.dX*.#.Q T J }..X2.#.#.#.#.#.#.#.#.#.#.#.#.#.[ Q Y P D D D S x Q.dXpXH.[ *.,.5.&.#.#.#.#.#.#.#.#.#.#.#.#.#.#.#.#.#.#.#.#.#.#.#.#.#.",
"A -.#.#.#.#.#.#.#.#.#.#.#.#.#.#.#.#.#.#.#.#.#.#.#.#.#.#.[ -.Q T T T T T T Q Q [ ..#.#.#.#.#.#.#.#.#.[ D ^ T Q Q S S T ! Q Y A P T T Q Q Q Q ! ! T ~ I =.j.8.............................#.#.#.#.....#.#...............#.#.#.#.#.....#.#.#...#.#.#.#.#...#.#.#.#.#.#.#.#.#.#.#.#.#.#.#.#.O...#.#...O.#.#.#.#.#.#.#.#.#.#.#.#.#.#.....#.#.#.#.#.#.#.#.#.#...O.#.#.#.......#.#.#.#.#.#.#.#.#.......#.#.#...#...#.#.#.#.#.#.............................[ [ ) Q T x C G G G G G G D H D D S C Q.Q.D J D S 9..X#.I P D *.aX-.#.#.#.#.#.Q u o . X o o . . C #.#.#.#.#.! J 8.uX-.5.#.O.#.#.#.Q C o o X o o o X u #.#.#.#.#...C D P P Y C D P Y P N S D D D J D G J D D D D C <X).2.Q [ ] [ [ [ ..[ [ [ [ ........{ ..#.......#.#.#.....#.......#.#.#.#.#.#.#.#.........#.#.#.#...#.#.#.#.......#.#.#.#.#.#...#.#...#.#.#.#.#.#.#.#.#.#.#.#.#.#.#.#.#.#.#...#.#.........#.#.#...............#.#.#.#...#.#...#.#.#...O.O.#.#.#.#.#.#.#.#.#.#.#.#.........#.......#.#.#.#...#.....#.....) C U T T ! ! ! ! Q Q Q T P S aXA.Q Q ! I s.dX*.#.Q T J }..X2.#.#.#.#.#.#.#.#.#.#.#.#.#.[ Q Y P D D D S N F.dX8XH.[ *.,.5.&.#.#.#.#.#.#.#.#.#.#.#.#.#.#.#.#.#.#.#.#.#.#.#.#.#.",
"A -.#.#.#.#.#.#.#.#.#.#.#.#.#.#.#.#.#.#.#.#.#.#.#.#.#.#.[ -.Q T T T T T T T Q [ ..#.#.#.#.#.#.#.#.#.[ D ^ T Q Q S D T ! Q Y C P T T Q Q Q ! ! ! T ~ Y =.j.8.........................#.#.#.#.#.#...#.#.#...............#.#.#.#.#.#.#.#.#.....#.#.#.#.#...#.#.#.#.#.#.#.#.#.#.#.#.#.#.#.#.....#.#.....#.#.#.#.#.#.#.#.#.#.#.#.#.#.#...#.#.#.#.#.#.#.#.#.O...#.#.#.#.......#.#.#.#.#.#.#.#.#.#.......#.....#...#.......#...............................[ [ ) Q T x C G G P J J J J J D D D A Q.Q.J J D D 9..X&.Y Y H *.aX-.#.#.#.#.#.#.#.P N h t h N #.#.#.#.#.#.#.! J 9.+X-.5.#.O.#.#.#.#.#.Q D k t k C Q #.#.#.#.#.#...C J P P Y A G P U T C D J P J P P J J J P G D C <X).1.) [ [ [ [ ....[ [ ..[ ........{ ..#.........#...............#.#.#.#.#.#.#.#.........#.#.#.#...#.#...O.O.....#.#.#.#.#.......#.#.#.#.#.#.#.#.#.#.#.#.#.#.#.#.O.#.O.#.....#.#.#...#...#.#.#.....#.....#...#.#.#.#...O.#.O.#.#.#.......#.#.#.#.#.#.#.#.#.#.#.#.............#.........#.#.......#.....) C U T T ! ! ! ! Q Q Q T Y S aXA.Q Q ! P s.dX*.#.Q T J }.rX2.#.#.#.#.#.#.#.#.#.#.#.#.#.[ Q Y P G D D S N Q.uXpXK.[ #.-.8.#.#.#.#.#.#.#.#.#.#.#.#.#.#.#.#.#.#.#.#.#.#.#.#.#.#.",
"A -.#.#.#.#.#.#.#.#.#.#.#.#.#.#.#.#.#.#.#.#.#.#.#.#.#.#.[ -.Q T T T T T T Q Q [ ..#.#.#.#.#.#.#.#.#.[ D ^ T Q Q S D T ! Q Y C P T T Q Q Q Q Q ! ! T Y -.j.8.................#.#.#.#.#.#.....#.......#.#.#.#...........#.#.#...#.#.#.#.#.........#.#.........#.#.#.#.....#.#.#.#.#.#.#.#.#.....#.....#.#.#.#.#.#...#...#.#.#.#.#.#.#.#.#.#.#.........#.#.#.#.#.#.#.#.......#.........#.#.#.#.#.#...#.#.#...#.#.......#.................................[ ) Q T x C G P P I P J J J D D D A Q.Q.H J D D 9..X&.T U H *.aX-.#.#.#.#.#.#.#.#.#.#.#.#.#.#.#.#.#.#.#.#.! J 8.6X:.5.#.#.O.O.#.#.#.#.#.#.#.#.#.#.#.#.#.#.#.#...A J P T T A H Y T T N D D J J J P P J P P J D C <X_.4.[ [ ) [ [ ....[ [ ................#.#.#.....#.#.....#.#.................#.#.#...#.#.....#.#.#.O.#.#.#.#.#.#...#.........#.#.#.#.#.#.#.#.#.#.#.#.#...#.#.#.#.#.O.#.#...#.#.#.#.#.#.#.#.#.#.#...#.#...#.#...#.#.#.#.#.#.#.#.#.#.#...#.........#...#.#.....#.#.....#.#.#.#.#.#.#.......#.#...#.#.....) C U ~ T T Q Q ! Q Q Q T I S qX^.Q Q ! Y s.dX9.#.Q T J }.rX5.#.#.#.#.#.#.#.#.#.#.#.#.#.[ Q Y P D D D S N Q.sXpXJ.[ *.:.5.#.#.#.#.#.#.#.#.#.#.#.#.#.#.#.#.#.#.#.#.#.#.#.#.#.#.",
"A -.#.#.#.#.#.#.#.#.#.#.#.#.#.#.#.#.#.#.#.#.#.#.#.#.#.#.[ -.Q T T T T T T Q Q [ ..#.#.#.#.#.#.#.#.#.[ D G T Q Q S D T Q Q Y C I T T Q Q Q Q Q ! ! T I -.x.8...............#.#.#.#...#.#.#.#.#.......#.#.#.#.#.#.......#.#.#...O.#.#.#.#.O.#.#...#.#...........#.#...#.#.#.#.#.#...#.#.#.#.......#.#.#.#...#.#.#.......#.#.#.#...#.#.#.#.#.#.#.......#.O...#.#.#.#.........#.........#.#.#.#.#.#.#.#.#.#...#.#.....#.#.#...................[ [ [ [ [ [ [ [ Q T x C P I P P P P J J J D D A Q.Q.P P P G 9..X&.T Y P =.aX-.#.#.#.#.#.#.#.#.#.#.#.#.#.#.#.#.#.#.#.#.! J 8.uX2.5.#.#.#.O.#.#.#.#.#.#.#.#.#.#.#.#.#.#.#.#.#.A J P T T A J U T T N D D H G J J P J J P J D C <X).4.[ [ [ [ [ ....[ [ ..............#.#.#.#.....#.#.....#.#.#.............#.#.#.#.#.#.#...#.#.#.#.#.#.#.#.#.#.#.#.#.....O.#.#.#.#.#...#.....#.#.#.#.....#.#.#.#.#...#.#.#.#.#.#.#.#.#.#.#.#.#.#.#.#.#.#.#.#.....#.#.#.#.#.#.#.#.#.#.#.#.............#.#.........#.#.#.#.#.#.#.#.#.#.....#.#.....#.....) C U ~ T Q ! Q ! Q Q ! T I S qX^.#.Q ! Y s.dX9.#.Q T J }.rX5.#.#.#.#.#.#.#.#.#.#.#.#.#.[ Q T P D D D S x F.dX7XH.[ *.2.5.#.#.#.#.#.#.#.#.#.#.#.#.#.#.#.#.#.#.#.#.#.#.#.#.#.#.",
"A -.#.#.#.#.#.#.#.#.#.#.#.#.#.#.#.#.#.#.#.#.#.#.#.#.#.#.[ -.Q T T T T T T Q Q [ ..#.#.#.#.#.#.#.#.#.[ D J T ! Q D D T Q Q Y C I T T Q Q Q Q Q T T T P =.x.8.........#.......#.#.#.....#.#.#.........#.#.#.#.#.#.#.#.#.#.......O.....#.#.#.#...#.#.#.#.#.#.#.#.#.#.#.#.#.#.#...#.O.....#.#.#.#.O.#.#.#.#.#.#.#.#.#.#...#.#.......#.#.#.#.#.#.#.#.......#.#.#.#.#.#.#...O.#.#.#.#.#.#.#.#.#...#.#...#.#.#.....#...#.#.#.#...................[ [ [ [ [ [ [ ) Q T x C ^ I P P P P P J G D D A M.~.P Y Y P 9..X*.T Y P =.aX-.#.#.#.#.#.#.#.#.#.#.#.#.#.#.#.#.#.#.#.#.! J 8.3X2.5.#.#.#.#.#.#.#.#.#.#.#.#.#.#.#.#.#.#.#.#.#.A J Y T T S P U T T x D D D G J J P P J P P D C <X{.4.[ ) ..........[ [ ..............#.#.#.#.....#.#.#...#.#.....#.#.#.#.#.#.#.......#.#...#.#.#.#.#.#.#.....#.#.#.#.....#.#.#.#.#.#.#.#.....#.#.......#.#.#.#.#.#.....#.#.....#.#...................#.#.#.#.......#.#.#...#.#.#.#.#.#.#...............#.....#.#.#.#...............#.#.#.#.#.............C U T T Q Q Q Q Q ! ! T Y D qX^...Q ! Y s.dX9.#.Q T J }.rX5.#.#.#.#.#.#.#.#.#.#.#.#.#.[ Q Y P D D D S N P.8XuXJ.[ *.:.6.#.#.#.#.#.#.#.#.#.#.#.#.#.#.#.#.#.#.#.#.#.#.#.#.#.#.",
"A -.#.#.#.#.#.#.#.#.#.#.#.#.#.#.#.#.#.#.#.#.#.#.#.#.#.#.[ -.Q T T T T T T T Q [ ..#.#.#.#.#.#.#.#.#.[ D J T ! Q D D T Q Q Y A I T T Q Q Q Q Q ! T T P =.x.8.........#.#.#...#.#.#.....#.#.#...#.....#.#.#.#.#.#.#.#...#...............#.#.#...#.#.#...#.#.#.#.#.#.#.#.#.#.#...#.#.....#.#.#.#.#.#.#.#.#.#.#.#.#.#.#.#.#.#.........#.#.#.#.#.#.#.......#.#.#...#.#.#...#.#.O.#.#.#.#.#.#.....#.#...#.#.......#.#...#.......................[ [ [ [ ......[ Q T x Z I I P P P P P J J D D A M.Q.P P Y J 9..X*.T T P =.aX-.#.#.#.#.#.#.#.#.#.#.#.#.#.#.#.#.#.#.#.#.! J 8.3X2.5.*.#.#.#.#.#.#.#.#.#.#.#.#.#.#.#.#.#.#.#.#.A G Y T T S P Y T T M D D H P P J P J P P P H C <X{.4.[ [ ..[ [ [ ..[ [ ................#.#.#.#.#.#.#.#.....#.....#.#.#.#.#.#.........#.#...#.#.#.#.#.#.#.#.#.#.#.#.#.....#.#.#.#.#.#.#.#.....#.O.#.#...#.#.#.#.#.#.....#.#.#...#.#.......#.#.....#...#.#.#.#.......#.#.#.O.#.#.#.#.#.#.#.....................#.#.#.#.................#...#.#.............C U T T ! ! Q Q Q ! ! T Y D qX^...Q ! Y s.dX9.#.Q T J }.rX5.#.#.#.#.#.#.#.#.#.#.#.#.#.[ Q Y P J D D S N Q.pXuXK.[ #.:.6.*.#.#.#.#.#.#.#.#.#.#.#.#.#.#.#.#.#.#.#.#.#.#.#.#.#.",
"z -.#.#.#.#.#.#.#.#.#.#.#.#.#.#.#.#.#.#.#.#.#.#.#.#.#.#.[ -.Q T T T T T T Q Q [ ..#.#.#.#.#.#.#.#.#.[ D J T ! Q D D T Q Q Y A P T T Q Q Q Q ! ! T T I =.j.8.........#...#.....#.#.........#.#.#.#.#.#.#.................#.#.#.#.#...#.#.#.#...#.#.....#.....#.#.#.#...#.#.#...#.#...O.O.#.#.#.#.#...#.#.#.#.#.#.....#.#.#.#.#.#...#...#.#.#.#.#...#.#.#.#.#.#.#.#.#.#.#.#.#.#.#.#.#.#...................#.....#...........................[ [ [ [ ......[ ] T x F I P Y Y Y P P P P J D A M.~.P P Y P 9..X*.T T P =.aX-.#.#.#.#.#.#.#.#.#.#.#.#.#.#.#.#.#.#.#.#.! J 8.uX:.5.*.#.O.#.#.#.#.#.#.#.#.#.#.#.#.#.#.#.#.#.#.A G U T T D J Y T T N D H J P P P P P P P P J C <X{.4.......[ [ [ ......................#.....#.#.#.#.#.#...#.#.....#.#.#.#.#.#.O...#.#.#.....#.#.......O.#.#.#.#.#.#.#.#.#.#.#...#.#.#.#.#.#...#.#.#.#.#.#.#.#.#.#...#...#.#.#.#.#.#...#.#.#.#.#.#.#.#.#.#.#.....#.#...#.#.#.#.#.#.#.#...#.#.........#.#...#.#.#.#.......#.#.#...........#.#.............C U T T ! ! ! Q Q Q ! T Y D qX^.%.Q ! Y s.dX9.#.Q T P }.rX5.O.#.#.#.#.#.#.#.#.#.#.#.#.[ Q Y P D D D S x Q.dXpXK.[ *.:.5.*.#.#.#.#.#.#.#.#.#.#.#.#.#.#.#.#.#.#.#.#.#.#.#.#.#.",
"z -.#.#.#.#.#.#.#.#.#.#.#.#.#.#.#.#.#.#.#.#.#.#.#.#.#.#.[ -.Q T T T T T T Q Q [ ..#.#.#.#.#.#.#.#.#.[ D J T ! Q D D T Q Q Y A P T T Q Q Q Q ! ! T T Y =.j.8.......#.#...#.....#.#.........#...#.#.#.#.#.................#.#.#.#.#...#.#.#.#...................#.#.#...#.#.#...#.#...#.#.#.#.#.#...#.#.#.#...........#.#.#.#.#.#.........#.....#...#.#.#.#.#.#.#.#.#.#.#.#.#.#.#.#.#.#...........#.#.#.#.#.#...#.#...#.......................[ [ ........[ ] Q x Z I P Y T Y P P P P D D C M.^.P Y U P 9.wX*.T T P =.aX-.#.#.#.#.#.#.#.#.#.#.#.#.#.#.#.#.#.#.#.#.! J 8.3X:.5.*.#.O.O.#.#.#.#.#.#.#.#.#.#.#.#.#.#.#.#.#.Z P T T T D J T T T N D H H J P P P P P P P J C <X{.5.[ ....[ [ [ ............................#.#.#.#.#.#.#...#.....#.#.#.#.#.#.O.....#.#.....#.#.......#.#.O...O...#.#.#.#.#.#.#.#.#.#...#.#...#.#.#.#.....#.#.#.#...#.#.#.#.#.#.#.#.#.#.#.#.#.#.#.#.#.#.#.#.#.....#...#.#.#.#...#.#.#...#.#.#.......#.#.#.#.#.#.#.......#.#.#.#.#.#.#.#.#.#.............C U ~ T ! ! ! Q Q Q ! T Y D qX^.%.Q ! Y s.dX9.#.Q T P }.rX5.O.O.#.#.#.#.#.#.#.#.#.#.#.[ Q T P D D D S x Y.dXuXE.[ *.:.5.*.#.#.#.#.#.#.#.#.#.#.#.#.#.#.#.#.#.#.#.#.#.#.#.#.#.",
"z -.#.#.#.#.#.#.#.#.#.#.#.#.#.#.#.#.#.#.#.#.#.#.#.#.#.#.[ -.Q T T T T T T Q Q [ ..#.#.#.#.#.#.#.#.#.[ D G T ! Q D D T Q Q U A P T T Q Q Q Q Q ! T T Y =.x.8.............#...........#...........#.#.#.#.#.#.......#.#.#.....#.#.#.#.#.#.#.#.#.#.......#.....#.#.#.....#.#.O...#.#.#.#.#.#.#.#.#.#.#.#.#.#.#.#.#.#.#.#.#.#...#.#.#.......#.......#.#.#.#.#.#.#.#.#.#.#.......#.#.#.......#.#.....#.#.#.....#...#...#...........................[ [ ......[ ] Q M Z I P Y Y Y P P P P J D A M.~.P P Y P 9.tX*.T T P =.aX-.#.#.#.#.#.#.#.#.#.#.#.#.#.#.#.#.#.#.#.#.Q J 8.,X:.5.*.#.#.#.#.#.#.#.#.#.#.#.#.#.#.#.#.#.#.#.#.Z I T T T D J T T T N D H D P P P P P P P P J C <X`.5.[ ..[ [ [ [ [ ..........................#.#.#.#...#.......#...............#.#.#.....#.#.#.#...#.#.#.#.#.#.#.#.#.#.#.#...#.#.#.#.#.O.#.#...#.#.#.#.........#.#.#.#.#.#.#...#.#.#.#.#...#.#.#.#.#.#.#.#.#.#.#.#.#.#.#.#.#.#.#.#.#.....#.#.........#.#.#.#.O...#.#.#.#.#.#.#.#.#.#.#.#.................C U T T ! Q Q Q Q Q ! T Y D qX^...Q ! U s.dX9.#.Q T P Q.rX5.O.O.#.#.#.#.#.#.#.#.#.#.#.[ Q Y P D D D S x Q.uXsXK.[ *.:.5.*.#.#.#.#.#.#.#.#.#.#.#.#.#.#.#.#.#.#.#.#.#.#.#.#.#.",
"l -.#.#.#.#.#.#.#.#.#.#.#.#.#.#.#.#.#.#.#.#.#.#.#.#.#.#.[ -.Q T T T T T T T Q [ ..#.#.#.#.#.#.#.#.#.[ D G T ! Q D D T Q Q U C P T T Q Q Q ! Q ! ! T Y =.f.8...........#.....#.#...#.#.#.......#...#.....#.#...#.#.#.#.#.....#.#.#.#.#.#.#.#.#.#.......#.....#.#...#...#.#.....#.#.#.#.#.#.#.#.#.#.#.#.#.#.#.#.#.#.#.#.#.....#.#.#.....#.#...#.#.#.#.#.#.#.#.#.#.#.......O.O.O.#.#.......#.#.........#.#...#...#.#...#.#.......................[ [ ......[ [ Q N Z I Y P Y Y P P P P J D S M.Q.P Y Y P 9.tX=.! T P =.aX:.&.#.#.#.#.#.#.#.#.#.#.#.#.#.#.#.#.#.#.#.Q J 8.uX:.5.#.#.#.#.#.#.#.#.#.#.#.#.#.#.#.#.#.#.#.#.#.S I Y T T D J T T T N D H J I I I P I P P P J C >X_.5.....) [ ..[ [ ......................#...#.#...#...........#...............#.#.....#.#.#.#.......#.#.#.#.#.#.#.#.#.#.....#.#.#.#.#.O.#.#...#.#.#.#.#.........#.#.#.#.#.#.#.#.#.#.#.#.....#.#.#.#.#.#.#.#.#.#.....#.#.....O.O.#.#...#.#.#.........#.#.#.#.....#.#.#.#.#...#.#.#.#.#...................C U T T ! ! Q Q Q ! ! T Y S qX^...Q ! U =.dX9.#.Q T P Q.rX5.O.O.#.#.#.#.#.#.#.#.#.#.#.[ Q Y P J D D D N Q.sXpXU.[ #.:.6.*.#.#.#.#.#.#.#.#.#.#.#.#.#.#.#.#.#.#.#.#.#.#.#.#.#.",
"z -.#.#.#.#.#.#.#.#.#.#.#.#.#.#.#.#.#.#.#.#.#.#.#.#.#.#.[ -.Q T T T T T T Q Q [ ..#.#.#.#.#.#.#.#.#.[ D J T ! Q D D T Q Q U C P T T Q Q Q Q Q ! ! T Y =.f.8.......#.#.#.....#.#.#.#.#.#.....#.#.........#.#.#.#.#.#.#.#.......#...#.#.#.#.#.#.#.....#.O.#.#.#.#.#.#.#.#.#.#...#.#.#.#.#.#.#.........#.#.#.#.O...#.#.#.#.......#.#.#.#.#.#...#.#.#.O...O.#.#.#.#.....#.#.#.#.#.#.#...#.#.#.#.....#.#.#.......#.#.#.#.#.#.....................................Q N A Y Y P Y T Y P P P P J Z M.^.U T T P 9.rX-.Q T P -.aX:.&.#.#.#.#.#.#.#.#.#.#.#.#.#.#.#.#.#.#.#.Q J 9.,X:.5.#.#.#.#.#.#.#.#.#.#.#.#.#.#.#.#.#.#.#.#.#.A I T T T D J T T ! N D J P I I I I I P P P J C  XR.4.....[ [ ..[ [ ........................#.#.#.#...........#.#.#.#...#.#.#.#.#.#.#.#.#.........#.#.#.#.#.#.#.#.#.#.#.#...#.#.#.#...#...#.#.#.#.#.#.#.#.#.#.#.#.#.#.......#.#.#.#.#...#.#.......#.#.#.#...#.O.#.#.#.#.#...#.#...#.....#.#.#.#.....#.#.#.#.#.........#.#.............#...................C Y ~ T ! ! ! Q Q ! ! T Y D qX^...Q ! Y =.dX9.#.Q T P Q.rX5.#.#.#.#.#.#.#.#.#.#.#.#.#.[ Q Y P D D D D x J.dXuXE.[ *.:.6.*.#.#.#.#.#.#.#.#.#.#.#.#.#.#.#.#.#.#.#.#.#.#.#.#.#.",
"z -.#.#.#.#.#.#.#.#.#.#.#.#.#.#.#.#.#.#.#.#.#.#.#.#.#.#.[ -.Q T T T T T T Q Q [ ..#.#.#.#.#.#.#.#.#.[ D J T ! Q D D T Q Q U C P T T Q Q Q Q Q ! ! T Y -.f.8.........#.#.#...#.#.#.#.#.#.....#.#.........#.#.#.#.#.#.#.#.....#.#...#.#.#.#.#.#.#.#...#.#.#.#.#.#.#.#.#.#.#.#.#.#.#.#.#.#.#.#.......#.#.#.#.#...O.#.#.#.#...#.#.#.....#.#.#.#.#.#.#.#.#.#.#.#.#.......#.#.#.....#.#.#.#.#.#.#.....#.#.#.......#.#.#.#.#.#.....................................) C A Y U Y U T Y Y Y P P J S M.^.U ! T P 9.rX-.Q T P -.iX:.&.#.#.#.#.#.#.#.#.#.#.#.#.#.#.#.#.#.#.#.Q J 9.-Xs.5.#.#.#.#.#.#.#.#.#.#.#.#.#.#.#.#.#.#.#.#.#.S P T ! ! D J T T T C D P P I I I I P P P P P A ].H.2.[ [ [ [ ..[ [ ..........................#.#.............#.#.#.#.#.#.#.#.#.#...#.#.#.#...#.#.#.#.#.#.#.#.#.#.#.#.#.#.....#.#.....#.#.#.#.........#.#.#.#.#.#.#.#.#.....#.#.#.#.#...#.#.........#.#.#.......#.#.#.#.......#.#.#.....#.#.#.#...#.#.#.#.#.#.......#.#.#.....#.#.#...#...................C Y ~ T ! ! ! Q Q Q ! T Y D qX^...Q ! Y =.dX9.#.Q T P Q.rX5.#.#.#.#.#.#.#.#.#.#.#.#.#.[ Q T P D D D D x Q.uXpXL.[ *.:.6.*.#.#.#.#.#.#.#.#.#.#.#.#.#.#.#.#.#.#.#.#.#.#.#.#.#.",
"z -.#.#.#.#.#.#.#.#.#.#.#.#.#.#.#.#.#.#.#.#.#.#.#.#.#.#.[ -.Q T T T T T T Q Q [ ..#.#.#.#.#.#.#.#.#.[ D G T ! Q D D T Q Q U C P T T Q Q Q Q Q ! T U Y -.f.8.......#.#.#.#.#.......#.#.#.#.#.#.#.......#.#.#.....#.#.#.#.....#.#.....#.#.#.#.#.#.#.#.......#.#.#.#.#.#.#.#.#.#.#.#.#.#.#.#.#.#...#.#.#...#.#.#.#.#.#.#.#.#.#.....#.#.#.#.#.#.O.#.#.#.#.#.#.#.#.#.#.#.#.......#.#.#.#.#.#.#.#.#...#.#.#.#...#.#.#...#.#.......................................) C A Y T T T T T T T Y Y P D M.^.T ! T P w.rX-.Q T P -.iX:.&.#.#.#.#.#.#.#.#.#.#.#.#.#.#.#.#.#.#.#.Q J 9.8Xt.5.*.#.#.#.#.#.#.#.#.#.#.#.#.#.#.#.#.#.#.#.#.Z I T Q ! D J T ! Q C D J P P Y Y Y Y Y Y P P S T.b.-.[ [ [ ..........................#.#.........#.#.#.#...#.#.#.#.#.#.#.#.#.O...#.#.#.#.#.#.........#.#.#.#.#.#.O.O...O.#.#.#.#.....#.#.#.......#.#.#.#.#.#.#.#.O.....#.....O.#.#.O.O.#.#.#.#.#.#.#.#.#.#.#.#.#.#.#.#...#.#.#.#.................#.#.#.#.#.#.#.#.#.............#.#.......................C Y T T ! ! ! Q Q Q ! T Y D qX^.#.Q ! Y =.dX9.#.Q T P Q.rX5.......#.#.#.#.#.#.#.#.#.#.[ Q Y P D D D D M Q.sXpXU.[ *.:.5.*.#.#.#.#.#.#.#.#.#.#.#.#.#.#.#.#.#.#.#.#.#.#.#.#.#.",
"z -.#.#.#.#.#.#.#.#.#.#.#.#.#.#.#.#.#.#.#.#.#.#.#.#.#.#.[ -.Q T T T T T T T Q [ ..#.#.#.#.#.#.#.#.#.[ D G T ! Q D D T Q Q U C P T T Q Q Q Q ! ! T U Y -.f.8.......#...#.#.#.........#.#.#.#.#.#.......#.#.#.#...#.#.#.#.....#.#...#.#.#.#.#.#.#.#.#.....#.#.#.#.#.#.#.#...#.#.#.#.#.....#.#.#...#.O.#.#.#.#.#...#.#.#.#...#...#.#.#.#.#.#.#.#.#...#.#.#.#.#.#.#.#.#.#.....#.#.#.#.#...#.#.#.....#.#.#.....#.#.#.....#.#.....................................) C A Y T T T T T T T Y Y P D M.^.) ! T P w.rX-.Q T P =.yX:.&.#.#.#.#.#.#.#.#.#.#.#.#.#.#.#.#.#.#.#.Q J 9.uXt.5.#.#.#.#.#.#.#.#.#.#.#.#.#.#.#.#.#.#.#.#.#.S I T Q ! D J T ! Q A D P Y Y Y Y Y Y Y Y Y P D J.v.-.[ [ [ ..........................#.#.........#.#.#.#...#.#.#.#.#.#.#.#.#.....#.#.#.#.#.#.........#.#.#.#.............#.#.#.#.#.#.#.#.#.#.O...#.#.#...#.#.#.#.....#.#.#.#...#.#...O.#.#.#.#.#...#.#.#.#.#.#.#.#.#.......#.#.#...........#.....#.#.#.#.#.#...#.#.........#.....#.......................C Y T T ! ! ! Q Q Q Q T Y D qX^.#.Q ! Y =.dX9.#.Q T P Q.rX2.....#.#.#.#.#.#.#.#.#.#.#.[ Q Y P J D D D N H.dX8XE.[ #.-.5.*.#.#.#.#.#.#.#.#.#.#.#.#.#.#.#.#.#.#.#.#.#.#.#.#.#.",
"z -.#.#.#.#.#.#.#.#.#.#.#.#.#.#.#.#.#.#.#.#.#.#.#.#.#.#.[ -.Q T T T T T T Q Q [ ..#.#.#.#.#.#.#.#.#.[ D G T ! Q D D T Q Q U C P T T Q Q Q Q ! ! T U I -.f.8.............#.......#.#.#.#.#.#.........#.#.#.#.....#.#...#.#...#.#.#.#.#.#...#.....#.#.#...#.#.#.#.#.#.#.#...#.#.#.#.#...O.#.#.#.#.#.#.#.#.#.O.#...#.#.#.#.....#.#.#.#.#.#.#.#.#.#.#.O.#.#.#.#.#...#.#.#.#...#.#.#.#...#.#.#.#.#.#.#.#.........#.#.....#.#.....................................) C A Y T T T T T T T T T P D M.^...Q ! P w.1X-.Q T P =.4X:.&.#.#.#.#.#.#.#.#.#.#.#.#.#.#.#.#.#.#.#.Q J 9.=Xs.5.#.#.#.#.#.#.#.#.#.#.#.#.#.#.#.#.#.#.#.#.#.S I U Q ! S J T ! Q A J P U U T Y U U Y Y Y P D m.f.4.[ [ [ ..........................#.#.#.#.....#.#.#.#.#.#.#.#.#.#.....#.......O.#.#.#.#.#.#.#...#.#.#.#.O.O.O...O.#.#.#.#.....#.#.#.#.#.#.#.#.#.#.....#.#.........#.#.#.#.#.#.#.#.O.#.#.#.................#.#.#.#.#.#...#.#.#.#.#.....#.#.....#.#.#.#.........#.#...#.........#.......................C I T T ! ! Q Q Q Q Q ! Y D qX^...Q ! Y =.dX9.#.Q T P Q.rX2.#.#.#.#.#.#.#.#.#.#.#.#.#.[ Q T P D D D D N Q.8XpXU.[ *.-.5.=.#.#.#.#.#.#.#.#.#.#.#.#.#.#.#.#.#.#.#.#.#.#.#.#.#.",
"z -.#.#.#.#.#.#.#.#.#.#.#.#.#.#.#.#.#.#.#.#.#.#.#.#.#.#.[ -.Q T T T T T T Q Q [ ..#.#.#.#.#.#.#.#.#.[ D G T ! Q D D T Q Q U C P T T Q Q Q Q Q ! T U Y -.f.8.............#.#.....#.#.#.#.............#.#.#.#.....#.#.........#.#.#.#.#.#.........#...#.O...#.#.#.#.#.#.....#.#...#.#...O.#.#.#.#.#.#.#.....#.#.#.#.#.#.#.....#.#.#...#.#.#.#.#.#.#.#.#.#.....#.#.#.#.#.........#.#.......#.#.#...#.#.........#.#...#.#.#.....................................) C A Y T T T T T ! ! T T P D M./...Q ! P w.wX-.Q T P -.,X:.&.#.#.#.#.#.#.#.#.#.#.#.#.#.#.#.#.#.#.#.Q J 9.7Xt.5.*.#.O.#.#.#.#.#.#.#.#.#.#.#.#.#.#.#.#.#.#.S I T Q ! S J T ! Q A P Y T T T T T T U U Y P D x.d.2.[ [ [ ................................#...#.#.#.....#.#.#.#...................#.#.#.#.#.#.#.....#.#.#.#.#.#.#.#.#.#.#.#.....#.#.#.#.#.#.#.#.#.#...#.#.#.#...#.#.#.#.#.#.#.#.#.#.#.#.#.#.#...............#.#.#.#.#.#.#.#.#.#.#.#...#.#.#...#.#.#.............#.#.#.#.#.#.#.#.........................C I ~ T ! Q Q Q Q Q ! T Y D qX^...Q ! Y =.dX9.#.Q T P Q.rX5.#.#.#.#.#.#.#.#.#.#.#.#.#.[ Q T P D D D D x Q.pXuXL.[ *.-.5.=.#.#.#.#.#.#.#.#.#.#.#.#.#.#.#.#.#.#.#.#.#.#.#.#.#.",
"z -.#.#.#.#.#.#.#.#.#.#.#.#.#.#.#.#.#.#.#.#.#.#.#.#.#.#.[ -.Q T T T T T T Q Q [ ..#.#.#.#.#.#.#.#.#.[ D J T T Q D D T Q Q U C P T T Q Q Q Q ! ! T T Y -.f.8.................#...#...#.#.#.#.......#.#.#.#.#.....#.......#.#.....#.#.#.#.#.#.........#.#...........#.O.....#.#.O.#.#.......#.#.#.#.#.#.#.#.#.#.#.#.#.#.#.#.#.#.#.#...#.#.#.#.#.#.#.#.#.#.....#.#.......#.#.#.#.#.#...#.#.#.#.#...#.#.........#.#...#.#.#.....................................) C A Y T T T T T ! T T T P D M./...Q ! P w.rX-.Q T P =.%X:.&.#.#.#.#.#.#.#.#.#.#.#.#.#.#.#.#.#.#.#.Q J 9.uXt.5.*.#.#.#.#.#.#.#.#.#.#.#.#.#.#.#.#.#.#.#.#.S I ~ Q ! S J T ! Q A P T T U T T T U T T Y P D n.d.2.[ [ ..............................#.....#.#.........#...#.#.#.#.....#...#.#.............#.#.#.#.#.#.#.#.#.#.#.#.#.#.#.......#.#.#.#.#.#.#.#.......#.#.#.#.#.#.#.#...#.#.#.#.#.#.....#.#.....#.#.........#.#.#.#.#...#...#.#.#.#.#.#.#.#.#.#.............#.#.#...#.#.#.#.#.#.........................C I ~ T T ! Q Q Q Q Q T Y D qX^...Q ! Y =.dX9.#.Q T P Q.rX5.#.#.#.#.#.#.#.#.#.#.#.#.#.[ Q T P J D D D N p.dXsXE.[ *.:.5.=.#.#.#.#.#.#.#.#.#.#.#.#.#.#.#.#.#.#.#.#.#.#.#.#.#.",
"l -.#.#.#.#.#.#.#.#.#.#.#.#.#.#.#.#.#.#.#.#.#.#.#.#.#.#.[ -.Q T T T T T T T Q [ ..#.#.#.#.#.#.#.#.#.[ D J T ! Q D D T Q Q U C P T T Q Q Q Q ! ! T T Y -.f.8.................#.......#.#.#.#.....#.#.#.#.#.#.....#.......#...#.#.#.#...#.#.#.......#.#.#...........#.....#.....O.#.#...O.O.#.#.#.O.O.#.#.#.#.#.#.#.#...#.#.#.#.#.....#.#...#...#...#.#.#.#...#.#.......#.#.....#.....#.#.....#...#.#.........#.#.....#.#...#.................................) C A Y T T ! ! ! ! T T T P D M./...Q T P t.2X-.Q T P =.`.:.&.#.#.#.#.#.#.#.#.#.#.#.#.#.#.#.#.#.#.#.Q J 9.3Xs.5.*.#.#.#.#.#.#.#.#.#.#.#.#.#.#.#.#.#.#.#.#.S I U ! ! D J T ! Q A P T U Y T T T U T T Y P D J.f.2...[ ..............................#.#...#.#.............#.#.#.#.....#.#.#.#.............#.#.#.#.#...#.#.......#.#.#.#.......#.#.#.#.#.#.#.#...#...#.#.....#.#.#.#.#.#.#.#.#.#.#.......#.O...#...........#.#.#.#.#...#.#.#.#.#.#.#.#.#.#.#.#.........#.#.#.#.....#.#.#.#.#.#.........................C I ~ T ! ! ! Q Q Q Q T Y D qX^...Q ! Y =.dX9.*.Q T P Q.rX5.#.#.#.#.#.#.#.#.#.#.#.#.#.[ Q Y P J D D D N v.7XpX=X[ *.-.5.=.#.#.#.#.#.#.#.#.#.#.#.#.#.#.#.#.#.#.#.#.#.#.#.#.#.",
"l -.#.#.#.#.#.#.#.#.#.#.#.#.#.#.#.#.#.#.#.#.#.#.#.#.#.#.[ -.Q T T T T T T Q Q [ ..#.#.#.#.#.#.#.....[ D J T Q Q D D T Q Q U C P T T Q Q Q Q T Q T T Y -.f.8...................#.........#.#.#...#.#.#.#.#.#.#.#.#.#.........#.#.........#.#.#.#.....#.#.#.#.....#.#.#.#.#.#...O.#.#.#.#.#.#.#.#.#.#.#.#.#.#.#.........#.#.#.#.#.#.#.#.#.#.........#.#.#.#.#.#.#.#.#.#.#.#.#.....#.#.#.#.........................#.#.#.#.#...#.#.............................) C A Y T T T Q ! ! ! T T P D M./...Q ! P t.eX,.Q T P D `.:.&.#.#.#.#.#.#.#.#.#.#.#.#.#.#.#.#.#.#.#.Q J 9.5Xs.5.*.#.#.#.#.#.#.#.#.#.#.#.#.#.#.#.#.#.#.#.#.S P U Q Q D P T Q Q A P Y T U T T T T T Y Y P D E.m.2...[ [ ..........O.O.................#...#.#.#...#.#.........#.#.#.......#.#.#.#...#.....#.#.#.#.....#.#.#.....#.#.#.#.#.....#.#.#.O...#.#.#.#.#.#.#.#.#.#.#.#.#.#.#.#.#.#.#.#.#.#...#.#.#.#.#.#.......#.#.#.#.#.#.......#.#.#.#.#.......#.#.#...#.#.#.#.#.#.........#.#...#.........................C Y T T T ! Q Q Q Q ! T Y D qX}.%.) ! Y =.dX9.*.Q T P Q.rX5.#.#.#.#.#.#.#.#.#.#.#.#.#.[ Q T P J D D D N M.pXuXE.[ *.:.5.=.#.#.#.#.#.#.#.#.#.#.#.#.#.#.#.#.#.#.#.#.#.#.#.#.#.",
"z -.#.#.#.#.#.#.#.#.#.#.#.#.#.#.#.#.#.#.#.#.#.#.#.#.#.#.[ -.Q T T T T T T Q Q [ ..#.#.#.#.#.#.#.#...[ D J U Q Q D D T Q Q U C P T T Q Q Q Q ! Q ! U Y -.f.8...................#.........#.#.#.#.#.#.#.#.#.#.#.#.#...........#.#.........#.#.#.#...#.#.#.#.#.#.#.#.#.#.#.#...#.#.#.#.#.#.#.O.#.#.#.#.#.#.#.#.#...........#...#...#.#.#.#.#...#.#.#.#.#.#.#.#.#.#.#...#.#.#.#.....#.#.#.#.......................#.#.#.#.#.#...#.#.............................) C C Y T T T Q ! ! T T T P D M./...Q ! P q.rX-.Q T P D `.:.&.#.#.#.#.#.#.#.#.#.#.#.#.#.#.#.#.#.#.#.Q J 9.uXt.5.#.#.#.#.#.#.#.#.#.#.#.#.#.#.#.#.#.#.#.#.#.S J T Q Q D P ! Q Q A J P T T T T T T T Y Y P D >Xb.5.....[ ........#.#.#.................#...#.#.#.#.#.#.........#.#.#.#.....#.#.#.#.#.#.....#.#.#.#...O.#.#.#.....#.#.#.#...........#.#.....O.#.#.#.#...#.#.#.#...#.#.#.....#.#.#.#.#.#.#.#.#.#.#.#.........#.#.#.......O.#.#.#.#.#.#.....#...#.#.#.#.#.#.#.#.#.........#.....#.....#.#.#.#.#.#.#.......C Y T T ! ! Q Q Q Q Q T Y D }.}.#.) ! Y =.dXv.*.Q T P Q.aX5.#.#.#.#.#.#.#.#.#.#.#.#.#.[ Q T I D D D D N M.dXpXE.[ *.-.5.=.#.#.#.#.#.#.#.#.#.#.#.#.#.#.#.#.#.#.#.#.#.#.#.#.#.",
"l 2.#.#.#.#.#.#.#.#.#.#.#.#.#.#.#.#.#.#.#.#.#.#.#.#.#.#.[ -.Q T T T T T T Q Q [ ..#.#.#.#.#.#.#.#.#.[ D J Y Q Q D D T Q Q U C P T T Q Q Q Q ! ! ! T Y -.f.8...............#.#.#.........#.#.#.#.....#.#.#.#.#.#.............#.#.#.#.....#.#.#.#...#.#.#.#.......#.#.#.......#.#.....#.#.#.#.....#.#.#.#.#.#.#.#.........#.#.....#.#...#.#.#.#.#.#.#.#...#.#.#.#.......#.#.#.....#.#.#.#...#.#.#.#.#.#.............#.#...#.#.#.#.............................) C C Y T T ! ! ! ! T T T P D M./...Q ! P q.tX-.Q T P D `.-.&.#.#.#.#.#.#.#.#.#.#.#.#.#.#.#.#.#.#.#.Q J ..,Xt.5.#.#.#.#.#.#.#.#.#.#.#.#.#.#.#.#.#.#.#.#.O.S P T Q Q D P ! Q Q A P Y T T T T U T T T Y Y D <XS.8...............#...#.#.....#.#.#.....#.#.#...#.#.#.#.#.......#.#.#.#.....#.#.#.#...........#.#.#.#.#.#.#.#.#.........#.#.........#.#.#.#.#.#.#.#.#.#.#.#.#.#.#.#.#.......#.#.#.#.#.#.#.....#.#.#.#...#.#.....#.#.#.#.#...#.#.#...#...#.#.#.#...#.#.#.........#.#.#.#.....#.#.#.#.#.#.....#...........C I ~ T Q Q Q Q Q Q ! T Y D }.}.-.Q ! Y =.sXv.*.Q T P Q.aX5.#.#.#.#.#.#.#.#.#.#.#.#.#.[ Q T P G D D D N x.dXuX*X[ @.,.5.=.#.#.#.#.#.#.#.#.#.#.#.#.#.#.#.#.#.#.#.#.#.#.#.#.#.",
"l ,.#.#.#.#.#.#.#.#.#.#.#.#.#.#.#.#.#.#.#.#.#.#.#.#.#.#.[ -.Q T T T T T T T Q [ ..#.#.#.#.#.#.#.#.#.[ D J T Q Q D D T Q Q U A P T T Q Q Q Q ! ! ! T Y q.f.8.................#.#.........#.#.........#.#.#.#.#.#.#.#.........#.#.#.#.#...#.#.#.#...#.#.#.#.O.....#.#.....#.#.#.#.O.#.#.#.#.#.#.#.#.#.....#.#.#.#.#.#...#...#.#.#.#.....#.#.#.#.#.#.#.#.#.#.#.#.#.........#.#.#.#.#.#.#.....#.#.#.#.#.#.#.........#...#.#.#...#...............................) C C Y T T ! ! Q Q ! T T P D M.^...Q T P q.eX,.Q T P D `.:.&.#.#.#.#.#.#.#.#.#.#.#.#.#.#.#.#.#.#.#.Q J ..,Xs.5.*.#.#.#.#.#.#.#.#.#.#.#.#.#.#.#.#.#.#.#.#.D J T Q Q D P ! Q Q A P T T Y T T U U T T Y Y D ].J.8.[ ..[ ..............#.....#.#.#.....#.#.........#.#.#.......#.#.#.#.....#.#.#.#.............#.#.#.#.#.#.#.#.........#.#.......#.#...#.#.#.#.#.#.#.#.#.#.#.#.#.#.#.#.#...#.#.#...#.#.....#.#.#.#.#.#.#.#.#...#.#.#.#.#.#.#.#.........#.#.#.#.....#...........#.#.#.......#.#.#.#.#.#.................A I ~ T Q Q Q ! Q Q ! T Y D }.}.-.Q ! Y =.sXv.*.Q T P Q.aX5.#.#.#.#.#.#.#.#.#.#.#.#.#.[ Q Y P J D D D N M.uXsXE.[ #.,.7.=.#.#.#.#.#.#.#.#.#.#.#.#.#.#.#.#.#.#.#.#.#.#.#.#.#.",
"l 2.#.#.#.#.#.#.#.#.#.#.#.#.#.#.#.#.#.#.#.#.#.#.#.#.#.#.[ -.Q T T T T T T Q Q [ ..#.#.#.#.#.#.#.#.#.[ D J T Q Q D D ~ Q Q U A P T T ! Q Q Q ! ! ! T Y q.f.8.................#.#.....#.#.#.#...........#.....#.#.#.#.#.#...#.#.#.#.#.........#.#.#.#.#.#.#.#.....#.#.#.#.#.#.#.#.O.#.#.#.#.#.....#.#.........#.#.#.#.#.#.#.#.#.#.#.#...#.#...#.#.#.#.#.#.#.#.#.......#.#.#.#.#.#.#.#.........#.#.#.#.#.#.#.#.............#...................................) C C Y T T ! Q Q ! ! T T P D M.}...Q ! P q.rX2.Q T P D `.-.&.#.#.#.#.#.#.#.#.#.#.#.#.#.#.#.#.#.#.#.Q J ..8Xt.5.*.#.#.#.#.#.#.#.#.#.#.#.#.#.#.#.#.#.#.#.#.D J T Q Q D P T Q Q Z P Y T T T T T T ! T Y Y D  XY.9.[ ..[ ..........#...#.........#.#.#.#.#...........#.#.#.....#.#.#.#...#.#.#.............#.#.#.#.#.#.#.#.#.#.....#.#.#.#.#.#.#.#.#.#.#.#.....#.....#.#.#.#.#...#...#.#.#.#.#.............#.#.#.#.#.#.#.#.....#.#.#.#.O.#.#.#.#.#...#.#.#.........#.#.....#.#.#.#...........#.........#.#...#.........A I ~ T ! ! Q Q ! ! ! T Y D }.}.-.Q ! Y =.sXk.*.Q T P Q.aX5.#.#.#.#.#.#.#.#.#.#.#.#.#.[ Q T P J D D D N M.sXpXE.[ @.,.5.-.#.#.#.#.#.#.#.#.#.#.#.#.#.#.#.#.#.#.#.#.#.#.#.#.#.",
"z 2.#.#.#.#.#.#.#.#.#.#.#.#.#.#.#.#.#.#.#.#.#.#.#.#.#.#.[ -.Q T T T T T T Q Q [ ..#.#.#.#.#.#.#.#.#.[ D J T Q Q D D T Q Q U A P T T ! Q Q Q ! ! ! T Y q.f.8...................#.#...#.#.#.#.....................#.#.#.#.#.#.#.#.#.#.........#.#.#.#.#.#.#.#.....#.#.#.#.O.#.#.#.#.O.#.#.#.#.....#.#.......#.#.#.#.#.#.#.#.#.#.#.#.#...#.#.#.#.#.#.#.#.#.#.#.#...#.#.#.#.#.#.#.#.#.#.........#.#.#.#.#.#.#.#.#.#.............................................) C C Y T T ! ! Q T ! T T P D M.}...Q ! P t.wX2.Q T P D `.-.&.#.#.#.#.#.#.#.#.#.#.#.#.#.#.#.#.#.#.#.Q J ..-Xt.5.*.#.#.#.#.#.#.#.#.#.#.#.#.#.#.#.#.#.#.#.#.D D T Q Q D P ! Q Q Z J P T T T T T T T T U T D  X).r.[ ..[ ............#...............#.#.#.#.......#.#...#.......#.#.#.#.#.#.#.#...........#.#.#.#.#.#.....#.#.#...#.#.#.#.#.#.#.#.#.#.......#.#.....#.#.#.#.#.#.#.#.#.#.#.#.#.........#.#.#.#.#.#.#.#.#.#.#.#.....#.#.#.#.#.#.#.#.#.#.#.#.#.#.....#.#.#...#.#.#.#...........#.........#.#...#.........A I ~ T ! ! Q ! Q Q ! T Y D }.}.-.Q ! U =.dXk.#.Q T P Q.aX5.#.#.#.#.#.#.#.#.#.#.#.#.#.[ Q T P D D D D x x.dXuX`.[ *.1.5.-.#.#.#.#.#.#.#.#.#.#.#.#.#.#.#.#.#.#.#.#.#.#.#.#.#.",
"l 2.#.#.#.#.#.#.#.#.#.#.#.#.#.#.#.#.#.#.#.#.#.#.#.#.#.#.[ -.Q T T T T T T Q Q [ ..#.#.#.#.#.#.#.#.#.[ D G T Q Q D D T Q Q U C P T T Q Q Q Q ! ! T T Y q.f.8...............#.....#.#.#.#.#.#.#.................#...#.#.#.#.#.#.#.#.#.#.#.......#.#.#...#.#.#.#.#.......#.#.#.#.#.#...#.#.#.#.#.#.#.#...#...O.#.O.#...#.#.#.#.#.#.#.#.#.#.#.#.#.#.#.#.#.#.#.#.#.#.#.#.#.#.#.#.#.#.#.#.........#.#.#.#.#.#.#.#.#.#.#.#.#.......................................) C C Y T T ! Q Q ! ! T T P D M.}...Q ! P #.1X2.Q T P D `.-.&.#.#.#.#.#.#.#.#.#.#.#.#.#.#.#.#.#.#.#.Q J ..-Xt.5.*.#.#.#.#.#.#.#.#.#.#.#.#.#.#.#.#.#.#.#.#.D D U Q Q D P ! Q Q S P Y T T T T T T T T U U D  X`.t...............#...#...............#...........#.#.#...#.#.#.........#.#.#...#.#.#.#.#.#.#.#.....#.#.........#.#.#.#.#.#.#.#.#.#.#...#.#.#.#.#...#.#...O.O.....#.#.#.#.#.....#.#.#.#.#.#.#.#.#.#.#.#.#.#.#.#.......#.#.#.#.#.#.#.#.#.........#.#.....#.#.#.#.#.#...............#.#.#.#.#.#.#.#.......A I T T ! ! ! ! Q Q Q T Y D }.}.-.Q ! U =.dXv.*.Q T P Q.aX5.O.O.#.#.#.#.#.#.#.#.#.#.#.[ Q T P J D D D N M.8XsXE.[ @.-.5.-.#.#.#.#.#.#.#.#.#.#.#.#.#.#.#.#.#.#.#.#.#.#.#.#.#.",
"l ,.#.#.#.#.#.#.#.#.#.#.#.#.#.#.#.#.#.#.#.#.#.#.#.#.#.#.[ -.[ T T T T T T T Q [ ..#.#.#.#.#.#.#.#.#.[ D G T Q Q D D T Q Q U C P T T Q Q Q Q Q ! T T Y q.f.8.....................#.#.#.#.....#...............#.#.....#.#.#.#.#.#.#.#.........#.#.#.#.#.#.#.#.#.#.......#.#.#.#.#.#.#.#.#.#.#.#.#.......#...#.#.O.....#.#.#.#.#.#.#.#.#.#.....#.#.#.#.#.....#.#.#.#.#.#.#.#.#.#.#.#.#.........#.#.#.#.#.#.#.#.#.#.#.#.#.......................................) C C Y T T ! ! ! Q ! T T P D M.|...Q ! P #.wX2.Q T P D `.-.&.#.#.#.#.#.#.#.#.#.#.#.#.#.#.#.#.#.#.#.Q J ..8Xt.5.*.#.#.#.#.#.#.#.#.#.#.#.#.#.#.#.#.#.#.#.#.D G T Q Q D P ! Q Q S P T T T ! Q T T T ! T U D  X[.y...............#...............#.#.#.........#.#.#...#.#.#.#.........#.#.....#.#.#.#.#.#.#.#.#.#.#.#.........#.#.#.#.#.#.#.#.#.#.#.#.#.#.#.#.......#...#.#.......#.#...#.....#.#.#.#.#.#.#.#.#.#.#.#.#.#.#.#.........#.#.#.#.#.#.#.#.........#.......#.#.#.#.#.#.................#.#...#.............A I T T ! ! ! Q Q Q Q T P G }.}.-.Q ! U =.dXv.*.Q T P Q.aX5.#.#.#.#.#.#.#.#.#.#.#.#.#.[ Q Y P J D D D N M.pXpX`.[ #.-.5.-.#.#.#.#.#.#.#.#.#.#.#.#.#.#.#.#.#.#.#.#.#.#.#.#.#.",
"l 2.#.#.#.#.#.#.#.#.#.#.#.#.#.#.#.#.#.#.#.#.#.#.#.#.#.#.[ -.[ T T T T T T Q Q [ ..#.#.#.#.#.#.#.#.#...D ^ T Q Q D D T Q Q U C P T T Q Q Q Q Q ! T T Y q.f.8...............#.......#.#.#.#.#.#.#.....#.#.#.#.#.#.........#.#.#.#.............#.#.#.#...#.....#.#...#.#.#.#.#.#.#.....#.#.#.#.#.#.....#.#.#.#.#.#.......#.#.#...#.#.#.#.......#.O.#.#.#.#.....#.#.#.#.....#.#.#.#.................#.#...#.........#.#.#.#.....................................) C C Y T T T ! Q Q ! T T P D M.|...Q ! P #.wX2.Q Q P D =X-.&.#.#.#.#.#.#.#.#.#.#.#.#.#.#.#.#.#.#.#.Q J ..uXt.5.*.#.O.O.#.#.#.#.#.#.#.#.#.#.#.#.#.#.#.#.#.D G T Q Q D P ! Q Q S P U T T Q Q Q Q ! ! T T D  X[.u...............#.......#...#.#.#...#.....#...#.#.....#...#.......#.#.#.#.......#.#.#.#.#.....#.#.#.#.#.#.#.#.#.#.........#.#...#.#.O.#.#.#.#...#.#.#.#.#.#...#.#.#.#.#.#...#.#.#.#.#...#...#.#.#.#.#.#...#.#.#.#...#.#.#...#.........#.#.#.#.#.#.......#.#.#.#.#.#.#...#.....#.#.#.#.................A I ~ T ! ! ! Q Q Q Q T P G }.}.-.Q ! U =.dXz.*.Q T P M.aX5.#.#.#.#.#.#.#.#.#.#.#.#.#.[ Q T P J D D D N x.dXuX`.[ @.-.5.-.#.#.#.#.#.#.#.#.#.#.#.#.#.#.#.#.#.#.#.#.#.#.#.#.#.",
"z 2.#.#.#.#.#.#.#.#.#.#.#.#.#.#.#.#.#.#.#.#.#.#.#.#.#.#.[ -.[ T T T T T T Q Q [ ..#.#.#.#.#.#.#.#.#...D ^ T Q Q D D T Q Q U C P T T Q Q Q Q Q ! T T Y q.f.8...............#.......#.#.#.#.#.#.#.#...#.#.#.#.#.#.........#.#.#.................#.#.#.....#...#.#...#.#.#.#.#.......O.#.#.#.#.#.#.....#.#.#.#.#.#.......#.#.#.....#.#.#.............#.#.#.#.#...#.#...........#.#.#...............#.#.............#.#.#.#...........#.........................) C C Y T T T ! Q Q Q T T P D M.|...Q ! P #.1X2.Q Q P D =X-.&.#.#.#.#.#.#.#.#.#.#.#.#.#.#.#.#.#.#.#.Q J ..=Xs.5.*.O.O.O.#.#.#.#.#.#.#.#.#.#.#.#.#.#.#.#.#.D G T Q Q D P ! Q Q S P U T T Q Q Q Q ! ! T T D  X[.u...............#.#.....#.#.....#.#.#.....#.#.#.#.....#.........#.#.#.#.#.......#.#.#.#...........#.#.#.#.#.#.#...........#.#.#.#.....#.#.#...#.#.#.#.#.#.#.#.#.#.#.#.#.#.#.#...#.#.#...............#.#.......#.#...#.#.#.....#.......#.#.#.#.#.#.......#.#.#.#.#.#.#.#.#.#.#.#.#.#.#.................A I ~ T ! Q ! Q Q Q Q T P J }.}.-.Q ! U D dXz.*.Q T P M.aX5.#.#.#.#.#.#.#.#.#.#.#.#.#.[ Q T P D D D D x v.8XpXE.#.*.-.5.-.#.#.#.#.#.#.#.#.#.#.#.#.#.#.#.#.#.#.#.#.#.#.#.#.#.",
"l 2.#.#.#.#.#.#.#.#.#.#.#.#.#.#.#.#.#.#.#.#.#.#.#.#.#.#.[ -.[ T T T T T T Q Q [ ..#.#.#.#.#.#.#.#.#.[ D G T Q Q D D T Q Q U C P T T Q Q Q Q Q ! T T Y q.f.8.....................#.#.#.#.#.#...#.#.#.#.#.#.#.#.#.#.#.......#.#.#.#.#.#.#.#.#...#.#.#.#.#.#.#.#.#...O.#.#.#.#.....#.#.#.#.#.#.#.#.#.#.#.#.#.#.#.#.#.#.....#.#.#.#.#.#.#.#.#.#.#.#.#.#.#.#.#.#.#.#.#.#.......#.#.#.#.#.#...#.#.#.#.#.#.#...#.#.#.........#.#...................................) C C Y T T ! Q Q Q Q ! T Y D M.|.#.Q ! P #.wX2.Q ! P D =X-.&.#.#.#.#.#.#.#.#.#.#.#.#.#.#.#.#.#.#.#.Q J ..7Xq.5.*.#.#.#.#.#.#.#.#.#.#.#.#.#.#.#.#.#.#.#.#.D G T Q Q D P ! Q Q S P T T T Q Q Q Q ! ! U U D  X[.u...............#.#.#...#.#...#.#.#.#...#.#...#.#.#.#...#.#.#.#.#...#.#.#.#.#.#...........#.#.#...........O.#.#.#.............#.....#.....#.#.#.#.#.#.#.....#.#.#...........#.......#.#.#...........#.#...#.#.#.#.#.#.#.............#.#.#...#...#.#...........#.#.#...........#.#.#...................A I T T ! ! Q Q Q Q Q T P J }.}.-.Q ! U D dXg.#.Q T P M.aX5.#.#.#.#.#.#.#.#.#.#.#.#.#.[ Q T P J D D D N M.pXuX`.#.#.-.5.-.#.#.#.#.#.#.#.#.#.#.#.#.#.#.#.#.#.#.#.#.#.#.#.#.#.",
"l ,.#.#.#.#.#.#.#.#.#.#.#.#.#.#.#.#.#.#.#.#.#.#.#.#.#.#.[ -.[ T T T T T T T Q [ ..#.#.#.#.#.#.#.#.#...D G T Q Q D D T Q Q U A P T T Q Q Q Q ! ! T T Y 9.f.8.......................#.#.#.#.#.....#.#.#.#.#.#.#.#.#.#.......#.#.#.#.#.#.#.#.#.....#.#.#.#.#.#.#.#.....#.#.#.#.....#.#.#.#.#.#.#...#.#.#.#.#.#.#.#.#.#.....#...#.#.#.#.#.#...#.....#.#.#.#.#.#.#.#.#.#.........#.#.#.#.#.#.....#.#.#.#.#.#.#.#...........#.#.#...........#.....................) C C Y T T ! ! Q Q ! ! T T D M.|.#.Q ! P #.rX2.Q T Y D :X-.&.#.#.#.#.#.#.#.#.#.#.#.#.#.#.#.#.#.#.#.Q J ..uXt.5.*.#.#.O.#.#.#.#.#.#.#.#.#.#.#.#.#.#.#.#.#.D G T Q Q D P ! Q Q S P U T T Q Q Q Q ! ! U U D  X[.u...............#.#.#.....#...#.#.......#.#.#...#.#.#.....#.#.........#.#.#...#.#...#.O...#.#.#.#.#.......#...#.#.#.#.....#.#.#.#.........#.#.#.#.#.#.#.#.......#.#.#...#.....#.#...#.#.#...#.......#.#.....#.#.#.#.#.#.......O.#...#.#.#...#...........O.....#.#.#.#.........#.#.#...................A I T T ! ! Q Q Q Q Q T P J }.}.-.Q Q U D dXg.#.Q T P M.aX5.#.#.#.#.#.#.#.#.#.#.#.#.#.[ Q T P J D D D N x.dXsX`.#.#.-.5.-.#.#.#.#.#.#.#.#.#.#.#.#.#.#.#.#.#.#.#.#.#.#.#.#.#.",
"l 2.#.#.#.#.#.#.#.#.#.#.#.#.#.#.#.#.#.#.#.#.#.#.#.#.#.#.[ -.[ T T T T T T Q Q [ ..#.#.#.#.#.#.#.#.#...D G T ! Q D D T Q Q U A P T T Q Q Q Q Q Q T ~ Y q.f.8.......................#...............#.#.#.....#.#.#.......#.#.#.#.#.#...............#.#.#.#...#.#...#.#.#.........#.#.................#.#.........#.#.....#.#.#.#.#.#.................#.#.....#...#.#.....#.#.#.#.#.#...........#.....#.#.#.#.#.#.....#.#.#.#...........#.....................) C A P T T ! Q Q Q ! ! T Y D t.|.#.Q ! P #.2X2.Q T W D -X-.&.#.#.#.#.#.#.#.#.#.#.#.#.#.#.#.#.#.#.#.Q J ..,Xt.5.*.#.O.O.#.#.#.#.#.#.#.#.#.#.#.#.#.#.#.#.#.D G U Q Q D P ! Q Q S P U T T Q Q Q Q Q ! U U D  X[.u...................................#.#...........#.#.#.#.#.....#.#.....#.#.#.#.#.#.#.#.#.#.#...#.#.....#.#.#.#.#.#.#.#.#.#.#.#.#.#.#...#.#.#.....#.#.#.#.....#.#.#.#.#.#.....#.....#.#.#.#.#.#.#...#.....#.#.#.#.#.#.#.#.#.#.#.#.O.#...#.#.#.#.#...#...O.#.#.#.#.#.#.#.#.....#.#.#...................A I T T ! ! ! ! Q ! ! T P J }.}.-.Q Q U D dXg.*.Q T P M.aX5.#.#.O.#.#.#.#.#.#.#.#.#.#.[ Q T P J D D D N x.dXpX,X#.#.-.5.-.#.#.#.#.#.#.#.#.#.#.#.#.#.#.#.#.#.#.#.#.#.#.#.#.#.",
"z 2.#.#.#.#.#.#.#.#.#.#.#.#.#.#.#.#.#.#.#.#.#.#.#.#.#.#.[ -.[ T T T T T T Q Q [ ..#.#.#.#.#.#.#.#.#...D G T ! Q D D T Q Q U A P T T Q Q Q Q Q Q T ~ Y q.f.8.......................................#.#.#.......#.#.#.....#.#.#.#.#.................#.#.#.#.#.#.....#.#.#.#.......#.#.#...............#.#.........#.#.....#.#.#.#.#.#...........O...#.#.#.........#.#.....#.#.#.#.#.#.#...................#.#.#.#.....#.#.#.#.#.........#.....................) C C P T T ! Q Q Q ! ! T Y H t.|.#.Q ! P #.eX2.Q T W D -X-.&.#.#.#.#.#.#.#.#.#.#.#.#.#.#.#.#.#.#.#.Q J ..5Xt.5.*.#.O.O.#.#.#.#.#.#.#.#.#.#.#.#.#.#.#.#.#.H G U Q Q D P ! Q Q S P U T T Q Q Q Q Q ! T Y D  X[.u...............#.#.#.#...#.......#.#.#.#.....#.....#.#.#.#.....#.#.....#.#.#.#.#.#.#.#.#.#.#.#.#.#...#.#.#.#.#.#.#.#.#.#.#.#.#.#.#.......#.#.....#.#.#.#.#.#.#.#.#.#.#.#.#.#.#.#...#.#.#.#.#.#.#.#.#.....#.#.#.#.#.#.#.#.#.#.#.#...#...#.#.#.#.#.#.#.#.#.#.#.#.#.#.#.#.#.#.#.#.#.....................A I T T ! ! ! Q Q Q ! T Y D }.}.-.Q Q U D dXg.*.Q T P M.aX5.#.#.#.#.#.#.#.#.#.#.#.#.#.[ Q T P D D D D x 9.uXdX`.#.*.-.4.-.#.#.#.#.#.#.#.#.#.#.#.#.#.#.#.#.#.#.#.#.#.#.#.#.#.",
"l 2.#.#.#.#.#.#.#.#.#.#.#.#.#.#.#.#.#.#.#.#.#.#.#.#.#.#.[ -.[ T T T T T T Q Q [ ..#.#.#.#.#.#.#.#.#...D G T ! Q D D U ! Q U A P T T Q Q Q Q Q Q ! T Y q.f.8.................................#.#.....#.#.#...............#...............#.#.#.O.....#.#.#.#.............#.#.#.#.........#.#.#.#.....#.#.#.#.........#.#.................#.#.#.#.....#.#.#.#...........#.#...............#.#.#.#.....#.#.#.#...#...#.....#.#.#.#.#.#.#.#.....................) C C P T T ! ! ! ! Q Q T Y H s.|.#.Q ! P *.rX2.Q T W D -X-.&.#.#.#.#.#.#.#.#.#.#.#.#.#.#.#.#.#.#.#.Q J ..8Xt.5.*.#.#.#.#.#.#.#.#.#.#.#.#.#.#.#.#.#.#.#.#.D G T Q Q D P ! Q Q S P U T T Q Q Q Q Q ! ! P D  X[.f...............#.#.#.#.#.#.#.#.#.#.#.#.#.#.#.........#.#.#.#.............#.#.#.#.#.#.#.#.#.#.#.#.#.#.#.#.#.#.....#.#.#.#...#.#.#.#...#.#.........#.#.#.#.#.#.........#.#.........#.#.#.#.#.#.#.#.#.#.#.#...#.........#.#.......#.#.#.#.#.#.#.#.#.#.#.#.#.#.#.#.#.#.#.#.#...O.#.#.....................Z I T T ! Q Q Q Q Q ! T U D }.}.-.Q Q U D dXg.*.Q T P M.aX5.#.#.#.#.#.#.#.#.#.#.#.#.#.[ Q T P J D D D N 9.sXpX`.#.#.-.5.-.#.#.#.#.#.#.#.#.#.#.#.#.#.#.#.#.#.#.#.#.#.#.#.#.#.",
"l ,.#.#.#.#.#.#.#.#.#.#.#.#.#.#.#.#.#.#.#.#.#.#.#.#.#.#.[ -.[ T T T T T T T Q [ ..#.#.#.#.#.#.#.#.#...D G T ! Q D D Y U Q U A P T T Q Q Q Q Q Q ! T Y q.f.8...............................O.#.#.....#.#...............#.................#.#.#.O.....#.#...#.............#.#.#.#.........#.#.#.#.....#.#.#.#...........#.................#.#.#.#.....#.#...............#.#...............#.#.#.#.#...#.#...........#.#...#.#.#.#.#.#.#.#.............{ { ....) C C P U ! ! ! ! ! Q Q T T D s.|.#.Q ! P *.yX2.Q T W D ,X-.#.#.#.#.#.#.#.#.#.#.#.#.#.#.#.#.#.#.#.#.Q J ..;Xt.5.*.#.#.#.#.#.#.#.#.#.#.#.#.#.#.#.#.#.#.#.#.D G T Q Q D P ! Q Q S J U T T Q Q Q Q ! ! ! U D  X[.d...............#.#.#.#.#.#.#.#.#.#...#.#.#.#.....#.#.#.#.#.#.............#.#.#.#.#.#.#.#.#.#.#.#.#.#.#.#.#.#...#.#.#.#.#.....#.#.#.#.#.#.#.......#.#.#.#.#.#.........#.#...#.#.#.#.#.#.#.#.#.#.#.#.#.#.#.#.#.........#.#.....#.#.#.#.#.#.#.#.#.#...#.O...#.#.#.#.#.#.#.#.....#.#.....................Z I T T ! Q Q Q Q Q ! T U D }.}.-.Q Q U D dXg.*.Q T P M.aX5.#.#.#.#.#.#.#.#.#.#.#.#.#.[ Q T P J D D D N 8.dXpX;X*.#.-.5.-.#.#.#.#.#.#.#.#.#.#.#.#.#.#.#.#.#.#.#.#.#.#.#.#.#.",
"l 2.#.#.#.#.#.#.#.#.#.#.#.#.#.#.#.#.#.#.#.#.#.#.#.#.#.#.[ -.[ T T T T T T Q Q [ ..#.#.#.#.#.#.#.#.#...D G T ! Q D D U ! Q U A P T T Q Q Q Q Q Q ! T Y q.f.8.P I I I I I I I I I I I I P P I I I P P P I P P P P P I I I I I P P P P P P I I P P P P P I P P P P P P P P P P I I P P P P P P P P P P P I P P P P I I I P P P P P P P P P P P P I P P I I P P P P I I P P I I P P P P P P I P I I I I I I U U U U U T Y Y Y Y U U U U U U U U U Y U U I Y U U Y C C P T Q Q Q ! ! Q Q T Y H t.|.#.Q ! P *.iX2.Q T W D ,X-.*.#.#.#.#.#.#.#.#.#.#.#.#.#.#.#.#.#.#.#.[ P ..,Xt.5.*.#.#.#.#.#.#.#.#.#.#.#.#.#.#.#.#.#.#.#.#.D G T Q Q D P ! Q Q S J T T T Q Q Q Q ! ! ! T D  X[.t.T T T T T T T T T T T T T T T T T T T T T T T T T T T T T T T T T T T T T T T T T T Q Q Q Q Q Q Q Q Q Q Q Q Q Q Q Q Q Q Q Q Q Q Q Q Q Q Q Q Q Q Q Q Q Q Q Q Q Q Q Q Q Q Q Q Q Q Q Q Q Q Q Q Q Q Q Q Q Q Q Q Q Q Q Q Q Q Q Q Q Q Q Q Q Q Q Q Q Q Q Q Q Q Q Q Q Q Q Q Q Q Q Q Q Q ! ! ! ! ! ! ! ! ! ! C I ~ T ! Q Q Q Q Q ! T U D }.}.-.Q Q U D dXg.*.Q T P M.aX5.#.#.#.#.#.#.#.#.#.#.#.#.#.[ Q T P J D D D M 9.8XsX`.*.#.-.5.-.#.#.#.#.#.#.#.#.#.#.#.#.#.#.#.#.#.#.#.#.#.#.#.#.#.",
"z 2.#.#.#.#.#.#.#.#.#.#.#.#.#.#.#.#.#.#.#.#.#.#.#.#.#.#.[ -.[ T T T T T T Q Q [ ..#.#.#.#.#.#.#.#.#...D G T ! Q D D T Q Q U A P T T Q Q Q Q Q Q ! ! U s.{ g g g g g g g g g g g g g g g g g g g g g g g s g g g g g g g g g g g g g g s g g g g g g g g s s g g g g g g g g g g g g g g g g g g g g g g g g g g g g g g g g g g g g g g g g g g g g g g g g g g g g g g g g g g g g g g g g g g g g g g g g g g g g g g g g g g g g g g g g g g g g g g g g g g A Y T Q Q Q Q Q Q Q T Y H t.|...Q ! P *.aX2.Q T W D ,X-.*.#.#.#.#.#.#.#.#.#.#.#.#.#.#.#.#.#.#.#.[ P ..8Xx.5.=.#.#.#.#.#.#.#.#.#.#.#.#.#.#.#.#.#.#.#.#.H G U Q Q D P ! Q Q S J T T T Q Q Q Q Q Q ! T D  X3.g g g g g g g g g g g g g g g g g g g g g g g g g g g g g g h g g g g g g g g g g g g g g g g g g g g g g g g g g g g g g g g g k k g k k k k k k k k k k k k k h h h k k k g k k k k k k g g g g g g k k k k k k h h k k g g k k k k k k g g g g g g g g g j k k k k k k g g k k h h h h h h h h g g x G ~ ! Q Q Q Q Q Q ! T U D }.}.-.Q Q U D dXg.*.Q T P M.aX5.#.#.#.#.#.#.#.#.#.#.#.#.#.[ Q T P D D D D x 9.sXpX`.*.*.-.2.-.#.#.#.#.#.#.#.#.#.#.#.#.#.#.#.#.#.#.#.#.#.#.#.#.#.",
"l 2.#.#.#.#.#.#.#.#.#.#.#.#.#.#.#.#.#.#.#.#.#.#.#.#.#.#.[ -.[ T T T T T T Q Q [ ..#.#.#.#.#.#.#.#.#...D G T ! Q D D T Q Q U A P T T Q Q Q Q Q Q Q Q Q T D S S S D D D D D D D D D D D D D D D D D D D D D D D D D D D D D D S S S S S S S S S S S S S S S S S S S S S S S S S S P D S S S S S S S S S S S S S S S S S S S S S S S S S S S S S S S S S S S S S S S S S S S S S S S S S S S S S S S S S S S S S S S S S S S S S S S S S S S S S S Z Z Z Z Z Z Z D J ! Q Q Q Q Q Q Q Q T Y D t.|.#.Q ! P *.aX2.Q T W D ,X-.*.#.#.#.#.#.#.#.#.#.#.#.#.#.#.#.#.#.#.#.[ J ..-Xv.5.*.#.#.#.#.#.#.#.#.#.#.#.#.#.#.#.#.#.#.#.#.H G U Q Q D P ! Q Q S J U T T Q Q Q Q Q Q Q ! G D Z Z Z Z S S S S S S S S S S S S S S S S S S S S S D D D D S S S S D D D D S S S S S S S S S D D D D D D D D S S S S D D D D D D D D D S S S S D D D D D D A A A Z A A A A A A C C C C A A A A C C C C A A A A A A A A Z A A A A C C C C A A A A C C C C A A A A C C C C C C C C C C C C C C C C C C C C D I T ! Q Q Q Q Q Q Q T U D Q.@X-.Q ! U D dXg.*.Q T P M.dX5.#.#.#.#.#.#.#.#.#.#.#.#.#.[ Q T P J D D D x 3.dXuX-X*.#.-.4.-.#.#.#.#.#.#.#.#.#.#.#.#.#.#.#.#.#.#.#.#.#.#.#.#.#.",
"l ,.#.#.#.#.#.#.#.#.#.#.#.#.#.#.#.#.#.#.#.#.#.#.#.#.#.#.[ -.[ T T T T T T T Q [ ..#.#.#.#.#.#.#.#.#...D G T ! Q D D U Q Q U A P T T Q Q Q Q Q Q Q Q Q Q T P P P P P P P P P P P P P P P P P P P P P P P P P P P P P P P P P P P P P P P P P P P P P P P P P P P P P P P P P P P T P P P P P P P P P P P P I P P P P P P P P P P P P P P P P P P P P P P P P P P P P P P P P P P P P P P P P P P P P P P P P P P P P P P P P P P P P P P P P P P P P P P P P P P T Q Q Q Q Q Q Q Q Q T U D q.|.#.Q ! P *.iX2.Q T W D ,X-.*.#.#.#.#.#.#.#.#.#.#.#.#.#.#.#.#.#.#.#.[ J ..-Xv.5.=.#.#.#.#.#.#.#.#.#.#.#.#.#.#.#.#.#.#.@.#.H G T Q Q D P ! Q Q D J Y T T Q Q Q Q Q Q ) Q T T I P P P P P P P P P P P P P P P P P P P P P P P P Y Y Y Y P P P P P Y Y Y P P P P P P P P P Y Y Y Y Y Y Y Y P P P P Y Y Y Y Y Y Y Y P P P P P Y Y Y Y Y Y Y Y Y Y Y Y Y Y Y Y P P P P Y Y Y Y P P P P P Y Y Y Y Y Y Y Y Y Y Y Y P P P P Y Y Y Y P P P P P Y Y Y P P P P P P P P P P P P P P P P P P P P T T T ! Q Q Q Q Q Q Q T U D Q.@X-.Q ! U D dXB.*.Q T P M.dX5.#.#.#.#.#.#.#.#.#.#.#.#.#.[ Q T P J D D D N 9.7XsXOX*.#.-.5.-.#.#.#.#.#.#.#.#.#.#.#.#.#.#.#.#.#.#.#.#.#.#.#.#.#.",
"l 2.#.#.#.#.#.#.#.#.#.#.#.#.#.#.#.#.#.#.#.#.#.#.#.#.#.#.[ -.[ T T T T T T Q Q [ ..#.#.#.#.#.#.#.#.#...D G T ! Q D A T Q Q U A P T T Q Q Q Q Q Q Q Q Q Q Q ! T T T T T T T T T T T T T T T T T T T T T T T T T T T T T T T T T T T T T T ! ! T ! T T T T T T T T T T ! ! ! ! T T T T T T T T T T T T T T T T T T T T ! ! ! ! ! T T T T T T T T T T T T ! ! ! ! T T T T T T T T T ! ! ! T T T T T T T T T T T T T T T T T T T T T T T T T T T T T T T T T T T T T ! Q Q Q Q Q Q Q Q Q T Y D q.|.#.Q ! P *.aX2.Q T W D ,X-.*.#.#.#.#.#.#.#.#.#.#.#.#.#.#.#.#.#.#.#.[ J ..7Xj.5.=.#...#.#.#.#.#.#.#.#.#.#.#.#.#.#.#.#.#.#.J G T Q Q D P ! Q Q D J Y T T Q Q Q Q Q Q Q Q Q ! T U U U T T T T T T T T T T T T T T T T T T T T T T T T T T T T T T T T T T T T T T T T T T T T T T T T T T T T T T T T T T T T T T T T T T T T T T T T T T T T T T T T T T T T T T T T T T T T T T T T T T T T T T T T T T T T T T T T T T T T T T T T T T T T T T T T T T T T T T T T T T T T T U U T ! Q Q ! Q Q Q Q Q Q Q T Y D Q.@X:.Q ! U D dXB.*.Q T P M.dX5.#.#.#.#.#.#.#.#.#.#.#.#.#.[ Q T P J D D D x 9.pXuX[.*.#.-.4.2.#.#.#.#.#.#.#.#.#.#.#.#.#.#.#.#.#.#.#.#.#.#.#.#.#.",
"z 2.#.#.#.#.#.#.#.#.#.#.#.#.#.#.#.#.#.#.#.#.#.#.#.#.#.#.[ -.[ T T T T T T Q Q [ ..#.#.#.#.#.#.#.#.#.O.D G T ! Q D A T Q Q U A J T T ! ! Q Q Q Q Q Q Q Q Q ! ! ! T T T T T T T T T T T T T T T T T T T T T T T T T T T T T T T T T T T T ! ! T ! T T T T T T T T T T ! ! ! ! T T T T T T T T T T T T T T T T T T T T ! ! ! ! ! T T T T T T T T T T T T ! ! ! ! T T T T T T T T T ! ! ! T T T T T T T T T T T T T T T T T T T T T T T T T T T T T T T T T T T T T ! Q Q Q Q Q Q Q Q Q T Y D q.|.=.Q ! P *.aX2.Q T W D ,X-.*.#.#.#.#.#.#.#.#.#.#.#.#.#.#.#.#.#.#.#.[ J #.uXx.5.=.#.O.#.#.#.#.#.#.#.#.#.#.#.#.#.#.#.#.#.#.J G T Q Q D P ! Q Q D J Y T T Q ! Q Q Q Q Q Q Q Q ! ! ! ! ! Q ! ! ! ! ! ! Q Q Q Q ! T ! ! Q Q Q T ! Q Q Q ! ! ! ! Q Q ! Q ! ! Q Q Q Q ! ! Q Q Q Q ! ! ! ! ! ! ! ! ! ! ! ! ! ! ! ! ! ! ! ! Q ! ! ! ! ! ! ! ! ! ! ! ! ! ! ! Q Q Q ! ! ! ! ! ! ! ! ! ! ! ! ! ! ! ! Q ! ! ! ! ! ! ! Q Q Q ! ! ! ! ! ! Q ! ! ! ! ! ! ! ! ! ! T Q ! Q Q Q Q ! ! T T ! ! ! T T ! Q Q Q Q Q Q Q Q ! ! ! T Y D Q.<X:.Q ! U D sXB.*.Q T P M.dX5.#.#.#.#.#.#.#.#.#.#.#.#.#.[ Q T P D D D D x 3.dXsX=X-.*.-.2.2.#.#.#.#.#.#.#.#.#.#.#.#.#.#.#.#.#.#.#.#.#.#.#.#.#.",
"l 2.#.#.#.#.#.#.#.#.#.#.#.#.#.#.#.#.#.#.#.#.#.#.#.#.#.#.[ -.[ T T T T T T Q Q [ ..#.#.#.#.#.#.#.#.#.O.G G T ! Q D A U Q Q U A P T T Q Q Q Q Q Q Q Q Q Q Q Q Q Q Q Q Q Q ! ! ! ! ! Q Q Q Q Q T T Q Q ! ! ! ! ! ! Q Q Q Q Q Q Q Q Q Q Q Q Q Q Q Q Q Q Q Q Q Q ! Q Q Q Q Q Q Q T Q ! Q Q Q Q Q T Q Q Q Q Q Q Q Q Q Q Q Q Q Q Q Q ! Q Q Q Q Q Q Q Q Q Q Q Q Q Q Q Q Q Q Q Q Q Q T Q Q Q ! ! Q Q Q Q Q Q Q Q Q Q Q Q Q Q Q ! Q Q Q Q ! ! ! ! ! ! ! T Q Q Q Q Q Q ! ! Q Q Q Q Q Q Q Q Q Q T P D q.|.-.Q ! P *.iX2.Q ! W D ,X-.*.#.#.#.#.#.#.#.#.#.#.#.#.#.#.#.#.#.#.#.[ J #.=XM.5.*.#.#.#.#.#.#.#.#.#.#.#.#.#.#.#.#.#.#.#.#.J G T Q Q D J ! Q Q S J T T T Q Q Q Q Q Q Q Q ! Q Q Q Q Q Q Q ! ! ! ! Q Q Q Q Q Q Q ! Q Q Q Q Q T Q Q Q Q Q Q Q Q Q Q Q Q ! Q Q Q Q Q Q Q Q Q Q Q Q Q Q Q Q Q Q Q Q Q Q Q ! ! Q Q Q Q Q Q Q Q Q Q Q Q Q Q Q Q Q Q Q Q Q Q Q Q Q ! ! ! ! ! ! ! ! Q Q Q Q Q Q Q Q Q Q Q Q Q Q Q ! Q Q Q Q Q Q Q Q Q Q Q Q Q Q ! ! Q Q Q ! ! Q Q Q Q Q Q Q Q T T Q Q Q T T ! Q Q Q Q Q Q Q Q Q ! T T Y D Q.<X2.) Q U G dXP.-.Q T P M.dX5.#.#.#.#.#.#.#.#.#.#.#.#.#.[ Q T P J D D D x 9.5XpX7X-.@.-.4.2.#.#.#.#.#.#.#.#.#.#.#.#.#.#.#.#.#.#.#.#.#.#.#.#.#.",
"l ,.#.#.#.#.#.#.#.#.#.#.#.#.#.#.#.#.#.#.#.#.#.#.#.#.#.#.[ -.[ T T T T T T T Q [ ..#.#.#.#.#.#.#.#.#.O.D G T ! Q D A T Q Q U A P U U ! Q Q Q Q ! Q Q Q Q Q Q Q Q Q Q Q Q Q Q Q Q Q Q Q Q Q Q Q Q Q Q Q Q Q Q Q Q Q Q Q Q Q Q Q Q Q Q Q Q Q Q Q Q Q Q Q Q Q Q Q Q Q Q Q Q Q Q Q Q Q Q Q Q Q Q Q Q Q Q Q Q Q Q Q Q Q Q Q Q Q Q Q Q Q Q Q Q Q Q Q Q Q Q Q Q Q Q ] Q Q Q Q Q Q Q Q Q Q Q Q Q Q Q Q Q Q Q Q Q Q Q Q Q Q Q Q Q Q Q Q Q Q Q Q Q Q Q Q ! Q Q Q Q Q Q Q Q Q Q Q Q Q Q Q Q Q ! T Y D q.|.-.Q ! P *.aX2.Q Q W D ,X-.*.#.#.#.#.#.#.#.#.#.#.#.#.#.#.#.#.#.#.#.[ J #.7Xf.5.*.#.#.#.#.#.#.#.#.#.#.#.#.#.#.#.#.#.#.#.#.J G T Q Q D J ! Q Q S J T T T Q Q Q Q Q Q Q Q Q Q Q Q Q Q Q Q Q Q Q Q Q Q Q Q Q Q Q ! Q Q Q Q Q ! Q Q Q Q Q Q Q Q Q Q Q Q Q Q Q Q Q Q Q Q Q Q Q Q Q Q Q Q Q Q Q Q Q Q Q Q ! Q Q Q Q Q Q Q Q Q Q Q Q Q Q Q Q Q Q Q Q Q Q Q Q Q Q ! ! ! ! Q Q Q Q Q Q Q Q Q Q Q Q Q Q Q Q Q Q Q ! Q Q Q Q Q Q Q Q Q Q Q Q Q Q Q Q Q Q Q Q Q Q Q Q Q Q Q Q Q Q Q Q Q ! ! ! Q Q Q Q Q Q Q Q Q Q ! ! T Y D Q.<X2.) Q U D dXA.-.Q T P M.dX5.#.#.#.#.#.#.#.#.#.#.#.#.#.[ Q T P J D D D N 9.uX8X*X-.#.-.5.2.#.#.#.#.#.#.#.#.#.#.#.#.#.#.#.#.#.#.#.#.#.#.#.#.#.",
"l 2.#.#.#.#.#.#.#.#.#.#.#.#.#.#.#.#.#.#.#.#.#.#.#.#.#.#.[ -.[ T T T T T T Q Q [ ..#.#.#.#.#.#.#.O.O.O.D G T Q Q D A T Q Q U C J Y Y T ! ! T ! ! Q Q Q Q Q Q Q Q Q Q Q Q Q Q Q Q Q Q Q Q Q Q Q Q Q Q Q Q Q Q Q Q Q Q Q Q Q Q Q Q Q Q Q Q Q Q Q Q Q Q Q Q Q Q Q Q Q Q Q Q Q Q Q Q Q Q Q Q Q Q Q Q Q Q Q Q Q Q Q Q Q Q Q Q Q Q Q Q Q Q Q Q Q Q Q Q Q Q Q Q Q Q Q Q Q Q Q Q Q Q Q Q Q Q Q Q Q Q Q Q Q Q Q Q Q Q Q Q Q Q Q Q Q Q Q Q Q Q Q Q Q Q Q ! Q Q Q Q Q Q Q Q Q Q Q Q Q Q Q Q ! T T P D q.}.*.Q ! P *.aX2.Q Q W D ,X-.*.#.#.#.#.#.#.#.#.#.#.#.#.#.#.#.#.#.#.#.[ J #.uXx.5.*.#.#.#.#.#.#.#.#.#.#.#.#.#.#.#.#.#.#.#.#.J G T Q Q D J ! Q Q S J P T T T T T ! ! ! Q Q Q Q Q Q Q Q Q Q Q Q Q Q Q Q Q Q Q Q Q Q Q Q Q Q Q Q Q Q Q Q Q Q Q Q Q Q Q Q Q Q Q Q Q Q Q Q Q Q Q Q Q Q Q Q Q Q Q Q Q Q Q Q Q Q Q Q Q Q Q Q Q Q Q Q Q Q Q Q Q Q Q Q Q Q Q Q Q Q Q Q Q Q Q Q Q Q Q Q Q Q Q Q Q Q Q Q Q Q Q Q Q Q Q Q Q Q Q Q Q Q Q Q Q Q Q Q Q Q Q Q Q Q Q Q Q Q Q Q Q Q Q Q Q Q Q Q ! Q Q Q Q Q Q Q Q Q Q Q ! T T U I D Q.@X:.Q Q U D dXB.*.Q T P q.dX5.#.#.#.#.#.#.#.#.#.#.#.#.#.[ Q T P J D D D N 9.sXpX*X-.#.-.2.2.#.#.#.#.#.#.#.#.#.#.#.#.#.#.#.#.#.#.#.#.#.#.#.#.#.",
"z 2.#.#.#.#.#.#.#.#.#.#.#.#.#.#.#.#.#.#.#.#.#.#.#.#.#.#.[ -.[ T T T T T T Q Q [ ..#.#.#.#.#.#.#.O.O.O.D G T Q Q D A U Q Q T C D I Y U U U T U U T Q Q Q Q Q Q Q Q Q Q Q Q Q Q Q Q Q Q Q Q Q Q Q Q Q Q Q Q Q Q Q Q Q Q Q Q Q Q Q Q Q Q Q Q Q Q Q Q Q Q Q Q Q Q Q Q Q Q Q Q Q Q Q Q Q Q Q Q Q Q Q Q Q Q Q Q Q Q Q Q Q Q Q Q Q Q Q Q Q Q Q Q Q Q Q Q Q Q Q Q Q Q Q Q Q Q Q Q Q Q Q Q Q Q Q Q Q Q Q Q Q Q Q Q Q Q Q Q Q Q Q Q Q Q Q Q Q Q Q Q Q Q Q Q Q Q Q Q Q Q Q Q Q Q Q Q Q T T T Y I J D t.}.&.Q ! P *.iX2.Q Q W D +X-.*.#.#.#.#.#.#.#.#.#.#.#.#.#.#.#.#.#.#.#.[ J #.,Xv.5.*.#.#.#.#.#.#.#.#.#.#.#.#.#.#.#.#.#.#.#.#.J G T Q Q D J ! Q Q S J P Y Y T T T ! T U ! Q Q Q Q Q Q Q Q Q Q Q Q Q Q Q Q Q Q Q Q Q Q Q Q Q Q Q Q Q Q Q Q Q Q Q Q Q Q Q Q Q Q Q Q Q Q Q Q Q Q Q Q Q Q Q Q Q Q Q Q Q Q Q Q Q Q Q Q Q Q Q Q Q Q Q Q Q Q Q Q Q Q Q Q Q Q Q Q Q Q Q Q Q Q Q Q Q Q Q Q Q Q Q Q Q Q Q Q Q Q Q Q Q Q Q Q Q Q Q Q Q Q Q Q Q Q Q Q Q Q Q Q Q Q Q Q Q Q Q Q Q Q Q Q Q Q Q Q Q Q Q Q Q Q Q Q Q ! ! T U Y P P D Q..X:.Q Q U D iXB.*.Q T P t.dX5.#.#.#.#.#.#.#.#.#.#.#.#.#.[ Q T P D D D D x 8.dXpX5X-.@.-.2.2.#.#.#.#.#.#.#.#.#.#.#.#.#.#.#.#.#.#.#.#.#.#.#.#.#.",
"l 2.#.#.#.#.#.#.#.#.#.#.#.#.#.#.#.#.#.#.#.#.#.#.#.#.#.#.[ -.[ T T T T T T Q Q [ ..#.#.#.#.#.#.#.#.#.O.J G T Q Q D A T Q Q T C D I I Y Y Y U U T T ! Q Q Q Q Q Q Q Q Q Q Q Q Q Q Q Q Q Q Q Q Q Q Q Q Q Q Q Q Q Q Q Q Q Q Q Q Q Q Q Q Q Q Q Q Q Q Q Q Q Q Q Q Q Q Q Q Q Q Q Q Q Q Q Q Q Q Q Q Q Q Q Q Q Q Q Q Q Q Q Q Q Q Q Q Q Q Q Q Q Q Q Q Q Q Q Q Q Q Q Q ] Q Q Q Q Q Q Q Q Q Q Q Q Q Q Q Q Q Q Q Q Q Q Q Q Q Q Q Q Q Q Q Q Q Q Q Q Q Q Q Q Q Q Q Q Q Q Q Q Q Q Q Q Q Q T T Y U P P J D 9.}.&.Q Q P *.aX2.Q Q W D +X-.*.#.#.#.#.#.#.#.#.#.#.#.#.#.#.#.#.#.#.#.[ J #.5XM.5.=.#.#.#.#.#.#.#.#.#.#.#.#.#.#.#.#.#.#.#.#.J D T Q Q D J ! Q Q D H P P P U T T U ~ ~ ! ! ! Q ! Q ! ! Q Q ! ! Q Q Q Q Q ! Q Q Q Q Q Q Q Q Q Q Q Q Q Q Q Q Q Q Q Q Q Q Q Q Q Q Q Q Q Q Q Q Q Q Q Q Q Q Q Q Q Q Q Q Q Q Q Q Q Q Q Q Q Q Q Q Q Q Q Q Q Q Q Q Q Q Q Q Q Q Q Q Q Q Q Q Q Q Q Q Q Q Q Q Q Q Q Q Q Q Q Q Q Q Q Q Q Q Q Q Q Q Q Q Q Q Q Q Q Q Q Q Q Q Q Q Q Q Q Q Q Q Q Q Q Q Q Q Q Q Q Q Q Q Q Q ! ! Q Q ! T U P P P G S Q..X-.! ! U D iXB.*.) T P s.dX5.#.#.#.#.#.#.#.#.#.#.#.#.#.[ Q T P J D D D N 9.8XdX*X-.#.-.2.2.#.#.#.#.#.#.#.#.#.#.#.#.#.#.#.#.#.#.#.#.#.#.#.#.#.",
"l ,.#.#.#.#.#.#.#.#.#.#.#.#.#.#.#.#.#.#.#.#.#.#.#.#.#.#.[ *.[ T T T T T T T Q [ ..#.#.#.#.#.#.#.#.#.O.J G T Q Q D A T Q Q Y C D P P I Y P I Y U T T T Q Q ! ! Q Q ! ! Q Q T ! Q Q Q Q Q Q Q Q Q Q ! Q Q Q Q Q Q Q Q Q Q Q Q Q Q Q Q Q Q Q Q Q Q Q Q Q Q Q Q Q Q Q Q Q Q Q Q Q Q Q Q Q Q Q Q Q Q Q Q Q Q Q Q Q Q Q Q Q Q Q Q Q Q Q Q Q Q Q Q Q Q Q Q Q Q Q Q Q Q Q Q Q ! Q Q Q Q Q Q Q Q Q Q Q Q ! ! Q Q Q Q Q Q Q Q Q Q Q Q Q ! Q ! ! ! Q Q Q Q Q Q Q Q ! Q ! Q Q Q Q Q T U Y P P I J D D 9.}.&.! Q P *.aX2.Q Q W D +X-.*.#.#.#.#.#.#.#.#.#.#.#.#.#.#.#.#.#.#.#.[ P C 8Xx.5.=.#.#.#.#.#.#.#.#.#.#.#.#.#.#.#.#.#.#.#.#.J D T Q Q D J ! Q Q D D P J J P T U Y U T T T T Q ! ! ! ! Q Q ! ! ! Q Q Q ! ! Q Q Q Q Q Q Q Q Q Q Q Q Q Q Q Q Q Q Q Q Q Q Q Q Q Q Q Q Q Q Q Q Q Q Q Q Q Q Q Q Q Q Q Q Q Q Q Q Q Q Q Q Q Q Q Q Q Q Q Q Q Q Q Q Q Q Q Q Q Q Q Q Q Q Q Q Q Q Q Q Q Q Q Q Q Q Q Q Q Q Q Q Q Q Q Q Q Q Q Q Q Q Q Q Q Q Q Q ! Q ) ) Q Q Q Q Q Q Q Q Q Q Q Q Q Q Q Q Q Q Q ! ! Q ! ! ! ! ! ! T U Y P P P D A Q..X-.! Q U D iXB.*.) ! P s.dX5.#.#.#.#.#.#.#.#.#.#.#.#.#...Q T P J D D D N 9.sXpX=X<.#.-.4.2.#.#.#.#.#.#.#.#.#.#.#.#.#.#.#.#.#.#.#.#.#.#.#.#.#.",
"l 2.#.#.#.#.#.#.#.#.#.#.#.#.#.#.#.#.#.#.#.#.#.#.#.#.#.#.[ *.[ T T T T T T Q Q [ ..#.#.#.#.#.#.#.O.#...J G T Q Q D A T Q Q Y x D P G P I P P I I P Y Y U T T T T T T T T T T T T T T T T ! ! ! ! ! T T T T T T ! T T T T Q ! T Q Q Q T T T T ! Q Q ! ! ! ! ! Q T T T Q T T T Q T T T ! ! ! ! ! ! ! ! T T T T T ! ! ! ! Q Q Q ! ! ! ! Q Q T T Q ! ! ! Q ! Q ! ! ! ! ! ! T T T T ! ! ! ! ! ! ! ! T T T T T T T T ! Q Q Q ! T T T T T T T T T T T T T T T T T T T T T T T T Y P I P P J J D D 9.}.#.! Q P *.iX2.Q Q W D +X-.*.#.#.#.#.#.#.#.#.#.#.#.#.#.#.#.#.#.#.#.[ P N -Xv.5.=.#.#.#.#.#.#.#.#.#.#.#.#.#.#.#.#.#.#.#.#.J D T Q Q D J T Q Q D D K H ^ I P P P P Y Y P U T T T ! ! ! ! ! ! ! ! ! ! ! ! ! ! ! ! ! ! ! ! ! ! ! ! ! ! ! ! ! ! ! ! ! ! ! ! ! ! ! ! Q Q ! ! ! ! ! ! ! ! ! ! Q ! ! ! ! ! ! ! ! ! ! ! ! ! ! ! ! ! ! ! ! ! ! ! ! ! ! ! ! ! ! ! ! ! ! ! ! ! ! ! ! ! ! ! ! Q Q ! ! ! ! ! ! ! ! ! ! ! ! ! ! ! ! ! ! ! ! ! ! ! ! ! ! ! ! ! ! ! ! ! ! ! ! ! ! ! ! ! ! ! ! ! ! ! ! ! ! T T U Y P I J J J S A Q..X-.! Q U D iXB.*.) ! Y s.dX5.#...#.#.#.#.#.#.#.#.#.#.#.[ Q T P J D D D N 8.dXpX5X,.#.-.2.2.#.#.#.#.#.#.#.#.#.#.#.#.#.#.#.#.#.#.#.#.#.#.#.#.#.",
"z 2.#.#.#.#.#.#.#.#.#.#.#.#.#.#.#.#.#.#.#.#.#.#.#.#.#.#.[ *.[ T T T T T T Q Q [ ..#.#.#.#.#.#.#.O.#...J G T Q Q D A T Q Q Y x C D D D D D D D D J P P P P Y Y Y U T U T T U T T T T T T T T T T T T T T T T T T T T T T T T T T T T T T T T T T T T T T T T T T T T T T T T T T T T T T T T T T T T T T T T T T T T T T T T T T T T T T T T T T T T T T T T T T T T T T T T T T T T T T T T T T U U T T T T T T T T T T T Y T U T T U U U U T T T T T T T T Y Y P P P P P J J D D D D D D 9.}.#.! Q P *.aX2.Q Q W H +X-.*.#.#.#.#.#.#.#.#.#.#.#.#.#.#.#.#.#.#.#.[ J N ,Xv.5.=.@.#.#.#.#.#.#.#.#.#.#.#.#.#.#.#.#.#.#.#.J D T Q Q D J T Q Q S S H D G G G D D J J P P P P P Y Y Y T U U T T T U U U U U U T T T T U U U U U U U T T T T U U U U U U U U T T T T T T T U U T T T T T T T U T T T T U U U U U U U T T T T T T T U U U T T T U U U U T T T T U T T U T T T T T T T T T T T T T T T T T T T U T T T T T T T U T T T U T T T T T T T T T T T T T T T T T T T T T T T T T U Y Y P P P J G D D D S A Q..X-.! Q U D iXB.*.[ T Y s.dX5.#.O.O.#.#.#.#.#.#.#.#.#.#.[ Q T P D D D D x 9.7XsX*X1.@.-.2.2.#.#.#.#.#.#.#.#.#.#.#.#.#.#.#.#.#.#.#.#.#.#.#.#.#.",
"l 2.#.#.#.#.#.#.#.#.#.#.#.#.#.#.#.#.#.#.#.#.#.#.#.#.#.#.[ *.[ T T T T T T Q Q [ ..#.#.#.#.#.#.#.O.O...J G T Q Q D A U Q Q Y x x N C A A A C A A S D D D D D G G G J G J J J J J J J J J J H H J J J J J J J J J J J J J J J H H J J J J J J J J J J J J J J J J J J J J J J J J J J J J J J J J J J J J J J J J J J J J J J J J J J J J J J J J J J J J J J J J J J J J P P P J J J J J J J J J J J J J J J J J J J P J J J J P P P J J J J J J H H H H H H H H H D D D D D S S S S S S C 9.}.#.! Q P *.aX2.Q Q W H +X*.*.#.#.#.#.#.#.#.#.#.#.#.#.#.#.#.#.#.#.#.[ J N 8Xj.5.*.@.#.#.#.#.#.#.#.#.#.#.#.#.#.#.#.#.#.#.#.J D T Q ) D J T Q Q S A S D D D D D D D D D D G J P P I I P P P P P P I I P P P P P P P P P I P P P P P P P P P P P P P P P P P P P P P P P P P P P P P U P P P P P P P P P P P P P P P Y U P P P P P P Y P P P P P P P P P P P P Y Y P P P P P Y Y P P P P P P P P P Y P P P P P P P P P P P P P P P P P P P P P P P P P P P P P P P P P P P P P P P P P P P P P P J J D D D D D S C Q..X-.! Q U G iXB.*.] T P q.dX5.#.#.#.#.#.#.#.#.#.#.#.#.#...Q T P J D D D N ..pXuX=X1.#.-.2.2.#.#.#.#.#.#.#.#.#.#.#.#.#.#.#.#.#.#.#.#.#.#.#.#.#.",
"l ,.#.#.#.#.#.#.#.#.#.#.#.#.#.#.#.#.#.#.#.#.#.#.#.#.#.#.[ *.[ T T T T T T T Q [ ..#.#.#.#.#.#.#.O.O...H D T Q Q J A T Q Q Y P P P P Y T Q Q [ -.2.8.9.t.h.f.f.k.v.v.b.b.b.b.b.b.b.b.m.m.b.b.b.b.b.b.b.b.v.v.r.r.r.r.r.r.r.r.r.0.r.r.r.r.r.r.r.r.r.r.r.r.r.0.0.0.0.0.r.0.0.0.0.0.0.r.r.r.r.r.9.8.8.8.0.r.r.r.r.r.r.r.r.r.r.r.r.r.r.r.r.r.r.r.r.r.r.r.r.r.r.r.r.r.r.r.r.r.r.r.h.h.y.y.y.y.h.h.h.h.h.h.h.h.h.h.h.h.h.h.d.d.h.h.h.h.d.h.h.h.h.h.h.h.y.y.y.y.y.y.y.y.y.y.y.t.t.e.[ | | | | | | k.<X&.! Q P *.iX2.Q Q W H +X*.*.#.#.#.#.#.#.#.#.#.#.#.#.#.#.#.#.#.#.#.[ J N =Xx.5.*.@.#.#.#.#.#.#.#.#.#.#.#.#.#.#.#.#.#.#.#.P D T Q ) D J T Q Q S -.-.2.:.2.2.2.:.2.2.2.2.5.5.5.5.5.5.5.5.5.5.5.5.5.5.5.5.5.5.5.5.5.5.5.5.5.5.5.5.5.5.5.5.5.5.5.T T T T T T T T T T T T T T T T T T ! T T T T T T T T T T T T T T T T T T T T T T T T T T T T T T T T T T T T T T T T T T T T T T T T T T T T T T T T T T T T *.*.*.*.*.*.*.*.*.*.*.*.*.*.*.*.*.*.*.*.*.*.*.*.*.*.=.=.&.&.&.&.*.*.*.*.*.*.*.*.*.#.#.#.#.#.C C N x Q..X-.! Q U G iXB.*.] T P s.dX5.#.#.#.#.#.#.#.#.#.#.#.#.#...Q T P J D D D N | dXuX5X1.#.-.2.2.#.#.#.#.#.#.#.#.#.#.#.#.#.#.#.#.#.#.#.#.#.#.#.#.#.",
"l 2.#.#.#.#.#.#.#.#.#.#.#.#.#.#.#.#.#.#.#.#.#.#.#.#.#.#.[ *.[ T T T T T T Q Q [ ..#.#.#.#.#.#.#.#.#...H D T ! Q J A P ! Q U :.=.*.*.*.*.*.*.*.=.=.-.-.2.5.5.8.8.8.9.9.t.t.t.t.t.9.t.t.t.t.t.t.t.t.t.t.w.t.t.t.t.t.w.t.t.t.t.w.w.t.t.t.t.w.t.t.t.t.w.t.t.t.t.t.w.w.t.t.t.w.w.t.t.t.t.t.w.t.t.t.t.t.t.y.t.t.t.w.t.t.t.t.w.w.t.w.w.t.w.t.t.t.t.w.w.t.w.w.w.t.t.t.t.l.l.f.x.x.x.x.x.l.x.l.x.x.f.l.x.x.x.f.l.x.x.x.x.f.f.j.j.j.f.f.f.j.j.f.f.f.j.j.j.f.f.f.l.l.f.f.f.f.f.f.f.y.y.y.t.t.q.q.t.t.t.8.#.! Q P *.iX2.Q T W J +X*.*.#.#.#.#.#.#.#.#.#.#.#.#.#.#.#.#.#.#.#.[ J C -Xv.5.*.O.O.O.#.#.#.#.#.#.#.#.#.#.#.#.#.#.#.#.#.P D T Q Q D J T Q Q *.y.y.t.y.u.u.u.y.u.u.f.f.f.j.x.v.b.b.b.b.v.v.m.m.m.v.v.m.m.m.v.v.b.m.b.b.v.m.m.m.m.m.m.v.m.m.b.m.m.m.m.m.m.m.v.m.m.m.m.v.v.m.m.m.m.v.m.m.v.m.v.v.v.m.m.v.m.m.m.m.m.m.v.v.v.v.v.v.v.v.v.v.v.x.v.v.v.m.m.v.m.m.v.v.x.x.v.v.v.v.v.v.v.v.v.v.v.v.v.Z.Z.Z.N.Z.Z.Z.Z.Z.N.Z.Z.Z.Z.N.Z.Z.Z.Z.N.N.N.N.N.N.N.N.N.N.N.N.N.Z.Z.Z.N.N.N.N.Z.Z.N.N.N.N.b.b.m.m.x.j.f.f.f.f.f.f.f.M.-.! Q ~ G iXB.-.] T P s.dX5.#.#.#.#.#.#.#.#.#.#.#.#.#...Q T P J D D D N [ 5XsXuX1.#.-.2.2.#.#.#.#.#.#.#.#.#.#.#.#.#.#.#.#.#.#.#.#.#.#.#.#.#.",
"z 2.#.#.#.#.#.#.#.#.#.#.#.#.#.#.#.#.#.#.#.#.#.#.#.#.#.#.[ *.[ T T T T T T Q Q [ ..#.#.#.#.#.#.#.#.#...J D T ! Q J A P ! Q ) [ Q Q Q Q Q Q Q Q Q Q [ [ [ O.#.#.#.#.#.#.#.#.#.#.#.#.#.#.#.#.*.*.*.*.*.*.*.*.*.*.*.*.*.*.*.*.*.#.#.*.*.*.*.*.*.*.*.*.*.*.*.*.*.*.*.*.*.*.*.*.*.*.*.*.*.*.*.*.*.=.=.-.-.-.*.*.*.*.*.=.*.*.*.*.*.*.*.*.*.*.*.*.*.*.*.*.*.*.*.=.=.*.*.*.*.*.*.=.=.*.=.*.*.*.*.*.*.*.*.*.*.*.*.*.*.*.*.*.*.*.*.*.*.*.*.*.*.*.*.*.*.*.*.*.*.*.*.*.*.*.*.*.#.#.#.#...[ [ [ ) ) Q ......! Q Q P S aX2.Q T W J [.8.*.#.#.#.#.#.#.#.#.#.#.#.#.#.#.#.#.#.#.#.[ J C 7Xf.5.*.O.O.O.#.#.#.#.#.#.#.#.#.#.#.#.#.#.#.#.#.P D T Q Q D P T Q Q ..#.......[ [ [ ..[ [ O.@.@.#.*.-.-.-.-.-.-.-.-.-.-.-.-.-.-.-.-.-.-.-.-.-.-.-.-.-.-.-.-.-.-.-.-.-.-.:.:.:.:.:.:.:.:.:.:.:.:.:.:.:.:.:.:.:.:.:.:.:.:.2.2.2.2.2.2.2.2.2.:.:.:.:.:.:.:.:.:.:.:.:.:.:.:.2.2.2.2.2.:.:.:.:.:.:.:.:.:.:.:.:.:.:.:.:.:.:.:.:.:.:.:.:.:.:.:.:.:.:.:.:.:.:.:.:.:.:.:.:.:.:.:.:.:.:.:.:.:.:.:.:.:.:.:.:.:.:.:.:.:.:.-.*.*.*.#.....#.#.#.#.#.#.#.[ ! Q U G iXB.-.] T P s.dX5.#.#.#.#.#.#.#.#.#.#.#.#.#.[ Q T P D D D D x [ pX8X=X2.@.-.2.2.#.#.#.#.#.#.#.#.#.#.#.#.#.#.#.#.#.#.#.#.#.#.#.#.#.",
"l 2.#.#.#.#.#.#.#.#.#.#.#.#.#.#.#.#.#.#.#.#.#.#.#.#.#.#.[ *.[ T T T T T T Q Q [ ..#.#.#.#.#.#.#.#...[ J D T ! Q J A Y ! Q [ ) Q Q Q Q Q Q ! Q Q Q ] [ ............#.#.#...#...#.#.#.#.......#.#.#.O.O.O...#.#.#.#.#.#.#.#.#...#.#.#.#.#.#...#.........#.#.#.#.#.#.#.#.#.....#.#.#.....#.#.#.....#.#.#.#...#.....#.#.#.#...#.#.#.#.#.#.#.#.#.#.........#.#.#.#.#.#.#.#.#.O.#.#.O.#.#.#.......#.#.#.#.#.#.#.#.#.#.#.#...........#.#.#...............................[ [ [ [ Q Q Q Q Q Q ! ! ! Q Q Q Q P S iX2.Q Q W J [.8.-.#.#.#.#.#.#.#.#.#.#.#.#.#.#.#.#.#.#.#.[ J C uXx.5.*.#.#.#.#.#.#.#.#.#.#.#.#.#.#.#.#.#.#.#.#.P D T Q Q D P T Q Q Q Q ! ! T T Q T T ! Q Q ] ] ] ] ......................................................................................................................#.#.#.#.#.#.....................................#.#.#.#.............................................................................................................................[ ] ] ] Q Q T T T T T T T Q Q Q Q U G iXB.-.] T P s.dXh.*.#.#.#.#.#.#.#.#.#.#.#.#...Q T P J D D D N | dXpX,X4.#.-.2.2.#.#.#.#.#.#.#.#.#.#.#.#.#.#.#.#.#.#.#.#.#.#.#.#.#.",
"l ,.#.#.#.#.#.#.#.#.#.#.#.#.#.#.#.#.#.#.#.#.#.#.#.#.#.#.[ *.[ T T T T T T T Q [ ..#.#.#.#.#.#.#.#.....J D T ! Q J A P ! Q [ [ [ [ Q [ ..) Q [ [ [ [ [ [ ............#.#...#...#.#.#.#.#.....#.#.O.O.O.O.....#.#.#.#.#.#.#.#.....#.#.#.#.#.#.#.........#.O...#.#.#.#.#.#...#.#.#.#.#.#...#.#...#.#.#.#.#...#.#...#.#.#.#...O.#.O.#.#...#.#.#.#.#.#.#...#.#.#.#.#.#.#.#.#.#.#.#.#.#.#.#.......#.#.#.#.#.#.#.#.#.#.#.#.........#...#.#...........#...................[ [ [ [ [ [ [ [ ) ) ) ) Q Q Q Q Q P S iX2.Q Q ~ J [.8.-.#.#.#.#.#.#.#.#.#.#.#.#.#.#.#.#.#.#.#.[ J C =Xv.5.*.#.#.O.#.#.#.#.#.#.#.#.#.#.#.#.#.#.#.#.#.P D T Q Q D P T Q Q ) ) ) ) Q Q [ Q Q ] [ [ [ [ [ [ ....................................................................................................................#.#.#.#.#.#.#.....................................#.#.#.#.............................................................................................................................[ [ [ [ [ [ Q Q Q Q Q Q Q Q Q Q Q U G iX/.-.] T P s.dXh.*.#.#.#.#.#.#.#.#.#.#.#.#...Q T P J D D D N | dXpXuX4.#.-.2.2.#.#.#.#.#.#.#.#.#.#.#.#.#.#.#.#.#.#.#.#.#.#.#.#.#.",
"l 2.#.#.#.#.#.#.#.#.#.#.#.#.#.#.#.#.#.#.#.#.#.#.#.#.#.#.[ *.[ T T T T T T Q Q [ ..#.#.#.#.#.#.#.#.#...J D T ! Q J A P ! Q [ [ [ [ [ [ ....[ [ [ [ [ [ [ ..............#.#...#...#.#.#.#.......#.#.#.O.#.............#.#.#.#.#.#.#.#.#.#.#.#.#.#.#.#.#.#...#.....#.#.#.#.#.#.#.O...#.#...#.....#.#...#.#...#.#...#.#.#.#.#.#.#.#.#.#.#.#...#.#.#.#.#.#.#.#.#.....#.#.#.#...O.#.#.#.#.#.#.......#.#.#.#.#.#.#.................#.#.#.#...#...#...#...................[ [ [ [ [ [ [ [ ..[ [ [ ) Q Q Q Q P S 6X2.Q Q W J =X8.-.#.#.#.#.#.#.#.#.#.#.#.#.#.#.#.#.#.#.#.[ J C 5Xf.5.-.#.O.O.#.#.#.#.#.#.#.#.#.#.#.#.#.#.#.#.#.P D T Q Q D J T Q Q ) [ [ [ [ [ [ [ [ [ [ [ [ [ [ [ ..........................#.#.....#.#.#.#.#.#.#.#.....#.#.......#.#.#.....#.#.#.#.#.#.#.#.#.#.#.#...#.....#.#.#.#.#.#...#.#.#.#.#.#.#.#.#.#.#.........#.#.#.#...#.....#.#.#.#.#.#...#.#.#.#.#.#.#...#.........#.#.#.#.......#.#.#.#.#.#.#.#.#...#.......#.......#.#.#.........#.#...........................[ [ [ [ [ [ [ [ [ [ [ [ ] ] Q Q U J iX/.-.] T P s.dXh.*.#...#.#.#.#.#.#.#.#.#.#...Q T P J D D D M ..uXdX=X4.#.-.2.5.#.#.#.#.#.#.#.#.#.#.#.#.#.#.#.#.#.#.#.#.#.#.#.#.#.",
"z 2.#.#.#.#.#.#.#.#.#.#.#.#.#.#.#.#.#.#.#.#.#.#.#.#.#.#.[ *.[ T T T T T T Q Q [ ..#.#.#.#.#.#.#.#.#...J D T Q Q J A P T Q [ [ [ [ [ [ ) ..[ [ [ ..[ [ [ ....#.........#.#.......#.#.............#.#.#.#...#.............#.#.#.#.#.#.#.#.#.#.#.#.#.#.#.#...#.#...#.#.#.#.#.#.#.#...#.#.#.#.#.#.#.....#.#.#...#.#.#.#.#.#.#.#.#...#.#.#.#.#...#.#.#.O.#.#.#.#...#.#.#.#.#...#.O.#.#.#.#.#.....#.#.#.#.#.#.#.......#...........#.#.#.#.#.#...#.#.........................[ [ [ [ [ [ [ ..[ [ ) ] Q Q Q P S yX2.Q T W J =X8.-.#.#.#.#.#.#.#.#.#.#.#.#.#.#.#.#.#.#.#.[ J C 8Xx.5.-.#.O.O.#.#.#.#.#.#.#.#.#.#.#.#.#.#.#.#.#.P D T Q Q D J T Q Q [ [ [ [ [ ......[ [ [ [ ..................................#.......#.#.#.#.#.#.#.#.#...#.#.#.#...#.#.#.....#.#.#.#.#...#.#.#.#.#.#.#.#.......#.#.#.#.#.....#.#.#.#.#.#.#.#.#.#.........#.#.#.#.........#.#.#.#.#.....#.#.#.#.#.#.#.#.#.......#.#.#.#.#...#.#.#.#.#.#.#.#.#.#.#.#.#.....#.......#.#.#.#.....#.#.#.#...#.#.#...................[ [ [ [ ..........[ [ [ ] ] Q Q U J iX/.-.] T P s.dXh.*.#...#.#.#.#.#.#.#.#.#.#...Q T P D D D D x ..sXpX-X4.#.-.2.5.#.#.#.#.#.#.#.#.#.#.#.#.#.#.#.#.#.#.#.#.#.#.#.#.#.",
"l 2.#.#.#.#.#.#.#.#.#.#.#.#.#.#.#.#.#.#.#.#.#.#.#.#.#.#.[ *.[ T T T T T T Q Q [ ..#.#.#.#.#.#.#.#.#...J D T Q Q J A P ! Q [ [ ) ) [ ) [ ..[ [ [ [ [ [ [ ................#.#.#.#.........#.#.....#.#.......#.#.#.#.#.#.#.....#.#.....#.#.#.#...#.#.#...#.#.#.#...#.#.#.#.#.#...#.#.#.#.#.....#.#.O.#.....#.#.#.#.#.#.....#.....#.#.#...#.#.#.#.#.#.#.#.#.#.#...#.#...........#.#.......#.#.#.........#.#.#.#.....#.#.........#.#...........#.#...........................[ [ [ [ [ [ [ [ ..[ ] Q Q Q Y S ,X2.Q T W J =X8.-.#.#.#.#.#.#.#.#.#.#.#.#.#.#.#.#.#.#.#.[ J C -Xv.5.-.#.#.#.#.#.#.#.#.#.#.#.#.#.#.#.#.#.#.#.#.P D T Q Q D J T Q Q [ [ [ [ [ ......[ [ ..[ ..................................#.......#.#.#.#.#.#.#...#.#.........#.#.....#.#.#.#.........#.#.#.#.#.#.#.#.#.#.#.#.#.#.#.#.....#.#.#.#.#.#.#.#.....#.#.#...#.#...#...#.....#...#.#.#.#...#.#.#.#.#.#.#.#.#.#.#.#.#.#.......#.#.#.#.........#.#.#...#.#.#.#...................#.#.#.#.......#.#.......................[ [ ..........[ ) [ ] ] Q Q U J iX/.-.] T P s.dXh.*.#.#.#.#.#.#.#.#.#.#.#.#...Q T P J D D D x | dXpX8X4.#.=.2.5.#.#.#.#.#.#.#.#.#.#.#.#.#.#.#.#.#.#.#.#.#.#.#.#.#.",
"l ,.#.#.#.#.#.#.#.#.#.#.#.#.#.#.#.#.#.#.#.#.#.#.#.#.#.#.[ *.[ T T T T T T T Q [ ..#.#.#.#.#.#.#.#.#...J D ~ Q Q J A P ! Q ) ) ) ) [ ) ....[ [ [ [ [ [ ..................#...#...........#.#.#...#.#.....#.#.#.#.#.#.#.#.#.#.#.......#.#.#.#...#.#.#.....#.#.#.#.#.#.#.#.#.#...#.#.#.#.#.......#.#.#.#.#.#.#.#.#.#...#.#.#.#...#.......#.#.#...#.#.#.#.#.#.#.................#.#.........#.#.#.......#.#.#.#.....#.#.#.#.......#.#.#...{ ....#.#.#.........................[ [ [ [ [ [ [ ..[ ] Q Q Q T S 6X2.Q Q W J =X8.*.#.#.#.#.#.#.#.#.#.#.#.#.#.#.#.#.#.#.#.[ J C 5Xv.5.-.#.#.#.#.#.#.#.#.#.#.#.#.#.#.#.#.#.#.#.#.P D U Q Q D G ! Q Q [ [ [ [ ........[ [ [ [ ..................................#.#.....#.#.#.#.#...#.#.#.#.........#.......#.#.#.#.#.#.....#.#.#.#.#.#.#.#.#.#.#.#...#.#.#.....#.#.#.#.#.....#.....#.#.#.#.#.#.....#.#.#.#.#...#.#.#.#.#...#.#.#.#.#.#.#.#.#.#.#.#.#.......#.#.#.#.........#.#.#...#.#.#.#.#.#.....#...#...#.#...#...........#.................[ [ [ [ [ ............) [ Q Q Q Q T J iX/.-.] T P s.dXh.*.#.#.#.#.#.#.#.#.#.#.#.#...Q T P J D D D C ..7XdX-X4.[ =.2.5.#.#.#.#.#.#.#.#.#.#.#.#.#.#.#.#.#.#.#.#.#.#.#.#.#.",
"l 2.#.#.#.#.#.#.#.#.#.#.#.#.#.#.#.#.#.#.#.#.#.#.#.#.#.#.[ *.[ T T T T T T Q Q [ ..#.#.#.#.#.#.#.......D D T Q Q J C Y ! Q [ [ [ [ ) [ ....[ [ [ [ [ [ [ [ ..................#.#.....#.#.#.#.....#.........#.#.#...#.#.#.#.............#.#.#...#.#.......#.#.#.#.#.#.#.#.........#.#.#.......#.#.#.#.#.#.#.#.#...#...#.#.#...#.#.#.#.#.#.#.#...#.#.O.#.#.#.#.#.#...#.....#.#.#.#.....#.#.#.#...........#.#.#.#...#.#...#.#.....#.#.#...............................[ [ ..[ [ [ [ [ ..[ [ [ [ ] Q Q Q T S yX2.Q Q W J =X8.*.#.#.#.#.#.#.#.#.#.#.#.#.#.#.#.#.#.#.#.[ J C 8Xj.5.-.#.#.#.#.#.#.#.#.#.#.#.#.#.#.#.#.#.#.#.O.P D U ! Q D P Q Q Q ) ) [ ..[ ......[ [ [ [ ..................................#.#.........#.#.#.#.....#...#.#.#.#.#.#.......#.#.#.#.#.#.#.#.#.........#.#.#.#.......#.#.#.#.#.#.#.#.#.#.....#.#...#.#.#.#.#.#.....#.#.#.#...#.#.#.#.#.#...#.#.#.#.#.#.#...#.#.#.#.....#.#.#.#.#.#.....#.#.#.#.........#.#.#.#.#.#.#.#.....#.#...#.#.#.#.#...#.................[ [ [ [ [ ............) ) Q Q Q Q T J iX/.-.] T P s.dXh.*.#.#.#.#.#.#.#.#.#.#.#.#...Q T P J D D D N ..sXuX-X4.[ =.2.5.#.#.#.#.#.#.#.#.#.#.#.#.#.#.#.#.#.#.#.#.#.#.#.#.#.",
"z 2.#.#.#.#.#.#.#.#.#.#.#.#.#.#.#.#.#.#.#.#.#.#.#.#.#.#.[ *.[ T T T T T T Q Q [ ..#.#.#.#.#.#.#.......D D T Q Q J Z Y ! Q [ [ [ [ [ [ ....[ [ [ ..[ ..[ [ ................#.#.#...#.#.#.#.#.....#.O.......#.#.#...#.#.#.............O.#.#.#.............#.#.#.#.#.#.#.#.........#.#.#.......#.#.#.#.#.#.#.#.#.......#.#.#.....#.#.#...#.#.#.......#...#.#.#.#.#.#.#.#.#.#.#.#.#.#.#.#.#.#.#.............#.#.#...#.#.....#...#.#.#...................#...#.........[ [ ..[ ..........[ [ [ [ ] ] Q Q U D iX2.Q Q W J 2X8.*.#.#.#.#.#.#.#.#.#.#.#.#.#.#.#.#.#.#.#...J C -Xx.5.-.#.#.#.#.#.#.#.#.#.#.#.#.#.#.#.#.#.#.#.#.P D U ! Q D P T Q Q ) [ [ [ [ ......[ [ [ [ ..................................#.#.......#.#.#.............#.#.#...#.#.......#.#.#...#.#.#.#.#...........O.#.#...#.O.#.#.#.#.#.#.#...#.#.....#.#...#.#.#.#.#.#.....#.#.#.#.....#.#.#.#.#...#.#...#.........#.#.#.#.#.#.#.#.#.#.#.#...#.#.#.#.#...........#.#.#.#.#.#.#.......#.#.#...#.#...#.#...................[ [ [ [ ............[ ) Q Q Q Q T I iX/.-.] T P *.dXh.*.#.#.#.#.#.#.#.#.#.#.#.#...Q T P D D D D N | dXpX7X3.#.=.2.5.#.#.#.#.#.#.#.#.#.#.#.#.#.#.#.#.#.#.#.#.#.#.#.#.#.",
"l 2.#.#.#.#.#.#.#.#.#.#.#.#.#.#.#.#.#.#.#.#.#.#.#.#.#.#.[ *.[ T T T T T T Q Q [ ..#.#.#.#.#.#.#.#.#...J D T Q Q J D Y ! Q [ [ [ [ ..[ ......[ [ ..[ ....[ ......O...#.#.#.#.#.#.....#.#.#.#.....#.#.#.#.....#.#.........#.#.#.#.#.#.#.#...#.#.#.......#.#.#.....#.#...........#.#.#.................#.#.#.#.......#.#.#.......#.#.#.#.#.#.#.#.......#.#.#.#.#.#.#.#.#.......#.#.#.#.#.#.#.#.........#.#.#.......#.#.........#.#.....................#...#.........[ [ ..[ ..........[ ) ) [ [ ] Q Q U P dX2.Q ! W G fX9.=.#.#.#.#.#.#.#.#.#.#.#.#.#.#.#.#.#.#.#...J C 4XP.5.-.#.#.#.#.#.#.#.#.#.#.#.#.#.#.#.#.#.#.#.#.P D T Q Q J P T Q Q [ [ [ [ ) ......[ [ [ [ ..............................[ ..#.#.....#.#.#.#.#.#...........#.#...#.#.#.#.....#.#.#.#.#.#.#.#.#.#.#.#.....#.#.......#.#.#.#.#.....#.#.#.#.#.#.#.#.......#.#.#.#.#.....#.#.....#.#...#.#.....#.#.#.#.#.#.#.#.#.......#.#.#...............#.#.#...................#.#.#...............#.#...#.#.....#.............[ [ [ [ ..............) Q Q Q Q T Y qX/.-.] T P *.dXh.*.#.#.#.#.#.#.#.#.#.#.#.#...Q T P J D D D N [ 5XsX-X8.#.=.2.5.#.#.#.#.#.#.#.#.#.#.#.#.#.#.#.#.#.#.#.#.#.#.#.#.#.",
"y ,.#.#.#.#.#.#.#.#.#.#.#.#.#.#.#.#.#.#.#.#.#.#.#.#.#.#.[ *.[ T T T T T T T Q [ ..#.#.#.#.#.#.#.#.#...J D T Q Q D C Y ! Q Q [ [ [ ..[ [ ....[ [ [ [ [ ..[ [ [ ..#...#...#.#...#.....#.#.#.#.....#.#.#.#.......#.........#.#.#.#.#.#.#.#...#.#.#.......#.#.#.#.O.......O.#.....#.#.#...#...............#.#.#.#.#.....#.#...O.#.#.#.#.#.#.#.#.#.#.#.#.#.#.#.......#.#.#.#.....#.#.#.#.#.#.#.#.........#.#.#.........#.#...#.#...#.....#.#.#.#.....#.#.........[ [ [ [ [ ....[ [ [ [ [ [ ) [ [ [ [ Q Q Y J dX5.Q Q ~ G yX9.=.#.#.#.#.#.#.#.#.#.#.#.#.#.#.#.#.#.#.#...J C 7Xn.5.-.#.#.O.#.#.#.#.#.#.#.#.#.#.#.#.#.#.#.#.#.P S T Q Q D G T Q Q ] ] [ ) ) ..........[ [ [ [ [ [ [ [ [ ........#.....#.#.#...#.....#.#.#.#.................#.#.#.#.#.#.....#.#.#.#.#.#.....#...#.#...O.....#.#.#...#.#.........#.#.#.#.#.#.#.#.....#.#.#.#.#.#...#.#.#.......#.#.#.#.......#.#.#.#.#.#.........#.#.#.#.........#.......#.#...#.......#.#.......#.#.#.#.........#.#...#.....................[ [ [ [ [ [ [ ........) ) ) [ Q Q T D qX'.-.Q ! U 2.dXh.*.#.#.#.#.#.#.#.#.#.#.#.#...Q T P J D D D C ..pXuX;X8.#.=.2.5.#.#.#.#.#.#.#.#.#.#.#.#.#.#.#.#.#.#.#.#.#.#.#.#.#.",
"y 2.#.#.#.#.#.#.#.#.#.#.#.#.#.#.#.#.#.#.#.#.#.#.#.#.#.#.[ *.[ T T T T T T Q Q [ ..#.#.#.#.#.#.#.#.#...J D T Q Q D N P ! Q Q [ [ [ ..........[ [ [ [ [ ..[ [ [ ......#.#.................#.#.#...#.#.#.#.....#.#.....#...#.#.....#.#.........#.#.....#.#.#.#.#...#.#...#.#.#...#.#.#.#.#.#.#.#.#.....#.#.#.#.#.#.#.#.#...O.#.........#.#.#.#.#.#.#.#.#.#.#.#...#.#.#.#.#.......#.....#...#.#.#.#.....#.#.#.#.....#.#.....#.#.#.#.....#.#.#.#...................[ [ [ [ [ [ [ [ [ [ [ [ [ [ [ ) ] ] Q Y D dX5.Q Q T J iX9.=.#.#.#.#.#.#.#.#.#.#.#.#.#.#.#.#.#.#.#...J C uXH.5.-.#.O.O.#.#.#.#.#.#.#.#.#.#.#.#.#.#.#.#.#.P S T Q Q D J T Q Q Q ] [ ) [ ..........[ [ [ ....................#.#.#.#.#.#...#.....#.#.........#.#.#.#.#.#.#.#.#.#.#.......O.#.....#.#.....#...#.#.#.#.#.#.#.#.............#.#.#.#.#.#.#.#.#.#.....#.#.#.#...#...#.#.#.#.#.#.#.#.#.#...............#.......#.#.#.#.#.#.#.#.....#.....#.#.#.#.#.#.#.#.#.#...#.#.#.#.#.#.#.#...#.#.#.........................[ [ [ [ [ [ [ ........[ ) ) [ ) Q T D qX}.-.Q ! T :.dXh.*.#.#.#.#.#.#.#.#.#.#.#.#...Q T P J D D D N | dXpX7X8.#.=.2.5.#.#.#.#.#.#.#.#.#.#.#.#.#.#.#.#.#.#.#.#.#.#.#.#.#.",
"y 2.#.#.#.#.#.#.#.#.#.#.#.#.#.#.#.#.#.#.#.#.#.#.#.#.#.#...*.[ T T T T T T Q Q [ ..#.#.#.#.#.#.#...#...J S T Q Q D C P ! Q Q [ [ [ ....[ [ [ [ [ [ [ [ ....[ [ ......#.#...............#.#.#.#.#.#.#.........#.#.#.#.#.#.#.#.....#.#.........#.#.....#.#.#.#.#...#.#.#.#.#.#...#.#.#.#.#.#.#.#.#.#.#.#.#.#.#.#.#.#.#.#...O.#...#.....#.#.#.#.#.#...#.#...#.#...#.#.#.#.#.......#.........#.#.#.#.....#.#.#.#.....#.#.....#.#.#...#...#...#.#.....................[ [ [ [ [ [ [ [ ..[ [ ..[ [ ) Q ] Q Y D dX5.Q Q T J iX9.=.#.#.#.#.#.#.#.#.#.#.#.#.#.#.#.#.#.#.#...J C -XP.5.-.#.O.O.#.#.#.#.#.#.#.#.#.#.#.#.#.#.#.#.#.P S T Q Q D G ! Q Q Q ] [ ) ............[ [ [ [ ..................#.#...#.#.#.........#.#.........#.#.#.#.#.#.#.#.#.#.#.................#.....#.#.#.#...#.#.#.#.#.....#.#.#.#.#.#.#.#.#...#.#.#.......#.#.#.#.#.......#.#.#.#.#.#.#.#.#.#.#.#.#.........#...#.#.#.#.#.#.#.#.#.#.#.#.#...#.#.#.#.#.#.#.#.#.......#.#.#.#.#.#.#.#.#.#.#.#.......................[ [ [ [ [ [ [ ........[ ) [ [ ) Q T D qX}.-.Q Q T 2.dXh.*.#.#.#.#.#.#.#.#.#.#.#.#...Q T P D D D D N [ ,XsXuX8.#.=.2.5.#.#.#.#.#.#.#.#.#.#.#.#.#.#.#.#.#.#.#.#.#.#.#.#.#.",
"y 2.#.#.#.#.#.#.#.#.#.#.#.#.#.#.#.#.#.#.#.#.#.#.#.#.#.#.[ *.[ T T T T T T Q Q [ ..#.#.#.#.#.#.#.......J S T Q Q D C Y T Q Q ) ) [ [ [ [ [ [ [ [ [ [ ..........................#.#.#.#.#.....#.#.#.......#.#.#.#.#.#.#.#.........#.........#.#.#...#.#.#.#...#.O.#.#.........#.#.#.#.#.#.#.#.#.#.#.#.#.#.#.#.#.#.#.#.........#.#.....#.#.#.#...#.#.#.#.#...#.#.#.#.......#.#.#.#.....#.#.#.#.#.#...#.#.#.#.#.#...#.#.#...#.#.#...#.#...#.#.#.............................[ [ [ ..........[ [ [ [ ] Q Y D dX5.Q Q T J aX9.=.#.#.#.#.#.#.#.#.#.#.#.#.#.#.#.#.#.#.#...J C 7Xm.5.-.#.#.#.#.#.#.#.#.#.#.#.#.#.#.#.#.#.#.#.#.P S T Q Q D G ! Q Q Q ] [ ) ............[ [ [ [ [ ........................#.#.....#.#.#.#...#.#.#.....#.#.#.#.#.#.#.#.....#.#...#...#.....#.#...#...#.....#.#.#.#.#.#.#.#.#.#.#.#.................#.#.#.#.#...#...#.#.#.#...#.#.#.#.#.#.#.#.#.#.........#.#.#.#.#.#.#...#.#.#.........#.#.#.#.#.#.#.#.#.#.#.#.#.#...#...#.#.#...#.#.#.........................[ [ [ [ [ [ [ ........[ [ [ [ Q Q T D qX}.-.Q ! U 2.dXh.*.#.#.#.#.#.#.#.#.#.#.#.#...Q T P J D D D N ..uX8X;X8.#.=.2.5.#.#.#.#.#.#.#.#.#.#.#.#.#.#.#.#.#.#.#.#.#.#.#.#.#.",
"y ,.#.#.#.#.#.#.#.#.#.#.#.#.#.#.#.#.#.#.#.#.#.#.#.#.#.#.[ *.[ T T T T T T T Q [ ..#.#.#.#.#.#.#.#.#...J D T Q Q D C T T Q Q ) ) [ [ [ [ [ [ [ [ [ [ ..........................#.#.#.#.#.......#.........#.#.#.#.#.#.#.#.#.#.....#.#.........#.#.#.#.#.#.#.#.#...#.#.....#...#.#.#.#.#.#.#.#...#.#.#.#.#.#.#.#.#.#.#.#.O.#.#.#.#.....#.#.#.#.....#.#.#.#.#.#.#.#.#.......#.#.#.......#.#...#.#.#.....#.#.#.#.#.#.#.#.......#.......#.#.#.#...............................[ [ [ ....[ ..[ [ ) [ ) Q ! Y D dX5.Q Q T J aX9.=.#.#.#.#.#.#.#.#.#.#.#.#.#.#.#.#.#.#.#...J C 8XZ.5.-.#.#.#.#.#.#.#.#.#.#.#.#.#.#.#.#.#.#.#.#.P S T Q Q D G ! Q Q ] ] [ ) ............[ [ [ [ ..................#.#.........#.......#.#.#.#.#.#.....#.#.........#.#...#.#.#...#.....#.#.#.#...#.........#.#.#.#.#.#.#.#.#.#.#.#.............#.#.#.#.#.#.....#...#.#.#.#.#.#.#.#.#.#.#.#.#.#.#.#.#.#.#.#.#...#.#.#.#...#.#.#.....#.#.#.#.#.#.#.#.#.#.....#.#.#.#.......#...#.....#.#.#.#.......................[ [ [ [ [ [ ........[ [ [ [ Q Q T H qX'.-.Q ! Y 2.dXh.*.#.#.#.#.#.#.#.#.#.#.#.#...Q T P J D D D N x dXpX6X8.[ *.2.5.#.#.#.#.#.#.#.#.#.#.#.#.#.#.#.#.#.#.#.#.#.#.#.#.#.",
"y 2.#.#.#.#.#.#.#.#.#.#.#.#.#.#.#.#.#.#.#.#.#.#.#.#.#.#.[ *.[ T T T T T T Q Q [ ..#.#.#.#.#.#.#.#.#...J D T Q Q D C T ! Q Q [ [ [ [ [ [ [ [ ..[ [ [ ..................#...#.#.#.#.#.#.......#.#.#.#.................#.#.#.#.#.#.#.#.............#.#.#.#.#.#.#.#.#.#.....#.#.#.#.O.O.#.#.O.O.......#.#...#.#.#.#.#.#.#.#.#.#.#.#...#.#.#.........#.#.#.O.....#.#.....#.#.#.#.....#.#.#.#.........#.#.#.#.#.#.#.#...........#.#.#.#.#.#.#.#...............................[ [ [ ....) ..) [ [ [ [ Q T U D dX5.Q ! T J aX9.=.#.#.#.#.#.#.#.#.#.#.#.#.#.#.#.#.#.#.#...J C =XA.5.-.#.#.#.#.#.#.#.#.#.#.#.#.#.#.#.#.#.#.#.#.P S T Q Q D G T Q Q Q Q ) [ [ [ [ [ [ [ [ [ [ [ ................................#.#.......#.#.#.#.......#.............#.#.#.#.#.#.#.#.#.#.#.#.#.#.#.#.....#.......#.#.#.#.....#.#.....#.#.#.#.#.#.#.......#.#...........#.#...#.#.#.#.#.#.#...#.#.#.#.#.#.#.#...#.#.#.#.#.#.#.#...#.#.#.#.#.#.#.#.........#.#...#.#.#.#.#.........#.#.#.#...........................[ [ [ [ ........[ [ [ ) Q Q T H qX}.-.Q T Y 2.dXh.*.#.O.O.#.#.#.#.#.#.#.#.#...Q T P J D D D N x dXpXuX8.[ =.2.5.#.#.#.#.#.#.#.#.#.#.#.#.#.#.#.#.#.#.#.#.#.#.#.#.#.",
"y 2.#.#.#.#.#.#.#.#.#.#.#.#.#.#.#.#.#.#.#.#.#.#.#.#.#.#...*.[ T T T T T T Q Q [ ..#.#.#.#.#.#.#.#.#...J D T Q Q D C T ! Q Q [ [ [ [ [ [ [ [ [ [ ..........................#.....#.#.#.......#.#.#.#...............#.#.#.#.#.#.#.#...#...........#.#.#.#.#.#.#.#.#.#.....#.#.#.#.....#.#.#.#.......O.#.....#.#.#.#...#...#.#.#.#.#.#.#.#.........#.#...#.#...#.#.....#.#.#.#.....#.#.#.#.........#.#.#.#.#.#.#.#.............#.#.......#.#.............................[ [ [ [ ....[ ..[ ) [ [ [ Q Q T D dX5.Q T T J aX9.=.#.#.#.#.#.#.#.#.#.#.#.#.#.#.#.#.#.#.#...J C 5Xb.5.-.#.#.#.#.#.#.#.#.#.#.#.#.#.#.#.#.#.#.#.#.P S T Q Q D G T Q Q Q Q [ [ [ [ [ [ [ [ [ [ [ [ ....................................................................................................#.#.#.#.........#.#.#...#.#.#.#.#.#.#.#.#.............#.............#.....#.#.#.#.#.#.....#.#.#.#.#.............................................................................................................[ [ [ ) ) ) ) [ ) [ ) Q Q Q T H qX}.,.Q ! Y 2.dXh.*.#.....#.#.#.#.#.#.#.#.#...Q T P D D D D N x 8XdX-X8.@.=.1.5.#.#.#.#.#.#.#.#.#.#.#.#.#.#.#.#.#.#.#.#.#.#.#.#.#.",
"y 2.#.#.#.#.#.#.#.#.#.#.#.#.#.#.#.#.#.#.#.#.#.#.#.#.#.#.[ *.[ T T T T T T Q Q [ ..#.#.#.#.#.#.#...#...J D U ! Q J C U ! Q Q [ [ [ [ [ [ [ [ [ [ [ [ [ ..........................#.#.#.#.#.#.#.#.#.#...#.#.#.#.#.#.#.#.#.#.#.#.#.#.#.....#.#.#.#.......#.#.#.#.#.#.#.#.#.#.#.#.#.....#.#.#.#.#.#.#.#.#.#.#.#.#.#.#.#.....#.#.#.#.#.#.#.#.#.#.....#.#.#.#.#.#.#.#.#.......#.#.#.#.#.#.#.#.#.#.....#.#...#.#.#.#.#.#.#.#.#.....#.#.......#.#.#.........[ ................[ [ [ [ ..........[ [ [ [ ] Q U D dX5.Q ! T J aX9.=.#.#.#.#.#.#.#.#.#.#.#.#.#.#.#.#.#.#.#.O.J C 8XC.5.-.#.#.#.#.#.#.#.#.#.#.#.#.#.#.#.#.#.#.#.O.P A T Q Q D G T Q Q [ [ Q Q Q Q Q Q Q Q ] ] [ [ ......................................................................................................#.............#.#.#.....#.#.#.#...O.#.#.............#.#.......#.#.#.#.#.#.#.#.#.O.#...#.#.#.#.#.#.............................................................................................................Q ] ] Q Q ] Q ] ] ] ] Q Q Q T H qX}.,.Q ! U 2.dXh.*.#.#.#.#.#.#.#.#.#.#.#.#...Q T P J D D D N x sXpX5Xe.#.=.1.5.#.#.#.#.#.#.#.#.#.#.#.#.#.#.#.#.#.#.#.#.#.#.#.#.#.",
"y ,.#.#.#.#.#.#.#.#.#.#.#.#.#.#.#.#.#.#.#.#.#.#.#.#.#.#.[ *.[ T T T T T T T Q [ ..#.#.#.#.#.#.#...#...J D U Q Q J C U ! Q Q Q Q Q Q Q Q Q Q Q Q Q Q Q | [ [ [ [ [ [ [ [ [ [ [ [ [ [ [ [ [ [ [ [ [ [ [ [ [ [ [ [ [ [ [ [ [ [ [ [ [ [ [ [ ......[ [ [ [ [ [ [ [ [ ..[ [ [ ..[ [ [ [ [ [ [ [ [ [ [ [ [ ..[ [ ..[ [ [ #.#...#.#.#.#.#.#.#.#.#.#.#.......#.#.#.#.#.#.#.#.....#.#.#.#.#.#.#.#.#...............#.#.#.#.#.#.#.#...............#.#.#.........[ [ ..............[ [ [ [ ..........[ [ [ Q ] Q U D dX5.Q Q T J qX9.=.#.#.#.#.#.#.#.#.#.#.#.#.#.#.#.#.#.#.#.O.J C `.A.6.-.#.#.#.#.#.#.#.#.#.#.#.#.#.#.#.#.#.#.#.#.P A Y Q Q D G T Q Q Q ] Q Q Q Q Q Q Q Q ] ] [ ] ......................................................................................................#.#...........#.#.#.....#.#.#.#.....#.#.............#.#.......#.#.#.#.#.#.#.#.#.......#.#.#.#.#.#.............................................................................................................Q ] ] Q Q Q ] ] ] ] ] Q Q Q T H qX}.,.Q ! U 2.dXM.=.#.#.#.#.#.#.#.#.#.#.#.#...Q T P J D D D N x dXpXuXe.#.=.2.5.#.#.#.#.#.#.#.#.#.#.#.#.#.#.#.#.#.#.#.#.#.#.#.#.#.",
"y 2.#.#.#.#.#.#.#.#.#.#.#.#.#.#.#.#.#.#.#.#.#.#.#.#.#.#.[ *.[ T T T T T T Q Q [ ..#.#.#.#.#.#.#.#.#...J D T T Q J C U ! Q T Z Z Z Z Z C C C C C C A A A A A A A A A A A A A A D D D D S Z S Z Z A A A S S S S S S S S S S S S S S S S D D D D D Z Z Z S S S S S D S S S D S S S S S S S S S S S S S D S S D S S S D S S D D D D D S S S S D S S S S S S S D D D D D S S D S S S S S S S S S S S S S S S S S D D D D D D D D S S S Z D D D D S A A A A A A A A A A A A A A A A A A A A S Z Z Z #.] Q U D dX5.Q Q T J qX9.=.#.#.#.#.#.#.#.#.#.#.#.#.#.#.#.#.#.#.#...J C =XA.6.-.#.O.O.#.#.#.#.#.#.#.#.#.#.#.#.#.#.#.#.#.P A Y Q Q D G T Q Q Y D D D D D D D D D D D D D D D D D D D D D D G G G G D D D D G G I I P P P P P P P P P P P P P P P P P P P P P P P P P P P P P P P P P P P P P P P P P P P P P P P P P P P P P P P P P P P P P P P P P P P P P P P P P P P P P P P P P P P P P P P P P P P P Y Y Y Y I I I I I Y Y Y Y Y Y Y I I Y Y I Y I I Y Y Y Y Y Y Y Y Y Y Y Y I I Y Y I J J J J J J J J J J J [ Q Q T H qX.X,.Q ! U :.dXM.=.#...#.#.#.#.#.#.#.#.#.#...Q T P J D D D N x 7XdX-Xe.#.=.2.5.#.#.#.#.#.#.#.#.#.#.#.#.#.#.#.#.#.#.#.#.#.#.#.#.#.",
"y 2.#.#.#.#.#.#.#.#.#.#.#.#.#.#.#.#.#.#.#.#.#.#.#.#.#.#...*.[ T T T T T T Q Q [ ..#.#.#.#.#.#.#.#.#...J D T T Q J C U ! Q T g h x b x x x x x x x x b b b b b x x x x x x M x x x x x x x x x x x x x x x x x x x x x x x x x x x x x x x x x x x x x x x x x x x x x x x x x x x x x x x x x x x x x x x x x x x x x x x x x x x x x x x x x x x x x x x x x x x x x x x x x x x x x x x x x x x x x x x x x x x x x x x x x x x x x x x x x k k k x x x x x x x x x x x x x x x x x x x x V.-.] Q U D dX5.Q Q T J qX9.=.#.#.#.#.#.#.#.#.#.#.#.#.#.#.#.#.#.#.#...J A ,Xn.6.-.#.O.O.#.#.#.#.#.#.#.#.#.#.#.#.#.#.#.#.#.P A Y Q Q D D T Q Q I g k k x x x x x x x x x x x x x x x x x x x x x x x x x x x x x x x x x x x x x x x x x x x x x x x x x x x x x x x x x x x x x x x x x x x x x x x x x x x x x x x x x x x x x x x x x x x x x x x x x x x x x x x x x x x x x x x x x x x x x x x x b x x x x x x x x x x x b b b x b b b b x x x x x x x x x x x x x x x x x x x x x x x x x x x x x x x x x x 9.5.Q Q T H qX.X,.Q ! U :.dXM.=.#.....#.#.#.#.#.#.#.#.#...Q T P D D D D N x sXuX-Xr.@.=.1.5.#.#.#.#.#.#.#.#.#.#.#.#.#.#.#.#.#.#.#.#.#.#.#.#.#.",
"y 2.#.#.#.#.#.#.#.#.#.#.#.#.#.#.#.#.#.#.#.#.#.#.#.#.#.#.[ *.[ T T T T T T Q Q [ ..#.#.#.#.#.#.#.#.#...P D T Q Q J C U ! Q T x C G I P P P P P P P P P P P P P K P P P P K K J D D D G P P I P P P P P P P P P P P P P P P Y P P P P P J D D D P Y Y Y Y P P Y Y P P I I I I I I P P I I P P P P I I I I P P P P P P P P J D D D J I I I I I I I I P P P P D D D D Y P Y P J P P P P P P P P P I I I P P I G D D D D D D D D P P P J D D D D J J J J P P J P J J J J J J J J J J J J P D Z #..X-.] Q Y D dX5.Q Q T J qX9.=.#.#.#.#.#.#.#.#.#.#.#.#.#.#.#.#.#.#.#...J A `.Z.6.-.#.O.#.#.#.#.#.#.#.#.#.#.#.#.#.#.#.#.#.#.P A U Q ) D D T Q Q I S D D D D D D D D D D D D D D D D D D D D D D D D D D D D D D D D D D D D D D D D D D D D D D D D D D D D D D D D D D D D D D D D D D D D D D D D D D D D D D D D D D D D D D D D D D D D D D D D D D D D D D D D D D D D D D D D D D D D D D D D D D D D D D D D D D D D D D D D D D D D D D D D D D D D D D D D D D D D D D D D D D D D D D D D D D D D D D N 9.aX8.Q Q T H qX.X,.Q ! U :.dXM.=.#.#.#.#.#.#.#.#.#.#.#.#...Q T P J D D D N x dXsX8Xr.#.*.2.5.#.#.#.#.#.#.#.#.#.#.#.#.#.#.#.#.#.#.#.#.#.#.#.#.#.",
"y ,.#.#.#.#.#.#.#.#.#.#.#.#.#.#.#.#.#.#.#.#.#.#.#.#.#.#.[ *.[ T T T T T T T Q [ ..#.#.#.#.#.#.#.#.#...P D T Q Q J C T Q Q T C D J I Y T T T T T T T T T T T T T T T T T T T T Y Y Y Y ! ! ! ! T T T T P P P P ! ! ! ! Y P T Y T ! ! ! U P P P T ! ! ! ! T U ! ! ! ! ! ! ! ! ! ! ! ! ! ! ! ! ! ! ! ! ! ! ! ! ! ! Y T ! ! U P P P U ! ! ! ! ! ! ! ! ! ! ! T I P P P ! P ! T T T T T T P T ! ! ! ! ! ! ! ! T Y I I P P P P P P T T T T P P P P T T T T T T T T T T T T T T T T T T Y Y P J D #..X-.] Q Y D dX5.Q Q T J qX9.=.#.#.#.#.#.#.#.#.#.#.#.#.#.#.#.#.#.#.#.#.J A =XA.6.-.#.#.#.#.#.#.#.#.#.#.#.#.#.#.#.#.#.#.#.#.T A U Q Q D D T Q Q I S P P P P P P P P P P P P P Y P Y Y Y Y Y P Y Y Y Y Y P Y Y Y Y P P P P Y Y P P P P Y P Y Y P P P P P P P P Y P P P P P P P P P P P P P P P P P P P P P P P P P P P P P P P P P P P P P P P P P P P P P P P P P P P P P P P P P P P P P P P P P P P P P P P P P P P P P P P P P P P P P P P P P P P P P P P I I P P I P I P P P P P I I P P I I I P J J J J D A 9.aX8.Q Q T H qX.X,.Q ! U :.dXM.=.#.#.#.#.#.#.#.#.#.#.#.#...Q T P J D D D N M 5XsXpXr.[ *.2.5.#.#.#.#.#.#.#.#.#.#.#.#.#.#.#.#.#.#.#.#.#.#.#.#.#.",
"y 2.#.#.#.#.#.#.#.#.#.#.#.#.#.#.#.#.#.#.#.#.#.#.#.#.#.#.[ *.[ T T T T T T Q Q [ ..#.#.#.#.#.#.#.......P D T Q Q J C T Q Q T C J P U T T T T T T T T T ! ! ! ! ! ! ! ! ! ! ! T T T T T Q Q Q Q Q T Q Q T T T T Q Q Q Q T T Q T Q Q Q Q ! T T T ! Q Q Q Q ! T Q Q Q Q Q Q Q Q Q Q Q Q Q Q Q Q Q Q Q Q Q Q Q Q Q Q T ! Q Q ! T T T ! Q Q Q Q Q Q Q Q Q Q Q Q T T T T Q Y Q Q ! ! ! ! Q T Q Q Q Q Q Q Q Q Q Q ! T T T T T T T T ! ! ! ! T T T T ! ! ! ! ! ! T T ! ! ! ! ! T T T T T T T U P G &..X-.Q Q Y D dX5...Q T J qX9.=.#.#.#.#.#.#.#.#.#.#.#.#.#.#.#.#.#.#.#.#.J A ;Xm.6.-.#.#.#.#.#.#.#.#.#.#.#.#.#.#.#.#.#.#.#.#.T A Y Q Q D D T Q Q I S P T Y T T T T T T T T T T T T T T T T T T T T T T T T T T T T T T T T T T T T T T T T T T T T T T T T T T T T U T T T T T T T T T T T T T T T T T T T T T T T T T T T T T T T T T T T T T T T T T T T T T T T T T T T T T T T T T T T T T T T T T T T T T T T T T T T T T T T T T T T T T T T T T T T T T T T T T T T T T T T T T ~ T T T T T T T Y Y Y P J D 9.aX8.Q Q T H qX.X-.Q ! U :.dXM.=.#.#.#.#.#.#.#.#.#.#.#.#...Q T P J D D D N M pX8X-Xr.#.*.2.5.#.#.#.#.#.#.#.#.#.#.#.#.#.#.#.#.#.#.#.#.#.#.#.#.#.",
"y 5.#.#.#.#.#.#.#.#.#.#.#.#.#.#.#.#.#.#.#.#.#.#.#.#.#.#...*.#.T T T T T T Q Q [ ..#.#.#.#.#.#.#.O.O.O.P D T Q Q J C T Q Q T C P Y T T ! ! ! T T Q Q ! Q ! ! Q Q Q Q Q Q Q Q ! Q ! Q ! Q Q Q Q Q Q Q Q Q Q Q Q Q Q Q Q Q Q Q Q Q Q Q Q Q Q Q Q Q Q Q Q Q Q Q Q Q Q Q Q Q Q Q Q Q Q Q Q Q Q Q Q Q Q Q Q Q Q Q Q Q Q Q Q Q Q Q Q Q Q Q Q Q Q Q Q Q Q Q Q Q Q Q Q Q Q Q ! Q ! Q Q Q Q Q Q Q Q Q Q Q Q Q Q Q Q Q Q ! Q Q Q Q Q Q Q Q Q Q Q Q Q Q ! ! ! Q Q Q T ! Q Q Q Q Q ! ! ! Q ! ! ! T P J &.wX-.Q Q Y D dX5...Q T J qX9.=.#.#.#.#.#.#.#.#.#.#.#.#.#.#.#.#.#.#.#.#.J A 5XN.6.-.#.#.#.#.#.#.#.#.#.#.#.#.#.#.#.#.#.#.#.#.T A Y Q Q D D T Q Q I D P T T Q Q Q Q Q Q Q Q Q Q Q T Q Q Q Q Q Q Q Q Q Q Q Q Q Q Q Q Q Q Q Q Q ! ! Q Q Q Q Q Q Q Q Q Q Q Q Q Q Q Q Q T ! Q Q Q Q Q Q Q Q Q Q Q Q Q Q Q Q Q Q Q Q Q Q Q Q Q Q Q Q Q Q Q Q Q Q Q Q Q Q Q Q Q Q Q Q Q ! T Q Q Q Q Q Q Q T Q Q Q Q Q Q Q Q Q Q T ! Q Q T ! Q Q Q ! T Q Q Q Q Q Q Q Q Q Q T Q Q Q T ! ! ! ! ! ! ! T T ! T Q ! T ! Q Q Q Q Q Q T T T P P D 9.aX5.Q Q T H qX.X-.Q Q U :.dXM.=.#.#.#.#.#.#.#.#.#.#.#.#...Q T P D D D D N M dXpX5Xr.#.*.,.5.#.#.#.#.#.#.#.#.#.#.#.#.#.#.#.#.#.#.#.#.#.#.#.#.#.",
"y 2.#.#.#.#.#.#.#.#.#.#.#.#.#.#.#.#.#.#.#.#.#.#.#.#.#.#.[ *.O.T T T T T T Q Q [ ..#.#.#.#.#.#.#.O.O.O.P S Y Q Q J C T Q Q T C P Y T T T Q Q Q Q Q Q Q Q Q Q Q Q Q Q Q Q Q Q Q Q ! Q ! Q Q Q Q Q Q Q Q Q Q Q Q Q Q Q Q Q Q Q Q Q Q Q Q Q Q Q Q Q Q Q Q Q Q Q Q Q Q Q Q Q Q Q Q Q Q Q Q Q Q Q Q Q Q Q Q Q Q Q Q Q Q Q Q Q Q Q Q Q Q Q Q Q Q Q Q Q Q Q Q Q Q Q Q Q Q Q Q Q Q Q Q Q Q Q Q Q Q Q Q Q Q Q Q Q Q Q Q Q Q Q Q Q Q Q Q Q Q Q Q Q Q Q Q ! Q ! Q Q Q Q Q Q Q Q Q Q Q Q Q Q ! T T Y J =.wX-.Q Q Y D aX5.{ Q T J qX9.=.#.#.#.#.#.#.#.#.#.#.#.#.#.#.#.#.#.#.#...J A %XB.6.-.#.#.#.#.#.#.#.#.#.#.#.#.#.#.#.#.#.#.#.#.T A Y Q Q D D T Q Q I D Y T T Q Q Q Q Q Q Q Q Q Q Q Q Q Q Q Q Q Q Q Q Q Q Q Q Q Q Q Q Q Q Q Q Q ! ! Q Q Q Q Q Q Q Q Q Q Q Q Q Q Q Q Q ! Q Q Q Q Q Q Q Q Q Q Q Q Q Q Q Q Q Q Q Q Q Q Q Q Q Q Q Q Q Q Q Q Q Q Q Q Q Q Q Q Q Q Q Q Q Q ! ! Q Q Q Q Q Q Q ! Q Q Q Q Q Q Q Q Q Q ! Q Q Q Q Q Q Q Q ! ! Q Q Q Q Q Q Q Q Q Q ! Q Q Q ! ! Q Q Q Q Q Q ! ! ! ! Q ! ! Q Q Q Q Q Q Q T T T T Y H 9.aX5.Q Q T H qX.X-.Q Q U I dXM.=.#.#.#.#.#.#.#.#.#.#.#.#...Q T P J D D D N x sXsXuXr.#.*.2.5.#.#.#.#.#.#.#.#.#.#.#.#.#.#.#.#.#.#.#.#.#.#.#.#.#.",
"y 2.#.#.#.#.#.#.#.#.#.#.#.#.#.#.#.#.#.#.#.#.#.#.#.#.#.#.[ *...T T T T T T T Q [ ..#.#.#.#.#.#.#.O.O.#.P S Y Q Q J C T Q Q T C P T T T T Q Q Q Q Q Q Q Q Q Q Q Q Q Q Q Q Q Q Q Q Q Q Q Q Q Q Q Q Q Q Q Q Q Q Q Q Q Q Q Q Q Q Q Q Q Q Q Q Q Q Q Q Q Q Q Q Q Q Q Q Q Q Q Q Q Q Q Q Q Q Q Q Q Q Q Q Q Q Q Q Q Q Q Q Q Q Q Q Q Q Q Q Q Q Q Q Q Q Q Q Q Q Q Q Q Q Q Q Q Q Q Q Q Q Q Q Q Q Q Q Q Q Q Q Q Q Q Q Q Q Q Q Q Q Q Q Q Q Q Q Q Q Q Q Q Q Q ! Q ! Q Q Q Q Q Q Q Q Q Q Q Q Q Q ! T T T I =.wX-.Q Q Y D aX5.{ Q T J qXv.=.#.#.#.#.#.#.#.#.#.#.#.#.#.#.#.#.#.#.#...J A -Xm.6.-.#.#.#.#.#.#.#.#.#.#.#.#.#.#.#.#.#.#.#.#.T A Y ! Q D G T Q ) I D U T ! Q Q Q Q Q Q Q Q Q Q Q Q Q Q Q Q Q Q Q Q Q Q Q Q Q Q Q Q Q Q Q Q Q Q Q Q Q Q Q Q Q Q Q Q Q Q Q Q Q Q Q Q Q Q Q Q Q Q Q Q Q Q Q Q Q Q Q Q Q Q Q Q Q Q Q Q Q Q Q Q Q Q Q Q Q Q Q Q Q Q Q Q Q Q Q Q Q Q Q Q Q Q Q Q Q Q Q Q Q Q Q Q Q Q Q Q Q Q Q Q Q Q Q Q Q Q Q Q Q Q Q Q Q Q Q Q Q Q Q Q Q Q Q Q Q Q Q Q Q Q Q Q Q Q Q Q Q Q Q Q Q Q Q Q Q Q T Q T T Y J 9.aX8.Q Q T D }..X-.Q Q U I dXM.=.#.#.#.#.#.#.#.#.#.#.#.#.O.Q T P J D D D C x uXdX;Xy.#.*.2.5.#.#.#.#.#.#.#.#.#.#.#.#.#.#.#.#.#.#.#.#.#.#.#.#.#.",
"y 2.#.#.#.#.#.#.#.#.#.#.#.#.#.#.#.#.#.#.#.#.#.#.#.#.#.#.[ *.O.T T T T T T Q Q [ ..#.#.#.#.#.#.#.#.#.#.P S Y Q Q J C T Q Q T C P T T T T Q Q Q Q Q Q Q Q Q Q Q Q Q Q Q Q Q Q Q Q Q Q Q Q Q Q Q Q Q Q Q Q Q Q Q Q Q Q Q Q Q Q Q Q Q Q Q Q Q Q Q Q Q Q Q Q Q Q Q Q Q Q Q Q Q Q Q Q Q Q Q Q Q Q Q Q Q Q Q Q Q Q Q Q Q Q Q Q Q Q Q Q Q Q Q Q Q Q Q Q Q Q Q Q Q Q Q Q Q Q Q Q Q Q Q Q Q Q Q Q Q Q Q Q Q Q Q Q Q Q Q Q Q Q Q Q Q Q Q Q Q Q Q Q Q Q ! Q ! ! Q Q Q Q Q Q Q Q Q Q Q Q Q Q Q T T T P =.wX-.] Q T D aX5.{ Q T J qXk.=.#.#.#.#.#.#.#.#.#.#.#.#.#.#.#.#.#.#.#.O.J A 5XN.6.-.#.#.#.#.#.#.#.#.#.#.#.#.#.#.#.#.#.#.#.#.T A Y ! Q D G T Q ) I D U T Q Q Q Q Q Q Q Q Q Q Q Q Q Q Q Q Q Q Q Q Q Q Q Q Q Q Q Q Q Q Q Q Q Q Q Q Q Q Q Q Q Q Q Q Q Q Q Q Q Q Q Q Q Q Q Q Q Q Q Q Q Q Q Q Q Q Q Q Q Q Q Q Q Q Q Q Q Q Q Q Q Q Q Q Q Q Q Q Q Q Q Q Q Q Q Q Q Q Q Q Q Q Q Q Q Q Q Q Q Q Q Q Q Q Q Q Q Q Q Q Q Q Q Q Q Q Q Q Q Q Q Q Q Q Q Q Q Q Q Q Q Q Q Q Q Q Q Q Q Q Q Q Q Q Q Q Q Q Q Q Q Q Q Q Q Q Q Q Q T T Y J 9.aX5.Q Q T G }..X-.Q ! U I dXM.=.#.#.#.#.#.#.#.#.#.#.#.#.O.Q T P J D D D N x dXpX5Xy.#.*.2.5.#.#.#.#.#.#.#.#.#.#.#.#.#.#.#.#.#.#.#.#.#.#.#.#.#.",
"y 5.#.#.#.#.#.#.#.#.#.#.#.#.#.#.#.#.#.#.#.#.#.#.#.#.#.#...*.#.T T T T T T Q Q [ ..#.#.#.#.#.#.#.#.#.#.P S Y Q Q J C T Q Q T C P T T Q Q Q Q Q Q Q Q Q Q Q Q Q Q Q Q Q Q Q Q Q Q Q Q Q Q Q Q Q Q Q Q Q Q Q Q Q Q Q Q Q Q Q Q Q Q Q Q Q Q Q Q Q Q Q Q Q Q Q Q Q Q Q Q Q Q Q Q Q Q Q Q Q Q Q Q Q Q Q Q Q Q Q Q Q Q Q Q Q Q Q Q Q Q Q Q Q Q Q Q Q Q Q Q Q Q Q Q Q Q Q Q Q Q Q Q Q Q Q Q Q Q Q Q Q Q Q Q Q Q Q Q Q Q Q Q Q Q Q Q Q Q Q Q Q Q Q Q Q Q ! ! Q Q Q Q Q Q Q Q Q Q Q Q Q Q Q ! ! T I -.wX-.] Q T D aX5.{ Q T J qXk.=.#.#.#.#.#.#.#.#.#.#.#.#.#.#.#.#.#.#.#.O.J A `.B.6.-.#.#.#.#.#.#.#.#.#.#.#.#.#.#.#.#.#.#.#.#.T A Y ! Q D D T Q Q I D U T Q Q Q Q Q Q Q Q Q Q Q Q Q Q Q Q Q Q Q Q Q Q Q Q Q Q Q Q Q Q Q Q Q Q Q Q Q Q Q Q Q Q Q Q Q Q Q Q Q Q Q Q Q Q Q Q Q Q Q Q Q Q Q Q Q Q Q Q Q Q Q Q Q Q Q Q Q Q Q Q Q Q Q Q Q Q Q Q Q Q Q Q Q Q Q Q Q Q Q Q Q Q Q Q Q Q Q Q Q Q Q Q Q Q Q Q Q Q Q Q Q Q Q Q Q Q Q Q Q Q Q Q Q Q Q Q Q Q Q Q Q Q Q Q Q Q Q Q Q Q Q Q Q Q Q Q Q Q Q Q Q Q Q Q Q Q Q Q Q T T Y J 9.aX5.Q Q T G }..X-.Q Q U I dXM.=.#...#.#.#.#.#.#.#.#.#.#...Q T P H D D D N x dXsXuXy.#.*.,.5.#.#.#.#.#.#.#.#.#.#.#.#.#.#.#.#.#.#.#.#.#.#.#.#.#.",
"y 2.#.#.#.#.#.#.#.#.#.#.#.#.#.#.#.#.#.#.#.#.#.#.#.#.#.#.[ *.O.T T T T T T Q Q [ ..#.#.#.#.#.#.#.O.O.#.P Z Y Q Q J C Y ! Q T C I T T Q Q Q Q Q Q Q Q Q Q Q ! Q Q Q Q Q Q Q Q Q Q Q Q Q Q Q Q Q Q Q Q Q Q Q Q Q Q Q Q Q Q Q Q Q Q Q Q Q Q Q Q Q Q Q Q Q Q Q Q Q Q Q Q Q Q Q Q Q Q Q Q Q Q Q Q Q Q Q Q Q Q Q Q Q Q Q Q Q Q Q Q Q Q Q Q Q Q Q Q Q Q Q Q Q Q Q Q Q Q Q Q Q Q Q Q Q Q Q Q Q Q Q Q Q Q Q Q Q Q Q Q Q Q Q Q Q Q Q Q Q Q Q Q Q Q Q Q Q Q ! ! Q Q Q Q Q Q Q Q Q Q Q Q Q Q Q Q T T P =.wX-.] Q Y D aX5.{ Q T J qXv.=.#.#.#.#.#.#.#.#.#.#.#.#.#.#.#.#.#.#.#.O.J A :Xx.6.,.#.#.#.#.#.#.#.#.#.#.#.#.#.#.#.#.#.#.#.#.T A Y Q Q D D T Q Q I D U T ! Q Q Q Q Q Q Q Q Q Q Q Q Q Q Q Q Q Q Q Q Q Q Q Q Q Q Q Q Q Q Q Q Q Q Q Q Q Q Q Q Q Q Q Q Q Q Q Q Q Q Q Q Q Q Q Q Q Q Q Q Q Q Q Q Q Q Q Q Q Q Q Q Q Q Q Q Q Q Q Q Q Q Q Q Q Q Q Q Q Q Q Q Q Q Q Q Q Q Q Q Q Q Q Q Q Q Q Q Q Q Q Q Q Q Q Q Q Q Q Q Q Q Q Q Q Q Q Q Q Q Q Q Q Q Q Q Q Q Q Q Q Q Q Q Q Q Q Q Q Q Q Q Q ! Q Q Q Q Q Q Q Q Q Q Q Q Q Q T T Y J 9.aX5.Q Q ! J }..X-.Q Q U I dXM.=.#.#.#.#.#.#.#.#.#.#.#.#.O.Q T P J D D D N x 8XdX-Xy.#.*.2.5.#.#.#.#.#.#.#.#.#.#.#.#.#.#.#.#.#.#.#.#.#.#.#.#.#.",
"y 2.#.#.#.#.#.#.#.#.#.#.#.#.#.#.#.#.#.#.#.#.#.#.#.#.#.#.[ *...T T T T T T T Q [ ..#.#.#.#.#.#.#.O.O.O.P S T Q Q J C Y ! Q T C I T T ! Q Q Q Q Q Q Q Q T T T T T T T T T T T T T T T T T T T T T T T T T T T T T T T T T T T T T T T T T T T T T T T T T ! ! ! T T T ! ! Q Q Q Q Q Q Q Q ! ! ! ! ! ! ! ! ! Q Q Q ! ! ! ! ! Q Q Q ! ! ! ! ! ! ! ! ! ! ! ! ! ! ! ! ! ! ! ! ! ! ! ! ! ! ! ! ! ! ! ! ! ! ! ! ! ! ! ! ! ! ! ! ! ! ! ! ! ! T ! ! T ! ! T ! ! ! ! ! ! Q Q Q Q Q Q Q Q Q Q Q ! T P =.rX-.Q Q Y D aX5.{ Q T J qXv.=.#.#.#.#.#.#.#.#.#.#.#.#.#.#.#.#.#.#.#.O.J A 5Xn.6.-.#.#.#.#.#.#.#.#.#.#.#.#.#.#.#.#.#.#.#.#.T A Y Q Q D D T Q Q P D U T ! Q Q Q Q Q Q Q Q Q Q Q ! ! ! Q Q Q Q Q Q Q Q Q Q Q ! ! Q ! Q Q Q Q Q Q Q Q Q Q Q Q ! ! ! Q ! Q Q Q Q Q Q Q Q Q Q Q ! ! ! Q ! ! Q Q Q Q Q Q Q Q Q ! Q Q Q Q Q ! ! Q ! Q ! Q Q Q Q Q Q Q Q Q Q ! ! Q Q Q Q ! Q ! Q ! Q Q Q ! Q ! ! Q Q Q Q Q Q ! Q Q Q Q Q ! ! Q Q Q Q ! Q ! ! Q ! Q Q Q Q Q Q ! ! ! Q ! ! Q ! ! ! ! ! Q Q Q Q Q Q Q Q Q Q Q Q Q Q ! T T J 9.aX5.Q Q ! J }..X-.Q Q U I dXM.=.#.#.#.#.#.#.#.#.#.#.#.#.#.Q T P J D D D C x yXuX5Xy.[ *.2.5.#.#.#.#.#.#.#.#.#.#.#.#.#.#.#.#.#.#.#.#.#.#.#.#.#.",
"y 2.#.#.#.#.#.#.#.#.#.#.#.#.#.#.#.#.#.#.#.#.#.#.#.#.#.#.[ *.O.T T T T T T Q Q [ ..#.#.#.#.#.#.#.O.O.O.P S T ! Q J C T ! Q T C P T T Q Q Q Q Q Q Q Q Q T T T T T ~ ~ T ~ T T T T T ~ ~ ~ ~ ~ T T T T T ~ ~ T T T ~ ~ T ~ T T T T T T T T T T T T U ~ ~ T T T T T T T T T T T T T T T T T T T T T T T T T T T T T T T T T T T T T T T ~ T ~ ~ U U ~ ~ T T T T ~ ~ T T ~ T T ~ U U ~ ~ ~ ~ T T T T T T T T ~ ~ ~ ~ T T ~ T ~ ~ U U T T ~ ~ T T T T ~ ~ ~ T T T T T T T Q Q Q Q Q Q Q Q ! T P =.wX-.Q Q Y D aX5.{ Q T J qXv.=.#.#.#.#.#.#.#.#.#.#.#.#.#.#.#.#.#.#.#.O.J Z `.N.6.-.O.O.O.#.#.#.#.#.#.#.#.#.#.#.#.#.#.#.#.#.T A Y Q Q J D T Q Q P D U T ! Q Q Q Q Q Q Q Q Q Q ! T T T T T T T T T T T Q T T T T ! ! ! ! ! ! ! T T ! ! T ! ! T T ! ! T T T T T Q Q ! Q Q Q Q ! T T ! ! T T T ! Q Q Q Q Q T ! ! ! Q ! ! T T ! ! Q ! Q Q ! ! ! T T ! ! T T T ! Q Q Q ! ! ! ! ! ! Q Q T Q ! T ! ! ! Q Q ! T ! ! ! Q ! T T ! Q ! T ! ! T T T T T T T T Q ! ! ! ! ! ! T T T T T ! ! ! Q T T Q Q Q Q Q Q Q Q Q Q ! T T J 9.aX5.Q ) ! J }..X-.Q Q U I dXM.=.#.#.#.#.#.#.#.#.#.#.#.#.#.Q T P J D D D N M aXpX8Xi.#.*.1.5.#.#.#.#.#.#.#.#.#.#.#.#.#.#.#.#.#.#.#.#.#.#.#.#.#.",
"y 5.#.#.#.#.#.#.#.#.#.#.#.#.#.#.#.#.#.#.#.#.#.#.#.#.#.#...*.#.T T T T T T Q Q [ ..#.#.#.#.#.#.#.O.O.O.P S T ! Q J C T Q Q T C P T T Q Q Q Q Q Q Q Q Q T T T T T T T T T T T T T T ~ ~ ~ T T T ~ T T T ~ ~ T T T ~ ~ T T T T T T T T T ~ ~ T T T ~ ~ ~ T T T T T T T T T T T T T T T T T ~ T T T T T T T T T T T T T T T T T T T T T ~ ~ ~ ~ U U ~ ~ T T T T ~ ~ T T ~ ~ ~ U U U T ~ ~ ~ T T T T T T T T ~ ~ ~ ~ T T ~ ~ ~ U U U ~ ~ ~ ~ ~ ~ T T ~ ~ ~ T T T T T T T Q Q Q Q Q Q Q ! ! T I =.wX-.] Q Y D aX5.{ Q T J qXM.=.#.#.#.#.#.#.#.#.#.#.#.#.#.#.#.#.#.#.#.#.J Z =XN.6.-.O.O.O.#.#.#.#.#.#.#.#.#.#.#.#.#.#.#.#.#.T A Y ! Q J D T Q Q P D U T ! Q Q Q Q Q Q ! Q Q T ! T T U T T T ~ T T T T T T U ~ T T T ~ U U T T T T T T T T T T T T T T T T T T T T T T T T T T ~ T T T T T T T T T T T T T T T T T T T T T T ~ T T T T T T T T T T T T T ~ U T T T T T T T T T T T T T T T T T T T T T T T T T T T T T T T T T T T T T T T T T T T T T T T T T T U T T T U T T T T T T ! Q Q Q Q Q Q Q Q Q T T T J q.aX5.Q Q T J }..X-.Q Q T P dXM.=.#.#.#.#.#.#.#.#.#.#.#.#.O.Q T P H D D D N M -XdXpXi.#.*.-.5.#.#.#.#.#.#.#.#.#.#.#.#.#.#.#.#.#.#.#.#.#.#.#.#.#.",
"y 2.#.#.#.#.#.#.#.#.#.#.#.#.#.#.#.#.#.#.#.#.#.#.#.#.#.#.[ *.O.T T T T T T Q Q [ ..#.#.#.#.#.#.#.#.#.#.P S T Q Q J C T Q Q T C P U T Q Q Q Q Q Q Q Q ! P D D D D D D D D D D D D D D D D D D D D D D D D D D D D D D D D D D D D D D D D D D D D D D D D D D D D D D D D D D D D D D D D D D D D D D D D D D D D D D D D D D D D D D D D D D D D D D D D D D D D D D D D D D D D D D D D D D D D D D D D D D D D D D D D D D D D D D D D D D D D D D D D D D D D D T Q Q Q Q Q Q Q Q ! T P D rX-.Q Q Y D aX5.{ Q T J qXM.*.#.#.#.#.#.#.#.#.#.#.#.#.#.#.#.#.#.#.#.#.P S ;XK.6.-.#.#.#.#.#.#.#.#.#.#.#.#.#.#.#.#.#.#.#.#.T A Y ! Q J D T Q Q P D U T ! Q Q Q Q Q Q Q T Y D D D D D D D D D D D D D D D D D D D D D D D D D D D D D D D D D D D D D D D D D D D D D D D D D D D G G G G G G D D G G G G G G G G G G G G G G G G G G G G G G G G G G G G D D D G J J G G J J J J J J J J J G G G J J J J J J J J J G J J J J J J J J J J J J J J J J J J J J J J J J J J J J J J G J I T ! Q Q Q Q Q Q Q ! T T J q.aX5.Q Q T J }..X2.Q Q T P dXM.=.#.#.#.#.#.#.#.#.#.#.#.#.#.Q T P J D D D N x yXuX,Xu.#.*.,.5.#.#.#.#.#.#.#.#.#.#.#.#.#.#.#.#.#.#.#.#.#.#.#.#.#.",
"y 2.#.#.#.#.#.#.#.#.#.#.#.#.#.#.#.#.#.#.#.#.#.#.#.#.#.#.[ *...T T T T T T T Q ....#.#.#.#.#.#.#.#.#.#.P S T Q Q J C T Q Q T b P U T Q Q Q Q Q Q Q Q T D y.w.t.q.q.q.q.q.q.q.q.q.q.q.q.q.q.q.q.q.q.q.q.q.q.q.q.q.q.q.q.q.q.q.q.q.q.q.6.6.6.6.6.6.6.6.6.6.8.8.8.8.6.6.6.6.8.8.8.8.8.8.8.8.6.6.6.6.6.6.6.6.6.8.8.9.6.6.6.8.9.8.5.6.8.9.9.6.6.6.8.9.8.8.6.8.9.8.6.5.6.9.8.9.9.6.9.9.9.9.6.8.9.9.9.6.8.:.:.:.:.:.:.:.-.-.-.-.-.-.:.:.:.:.:.:.:.:.-.-.-.-.-.-.-.-.-.-.D T Q Q Q Q Q Q Q ! ! T Y D wX-.Q Q Y D aXh.{ Q T P qXM.*.#.#.#.#.#.#.#.#.#.#.#.#.#.#.#.#.#.#.#.#.P S `.^.6.-.#.#.O.#.#.#.#.#.#.#.#.#.#.#.#.#.#.#.#.#.T A Y ! Q J D ~ Q Q P D U T ! Q Q Q Q Q Q ! T P M.h.9.9.9.9.9.9.9.9.9.9.9.9.9.9.9.9.9.9.9.9.9.9.9.9.9.9.[ [ [ [ [ [ [ [ [ [ [ [ [ [ [ [ [ [ [ [ [ [ [ [ [ [ [ [ [ ] ] 5.5.5.5.5.5.5.5.5.5.5.5.5.5.5.5.5.5.5.5.5.5.5.5.5.5.5.5.5.5.5.5.5.5.5.5.5.5.5.5.5.5.5.5.5.5.T T T T T T T T T T T T T T T T T T T T T T T T T T T T T T T T T ,.,.,.,.,.,.,.,.,.,.:.5.T T Q Q Q Q Q Q Q Q T T J q.aX5.Q Q T J }..X2.Q ! T P dXM.-.#.#.#.#.#.#.#.#.#.#.#.#.#.Q T P J D D D C x aXpX8Xu.[ *.2.5.#.#.#.#.#.#.#.#.#.#.#.#.#.#.#.#.#.#.#.#.#.#.#.#.#.",
"y 2.#.#.#.#.#.#.#.#.#.#.#.#.#.#.#.#.#.#.#.#.#.#.#.#.#.#.[ *.O.T T T T T T Q Q [ ..#.#.#.#.#.#.#.....#.P S T Q Q J C T Q Q T N P T T Q Q Q Q Q Q ! T P A x.f.6.5.5.5.5.6.6.6.8.8.8.8.6.8.6.8.8.8.6.6.8.9.9.9.9.9.9.9.9.9.9.9.9.9.9.9.9.9.9.9.9.9.9.9.9.9.9.9.9.9.9.9.9.9.9.9.9.9.9.9.9.9.9.9.9.9.9.9.9.9.9.9.9.9.9.9.9.9.9.9.9.9.9.9.9.9.9.9.9.9.9.9.9.9.9.9.9.9.9.q.t.t.q.t.q.t.t.q.t.t.q.t.q.q.t.t.t.t.q.q.q.q.q.q.t.t.t.t.q.t.q.q.q.q.q.q.q.9.9.9.9.9.9.9.9.-.b Y T T Q Q Q Q Q Q ! T Y D wX-.] Q U D aXh.{ Q T J qXM.-.#.#.#.#.#.#.#.#.#.#.#.#.#.#.#.#.#.#.#.#.P S *X^.6.-.#.O.O.#.#.#.#.#.#.#.#.#.#.#.#.#.#.#.#.#.T A Y ! Q J D T Q Q P D U T ! Q Q Q Q Q Q T T P /.[.y.8.8.8.8.8.8.8.9.9.9.9.9.9.9.9.9.9.9.9.9.9.9.9.9.9.9.9.9.9.9.9.9.9.9.9.9.9.9.9.9.9.9.9.9.9.9.9.9.9.9.9.9.9.9.9.9.9.9.9.9.9.9.9.9.9.9.9.9.9.9.9.9.9.9.9.9.9.9.9.9.9.9.9.9.9.9.9.9.9.9.9.9.9.9.9.9.9.w.w.w.9.9.9.9.9.9.9.9.9.9.9.9.9.9.9.9.9.9.9.9.9.9.9.9.9.9.9.9.9.9.9.9.9.9.9.9.9.9.9.9.9.9.9.9.9.9.5.D T ! Q Q Q Q Q Q ! T T P t.aX5.Q ) ! J }..X2.Q ! T P dXQ.-.#.#.#.#.#.#.#.#.#.#.#.#.#.Q T P J D D D N x *XdXuXu.#.*.1.5.#.#.#.#.#.#.#.#.#.#.#.#.#.#.#.#.#.#.#.#.#.#.#.#.#.",
"y 5.#.#.#.#.#.#.#.#.#.#.#.#.#.#.#.#.#.#.#.#.#.#.#.#.#.#...*.#.T T T T T T Q Q [ ..#.#.#.#.#.#.#.....#.P S T Q Q J C T Q Q T N P T T Q Q Q Q Q Q T T P A x.f...................#.#.#.........#.#.....#.#.#.#.#.#.#.#.#.#.#.#.#.#.#.#.#...#.#.#.#.#.#.#.#.#.#.....#.#.#.#.#.#.....#.#.#.#.#.#.#.#.#...#.#.#.#.#.#.#.#.#.#.#.#.#.#.#.#.#.#.#.#.#.#.#.#.#.#.#.#.#.#.#.....#.......#.#.#.#.#...#.........#.#.#.#.#.#.....#.#.#.#.#.#.#...#.#.#.....................J x P T T Q Q Q Q Q Q ! T I D rX-.] Q U D aXh.{ Q T J qXM.-.#.#.#.#.#.#.#.#.#.#.#.#.#.#.#.#.#.#.#.#.P S ;XJ.6.-.#.O.O.#.#.#.#.#.#.#.#.#.#.#.#.#.#.#.#.#.T A Y ! Q J D T Q Q P D U ! Q Q Q Q Q Q Q T T P N.>XH.Q ! Q Q Q Q Q ! Q Q Q Q Q Q Q Q Q Q Q Q Q Q Q Q Q Q Q Q Q Q Q Q Q Q Q Q Q Q Q Q Q Q Q Q Q Q Q Q Q Q Q Q Q Q Q Q Q Q Q Q Q Q Q Q ! ! Q Q Q Q Q Q Q Q ! ! ! ! Q Q Q Q Q ......................................[ [ [ [ [ [ [ [ [ [ [ [ [ [ [ [ [ [ [ [ [ [ [ [ [ [ [ [ [ [ [ [ [ [ [ [ ........[ ....[ J A T ! Q Q Q Q Q Q T T T P #.dX5.Q Q T J }.rX2.Q ! T P dXQ.-.#.#.#.#.#.#.#.#.#.#.#.#.#.Q T P H D D D N x 6XdX-Xu.#.*.,.5.#.#.#.#.#.#.#.#.#.#.#.#.#.#.#.#.#.#.#.#.#.#.#.#.#.",
"y 2.#.#.#.#.#.#.#.#.#.#.#.#.#.#.#.#.#.#.#.#.#.#.#.#.#.#.[ *.O.T T T T T T Q Q [ ..#.#.#.#.#.#.#.......P S T Q Q J C Y T Q T C P T T Q Q Q Q Q Q T T P A x.f.................#.#...................#.#.#.....#.#.#.#.#...#.....#...#.#...#.#.....#.#.#.#.#.#.....#.#.....#.#.#.#.O.O.#.#.#.#...#.#.#.#.#.#.#.#.#.#.#.#...#...#.#.#.#.#.......#.#.....#.#.#.#.#.#.#.#.........#.#.#.#.....#.#.#.....#.#.#.#.#.#.#.#.#.#.#.#.#.#.#.#.#.#.#.#.#...................P x P T T Q Q Q Q Q Q ! T I D wX-.] Q Y D aXh.{ Q T J qXv.-.#.#.#.#.#.#.#.#.#.#.#.#.#.#.#.#.#.#.#.#.P S 5XU.6.-.#.#.#.#.#.#.#.#.#.#.#.#.#.#.#.#.#.#.#.#.T A Y Q Q J D ~ Q Q P D U ! Q Q Q Q Q Q ! T T P B.=XK.....................#.#.#.......#.#.#.#.#.O.....#.#.#.#.#.......#.#.#.#.#.......#.#.#.#.#.......#.#.#.#.#.......#.#.#.#.#.#.........O.O...O.O.O.O.O.O.O.O.O...O.O.O.O.O.............................................................................................................................P C T ! Q ! Q Q Q Q T T T J #.dX9.Q ! T J }.rX2.Q Q T P dXQ.-.#.#.#.#.#.#.#.#.#.#.#.#.#.Q T P J D D D N x aXpX8Xu.#.*.1.5.#.#.#.#.#.#.#.#.#.#.#.#.#.#.#.#.#.#.#.#.#.#.#.#.#.",
"y 2.#.#.#.#.#.#.#.#.#.#.#.#.#.#.#.#.#.#.#.#.#.#.#.#.#.#.[ *...T T T T T T ! Q [ ..#.#.#.#.#.#.#.......P S Y Q Q J C Y T Q T C P T T Q Q Q Q Q Q T T P A x.f.......................#.....#.........#.#.#.....#.#.#.#.#.#.#.#.#.#.....#...#.#.#...#.#.#.#.#.#.....#.#.#...#.#.#.#.O.O.#.#...#.....#.#.#.#.O.#.#.#.#.#.#.#.#...#.#.#...#.#.....#.#.#...#.#.....#.#.#.#...#.#.#.#.#.#.#.#.#.#.#.#...#.#.#.#.....#.#.#.#.#.#.#.#.........#.#.#.#...................P x P T T Q Q Q Q Q Q ! T P D wX-.] Q U D aXh.{ Q T J <Xg.:.#.#.#.#.#.#.#.#.#.#.#.#.#.#.#.#.#.#.#.#.P S *X/.6.-.#.#.#.#.#.#.#.#.#.#.#.#.#.#.#.#.#.#.#.#.T A Y Q Q J D T Q Q P D U ! ! Q Q Q ! ! ! T T P B.+XH.....................#.#...#.#...#.#.#.#.#.#.....#.#.#.#.#.#.....#.#.#.#.#.#.....#.#.#.#.#.#.....#.#.#.#.#.#.#.#.#.#.#.#.#.#...O.....#.O.O.O.#.#.#.#.#.#.#.#...#.#.#.#.#.#.#.#.#.#.#.#.#.#.#.#.#.#.#.#.#.#.#.......#.#.#.#.#.#.#.#.#.......#.#.#.#.#.#.#.#.#.......#.#.#.#.#.#.#.#.#.................P C T T Q ! Q Q Q Q T T T P #.dX9.Q ! T J }.rX2.Q Q T P dXQ.-.#.#.#.#.#.#.#.#.#.#.#.#.#.Q T P J D D D C x aXsXuXu.[ *.2.5.#.#.#.#.#.#.#.#.#.#.#.#.#.#.#.#.#.#.#.#.#.#.#.#.#.",
"y 2.#.#.#.#.#.#.#.#.#.#.#.#.#.#.#.#.#.#.#.#.#.#.#.#.#.#.[ *.O.T T T T T T Q Q [ ..#.#.#.#.#.#.#.#.#.#.P S Y Q Q J C T ! Q T C P T T ! Q Q Q Q Q T T P A x.f...........#...#.......#.#.#.#.#.....#.#.#.#.........#.#.#.#...#.#.......#.#.#.#.....#...#.#.#.#.#.#.#.#.#...#.#.#.#.O.#.#.#...O.#...#.#.#.#.......#.#.#.#.#.#.....#.#.#.#.#...#...#.#.#.#.#.......#.#.#...#.#.#.#.#.#.....#.#.#.#...#.#.#.#.........#.#.#.#.............#.#.#.#...................P x P T T T Q Q Q Q Q Q T P D rX-.] Q T D aXh...Q T P <Xg.:.#.#.#.#.#.#.#.#.#.#.#.#.#.#.#.#.#.#.#.#.P S :XZ.5.-.#.#.#.#.#.#.#.#.#.#.#.#.#.#.#.#.#.#.#.#.T A Y Q Q J D T Q Q P D U T ! Q Q Q ! ! ! T T P N.[.J.............#.....#.#.#...#.#.#.#.#.#.#.#.#.......#.#.#.#.#.......#.#.#.#.#.......#.#.#.#.#.......#.#.#.#.#.#.#.#.#...O.#.#.#.O.#.#.O.#.O.O.#.#.#.#.#.#.O.O...#.#.#.#.#.#.#.#.#.#.#.O.O.#.#.#.#.#.#.#.#.#.#.....#.#.#.#.#.#.#.#.#.#.....#.#.#.#.#.#.#.#.#.#.....#.#.#.#.#.#.......#.................I C T T T ! Q Q Q Q T T T P #.dX9.Q Q T J }.rX2.Q Q U I dXQ.-.#.....#.#.#.#.#.#.#.#.#.#.Q T P H D D D C x 5XdX-Xu.#.*.,.5.#.#.#.#.#.#.#.#.#.#.#.#.#.#.#.#.#.#.#.#.#.#.#.#.#.",
"y 5.#.#.#.#.#.#.#.#.#.#.#.#.#.#.#.#.#.#.#.#.#.#.#.#.#.#...*.#.T T T T T T Q Q [ ..#.#.#.#.#.#.#.#.#.#.P S T Q Q J C T Q Q T C P U T ! Q Q Q Q Q T T P A x.f...........#.#.#...#...#.#.#.#.#.....#.#.#.#.........#.#.#.....#.#...#.#.#.#.#.#.....#...#.#.#.#.#.#.#.#.....#.#.#.#.O.#.#.....#.#...#.#.#.#.........#.#.#.#.#.......#.#.#.#.#.#.#.#.#.#.#.#.......#.#.#.#.#.#.#.#.#.#.......#.#.#.#.#.....#...........#.#.#.........#.............................P x P T T T ! Q Q Q Q ! T P D rX2.] Q T D aXh...Q T P <Xg.:.#.#.#.#.#.#.#.#.#.#.#.#.#.#.#.#.#.#.#.#.P D 5XU.6.-.#.#.#.#.#.#.#.#.#.#.#.#.#.#.#.#.#.#.#.#.T C Y ! Q J D T Q Q U D U T Q Q Q Q ! ! ! T T P N.[.J.............#...#.#.#.....#.#...#.#...#.#.#.O...O.O.#.#.#.#.....#.#.#.#.#.#.....#.#.#.#.#.#.......#.#.#.#.#.O.#.#.#...#.#.#.#.#.#.#.#.#.O.O.O.#.O.O.#.#.#.#.O.#.#.#.#.#.#.#.#.#.#.#.....#.#.#.#.#.#.#.#.#.......#.#.#.#.#.#.#.#.#.......#.#.#.#.#.#.#.#.#.......#.#.#.#.............................U C T T ! ! Q Q Q Q T T T P #.dX9.Q Q T J }.rX2.Q Q U I dXQ.-.#.....#.#.#.#.#.#.#.#.#.#.Q T P H D D D C x iXuX5Xu.#.*.-.5.#.#.#.#.#.#.#.#.#.#.#.#.#.#.#.#.#.#.#.#.#.#.#.#.#.",
"y 2.#.#.#.#.#.#.#.#.#.#.#.#.#.#.#.#.#.#.#.#.#.#.#.#.#.#.[ *.O.T T T T T T Q Q [ ..#.#.#.#.#.#.#.#.#.O.P A T ! Q J C Y ! Q T C P T T ! Q Q Q Q Q T T P A x.f.............#...........#.#.#.......#.#.#.......#.#.#.........#.#.#.#.#.............#.#.#.#.#.#.#.#.#.#.#.#.....#.#.#.#.....#.#.#.#.#.#.#.#.O.O.#.....#.....#.#.#.#.#.#.#.#.O.#.#.....#.#...#.#.#.#.#.#.....#.#.#.#.#.#.#.#...................#.#.#.#.#.#.........................................P x P T T T Q Q Q Q Q ! T P D wX2.Q Q T D aXh.{ Q T J qXg.:.#.#.#.#.#.#.#.#.#.#.#.#.#.#.#.#.#.#.#.#.P D `.^.6.-.#.#.#.#.#.#.#.#.#.#.#.#.#.#.#.#.#.#.#.#.T C Y Q Q J D T Q Q U D U T Q Q Q Q Q Q Q T ~ I N.[.H.............#.......#.......#...#.#...#.#.#...........#...#.#...#.#.#...#.#.#.#.....#.#.#.#.....#.#.........#.#.#.#...#.#.#.#.O.....#.........#.#.#.....#.#...#.#.#.#...#.#.#.#.........#.#.#.#.#...#.......#.#.#.#.#...#.#.#.#.#.#.......#.#.#.........#.#.#.#.#.#.#.#.......#.....................T C U T ! ! Q Q Q Q T T T P #.dX8.Q Q T J }.rX2.Q Q U I dXQ.-.#.#.#.#.#.#.#.#.#.#.#.#.#.Q T P J D D S C x aXsXuXf.#.*.,.5.#.#.#.#.#.#.#.#.#.#.#.#.#.#.#.#.#.#.#.#.#.#.#.#.#.",
"y 2.#.#.#.#.#.#.#.#.#.#.#.#.#.#.#.#.#.#.#.#.#.#.#.#.#.#.[ #...T T T T T T ! Q [ ..#.#.#.#.#.#.#.#.#.O.P S T ! Q J C Y Q Q T C P U T Q Q Q Q ! ! T T P A x.f.............#...#...#...#.#.........#.#.....#.#.#.#.....#.#.........#.#.#.#.........#.#.#.#...#.#...#.#.#.#...#.#.#.#.......#.#.#.#.#.#.#.#...#.#...#.#.....#.#.#.#.#.#.#.#.......#...#.#...#.#.#.#.#.#.#...#.#.#.#.#.#.#.#.....................#.#.#.#...........................................P x P T T Q Q Q Q Q Q Q T P S wX:.Q ! T D aXh.{ Q T J qXg.:.#.#.#.#.#.#.#.#.#.#.#.#.#.#.#.#.#.#.#.#.P D W.n.6.-.#.#...#.#.#.#.#.#.#.#.#.#.#.#.#.#.#.#.#.T C Y Q Q J D T Q Q U D U T Q Q Q Q Q Q Q T ~ I N.[.J.............#.......#.......#.#.#.#.#.#.#.#...............#.#.#.#.#.#...#.#.#.......#.#.#.#...#.#.#.#.......#.#.#.#.....#.#.#.#.....#.#.....#.#.#.#.....................#.#.#.#.........#.#.#.#.........#.#.#.#.#.#.....#.#.#.#...#.........#.#.#.#.....#.#.#.#.#.#.#.#.............................T C U T T ! Q Q Q Q T T T P #.dX8.Q Q T J }.rX2.Q Q T I aXQ.-...#.O.#.#.#.#.#.#.#.#.#.#.Q T P J D D D C x ;XdX;Xf.[ *.1.5.#.#.#.#.#.#.#.#.#.#.#.#.#.#.#.#.#.#.#.#.#.#.#.#.#.",
"y 2.#.#.#.#.#.#.#.#.#.#.#.#.#.#.#.#.#.#.#.#.#.#.#.#.#.#.[ #.O.T T T T T T Q Q [ ..#.#.#.#.#.#.#.#.#.#.P S T ! Q J C Y ! Q Q C P U T Q Q Q ! ! ! T T Y A x.f...#.#.#.#.#.#...#.#.#.#.#.#.#.#.......#.#.#.#.....#.#.#.........#.#.#.#.#...#.#.#.#.#.#...#.........#.#.#.#.....#.#.#.#.#.#.#...#.#.....#.#.#.#.#.#.#.#.....#.#.#.#.#.#.#.#.....#.#...#.#.#.#.#.#.#.#.#.........#.#.#.#.#.#.....#.#.#.#.#.#.........#.#.#...#.#.....#...#.#.........#.............P x P T T ! Q Q Q Q Q ! U P S rX:.Q ! T D aXh.{ Q T J <Xg.-.#.#.#.#.#.#.#.#.#.#.#.#.#.#.#.#.#.#.#.#.P D *XY.6.-.#.....#.#.#.#.#.#.#.#.#.#.#.#.#.#.#.#.#.T C Y Q Q J D T Q Q U D Y T Q Q Q Q Q ! ! T ~ I N.[.J.............#.......#.#.....#...#.#.....#.#...#.........#.#.#.#.#.#.#...#.#.#.#.....#.#.........#.#.#.#...#.#.#.#.#.#.#.#.#.#.#.........#.#.#.#.#.#.#.#.....#.#.#.#.#.#.#.#.#.#.....#.......#.#.#...#.#.#.#.#.#.#.#...#.................#.#.#.#.#.#.......#.....#...#.....#.#.#...#.................T C U T ! Q Q Q Q Q T T T P #.dX8.Q Q T J Q.rX2.Q Q T I aXQ.-.#...O.#.#.#.#.#.#.#.#.#.#.Q T P J D D D C x yXuX5Xx.#.*.-.5.#.#.#.#.#.#.#.#.#.#.#.#.#.#.#.#.#.#.#.#.#.#.#.#.#.",
"y 5.#.#.#.#.#.#.#.#.#.#.#.#.#.#.#.#.#.#.#.#.#.#.#.#.#.#...#.#.T T T T T T Q Q [ ..#.#.#.#.#.#.#.#.#.#.P C T ! Q J C Y ! Q Q C P U T Q Q Q ! ! ! T T Y A x.f.........#.#.#...#.#.#.#.#.#.#.#.........#.#.#.#.#.#.#...........#.#.#.#.#.#.#.#.#.#.#.#.............#.#.........#.#.#.#.#.#.....#.#.#...#.#.#.#.#.#.#.#...#.#.#.....#.#.#.......#.#.#.#.#.#.#.#.#.#.#.#.........#.#.....#.#.#...#.#.#.#.#.#.........#.#.#...#.#.....#.#.#.#.........#.#...........P x P T T T Q Q Q Q Q T U P S wX:.Q ! U D aXh.{ Q T J XXg.-.#.#.#.#.#.#.#.#.#.#.#.#.#.#.#.#.#.#.#.#.P D R.^.6.-.#.....#.#.#.#.#.#.#.#.#.#.#.#.#.#.#.#.#.T C Y Q Q J D T Q Q U D Y T Q Q Q Q Q ! T T ~ I N.[.J...................#.#.#.........#.#.....#.#.#.#.#.#.....#.#.#.#.#.#.....#.#.#.#.#...#.#.#.......#.#.#.#...#.#.#.#.#.#.#.#.#.#.#.....#.#.#.#.#.#.#.#.#.#.#...#.#.#.#.#.#.#.#.#.......O.#.O...#.#.#.#.#.#.#.#.#.#.#.......#.#.............#.#.#.#.#.#.....#.#.........#.....#...#...#.................T C U T ! Q Q Q Q Q T T T P &.dX8.Q Q T J Q.rX2.Q Q T I aXQ.-.#.....#.#.#.#.#.#.#.#.#.#.Q T P J D D D C x aXsX8Xx.#.*.-.5.#.#.#.#.#.#.#.#.#.#.#.#.#.#.#.#.#.#.#.#.#.#.#.#.#.",
"y 2.#.#.#.#.#.#.#.#.#.#.#.#.#.#.#.#.#.#.#.#.#.#.#.#.#.#.[ #.O.T T T T T T Q Q [ ..#.#.#.#.#.#.#.#.#.#.P C T Q Q J C Y ! Q Q N P U T Q Q Q Q Q ! T T P A x.f.........#.#.#.#...#.#...#...#.#.#.#.......#.#.#.#.#.#.#.........#.#.#.#.#.#.#.#.#.#.#.#.............#.......#.#.#.#.#.#.#.#.......#.#.#...#.#.#.#.#.#.#.#.#.........#.O.....#.#.#.#.#.#.#.#.....#.#.#.#.#.#.......#.....#.#.#.#.#.#.#.#.......#.#.#.#.#.#...#.#.#.#.#.#.#.#.#.#.#.#.#...#.........P x P T T T Q Q Q Q Q ! T P S rX2.Q ! U D aXh...Q T J  Xg.-.#.#.#.#.#.#.#.#.#.#.#.#.#.#.#.#.#.#.#.#.P D W.^.6.-.#.#.#.#.#.#.#.#.#.#.#.#.#.#.#.#.#.#.#.#.! C Y Q Q J D U Q Q U D Y T ! Q Q Q Q ! T T ~ I N.[.J.....................#...#.#.......#.........#.#.#.#...#.#.#.#.#.#.#...#.#.#.#.#.#...#...#.#.#.#...#.#.#.#.#.O.......#.#.....#.#.#.#.#.#.#.#...#.#.#.#.#.#.#.....#.#.#.#.#.#.#.#.#.#.#.#.#.#.....#.#.#.#...#.#.#.#...#.#.....#.#.#.#.#.#.#.#.....#.#...........#.#.#.......#.#.#.#.#.................T C U T ! Q Q Q Q Q T T T P &.dX8.Q Q ! J Q.rX2.Q Q T I aXQ.-.#.#.#.#.#.#.#.#.#.#.#.#.#.Q T P J D D D C x W.dXpXx.#.*.-.5.#.#.#.#.#.#.#.#.#.#.#.#.#.#.#.#.#.#.#.#.#.#.#.#.#.",
"y 2.#.#.#.#.#.#.#.#.#.#.#.#.#.#.#.#.#.#.#.#.#.#.#.#.#.#.[ #...T T T T T T ! Q [ ..#.#.#.#.#.#.#...#.O.P C T Q Q J C Y ! Q Q N P U T Q Q Q ! Q ! T T P A x.f.........#.#...#.....#.......#.#.#.#.......#.#.#.#.#.#.#.........#.#.#.#.#.#.#.#...#.#.#.#...#...................#.#.#.#.#.#.#.#...#.#.#.....#.#.#.#.#.#.#.#...#.....#...#.O.#.#.#.#.#.#.#.#.....#.#.#.#...#.#...#.#...#.#.#.#.#.#.#.#.#.....#.#.#.#.#.#.#...#.#.#.#.#.#.#.#.#.#.#.......#.........P x P T T T Q Q Q Q Q Q T P S rX1.Q ! T D aXh...Q T J  XM.-.#.#.#.#.#.#.#.#.#.#.#.#.#.#.#.#.#.#.#.#.P D *XJ.6.-.#.#.#.#.#.#.#.#.#.#.#.#.#.#.#.#.#.#.#.#.! C Y Q Q J D U Q Q U D Y T ! Q Q Q Q ! T T ~ I N.[.J.....................#...#.#.......#.....#.#.#.#.#.#.#.#.#.#.....#.#.#.#.#.#.#.#.#...#.#.#.O.....#.#.#.#.#.#.........#.#.#...#.#.#.#.#.#.#.#...#.#.#.#.#.#.#.....#.#.#.#.#.#.#.#.#.#.#.#.#.#.....#.#.#.#.....#.#.#.#.#.......#.#.#.#.#.#.#.#...#.#.#...........#.#.#.......#.#.#.#.#.................T A T U ! ! Q Q Q Q T T T P &.dX8.Q Q ! J Q.rX2.Q Q T I aXQ.-.#.#.#.#.#.#.#.#.#.#.#.#.#.Q T P J D D D C x 2XuX5Xx.[ *.,.5.#.#.#.#.#.#.#.#.#.#.#.#.#.#.#.#.#.#.#.#.#.#.#.#.#.",
"y 2.#.#.#.#.#.#.#.#.#.#.#.#.#.#.#.#.#.#.#.#.#.#.#.#.#.#.[ #.O.T T T T T T Q Q [ ..#.#.#.#.#.#.#.....#.P C Y Q Q J C Y ! Q Q N P U T Q Q Q Q Q Q T T P A x.f.....#.#...#.....#...#.#.........#.#.....#.#.#.#.....#.#.#.#...#.#.#.#.#.#.#.........#.#.#.#...#.#...#.#...#.......#...#.#.#.#.#.#.#.#.#...#.#.#...#.#.O.#...#.#.#.#.#.#.#.#.#.#.........#.#.....#.#.......#.#.....#.#.#.#.O.#.#.....#.......#.#.#.#.#.#.........#.#.....#.......#.......#.........P x P T T T Q Q Q Q Q Q T P S rX:.Q Q Y D aXh...Q T J  XV.-.#.#.#.#.#.#.#.#.#.#.#.#.#.#.#.#.#.#.#.#.P D L.U.6.-.#.#.#.#.#.#.#.#.#.#.#.#.#.#.#.#.#.#.#.#.T A Y Q Q J D U ! Q U D Y T ! Q Q Q ! ! ! T T I N.[.J.................................#.#.#.#.#.#.#.#.....#.#.#.#.........#.#.#.#.#.#.#.#.#...............#.#.#.#.....#.#.#.#.........#.#.#.#.........#.#.#.#.#.........#.#.#.#.......#.#.#.#.#.#.....#.#.#.......#.#.#.#.#.#.......#.#.#.#.#.....#.#.#.#.#.#.....#.#.#.#.......#.#.#.....................T A U U T ! Q Q Q Q T T T P &.dX8.Q Q ! J Q.rX2.Q ! U I aXQ.-...#.#.#.#.#.#.#.#.#.#.#.#.Q T P J D D D C x qXpX8Xx.#.*.-.5.#.#.#.#.#.#.#.#.#.#.#.#.#.#.#.#.#.#.#.#.#.#.#.#.#.",
"y 5.#.#.#.#.#.#.#.#.#.#.#.#.#.#.#.#.#.#.#.#.#.#.#.#.#.#...#.#.T T T T T T Q Q [ ..#.#.#.#.#.#.#.....#.P A T Q Q J C Y ! Q Q C P U T Q Q Q Q Q Q T T P S x.f.......................#...........#.......#.#.#.....#.#.#.#.#.#.#.#.#.#.............#.#.#.#.#.#.#.#.#.#.........#.#.#.#.#.#.#.#.#.#.#.#.#.#.#.#.....#.O.#...#.#.#.#.#...#...#.....#.....#.#.#.#.#.#.......#.#.....#.#.#.#.#.#.......#.#.....#.#.#.#.#.#...........#.....#.......#.#.#.#.#.........P x P T T T Q Q Q Q Q Q T P D rX2.Q Q T D aXh...Q T J  XV.-.#.#.#.#.#.#.#.#.#.#.#.#.#.#.#.#.#.#.#.#.P D W.U.6.-.#.#.#.#.#.#.#.#.#.#.#.#.#.#.#.#.#.#.#.#.! A Y Q Q J D U ! Q U D Y T ! ! Q Q ! ! ! T T I N.[.H.................................#...#.#.#.#.#.#.#...#.#.#.............#.#.#.#.#.#.#.#.........#.#...#.#...#...#.#.#.#.#.#.......#.#.#...........#.#.#.#.#.#.....#.#.#.#.#.......#.#.#.#.#.#.....#.#...#.....#.#.#.#.#.#.......#.#.#.#.......O.#.#.#.#.#...#.#.#.#.#.......#.#.#.....................T C T T ! ! Q Q Q Q T T T P &.dX8.Q Q ! J Q.rX2.Q Q T I aXQ.-...#.#.#.#.#.#.#.#.#.#.#.#.[ T P J D D D C x qXdXuXx.#.*.-.5.#.#.#.#.#.#.#.#.#.#.#.#.#.#.#.#.#.#.#.#.#.#.#.#.#.",
"y 2.#.#.#.#.#.#.#.#.#.#.#.#.#.#.#.#.#.#.#.#.#.#.#.#.#.#.[ #.O.T T T T T T Q Q [ ..#.#.#.#.#.#.#.......P A T Q Q J C Y Q Q Q C P U T Q Q Q Q ! T T T P S x.f...................#...#.........#.#.#.#.#.#.#.#.....#...#.#.#.#.....#.............#.#.#.#.#.#.#.#.#.#.#.........#.#.#.#.#.#.#...#.#.#.#.....#...#.#.#.#.#.#.....#.#.#.#.......#.#.#.#.#.#.....#.#.#.....#.#.#.........#.#.#.#.#.....#.#.#.#.........#.#.....#.#.#.#...#.#.#.#.#.#.#.#.#.#.........P x P T T T ! Q Q Q Q T U P D rX2.Q Q U D aXh...Q T P  XV.-.#.#.#.#.#.#.#.#.#.#.#.#.#.#.#.#.#.#.#.#.P D `.H.5.-.#.#.#.#.#.#.#.#.#.#.#.#.#.#.#.#.#.#.#.#.! A Y ! Q J D U ! Q U D Y T ! ! Q Q Q ! T T T I N.[.J...........................#.#.#.#...#.#.#.#.#.#.........#...#.#.#.#.#.#.#.#.#.#.#.#.#.#.......#.#...#...........#.#.#.#.#.#.......#.....#.#...#.#.#.#.#.#.#.#.......#.#.......#.#.#.#.#.#.#.....#.#...#.O...#.#.#.#.#.#.#.#.#.#.#...........#.#.#.#.#.#.#.#.#.#.#...........#.#.....................T C U T ! Q Q Q Q Q T T T P &.dX8.Q Q T J Q.rX2.Q ! U I aXQ.-.#.#...#.#.#.#.#.#.#.#.#.#.Q T P J D D D C x :XdX;Xm.#.*.-.5.#.#.#.#.#.#.#.#.#.#.#.#.#.#.#.#.#.#.#.#.#.#.#.#.#.",
"y 2.#.#.#.#.#.#.#.#.#.#.#.#.#.#.#.#.#.#.#.#.#.#.#.#.#.#.[ #...T T T T T T ! Q [ ..#.#.#.#.#.#.#.....#.P C Y Q Q J C Y Q Q Q C P U ! ! ! Q Q ! ! T T P S x.f...................#.#.#.........#.#.....#.#.#.#.....#.#.#.#.........................#.#.#.#.#.#.#.#.#.#.........#.#.#.#.#.#.....#.#.#.#...#.#...#.#.#.#.#.#.....#.#.#.#.......#.#.#.#.#.......#.#.#.#...#.#.#...........#.#.#.#.....#.#.#.#.........#.#.....#.#.#.#.....#.#.........#.#.#.........P x P T T T ! Q Q Q Q T U P D rX2.] Q U D aXh...Q T P  XV.-.#.#.#.#.#.#.#.#.#.#.#.#.#.#.#.#.#.#.#.#.P D *XU.5.-.#.#.#.#.#.#.#.#.#.#.#.#.#.#.#.#.#.#.#.#.! C Y ! Q J D U ! Q U D Y T ! Q Q Q ! ! T T T I N.[.J...........#.......#...#...#.#.#.#.#.#...#.#.#.#.........#.#.#.#.#.#.#.#.#.#...#.....#.#...#...O.....#.#.........#.#.#.#.#.#...#.#.#.....#.#.....#.#.#.#.#.#.#.......#.#.......#.#.#.#.#.#.#.....#.#.#.#.....#.#.#.#.#.#.#.#.#.#.................#.#.#.#.#.#.#.#.#.#.........#...#...................T C U U ! Q Q Q Q Q ! T T P *.dX8.Q ! T P Q.rX5.Q Q T I aXQ.-.#.....#.#.#.#.#.#.#.#.#.#.Q T P J D D D C x qXpX8Xm.[ *.,.5.#.#.#.#.#.#.#.#.#.#.#.#.#.#.#.#.#.#.#.#.#.#.#.#.#.",
"y 2.#.#.#.#.#.#.#.#.#.#.#.#.#.#.#.#.#.#.#.#.#.#.#.#.#.#.[ #...T T T T T T Q Q [ ..#.#.#.#.#.#.#.#.#.#.P C Y Q Q J C Y Q Q Q N J T Q Q Q Q Q Q Q T T P S v.f.....................#.#.#...#.#.#.#.........#.#.#.......#.#...#.....#.#.......#.#.#...#.#.#.#.#.O...#.#.#...#.#.#.#.#.#.#...........#.#...#.#.#.#.#.#.#.#.#...#...#.#...#.#.#.#.#.#.#.#.#.#...#.#.#.#.#.#.#.#.#.............#.#.#.......#.#...#.....#.......#.#.#.#.#...............#...#.........P x P T T T ! Q Q Q Q ! T P D aX1.] Q U D qXh...Q T P  XV.-.#.#.#.#.#.#.#.#.#.#.#.#.#.#.#.#.#.#.#.#.P D E.^.6.2.#...#.#.#.#.#.#.#.#.#.#.#.#.#.#.#.#.#.#.! C Y ! Q P D U Q Q U D Y T ! Q Q Q Q ! T T ~ I N.[.H...........#.....O.#.......#...#.............#.#...........#.........#.#.............#.#.#.#.#.#.#.#.#.#.#.#...#.#.#.....#.#.#.#.#.#.#.#.#.#.......#.O...#.#.#.#.....#.#...#.#.#.#.#.#.#.#.#.#...#.#.#.#.....#.#.#.#.........#.#.#.#.#.#.#.#.............#.#.#.#.#.#.#.#.........#.#.................T C U T ! Q Q Q Q Q ! T T P *.dX8.Q ! T P Q.rX5.Q Q T I aX}.2...#.#.#.#.#.#.#.#.#.#.#.#.] T P J D D D C x qXsXuXm.#.*.-.8.#.#.#.#.#.#.#.#.#.#.#.#.#.#.#.#.#.#.#.#.#.#.#.#.#.",
"y 5.#.#.#.#.#.#.#.#.#.#.#.#.#.#.#.#.#.#.#.#.#.#.#.#.#.#.[ #.O.T T T T T T Q Q [ ..#.#.#.#.#.#.#.#.#.#.P C Y Q Q J C Y ! Q Q C J T ! Q Q Q Q Q Q T T P S v.f.....................#.#.....#.#.#.#.........#.#.........#.#.#.#.#.#.#.#.......#...#...#.#.#.#.#.....#.#...#.#.#.#.#.#.#.#.........#.#.#.....#.#.#.#.#.#.#.#...#...#.#.#.#.#.#.#.#.#.#.#.#.#...#.#.#.#.#.#.#.#.#.#...........#.#.#.......#.#.#.#.#.#...........#.#.#.................#...#.........P x P T T T Q Q Q Q Q Q T P D aX1.] Q T D qXh...Q T P  XQ.-.#.#.#.#.#.#.#.#.#.#.#.#.#.#.#.#.#.#.#.#.P D W.n.6.2.#...#.#.#.#.#.#.#.#.#.#.#.#.#.#.#.#.#.#.! C Y ! Q P D U Q Q U D Y T ! Q Q Q Q ! T T ~ I N.[.U...........#.#...#.#.#...#.#.................#.#.........#.#.........#.#.............#.#.#.#.#.#.#.#.#.#.#.#...#.#.#.........#.#.#.#.#.#.#.#.......#.#...#.#.#.#.....#.#...#.#.#.#.#.#.#.#.#.#...#.#.#.#.....#.#.#...#.......#.#.#.#.#.#.#.#...............#.#.#.#.#.#.#.....#.#.#.#.................U C U T T Q Q Q Q Q ! T T P *.dX8.Q Q ! P Q.rX5.Q Q T I aX}.2...#.#.#.#.#.#.#.#.#.#.#.#.[ T P J D D D C x =XdX:Xm.#.*.-.8.#.#.#.#.#.#.#.#.#.#.#.#.#.#.#.#.#.#.#.#.#.#.#.#.#.",
"y 2.#.#.#.#.#.#.#.#.#.#.#.#.#.#.#.#.#.#.#.#.#.#.#.#.#.#.[ #...T T T T T T Q Q [ ..#.#.#.#.#.#.#.#.#...P C T Q Q J C Y Q Q Q C J T T Q Q Q Q Q Q T T Y S v.f...................#.#.#.#.#.#.......#.#.#...................#.#.#.#.#.#.......#.#.#.....#.#.#.#.....#.#.#.#.#...............#.#.....#.#.#.#.............#.#.#.#.#.#.....#.#.#.............#.#.#.#.#.#.#.#.#.#.#.#.#.#.#.#.#.......#.........#.#.#.#.....#.#.........#.#.#...#.......O.#.O.........Y x P T T T ! Q Q Q Q ! T I D aX1.] Q T D qXh...Q T P  XQ.-.#.#.#.#.#.#.#.#.#.#.#.#.#.#.#.#.#.#.#.#.P D *XU.6.2.#.#.#.#.#.#.#.#.#.#.#.#.#.#.#.#.#.#.#.#.! C Y Q Q P D U Q Q U S Y T Q Q Q ! ! ! ! T T I N.[.U...........#...#.#.#...........#.#.#.#.#.#.....................#.#.#.................#.#.#.#.#.#.#.#.......#.#.#.#.....#.#.......#.#.#.#...#.#.#...#.........#.#.#...#.#.#.#.#.#.#.........#.#.#.#.#.#.#.#.#.............#.#.#.#.#.#.#.#.....#.#.#.......#.#.#.#.....#.#...........#.................T C Y T ! ! Q Q Q Q Q T T P &.dXf.Q Q ! P Q.aX5.Q Q T I aX}.:...#.#.#.#.#.#.#.#.#.#.#.#.] T P J D D D C x <XuX7Xm.#.*.-.8.#.#.#.#.#.#.#.#.#.#.#.#.#.#.#.#.#.#.#.#.#.#.#.#.#.",
"y 2.#.#.#.#.#.#.#.#.#.#.#.#.#.#.#.#.#.#.#.#.#.#.#.#.#.#.[ #...T T T T T T ! Q [ ..#.#.#.#.#.#.#...#...P A T Q Q J C Y Q Q Q C P U T Q Q Q Q Q ! T T Y S m.f...................#.#.#.#.#.#.#.....#.#.#.#.......#.....#.#.#.#.#.#.#.#.....#...#.#.....#.#.#.#.....#.#.#.#.#.#.............#.#.#.#...#.#.#.#.#.....#.....#.#.#.#.#...#.#.#.#.............#.#.#.#.#.#.#.#.#.#.#.#.#.#.#.#.#.......#.....#.#.#.#.#.#.....#.#.........#.#.#.#.#.........O...........Y x P T T T ! Q Q Q Q T T P D aX1.Q Q T D qXh...Q T P  XQ.-.#.#.#.#.#.#.#.#.#.#.#.#.#.#.#.#.#.#.#.#.P D L.^.6.2.#.#.#.#.#.#.#.#.#.#.#.#.#.#.#.#.#.#.#.#.! C Y ! Q P D U Q Q U S Y T Q Q Q Q Q ! ! T T I N.[.U...............#...#.............#.#.#.#.#.......................#.#.#.#.....#.......#.#.#.#.#.#...#.....#.#.#.#.#...#.#.#.#.....#.#.#.#.....#.#.#.#.....#...#.#.#.#.....#.#.#.#.#.......#.#.#.#.#.#.#.#.#.#.........#...#.#.........#.#.....#.#.#.#.....#.#.#.#.....#.#...........#.................T C P Y T T Q Q Q Q Q T T P Z dXf.Q Q ! P Q.aX5.Q ! T I aX}.:...#.#.#.#.#.#.#.#.#.#.#.#.Q T P J D D D C x qXsXuXm.[ *.,.8.#.#.#.#.#.#.#.#.#.#.#.#.#.#.#.#.#.#.#.#.#.#.#.#.#.",
"y 2.#.#.#.#.#.#.#.#.#.#.#.#.#.#.#.#.#.#.#.#.#.#.#.#.#.#.[ #...T T T T T T Q Q [ ..#.#.#.#.#.#.#.......P A T Q Q J C U ! Q Q C P U T Q Q Q Q ! ! T T P S m.f.....................#...#.#.#.......#.#.#.#.....#.#.#.#.#.#.#.#.....#.#.#...#.#.#.#.......#.#.#.....#.#.#.#.#...........#.#.#.#.#.#.....#.#.#.#...O.#...#.#.#.#.........#.#.#.#.........#.#.#.#.....#.#.#.#.....#.#.#.#.#.#.....#.#.#.#...#.#.#.........#.#.#.#...........#.....#.................Y x P T T T Q Q ! Q Q ! T Y S aX-.Q Q T D qXh...Q T P  XQ.-.#.#.#.#.#.#.#.#.#.#.#.#.#.#.#.#.#.#.#.#.P D W.n.6.2.#.#.#.#.#.#.#.#.#.#.#.#.#.#.#.#.#.#.#.#.! C Y ! Q P D U ! Q U D Y T ! Q Q Q Q Q ! T T I B.[.U.....#.#...#.#.#...#.........#.#.#.#.#.#.#.#.....#.#...#.....#.#.#.#.#.#.#.#.#.#.....#.#...#.............#.#.#.#.....#.#.#.#.......#.........#.#.#.#.#.#.#.#.#.#.#.#.....#.#.#.#.#.........#.#.#...#.........#.#.#.#.#.#.#.#.................#.#.#.#...#.#.#.#.......#.#.#.....#.#...................T C P U ! Q Q Q Q Q Q T T P Z dXg.Q Q ! P Q.aX5.Q ! ~ I aX}.-...#.O.#.#.#.#.#.#.#.#.#.#.[ T P J D D D C x `.dXpXc.[ *.-.8.#.#.#.#.#.#.#.#.#.#.#.#.#.#.#.#.#.#.#.#.#.#.#.#.#.",
"y 5.#.#.#.#.#.#.#.#.#.#.#.#.#.#.#.#.#.#.#.#.#.#.#.#.#.#.[ #...T T T T T T Q Q [ ..#.#.#.#.#.#.#.......P C T Q Q J C Y ! Q Q C P U T ! Q Q Q ! T T T P S m.f...........................#.#.......#.#.#.#.....#.#.#.#.#.#.#.#...O.#.#.#.#.#...#.#.....#.#.#.#.#.#.....#.#.#.......#.#.#.#.#.#.#.#.....#.#.#.#.#...#...#.#.#.#.........#.#.#.#.#.#.#.#.#.#.#.#.....#.#.#...........#.#.#.......#.#.#.#...#.#.#.#.......#.#.#.#.#.#.#.#.#.#.....#.#.....#.........Y x P T T T Q Q Q Q Q Q T P S aX-.Q Q T D qXh...Q T P  XQ.-.#.#.#.#.#.#.#.#.#.#.#.#.#.#.#.#.#.#.#.#.P D *XJ.6.2.#.#.#.#.#.#.#.#.#.#.#.#.#.#.#.#.#.#.#.#.! C Y ! Q P Z U ! Q U D Y T ! Q Q Q Q Q Q T T I N.[.U...........#.#.#.............#.#.#.#.#.#.#.#.#...#.#.#.#.#.#.#.#.#.#.#.#.#.#.#.#...#.#.#.#.#...........#.#.#.#.#.....#.#.#.#.......#.......#.#.#.#.#.#.#.#.#.#.#.#.#.....#.#.#.#.#.#.......#.#.#.........#.O.#.#.#.#.#.#.#.#.....#...#.#.....#.#.#.#...#.#.#.........#.#.#.....#.#...................T C P T ! Q Q Q Q Q Q T T P Z dXg.Q Q ! P Q.aX5.Q ! T I aX}.-...#.#.#.#.#.#.#.#.#.#.#.#.[ T P J D D D C x <XuX5Xc.#.*.-.8.#.#.#.#.#.#.#.#.#.#.#.#.#.#.#.#.#.#.#.#.#.#.#.#.#.",
"y 2.#.#.#.#.#.#.#.#.#.#.#.#.#.#.#.#.#.#.#.#.#.#.#.#.#.#.[ #...T T T T T T Q Q [ ..#.#.#.#.#.#.#.#.#.#.P C T Q Q J C Y ! Q Q N P U T Q Q Q ! ! T T T P S v.f.............#.#.#.#.#.#.......#.#.#.............#.#.#.........#...#.#.#.....#.#.#.#.#.#.#.#.....#.#.#...........#.#.#.#...O.#.#.....#.......#.#.#.......#.#.#.#.......#.#.#.#.#.#.#.#.#.#.#.#.#.#.#...#.#.#.#.#.#.......#.#.#.#.#.#.#.#...#.#.#.#.#.............#.#.#.#.........#.#.#.#...........Y x P T T T Q Q Q Q Q Q T P S aX-.Q Q T D qXh...Q T P XXQ.-.#.#.#.#.#.#.#.#.#.#.#.#.#.#.#.#.#.#.#.#.Y D L.].6.2.#.#.#.#.#.#.#.#.#.#.#.#.#.#.#.#.#.#.#.O.! C Y ! Q P S U Q Q U D Y T Q Q Q Q ! ! ! T ~ I Q.[.T.........#.#.#.#.....#.#.#.#.#.#.......#.#.#.#.#.#.#.#.#.#.#.#.#...#.O...#.#.#.#.#.#.............#.#.#.#.#.#.#.#.#.......#.#.#.........#...#.#.#.#.O.#.#.#.#.#...#.#.#.#.#.#...................#.#.#.....#.#.#.#.#.#.#.#.#.#.....#.#.#.#.....#.#.#.#.#.#.#.#...#.#.#.........#.#.....................Q C Y U T T Q Q Q Q Q T T P S dXf.Q Q ! P Q.aX5.Q ! T I aX}.,.#.#.#.#.#.#.#.#.#.#.#.#.#.[ T P J D D D C x qXpX8Xc.#.*.-.8.#.#.#.#.#.#.#.#.#.#.#.#.#.#.#.#.#.#.#.#.#.#.#.#.#.",
"y 2.#.#.#.#.#.#.#.#.#.#.#.#.#.#.#.#.#.#.#.#.#.#.#.#.#.#.[ #...T T T T T T ! Q [ ..#.#.#.#.#.#.#.#.#.#.P C Y Q Q J C Y ! Q Q N J U T ! Q Q ! ! ! T T P S v.f...........#.#...#.#.#.#.......#.#.#.........#.#.#.#.........#.#.....#.#.....#.#.#...#.#.#.#.....#.#.#...........#.#.#.#...#.#.O...#.#.......#.#.#.#.....#.#.#.#.........#.#.#...#.#.#.#.#.#.#.#.#.#.....#.#.#.#.#.......#.#.#.#.#.#.#.#.....#.#.#.#...#.........#.#...#.....#.....#.#.............Y x P T T T Q Q Q Q Q Q T P D aX-.Q Q T D qXh...Q T P XXQ.-.#.#.#.#.#.#.#.#.#.#.#.#.#.#.#.#.#.#.#.#.P D W.{.6.2.#.#.#.#.#.#.#.#.#.#.#.#.#.#.#.#.#.#.#.O.! C Y ! Q P S U Q Q U D Y T Q Q Q ! ! ! ! T ~ I Q.[.U...........................#.#.#.....#.#.#.#.#.#.#.#.#.#.#.#.#.#.#.#.#...#.#.#.#...#.#.#.........#.#.#.#.#.#.#.#.......#.#.#.#.......#.#.#.#.#.#.#.O.#.#...#.#...#.#.#.#.#.#.....#...........#.#.#.#.....#.#.#.O.#.#.#.#.#.#.....#...#.......#.#.#.#.#.#.#.....#.#.#.......#.#.#.....................Q C Y T T Q Q Q Q Q T T T J S dXf.Q Q ! P Q.aX5.Q ! T I qX}.-.#.#.#.#.#.#.#.#.#.#.#.#.#.] T P J D D D C x W.dXpXm.[ *.-.8.#.#.#.#.#.#.#.#.#.#.#.#.#.#.#.#.#.#.#.#.#.#.#.#.#.",
"y 2.#.#.#.#.#.#.#.#.#.#.#.#.#.#.#.#.#.#.#.#.#.#.#.#.#.#.[ #...T T T T T T Q Q [ ..#.#.#.#.#.#.#.#.#.#.P C P Q Q J C Y ! Q Q N J U T Q Q Q Q ! ! T T P S m.f...................#.#.........#.#.#.#...#.#.#.#.#.#.#.#.....#.#.#.#...#.#.#.#.#.....#.#.#.#.#.#.#.#.#.#.........#.#.#.#.#.#.#.#.O.#.#.O.#.#.#.#.#.#.#.#.....#...#.#.#.#.#.#.........#.#.......#.#.#.........#.#.#...#.#.#.#...#.....#.........#.#.#.#.#.#.#.#.#.#.#.....#...#.#...#.#.............Y x P T T ! Q Q Q Q Q Q T P D qX-.Q Q T D qXh...Q T P XXQ.-.#.#.#.#.#.#.#.#.#.#.#.#.#.#.#.#.#.#.#.#.P D `.T.5.2.#.#.#.#.#.#.#.#.#.#.#.#.#.#.#.#.#.#.#.#.Q C Y ! Q P D U Q Q U D Y T Q ! ! ! ! ! ! T T I M.[.T.......................#...#.....#...#.#.#.#.#.#.........#.#.#.#.#.#.#.....#.........#.#.#.#...#.#.#.........#.#.#.#.....#.#.#.#.....#.#...#.#.#.#.#.#.#...........#.#.#.#.#.#.#.#.#.....#.#.#.#.#.#.#.#.............#...#.#.........#.#.....#.#.#.#.#.#.........#.#.....#.#.#.#.....................Q C Y T T Q Q Q Q Q ! T T P S dXg.Q Q ! P Q.aX5.Q ! ~ I qX}.,.#.#.#.#.#.#.#.#.#.#.#.#.#.[ T P J D D D C x 2XdX5Xm.#.*.-.8.#.#.#.#.#.#.#.#.#.#.#.#.#.#.#.#.#.#.#.#.#.#.#.#.#.",
"y 5.#.#.#.#.#.#.#.#.#.#.#.#.#.#.#.#.#.#.#.#.#.#.#.#.#.#.[ #...T T T T T T Q Q [ ..#.#.#.#.#.#.#.#.#.#.P C P Q Q I C Y ! Q Q C P U T Q Q Q Q ! ! T T P S m.f.....................#...........#.#.#.#.#.#.#.#.#.#...#.....#.#.#.#.....#.#.#.#.....#.#.........#.#.#.#.#.#.....#.#.#.#.#.#.#.#.#.#...#.#.#.#.#.#.#.#.#.#...#.#.#.#.#.#.#.#.........#.#...........#.........#.#.#...#.#.#.#...................#.#.#.#.#.#.#.#.#.........#...#.#.....#.............Y x P T T ! Q Q ! ! ! T T P D tX-.Q Q T D qXM...Q T P  XQ.-.#.#.#.#.#.#.#.#.#.#.#.#.#.#.#.#.#.#.#.#.P D L.{.5.2.#.#.#.#.#.#.#.#.#.#.#.#.#.#.#.#.#.#.#.#.! C Y ! Q P D U Q Q U D Y T Q Q ! Q ! ! ! T T I M.[.U.....................#.#...#...#.....#.#.#.#.#...........#.#.#.#.#.......#.#.........#.#.#.#.#.#.#.#.........#.#.#.#.....#.#.#.#.....#.#...#.#.#.#.#.#.#...........#.#.#.#.#.#.#.#.#.#.#.#.#.#.#.#.#.#...#.#.............#.#.#.#.#.#.#.#.........#...#.#.........#.#.....#.#.#.#...#.#.#.#.#.........Q C Y T T ! Q Q Q Q Q T T P S dXf.Q Q ! P M.aX5.Q Q ~ I qX'.,.#.#.#.#.#.#.#.#.#.#.#.#.#.[ ! P J D D D C x qXpX8Xm.#.*.-.8.#.#.#.#.#.#.#.#.#.#.#.#.#.#.#.#.#.#.#.#.#.#.#.#.#.",
"y 2.#.#.#.#.#.#.#.#.#.#.#.#.#.#.#.#.#.#.#.#.#.#.#.#.#.#.[ #...T T T T T T Q Q [ ..#.#.#.#.#.#.#.......P C U ! Q I C Y ! Q Q C P U T ! Q Q Q Q ! T T P S m.f.........................#.#.........#.#.#.#.#.#.#.#.#...#.#...#.#.#.#.#.#.#.................#.#.#.#.#.#.........#.#.#.#.#.#.#.#.#.#.#.#.#.#...#.#.#.#.#.........#.#.#.#...#.#.#.#...#.#.#.....#.#.#.#.#.#.#.#.#.#.#.#.#.#.#.#.#.........#.#.........#.#.#.#.#.#.#.....#.#.#.#.....................Y x P T T T ! Q Q Q Q T T Y D tX:.Q Q T D qXM...Q T P  XQ.-.#.#.#.#.#.#.#.#.#.#.#.#.#.#.#.#.#.#.#.#.P D W.{.6.2.#.#.#.#.#.#.#.#.#.#.#.#.#.#.#.#.#.#.#.#.! C Y ! Q P D U ! Q U D Y T ! ! ! ! ! ! ! T T I M.[.U.....................#.#.....#.#.#.#.....#.#.#.#.........#.#.#.#...............#.#.#...#.#.#.#.#.#.#...#.#.#.#.#.#.#.....#.#.#.#.#...#.....#...#.#.#.#.#...#.#...#.#.#.#.#.#.#.#.#...#.#.#.#.#.#.#.#.#.#.........#.#.....#.#.#.#.#.#.#.#.#.#.......#.#.#.......#.#.#...#.#.#...#.....#...#...........Q C Y U T ! T Q Q Q T T T P S dXf.Q Q ! P M.aX5.Q ! T I qX}.,.#.#.#.#.#.#.#.#.#.#.#.#.#.[ T P J D D D C x qXsXuXn.#.*.,.8.#.#.#.#.#.#.#.#.#.#.#.#.#.#.#.#.#.#.#.#.#.#.#.#.#.",
"y 2.#.#.#.#.#.#.#.#.#.#.#.#.#.#.#.#.#.#.#.#.#.#.#.#.#.#.[ #...T T T T T T T Q [ ..#.#.#.#.#.#.#.......P C U ! Q I C Y ! Q Q C P U T ! Q Q Q Q ! T T P S m.f...........#.....#...#.....#.........#.#.#.#.#.#.#.#.#...........#.#.#.#.#.#.#.#.............#.#.#.#.#.#.........#.#.#.#.#.#.#.#.#.#.#.#.#.#.#.#.#.#.#.#.........#.#...#.#...#.#.#.#.#.#.#.....#.#.#.#.#.#.#.#.#.#.#...#.....#.#...#.....#.#.............#.#.#.#.#.....#...#.....#.................Y x P T T T Q Q Q Q Q ! T U D tX:.Q Q T D qXM...T T P  XQ.-.#.#.#.#.#.#.#.#.#.#.#.#.#.#.#.#.#.#.#.#.P D `.U.6.2.#.#.#.#.#.#.#.#.#.#.#.#.#.#.#.#.#.#.#.#.Q A Y T Q P D U ! Q T D Y T ! ! ! ! ! ! ! T T I M.[.U.....................#.#.#...#.#.#.#.....#.#.#.#.........#.#.#.#.....#.......#.#.#.#.....#.#.#.#.#.#.#.#.#.#.#.#.........#.#.#.#.#.#.#.#...#...O.#.#.#.#...#.#...#.#.#.#.#.#.#.#.....#...#.#.#.#.#.#.#.#.....#.#.#.#.....#.#.#.#.#.#.#.#.#.#.......#.#.#.........#.#.#.#.#.#.#.#.....................Q C P T T ! Q Q Q Q T T T P S dXf.Q Q ! P M.aX5.Q Q T I qX'.,.#.#.#.#.#.#.#.#.#.#.#.#.#.[ T P J D D D C x E.dX,Xn.[ *.-.8.#.#.#.#.#.#.#.#.#.#.#.#.#.#.#.#.#.#.#.#.#.#.#.#.#.",
"y 2.#.#.#.#.#.#.#.#.#.#.#.#.#.#.#.#.#.#.#.#.#.#.#.#.#.#.[ #...T T T T T T Q Q [ ..#.#.#.#.#.#.#.#.#...P C U ! Q I C Y Q Q Q C J U T Q Q Q Q Q Q T T P S m.f...........#.....#.#.#.#.#.#.#...#.#.........#...#.#.#.#.#.#.......#.#...#.#.#.#.#.#.#.#.............#.#.#.....#.#.#.#.#.#.#.......O.#.#.........#.#.#.#.#.....#.#.#...#.#...#.#.#.#.#.#.....#.#.#.#.#.#.#...#.#.#.#.........#.#.#.#.....#.#.#.#...#.........#.#.#.#.#.#.....#...#.................Y x P T T T Q Q Q Q Q ! T P D qX-.Q Q T D qXM...Q T P  XQ.-.#.#.#.#.#.#.#.#.#.#.#.#.#.#.#.#.#.#.#.#.P D =X`.6.2.......#.#.#.#.#.#.#.#.#.#.#.#.#.#.#.#.#.Q A Y T Q P D U ! Q T D Y T Q Q Q Q Q ! T T T Y M.[.U.............................#...#.#.......#.#.#.#.....#.#.#.#.......#.#.....#.#.#.#.........#.#.#.#.#.#.#.#.O.......#.#.#.#.#.#.#.#.......#.#.#.#.#.#.#.#.#.#.#.#.#.#.#.#.#.#.......O.#.....#.#.#.#...#.#...#.#.#.#.#.#.#.#.#.#.............#...#.#.................#.#.#.#.#.#.#.....#.............Q C Y T T ! Q Q Q Q Q T T P S dXf.Q Q ! P M.aX5.Q Q T I qX'.,.......#.#.#.#.#.#.#.#.#.#.[ T P J D D D C x }.uX8Xn.#.*.-.8.#.#.#.#.#.#.#.#.#.#.#.#.#.#.#.#.#.#.#.#.#.#.#.#.#.",
"y 5.#.#.#.#.#.#.#.#.#.#.#.#.#.#.#.#.#.#.#.#.#.#.#.#.#.#.[ #...T T T T T T Q Q [ ..#.#.#.#.#.#.#.#.#.#.P C Y ! Q I C Y Q Q Q C J U T Q Q Q Q Q ! T T Y S m.f.............#.....#.....#.#.....#.#.............#.#.#.#.#.#.....#.#...#.#.#.#.#.#.#.#.#.#...........#.#.#...#.#.#.#.#.#.......#.#...#.#.........#.#.#.#.#.....#.#.#...#.#...#.#.#.#.#.#.....#.#.#.#.#.#.#.......#.#.........#.#.#.#.....#.#.#.#.#.#.............#.#.....#...#...#.................Y x P T T T Q Q Q Q Q ! T P D qX-.Q Q T D qXM...Q ! P  XQ.-.#.#.#.#.#.#.#.#.#.#.#.#.#.#.#.#.#.#.#.#.P H W. X6.2.......#.#.#.#.#.#.#.#.#.#.#.#.#.#.#.#.#.Q C Y T Q P D U ! Q T D P T Q Q Q Q Q ! T T T Y M.[.U.................................#.#.........#.#.#.......#.#.#.......#.#.....#.#.#.#.#.......#.#.#...#.#.#.#.........#.#.#.#.#.#.#.#.......#.#.#.#.#.#.#.#.#.#.#.#.#.#.#.#.#.#.#.....O.#.#...#...#.#.#.#.....#.#.#.#.#.#.#.#.#.#.#...........#.#.#.#.................#.#.#.#.#.#.#.....#.............Q C Y T T ! Q Q Q Q ! T T P S dXf.Q Q ! P M.aX5.Q Q T I qX'.,.......#.#.#.#.#.#.#.#.#.#.[ Q P J D D D C M }.sXuXn.#.*.-.8.#.#.#.#.#.#.#.#.#.#.#.#.#.#.#.#.#.#.#.#.#.#.#.#.#.",
"y 2.#.#.#.#.#.#.#.#.#.#.#.#.#.#.#.#.#.#.#.#.#.#.#.#.#.#.[ #...T T T T T T Q Q [ ..#.#.#.#.#.#.#.#.#...P C I T Q I N Y T Q Q C P U T Q Q Q Q Q ! T T P S m.f...........................#.....#.#.#.#.#.#.#.#.#.#.........#.#.#.......#.#.#.#.#.#.......#.#.#...........#.#.#.#...#...#.#.#.#.#.#.#.#.#.#.#.#.#.#.........#.#.#.#.#.#.#.#.........#.#.......#.#.#...#.#.#...#...#.#.#.#.#.......#...#.#.#.#.#.#.#.#.#.#.#.......#.........#.....................Y x P T T T ! Q Q Q Q ! T P D qX-.Q Q T D qXM...Q ! P XXQ.-.#.#.#.#.#.#.#.#.#.#.#.#.#.#.#.#.#.#.#.#.P J `.J.6.2.#.#.#.#.#.#.#.#.#.#.#.#.#.#.#.#.#.#.#.#.Q C Y T Q P D U Q Q T D P U ! Q Q Q Q Q ! T T Y M.[.U.............#.#...#.#.#.#.#.#.#.#.#.........#.#.#...#.#.#.#.....#.#.#.#.............#.#.#.#.#.#.........#.#.#.....#.#.#.#.#.#.#.#.#.#.#.........#.#.#.#.......#.#.#.#.#.#...#.#.#.#.#.#.#.#.#.#...#...#.#.#.........#.#.#.#.#.#.#.#.#.#.#.......#.#.#.#.#.................#.....#.#.#...............Q C P T ! Q Q Q Q Q Q T T P S dXf.Q Q ! P M.aX5.Q Q T I qX'.-...#.#.#.#.#.#.#.#.#.#.#.#.[ T P J D D D C x W.dX-Xn.O.*.-.8.#.#.#.#.#.#.#.#.#.#.#.#.#.#.#.#.#.#.#.#.#.#.#.#.#.",
"; 2.#.#.#.#.#.#.#.#.#.#.#.#.#.#.#.#.#.#.#.#.#.#.#.#.#.#...#.O.T T T T T T T Q [ ..#.#.#.#.#.#.#.#.#...P C Y Q Q I N Y ! Q Q C P U T Q Q Q Q ! ! T T P S m.f...................#.........#.#.#.#.#.#.#.#...#...........#.#.#.#.......#.#.#.#.#.#.#.O...#.#.#...#.......#.#.#.#...#.#.....#.#.#.#.#.#.#.#.....#...#...#...#.#.#.#.#.#.#.#.........#.#...#.#.#.#.#.#.#.#.#.#.#.....#.#.#.#.#.....#.....#.#.#...#.#.#.#...#...#.......#.#.#.#.#...................Y x P T T T ! Q Q Q Q ! T I D qX-.Q Q T D qXM...Q ! P XXQ.-.#.#.#.#.#.#.#.#.#.#.#.#.#.#.#.#.#.#.#.#.P J =X_.6.2.#.#...#.#.#.#.#.#.#.#.#.#.#.#.#.#.#.#.#.Q C Y T Q P D U ! Q T D P U ! Q Q Q ! Q T T T Y M.[.U.............#.....#.#...#.#.#.............#.#.#.#...#.#.#.#.......#.#.#.........#...#.#.#.#.#.#.........#.#.#.....#...#...#.#.#.#.#...#.......#.#.#.#.#.#.....#.#.#.#.#.#...#.#.#.#.#...#.#.#.#.....#.#.#.#.#.........#.....#.#.#.#.#.#.........#.#.#.#.#.#...............#.....#...#.....#.........Q C P T T Q Q Q Q Q Q T T P S dXf.Q Q ! P M.aX5.Q ! T I qX'.-...#...#.#.#.#.#.#.#.#.#.#.[ T P J D D D C x ].uX8XF.[ *.-.7.#.#.#.#.#.#.#.#.#.#.#.#.#.#.#.#.#.#.#.#.#.#.#.#.#.",
": 2.#.#.#.#.#.#.#.#.#.#.#.#.#.#.#.#.#.#.#.#.#.#.#.#.#.#...*.#.T T T T T T ! Q [ ..#.#.#.#.#.#.#.#.#.O.P C T Q Q P C Y Q Q Q C P U T Q Q Q ! ! ! T T P S m.f...........#...#.#.#.#.#.......#.#.#.#.#.................#.#.#.#...........#.........#.O...#.#.#.#.#.....#.#.#.#.#...#.#.........#.#.#.#.#...........#.#.#...#.#.#.#.#.#.#.#.#.O.#...#.....#.#.#.#.#.#.#.#.#.#.......#.#.#.#.#...#.#.#.#.#.#.................#.#.#.....#.#.#.#.#...................U x P T T T Q Q Q Q Q ! T I D qX2.Q Q T D qXM...Q ! P XXQ.-.#.#.#.#.#.#.#.#.#.#.#.#.#.#.#.#.#.#.#.#.P J F.].6.2.#.....#.#.#.#.#.#.#.#.#.#.#.#.#.#.#.#.#.Q C Y T Q P D U ! Q T D P T Q Q Q Q Q ! T T T Y M.[.U.............#...#.#.#...#.....#.........#.#.#.#.....#.#.#.#.....#.#.#.#.#.#.#.#.#.#.#.........#.O.......#.#.#.#.................#.#.#.#.#.#...#.#.#...#.#...#.#...#.#.#.....#.#.#.#.........#.#.....#.#.#.#.#.#.................#.#.#.#.#.#.....#.#.#.#.#.#.#.#.........#.#.............#.#.#.......Q C P U T Q Q Q Q Q ! T U J S dXf.Q Q ! P M.aX5...Q T I qX}.2.#.....#.#.#.#.#.#.#.#.#.#.[ T P J D D D C x }.pX8XF.O.*.-.8.*.#.#.#.#.#.#.#.#.#.#.#.#.#.#.#.#.#.#.#.#.#.#.#.#.",
": 5.#.#.#.#.#.#.#.#.#.#.#.#.#.#.#.#.#.#.#.#.#.#.#.#.#.#.#.*.#.T T T T T T Q Q [ ..#.#.#.#.#.#.#.#.#...Y C T Q Q I C Y ! Q Q C P U T Q Q Q ! ! ! T T P S m.f.............#.#.#.#.#.........#.#.#.#.#.................#.#.#.#.........#.#...............#.#.#.#.#.....#.#.#.#...............#.#.#.#.#.#.........#.#.#.O.#.#.#.O.#.#...#.#.#.#.#.#.#.......#.#.#.#.......#.#.........#.#...#...#.#.#.#.#.#.......................#.#.#.#.#.#.#...................U x P T T T Q Q Q Q ! ! T I D qX2.Q Q T D qXM...Q ! P XXQ.-.#.#.#.#.#.#.#.#.#.#.#.#.#.#.#.#.#.#.#.#.P J L.{.6.2.#.....#.#.#.#.#.#.#.#.#.#.#.#.#.#.#.#.#.Q C P T Q P D U Q Q T D P T Q Q Q Q Q Q T T ~ Y M.[.U.............#.#.#...#...................#.#.#.#.....#.#.........#.#.#.#.#.#.#.#.#.#.#.#.......#.#.#.....#.#.#.#.................#.#.#.#.#.#...#.#.#.#.#.#.#.#.#...#.#.#.....#.#.#.#.........#.#.....#.#.#.#.#.#...............#.#.#.#.#.#.#.....#.#.#.#.#.#.#.#.#.#.......#.#.....#.#...#.#.........Q C P U T Q Q Q Q Q T T U P S dXf.Q Q ! P M.aX5...Q T I qX.X2.#.....#.#.#.#.#.#.#.#.#.#.[ Q Y J D D D C x L.dXuXF.#.*.-.8.*.#.#.#.#.#.#.#.#.#.#.#.#.#.#.#.#.#.#.#.#.#.#.#.#.",
"; 2.#.#.#.#.#.#.#.#.#.#.#.#.#.#.#.#.#.#.#.#.#.#.#.#.#.#.#.*.#.T T T T T T ! Q [ ..#.#.#.#.#.#.#.#.#.#.Y A Y Q Q P C Y ! Q Q C P U T ! Q Q ! ! ! T T P S m.f.............#.#.#...........................#.......#.#.#.#.#.................#.#.#.#.#.#.#.....#.#...#.#.#.#.#.#.#.......#.........#.#.#...#.#.#.#.#.#.#.#.......#.O.....#.#.#.#.#.....#.#.........#.#.#.#.....#.#.........#.#.#.#.#.#.#.#.#.#...#.#...#.#.....#.#.#.#.#...#.#...................T x P T T T Q Q Q Q Q ! T P D qX2.Q Q T D qXM...Q ! P  XQ.-.#.#.#.#.#.#.#.#.#.#.#.#.#.#.#.#.#.#.#.#.P J E.E.6.2.#.#.#.#.#.#.#.#.#.#.#.#.#.#.#.#.#.#.#.#.] C P T Q P D U Q Q T D P T Q Q Q Q Q ! ! T ~ I M.[.U.................#...........#.......#.#.#.#.#.......#.......#.#.#.#.#.#.#.#.#.#.#.#.#.#.#.......#.#...#.#.#.#.#.#.#...........#.#...#.....#.#.#.#.#.#.#.#.#.#.#.#.#.#.#.O.#.....O.#.#.#.#.#.......#...#.#...#.#.#.#.......#.........#.....#.#.#.#.#.#.#.#.#.#.#.#.#.#.#.#.#.#.....#.....#...........Q C P U T ! Q Q Q Q ! T T P S dXf.Q Q ! I M.aX5...Q T I qX.X2.#.#.#.#.#.#.#.#.#.#.#.#.#.[ T P J H D D C x ].8X9XF.[ *.-.7.*.#.#.#.#.#.#.#.#.#.#.#.#.#.#.#.#.#.#.#.#.#.#.#.#.",
"; 2.#.#.#.#.#.#.#.#.#.#.#.#.#.#.#.#.#.#.#.#.#.#.#.#.#.#.#.*.#.T T T T T T T Q [ ..#.#.#.#.#.#.#.#.#.#.Y A Y Q Q I C Y ! Q Q C J U T ! Q Q ! Q Q T T P S m.x.............#.#.#.......#.#...........#.....#.......#.#.#.#.#.#.................#.#.#.#.#.#.....#.#.#.#.#.#.#.#.#.#.......#.....#...#.#.....#.#.#...#.#.#.#.#.#.............#.#.#.#.....#.#.........#.#.#.#...#.#.#.........#.#.#.#.....#...#.#...#.#.#.#.......#.#.#...#...#.#...................T x P T T T Q Q Q Q Q ! T P D qX2.Q Q T J qXM...Q ! P !.Q.-.#.#.#.#.#.#.#.#.#.#.#.#.#.#.#.#.#.#.#.#.P J F.{.6.2.#.#.#.#.#.#.#.#.#.#.#.#.#.#.#.#.#.#.#.#.] C P T Q P D U ! Q T D P U ! Q Q Q Q ! ! T ~ Y M.[.U.............#...#.....#.....#.........#.#.#.#.#.............#.#.#.#.#.#.#.#.#.#.....#.#.#.#.......#.....#.#.#.#.#.#.........O.#.#.#.#...#.#.#.#.#.#.#.#...#.....O.O.#.#.#.#.....#.#.#.#.#.#.......#.....#...#.#.#.#.......#.......#.#.......#.#.#...#.#.#.#.#.#.#.#.#.#.#.#.....#.#.....#.....[ ....Q C Y U T T Q Q Q Q ! T T P D dXV.Q Q ! I M.dX5...Q T I qX.X2.#.#.#.#.#.#.#.#.#.#.#.#.#.[ T P J D D D C x }.pXuXF.[ *.-.7.*.#.#.#.#.#.#.#.#.#.#.#.#.#.#.#.#.#.#.#.#.#.#.#.#.",
"; 2.#.#.#.#.#.#.#.#.#.#.#.#.#.#.#.#.#.#.#.#.#.#.#.#.#.#.#.*.#.T T T T T T ! Q [ ..#.#.#.#.#.#.#.#.#.#.Y C U Q Q P N Y T Q Q C J U T Q Q Q ! ! ! T T P S m.x.............#.#.........#.#.#.#...#.#.#.#.#.#.#.....#.#.#.#.#.#.#.#.#.#.....#.#.#.#.#.#.........#.#.#.#.#.#.#.#.#.#.....#.#.#.#.#.#.#.#.#.#.#.#.........#.#.#.#.#.#.#.#.....#.#.........#.#.#.#...#.#.#.O.#.....#.#.#.#.....#.#.............#.#.#.#.#.#.#.#.......#.#.......#.#...................T x P T T T Q Q Q Q Q ! ! Y D qX2.Q Q T D qXM...! T P !.Q.:.#.#.#.#.#.#.#.#.#.#.#.#.#.#.#.#.#.#.#.#.P J L.`.6.2.O.#.#.#.#.#.#.#.#.#.#.#.#.#.#.#.#.#.#.O.] C P ! Q P S U ! Q T S Y T ! Q Q Q ! ! ! T T Y M.[.U.............#.......#.#...#.#.#.....#.#.#.#.#.#.#.#.#.#.............#.#.#.#.........#.#.#.#.....#...#.#.#.#.#.#.#.#...#.....#.#.#.#.#.......#.#.#.#.........O...#.#...#.#.#.#.#.#.#.#.#.#.#.....#.#.#.#.#.#.#.#.#.#.....#.#.#.#.#.#.....#.#.#.#.....#.#.........#...#.#.........#.#.#.........[ ....Q C Y T T Q Q Q Q Q Q T T P S aXV.Q Q ! P M.dX5...Q T I <X.X2.#.#.#.#.#.#.#.#.#.#.#.#.#.[ ! Y J D D D C x }.sXuXF.[ *.-.7.*.#.#.#.#.#.#.#.#.#.#.#.#.#.#.#.#.#.#.#.#.#.#.#.#.",
"; 5.#.#.#.#.#.#.#.#.#.#.#.#.#.#.#.#.#.#.#.#.#.#.#.#.#.#.#.=.*.Q T T T T T Q Q [ ..#.#.#.#.#.#.#.......Y C U Q Q P C Y T Q Q C J U T Q Q Q Q Q ! T T P S m.x.........................#.#.#.#.#.#.#.#.#.#.#.#.......#.#.#.#.#.#.#...#.#.#.#.#.#.#.#.#.#...#.O.#.#.#.#.#.#.#.#.#.......#.#.#.#.#.#.#.#.#.#.#.#.............#.#.#.#.#.#.#.#.#.#.#...#.#.#.#.#.#.#.#.#.#.........#.#.#.#.#.#.................#.#.#.#.#.#.#.#.......#.........#.#...................T x P T T T Q Q Q Q ) ! ! U D qX2.Q Q T D qXM...! T P !.Q.-.#.#.#.#.#.#.#.#.#.#.#.#.#.#.#.#.#.#.#.#.P J E.T.6.2.O.#.#.#.#.#.#.#.#.#.#.#.#.#.#.#.#.#.#.O.] C P T Q P S U ! Q T Z Y T ! Q Q Q ! ! T T T Y M.[.U.....................#.#.#.#.#.#.......#.#.#.#.#.#.#.#.#.............#.#.#...........#.#.#.#.....#.#.#.#.#.#.#.#.#.#.#.#.#.#.#.#.#.#.......#.#.#.........#...O.#.#...#.#.#.#.#.#.....#.#.#.......#.#.#.#.#.#.#.#.#.......#.#.#.#.#.#.....#.#.#.#.....#.#.............#.#.........#.#.#.#.............Q C Y T T Q Q Q Q Q T T T P S aXB.Q Q ! P M.dX5...Q T I <X X2.#.#.#.#.#.#.#.#.#.#.#.#.#.[ Q Y J D D D C x _.dX5XH.#.*.-.7.&.#.#.#.#.#.#.#.#.#.#.#.#.#.#.#.#.#.#.#.#.#.#.#.#.",
"; 2.#.#.#.#.#.#.#.#.#.#.#.#.#.#.#.#.#.#.#.#.#.#.#.#.#.#.#.=.*.Q T T T T T ! Q [ ..#.#.#.#.#.#.#...#.#.Y C P Q Q P C Y Q Q Q C P U T Q Q Q Q Q ! T T P S u.x...........#.......#.#.#.#...#.#.#.#.#...........#.#.#.#.........#.#...........#.#.#.....#.#.#.#.#.#.....#.#.#.#.#.#.......#.#.#.............#.#.#.#.#.#.....#.#.#.#.#.#.#.#.#...#.#.#.#.#.#.............#.#.#.........O.#.#.#.#.....#.#.....#.#.#.#...#.#.#.............#.#.......................T x P T T T Q Q Q Q Q Q T I D qX2.Q Q T D qXM...Q T P !.Q.-.#.#.#.#.#.#.#.#.#.#.#.#.#.#.#.#.#.#.#.#.P J F.`.6.2.O.#.#.#.#.#.#.#.#.#.#.#.#.#.#.#.#.#.#.#.] C P T Q P D U ! Q T Z Y T ! Q Q Q Q ! ! T T U M.[.U.....................#...#...#.#.#.#.#.#.......#.#.#.....#.#.#.#...........#.#.#.#.#.#.#.......#.#.#.#.#.#.#.#.#.#.#.#.#.#.#.#.#.#.#.....#.#.#.#.#.#.....#.#.#.#...#.#...#.#.#.#...#.#.#.#.#.#.#.#...#...#.#.#.#.#.#.#.#.#.......#.#.#.#...#.........#...........#.#.#.#.........#.#...#.............Q C Y T T ! ! Q Q Q Q T Y P S aXB.Q ! T P M.dX5...Q T I qX[.2.#.#.#.#.#.#.#.#.#.#.#.#.#.[ ! Y J D D D C x }.uXuXH.[ *.-.5.&.#.#.#.#.#.#.#.#.#.#.#.#.#.#.#.#.#.#.#.#.#.#.#.#.",
"; 2.#.#.#.#.#.#.#.#.#.#.#.#.#.#.#.#.#.#.#.#.#.#.#.#.#.#.#.=.*.Q T T T T T T Q [ ..#.#.#.#.#.#.#.....#.Y C Y Q Q P C Y ! Q Q C P U T Q Q Q Q Q Q T T P S u.x...........#...#...#...#.#.#.#.#.#.#.............#.#.#.#.........#.#.........#.#.#.#.....#.#.#.O.#.#.....#.#.#.#.#.#.....#.#.#.#.........#.#.#.#.#.#.#.#.....#.#.#.#.#.#.O.#.#...#.#.#.#...#...#.........#.#.#.#.........#.#.#.#.....#.......#.#.#.#...#.#.#.#.........#.#.#.#.....................T x P T T T Q Q Q Q Q Q T Y D qX2.Q Q T G qXM...Q ! P !.Q.-.#.#.#.#.#.#.#.#.#.#.#.#.#.#.#.#.#.#.#.#.P J L.`.6.2.O.#.O.#.#.#.#.#.#.#.#.#.#.#.#.#.#.#.#.#.] C P T Q P D U ! Q T Z I T ! Q Q Q ! ! ! T T Y M.[.U...........................#.#.#.#.#.#.#.....#.#.#.#.....#.#.#.#.........#.#.#...#.#.#.#.........#.#.#.#.#.#.#.#.....#.#.#.#.#.#.#.#.....#.#.#.#.#.#.....#.#.#.#...#.#.....#.#.....#.#.#.#.#.#.#.#.#.....#.#.#.#.#.#.#.#.#.#.....#.#.#.#...#.#.#.....#.#.........#.#.#.#.........#.....#.#...........Q C P T T ! ! Q Q Q Q T T J S aXB.Q Q T P M.dX5...Q T I <X`.2.#.#.#.#.#.#.#.#.#.#.#.#.#.[ T Y J D D D A x }.sXuXH.[ *.,.5.&.#.#.#.#.#.#.#.#.#.#.#.#.#.#.#.#.#.#.#.#.#.#.#.#.",
"; 2.#.#.#.#.#.#.#.#.#.#.#.#.#.#.#.#.#.#.#.#.#.#.#.#.#.#.#.-.*.Q T T T T T T Q [ ..#.#.#.#.#.#.#.......Y C T Q Q P N Y Q Q Q C P U T Q Q Q Q ! ! T T P S u.x...........#...#...#...#.#.#.#.#.#...#.#.............#.#.#...#.#.#.#.#.#.#.#.#.#.#.#.#.#.#.#...............#.....#.#.....#...#.#.#.#.#.#.#.#.#.#.....#.......#.#.#.#.#.#.#.#.....#.#.........#.#.#.#.#.#.#.#.#...........#.#.#.#.#...#.#.....#.#.#.#.....#.#.#.#.........#.#.#.#.#.................T x P T T T Q Q Q Q Q ! T Y D qX2.Q Q T P qXM.#.Q ! P !.Q.-.#.#.#.#.#.#.#.#.#.#.#.#.#.#.#.#.#.#.#.#.P J W.K.6.2.O.....#.#.#.#.#.#.#.#.#.#.#.#.#.#.#.#.#.] C Y T Q P S U ! Q T Z I T ! Q Q Q Q ! ! T ~ Y M.[._.......................#...#...#.....#.......#.#.#.#.........#.#.#...#.#.#.#.........#.#.....#.#.#.#.#.#...#.............#.#.#.#.#.#.......#.....#.#.....#.#.#.#.#.#.#.#...#.#...#.#.....#...#.#.#.#.......#.....#.#.#.#.#.#.......#.........#.#.#.#.#...............#.#.#...#.#.....#.#.#...........[ C P T T T Q Q Q Q Q T Y P D aXB.Q Q ! P M.dX5...Q T I }.).2.#...#.#.#.#.#.#.#.#.#.#.#.[ ! Y J D D D C x E.dX3XH.[ *.-.5.*.#.#.#.#.#.#.#.#.#.#.#.#.#.#.#.#.#.#.#.#.#.#.#.#.",
"; 5.#.#.#.#.#.#.#.#.#.#.#.#.#.#.#.#.#.#.#.#.#.#.#.#.#.#.#.-.*.Q Q T T T ! Q Q [ ..#.#.#.#.#.#.#.......Y C Y Q Q P b Y ! Q Q C P U T Q Q Q Q Q ! T T P S u.x...........#.#.#.............#.#.#...#.#...........#.#...#.#.#.#.#.#.#...#.#.#.#.#.#.#.#.#.#...........................#.#...#.#.#.#.#.#.#.#...................#.#.#.#.#.#.#.....#.#.........#.#.#.#.#.#.#.#.#.............#.#.#.#.#.#.#.........#.#.....#.#.#.#.........#.#.#.#.#.................T x P T T T Q Q Q Q Q ! T P D qX2.Q Q T J qXM.#.Q ! P !.Q.-.#.#.#.#.#.#.#.#.#.#.#.#.#.#.#.#.#.#.#.#.P J ).`.6.5.O.....#.#.#.#.#.#.#.#.#.#.#.#.#.#.#.#.#.] C Y T Q P S U Q Q T Z I T ! Q Q Q Q ! T T ~ Y M.[._.......................#.#...........#.......#.#.#.#.......#.#.#.#.#.#.#.#.#.#.O.....#.#.....#.#.#.#.#.#.................#.#.#.#.#...................#.#.#.#.#.#.#.#.#.#.#.#.#.#...#...#.#...#.#.#.#...........#.#.#.#.#.#.#...#.#.#.........#.#.#.#.#.........#...#.#.#.....#.#.#.#.#.#.#...........) C P T T ! Q Q Q Q ! T Y P S aXB.Q Q ! P s.dX5...Q T I }.E.2.......#.#.#.#.#.#.#.#.#.#.[ ! Y J D D D C M }.uX8XT.#.*.-.7.*.#.#.#.#.#.#.#.#.#.#.#.#.#.#.#.#.#.#.#.#.#.#.#.#.",
"; 2.#.#.#.#.#.#.#.#.#.#.#.#.#.#.#.#.#.#.#.#.#.#.#.#.#.#.#.-.*.Q T T T T T T Q [ ..#.#.#.#.#.#.#.#.#.#.Y C Y Q Q P x Y ! Q Q N J U T Q Q Q Q ! ! T T Y S u.x.............#.#...........#.#.#.....#.#.........#.#.#.#.#.#.#...#...#.#.#.#.#.#.#.#.#.#.....#.#.#.................#.#.#.#.#.#.#.#.#.#.#.#.#.#.#.......#.#.#.#...........#.#.#.#.#.#.#.#.#.......#.#.#.#.....#.#.#.#.#.#.#.#.....#.#.#.#.#.#.......#.......#.#.#.#.#.....#...#.#...................T x P T T T Q Q Q Q Q ! T P D qX2.Q Q T G qXM.#.Q ! P !.}.-.#.#.#.#.#.#.#.#.#.#.#.#.#.#.#.#.#.#.#.#.P J L. X6.5.O.#.#.#.#.#.#.#.#.#.#.#.#.#.#.#.#.#.#.#.] C P T Q P S U Q Q T Z I T ! ! Q Q ! ! T T T Y M.[.).....................#.#.#.....#.........#.#.........#.#.#.#.#.....#.#.#...#.#.#.....#.#.#.#.#...........O.#.#.#.........#.#.#.#...................#.#.#.#.#.#.#.#.#.#.#.....#.#.#.#.....#.#.#.#.........#.#...#.#.#.#.#.....#.#.#.....#.#.#.....#.#.#.#.........#.#.#.#.....#.#.....#.#.....#.......) C P T T T Q Q Q Q ! T T P D aXB.Q Q ! P s.dX5...Q T I }.E.2.#...#.#.#.#.#.#.#.#.#.#.#.[ Q Y J D D D C x }.pXuXH.[ *.-.5.&.#.#.#.#.#.#.#.#.#.#.#.#.#.#.#.#.#.#.#.#.#.#.#.#.",
"; 2.#.#.#.#.#.#.#.#.#.#.#.#.#.#.#.#.#.#.#.#.#.#.#.#.#.#.#.=.*.Q T T T T T T Q [ ..#.#.#.#.#.#.#.#.#...Y C T Q Q P x Y ! Q Q C J U T Q Q Q Q ! ! T T Y S u.x...............#.#.#.......#.#.#.#...#.#.....#.#.#.#.#.#.#.#.#.#.....#...#.#.#.#.#.#.#.#.....#.#.#.#.............#.#.#.#.#.#.#.#.#.#.#.#.#...#.#.......#.#.#.#.#.........#.#.#.#.#.#.#.#.#.#.....#.#.#.#.....#.#.#.#.#.#.#.#...#.#.#.#.#.#.#.............#.#.#.#.#.#.....#.....#...................T x P T T T ! Q ! Q ! ! T P D aX2.Q Q T G }.M.#.Q ! P !.}.-.#.#.#.#.#.#.#.#.#.#.#.#.#.#.#.#.#.#.#.#.P J W.J.6.5.O.#.#.#.#.#.#.#.#.#.#.#.#.#.#.#.#.#.#.#.] C P T Q T A U Q Q T A I T T ! ! Q Q ! ! T T U M.[.).....................#...#.....#...........#.........#.#.#.#.......#.#.#.....#.#.#.#.#.#.#.#.#...........#.#.#...........#.#.#.#.................#.#.#.#.#.#.#.#.#.#.#.#.......#.#.#.....#.#.#.#.....#.....#...#.O...........#.#.#...#.#.#.#.......#.#.#...#.....#.#.#.#.#...........................) C P U T Q Q Q Q Q ! T T J D aXB.Q Q ! P s.dX5...Q T I }.E.2...#.#.#.#.#.#.#.#.#.#.#.#.[ T Y J D D D A x F.dXpXH.[ *.-.5.&.#.#.#.#.#.#.#.#.#.#.#.#.#.#.#.#.#.#.#.#.#.#.#.#.",
"; 2.#.#.#.#.#.#.#.#.#.#.#.#.#.#.#.#.#.#.#.#.#.#.#.#.#.#.#.-.*.Q T T T T T ! Q [ ..#.#.#.#.#.#.#...#.#.P C T Q Q P b Y ! Q Q C J U T Q Q Q ! ! ! T T Y S f.x...............#...#.....#.#.#.........#.#...#.#.#.#.#.#.#.#.........#.......#...#.#.........#.#.#.#.....#.#.#.#.#.#.#.#.#.#.#.#.#.#.#.......#.#.#.....#.#.#.#.#.#.O.....#.#.#.#...#.#.#.#.#.......#.#.#.........#.#.#.#.........#.#.............#.#.#.#.#.#.#.#.#.#.#.#.#.....#...................T x P T T T Q Q Q Q Q ! T Y D aX2.Q Q T G }.M.#.Q ! P !.}.2.#.#.#.#.#.#.#.#.#.#.#.#.#.#.#.#.#.#.#.#.P J ).).6.5.O.#.#.#.#.#.#.#.#.#.#.#.#.#.#.#.#.#.#.#.] C P T Q T A U Q Q T A Y T Q Q Q Q Q Q T T T U M.>X).........................#...#.#.#.#.....#.#.#.#.....#.#.#.#.....#.#.........#.#.#.#.#...#.#.#.#.....#.#.#.#.#.#.......#.#.#.#...........#.#.#.#.#.#.#.#.....#.#.#.#.#.#.....#.#.#.#...#.#.#.#.......#.#.....#.#.#.#.....#.#.#.#.....#.#.#.#.......#.#.#.#.#...#.#.#.#.#.#...........................) C P U T Q Q Q Q Q ! T T P D aXV.Q Q ! P s.dX5...Q T I }.[.2.#.#.#.#.#.#.#.#.#.#.#.#.#.[ Q Y J D D D C x P.8X8XL.[ *.-.5.&.#.#.#.#.#.#.#.#.#.#.#.#.#.#.#.#.#.#.#.#.#.#.#.#.",
"; 5.#.#.#.#.#.#.#.#.#.#.#.#.#.#.#.#.#.#.#.#.#.#.#.#.#.#.#.-.*.Q ! T T T T Q Q [ ..#.#.#.#.#.#.#.#.#.#.Y C T Q Q P b Y ! Q Q C J U T Q Q Q ! ! ! T T Y S f.x...............#...#.....#.#.#.........#.#.#.#...#.#.....#.#.#...#...#.#.....#...#.#...#.....#.#.#.#.#...#.#.#.#.#.#.#...#.#.....#.#.#.......#.#.#.#.....#.#.#.#.#.#.......#.#.#...#.#.#.#.#.......#.#.#.......#.#.#.#.#.........#.#.............#.#.#.#.#.#.#.#.#.......#.#.#.#.#.................T x P T T T Q Q Q Q Q ! T Y D aX2.Q Q T J }.M.#.Q ! P !.}.-.#.#.#.#.#.#.#.#.#.#.#.#.#.#.#.#.#.#.#.#.P J L.].6.5.O.#.#.#.#.#.#.#.#.#.#.#.#.#.#.#.#.#.#.#.] C P T Q T A U Q Q T A P T Q Q Q Q Q Q T T ~ U M.>X).......................#.....#.#.#.#.....#.#.#.#.#...#.#.#.......#.#.........#.#.#.#.#...#.#.#.......#.#.#.#.#.#.........#.#.#.......#...#.#.#.#.#.#.............#.#.#.#.....#.#.#.#...#.#.#.........#.#.#.#.#.#.#.#...#.#.#.#.#.....#.#.#.#.........#.#.#.......#.#.....#...........................[ C P U T Q Q Q Q Q Q T T P D aXV.Q Q Q P s.dX5...Q T I XXE.2.#.#.#.#.#.#.#.#.#.#.#.#.#.[ Q Y J D D D C x Q.pX8XK.#.*.-.5.&.#.#.#.#.#.#.#.#.#.#.#.#.#.#.#.#.#.#.#.#.#.#.#.#.",
"; 5.#.#.#.#.#.#.#.#.#.#.#.#.#.#.#.#.#.#.#.#.#.#.#.#.#.#.#.-.*.Q T T T T T T Q [ ..#.#.#.#.#.#.#.......Y C U Q Q P b P T Q Q C J U T Q Q Q ! ! ! T T Y S f.x...........#...#.....#.....#.................#.#.#.#.....#.#.#.#.#.#.#.#.#.#.#.#.#.#...#.#.#.O.......#.#.#.#.#.#.#.#.......O.......#.........#.#.#.#.....#.#.#.#.#...#.#.#.#.#.#...O.#.O.#.#.#.#.....#.#.#.#.#.#.#...........#.#.#.#.....#.#.#.......#.#.#.#.#.#...........#.#.....................T x P T T T ! Q Q Q Q ! T P D aX2.Q Q T J }.M.#.Q ! P ^.}.-.#.#.#.#.#.#.#.#.#.#.#.#.#.#.#.#.#.#.#.#.P J W.2X6.5.O.#.#.#.#.#.#.#.#.#.#.#.#.#.#.#.#.#.#.#.] C P T Q T A U Q Q T A P T Q Q Q ! ! Q Q T T U 9.>X).......................#.....#.#.#.#.....#.#.#.......#.#.........#.#.#.O...#.#.#.#.#.#.............#.#.#.#.#.#.#.#.#...#.#.#.........#.#.......#.#...#.#.#.#.#.#...#...#.#...#.#.#...#.#.#.#.........#.#.....#.#.#.#...#.#.....#.#.#.#.#.#.#.....#.#.........#.#.#.#.#.#.#.#.........................[ C P T T Q Q Q Q Q T T Y P D aXV.Q ) Q P s.dX5...Q T I |.E.2.#.#.#.#.#.#.#.#.#.#.#.#.#.[ Q Y J D D D C x c.dXuXK.[ *.-.5.&.#.#.#.#.#.#.#.#.#.#.#.#.#.#.#.#.#.#.#.#.#.#.#.#.",
": 5.#.#.#.#.#.#.#.#.#.#.#.#.#.#.#.#.#.#.#.#.#.#.#.#.#.#.#.=.*.Q T T T T T T Q [ ..#.#.#.#.#.#.#...#...Y C T Q Q P b Y T Q Q C J U T ! Q Q ! ! ! T T Y S u.x...........#...#.#.#.#...#.#.................#.#.#.......#.#.#.#.#.#.#.#.#.#.#.#.......#.#.#.#.......#.#.#.#.#.#.#.#.................#.......#.#.#.#...#.#.#.#.#.....#...#.#.#.#.....#.#...#.#.#.....#.#...#...#.........#.#.....#.#.#...#.#.#.......#.#.#.#.#.#.....#.....#.....#.................T x P T T T ! ! ! Q Q ! T P D aX2.Q Q T J }.M.#.Q ! P ^.}.-.#.#.#.#.#.#.#.#.#.#.#.#.#.#.#.#.#.#.#.#.Y J ).[.6.5.O.#.#.#.#.#.#.#.#.#.#.#.#.#.#.#.#.#.#.@.] C P T Q U Z U ! Q T A P T ! Q Q ! ! ! ! T T U 9.>X_.....................#.#.....#.#.#.#.#.#.#.#.........#.#.........#.#.#.....#.#.#.#.#.............#.#.#.#.#.#.#.#.#.#...#.#.#.#.......#.#.#.#...#.#.#.#.#.#.#.#.#.......#.#.#.#.#.#...#.#.#.#.........#.#.......#.#.#.....#.#.#.#.....#.#.#.#.......#.........#.#.#...#.#.#...........................[ C P T T Q Q Q Q Q T T T P D aXV.Q Q Q P s.dX5...Q T I }.`.2.#.#.#.#.#.#.#.#.#.#.#.#.#.[ T Y J D D D A x Y.dX7XK.[ *.-.5.&.#.#.#.#.#.#.#.#.#.#.#.#.#.#.#.#.#.#.#.#.#.#.#.#.",
": 5.#.#.#.#.#.#.#.#.#.#.#.#.#.#.#.#.#.#.#.#.#.#.#.#.#.#.#.-.*.Q T T T T T T Q [ ..#.#.#.#.#.#.#.#.#...Y C T Q Q P x Y Q Q Q C J U T Q Q Q Q ! ! T T Y S u.x...........#.#.#.........#.#...#.......#.#.#.#.#...........#...O.....#.#.................#.#.#.#.......#.#.#.#.#.#.#.#.#.........#.#.#.#.....#.#.#.#...#.#.#.#...............#.#.....#.#.#.#.#.#.............#.#.#.#.#.#.#.#.........#.#.#.#.#.#.......#.....#.......#...#.#.#.#...................T x P T T T ! Q Q Q Q ! T P G aX2.Q Q T D }.M.#.Q ! P ^.}.-.#.#.#.#.#.#.#.#.#.#.#.#.#.#.#.#.#.#.#.#.Y J L.2X6.5.O.O.O.#.#.#.#.#.#.#.#.#.#.#.#.#.#.#.#.#.] C P T Q U Z U ! Q T A P T Q ! ! ! ! ! ! T T U 9.>X).....................#.#.........#.#.#.#.#.#.#.#...#.#.#.#.#...#.#.#.#.#.....#.#.#.#.#.#...#.......#.....#.#.#.#.#.#.....#.#.#.#.....#.#.#.#.#.#.#.#.........#.O.......#.#.#.#.#.#...#.#.#.#.....#.#...#.#...#.#.#.#.....#.#.#.#.#...#.#.#.#.....#.#.....#...#.#.....#...............................[ C P T T T Q Q Q Q T T Y P D aXV.Q Q Q P s.dX5...Q T I  XE.2.#.#.#.#.#.#.#.#.#.#.#.#.#.[ Q Y J D D D A x Q.uXuXK.[ *.-.5.-.#.#.#.#.#.#.#.#.#.#.#.#.#.#.#.#.#.#.#.#.#.#.#.#.",
": 5.#.#.#.#.#.#.#.#.#.#.#.#.#.#.#.#.#.#.#.#.#.#.#.#.#.#.#.-.*.Q T T T T T T Q [ ..#.#.#.#.#.#.#.#.#.#.Y C T Q Q P x Y Q Q Q C J U T Q Q Q Q ! ! ! T Y D u.x...........#...#.#.......#.#.#.#.#.#.#.#.#.#...#.........#.#.O.#.....#.#.................#.#.#.#.#.#...#.#.#.#.#.#...#.#.#.......#.#.#.#.....#.#.#...#.#.#.#.#.....#.........#.#.....#.#.#.#.#.#.............#.#.#.#.#.#.#.#.........#.#.#.#.#...............#.......#.#.#.#.#.....................T x P T T T Q Q Q Q Q Q T Y G aX2.Q Q T J }.M.#.Q ! I ^.}.-.#.#.#.#.#.#.#.#.#.#.#.#.#.#.#.#.#.#.#.#.Y J E.:X6.5.O.O.O.#.#.#.#.#.#.#.#.#.#.#.#.#.#.#.#.#.] C P T Q U Z U ! Q T A P T Q Q ! ! ! ! T T T U 9.>X).......................#.........#.#.#.#.#...#.#...#.#.#.#.#.....#.#.#.#.......#.#.#.#.#.#.#.......#.....#.#.#.#.#.#.....#.#.#.#.....#.#.#.#.#.#.#.#.......#.#.#.......#.#.#.#.#.#.....#.#.#.#...#.#.#.#.#...#.#.#.#...#.#.#.#.#.#...#.#.........#.#.#.#.#.#.#.#.....................................[ C P T T T Q Q Q Q T T Y P D aXV.Q Q Q P s.dX5...Q T I |.E.2.#.#.#.#.#.#.#.#.#.#.#.#.#.[ Q Y J D D D C x Q.sXuXL.#.*.-.5.-.#.#.#.#.#.#.#.#.#.#.#.#.#.#.#.#.#.#.#.#.#.#.#.#.",
": 5.#.#.#.#.#.#.#.#.#.#.#.#.#.#.#.#.#.#.#.#.#.#.#.#.#.#.#.-.*.Q T T T T T T Q [ ..#.#.#.#.#.#.#.#.#.#.Y C T Q Q P N Y Q Q Q C J U T Q Q Q Q Q ! T T Y S u.x.........................#.#.#.#.#.#.#.#.#.#.................#.#.#.#.........#.........#.#.#.#.#.#.#...#.#.#.#.#.....#.#.........#.#.#.#.#.#.....#...#.#.....#.#.#.#.#...#.#.O.............#.#.#.#.......#.#.#.#.#.#.#.#.....#.#.#...#.#.....#.#.#.#.#.#.............#.#.#.#.#.....................T x P T T T T Q Q Q Q ! U Y G qX2.Q Q T J }.M.#.Q ! I ^.}.-.#.#.#.#.#.#.#.#.#.#.#.#.#.#.#.#.#.#.#.#.Y J ).`.6.5.O.O.O.@.#.#.#.#.#.#.#.#.#.#.#.#.#.#.#.#.] C P T Q U Z U ! Q ! A P T ! ! ! Q ! ! T T T U q.>X).......................#.#.#.......#.#.#.#...#.#.#.#.......#.#.#.#.#.#.#.#.#.........#.#.........#.#.....#.#.#.#.#.........#.#.#.#.#.#.#.#.#.#...........#.#.#.........#.#.#.#...............#.#.#.#.#.#.#.#.........#.#.#.#.#.#.#.#.#.......#.#.#.#.#.#.#.#.#.#.#.............#.....#...............) C I U T T ! Q Q Q Q T T P D aXV.Q Q Q P s.dX5.#.Q T I }.=X5.#.#.#.#.#.#.#.#.#.#.#.#.#.[ Q Y J D D D C x J.dX5XL.[ *.-.5.=.#.#.#.#.#.#.#.#.#.#.#.#.#.#.#.#.#.#.#.#.#.#.#.#.",
": 5.#.#.#.#.#.#.#.#.#.#.#.#.#.#.#.#.#.#.#.#.#.#.#.#.#.#.#.=.*.Q T T T T T T Q [ [ O.#.#.#.#.#.#.....#.Y C T Q Q P N Y ! Q Q C J U T Q Q Q Q Q ! T T Y D u.x...............................#.#.#.#.#.#.#.#.#.....#.....#.#...#.#...#.....#...........#.#.#.#.#.#...#.#.#.#.#.#...#.#.........#.#.#.#.#.#.....O...#.#.....#.#.#.#.#.#.#.#.#...........#.#.#.#.....#.#.#.#.........#.#.....#.#.#.#.#.#.#...#.#.#.#.#.#.............#.#.#.#.#.#...................T x P Y T T T Q Q Q Q ! U P G qX2.Q Q T H }.M.#.Q ! I ^.}.2.#.#.#.#.#.#.#.#.#.#.#.#.#.#.#.#.#.#.#.#.Y J L.2X6.5.O.#.#.#.#.#.#.#.#.#.#.#.#.#.#.#.#.#.#.#.] C P T Q U Z U ! Q ! A I T ! ! ! Q ! ! ! T T U 9.>X).......................#.#.#.....#.#.#.#.#.#.#.#.#.#.....#.#.#.#.#.#.#.#.#.#.........#.#.....#...#.#.....#.#.#.#.#.......#.#.#.#.#.#.#.#.#.#.#.......#.#.#.#.#.#.#.#.#.#.#.#.#.#.........#.#.#.#.#.#.#.#.#.#.........#.#.#.#...#.#.#.........#.#.#.#.#.#.#.#...#...........#.#.#.#...#...............) C P T T T Q Q Q Q Q T T P D aXV.Q Q Q P s.dX5.#.Q T I XX2X5.#.#.#.#.#.#.#.#.#.#.#.#.#.[ ! Y J D D D C x Q.8XuXL.[ *.-.5.=.#.#.#.#.#.#.#.#.#.#.#.#.#.#.#.#.#.#.#.#.#.#.#.#.",
": 5.#.#.#.#.#.#.#.#.#.#.#.#.#.#.#.#.#.#.#.#.#.#.#.#.#.#.#.-.*.Q T T T T T T Q [ ..#.#.#.#.#.#.#.....#.Y C Y Q Q P N Y ! Q Q C J U T Q Q Q Q Q ! T T Y D u.x.....................#.....#.#.#.........#.#.#.#.#.#.#.#.....#.#.#.#.#.#.#.#.#.#.....#.#.#.#.#.#.#.....#.#.#.#.......#.#.#.....#.#.#.....#.#.#...#.#.#.#.........#.#.#.#.#.#.#...#...#.#.#.#.#.#.#.#.#.#.#.#...#.....#.......#.#.#.#.#.#.........#.#.#.#.#.#...#.....#.#...........................T x P T T T ! Q Q Q Q ! T Y G qX2.Q Q T J }.Q.#.Q ! I ^.}.2.#.#.#.#.#.#.#.#.#.#.#.#.#.#.#.#.#.#.#.#.Y J E.:X6.5.O.#.#.#.#.#.#.#.#.#.#.#.#.#.#.#.#.#.#.#.] C P T Q U Z U ! Q ! A I T ! Q Q Q Q ! ! T T U 9.>X).....................#.#...........#.#.#...#...............#.#.#...#.............#.#.#.#.....#.#.#.#...#.#.#.#.......#.#.#.#.#.#.#.#.O.#.#.#.#.#.....#.#.#.#.#.#.#.#.#.#.#.#.#.#.#.#.#.#.#...#.#.........#.#.#.#.....#.#.........#.#.#.#.................#.#...#.#.#...#...#.#.#.#.#.#...............] N P T T T Q Q Q Q Q T T P D qX^.Q Q Q P s.dXh.#.Q T I  X`.5.#.....#.#.#.#.#.#.#.#.#.#.[ Q Y J D D D C x Q.pXuXL.[ *.-.5.=.#.#.#.#.#.#.#.#.#.#.#.#.#.#.#.#.#.#.#.#.#.#.#.#.",
": 5.#.#.#.#.#.#.#.#.#.#.#.#.#.#.#.#.#.#.#.#.#.#.#.#.#.#.#.-.*.Q T T T T T T Q ] ..#.#.#.#.#.#.#.#.#.#.Y C P Q Q P N Y ! Q Q C J U T Q Q Q Q Q ! T T Y D f.x...........#.#.#.#...#.....#.#.#.#.......#.#.#.#.#.#.#.#.....#.#.#.#.#.#.#.#.#.#.#.#.#.#.#.#.#.#.........#.#.#.......#.#.#...#.#.#.#.....O.#.#.#.#.#.#.#.......#.#.#.#.#.#.#.#.#.#.#.#.#.#.#.#.#.#.#.#.#.#.#.....#.#.........#.#.#.#.#.#.........#.#.#.#.#.#.#.#.#.#.#.#...........................T x P T T T T Q Q Q Q ! ! U G qX:.Q Q T J }.Q.#.Q ! I ^.}.2.#.#.#.#.#.#.#.#.#.#.#.#.#.#.#.#.#.#.#.#.Y J ).E.6.4...#.#.#.#.#.#.#.#.#.#.#.#.#.#.#.#.#.#.#.] C P T Q T Z U ! Q ! A I T ! ! Q Q Q ! T T T U 9.>X).....................#.............#.#.#...................#.#.#...............#.#.#.#.#.....#.#.#.#.....#.#.#.......#.#.#.#.#.#.#.......#.#.#.O.....#.#.#.#.....#.#.#.#.#.#.#.#.#.#.#.#.#.#.#...........#.#.#.#.#...............#.#.#.#...............#.#.#.#.#.#.#.........#.#.#.#.#...............[ N P T T T Q Q Q Q Q T T Y D qX~.Q Q Q P s.dXh.#.Q T I |.=X5.......#.#.#.#.#.#.#.#.#.#.[ Q Y J D D D A x H.dXpXU.#.*.=.5.=.#.#.#.#.#.#.#.#.#.#.#.#.#.#.#.#.#.#.#.#.#.#.#.#.",
": 5.#.#.#.#.#.#.#.#.#.#.#.#.#.#.#.#.#.#.#.#.#.#.#.#.#.#.#.-.*.Q T T T T T ! Q [ ..#.#.#.#.#.#.#.#.#.#.Y C P ! Q P N Y ! Q Q C J U T Q Q Q Q Q ! T T Y D f.x...........#.#...#.....#.....#.#.........#.#.#.#.#.#.......#.#.#.........#.#.#.#.#.#.......#.#.#.....#.#.#.#.................#.#.#.#.......#.#.#.#.#.#.#.......#.#.#.#.O...#.#.#...#.#.............#.O.O...#.#.#.#.#.#.#.#.#.....#.#.#.#.#.#.............#.#.#.#...................................T x P T T T ! Q Q Q Q Q ! U G qX:.Q Q T J }.Q.#.Q ! I ^.}.2.#.#.#.#.#.#.#.#.#.#.#.#.#.#.#.#.#.#.#.#.Y J _.:X6.5...#.#.#.#.#.#.#.#.#.#.#.#.#.#.#.#.#.#.#.] C P T Q T Z U ! Q ! A I T ! Q Q Q ! ! ! T T U 9.>X).....................#.........#.#.#.#.#.......#...#.....#.#.#.#...........#.#.#.#.#.........#.#.#.#.#.#.#.#.........#.#...#.#.#.#.#.......#.#.#...#.#...#.#.#.#.#.#.#.#.#.#.#.#.#.#.#.#...#.#.#.#.#.......#.#.#.........#.#.#.#.#.#.......#.#.#.........#.#.#.#.#.#.....#...#.#.....................[ N P T T T Q Q Q Q ! T T P D qX~.#.Q ! P s.dXh.#.Q ! I }.,X5...#.#.#.#.#.#.#.#.#.#.#.#.[ Q Y J D D D A x Q.8X8X`.[ *.-.5.=.#.#.#.#.#.#.#.#.#.#.#.#.#.#.#.#.#.#.#.#.#.#.#.#.",
": 5.#.#.#.#.#.#.#.#.#.#.#.#.#.#.#.#.#.#.#.#.#.#.#.#.#.#.#.=.*.Q T T T T T T Q [ [ ..#.#.#.#.#.#.#.#.#.Y x P Q Q P N Y T Q Q C J U T Q Q Q Q ! ! T T Y D u.x.......................#.#.#.#.#.........#.#.#.#...#.......#.#.#...#.....#.#.#.#...#.....#.#.#.#.#...#.#.#.#.............O.#.#.#.#.#.....#.#.#.#.#.#.#.#.#.....#.#.#.......O.#.#.#.#.#.............#...O.....#.#.#.#.#.#.#.#.......#.#.#.....#.#.........#.#.#.#.....#.#...........................T x P T T T ! Q Q Q Q Q T U G qX:.Q Q T D }.Q.#.Q ! I ^.}.2.#.#.#.#.#.#.#.#.#.#.#.#.#.#.#.#.#.#.#.#.Y J E.<X6.5...#.#.#.#.#.#.#.#.#.#.#.#.#.#.#.#.#.#.#.] C P T Q T Z U ! Q ! A I T T Q Q Q Q ! ! T T U 9.>X).......#.................#.......#.#...#.......#.#.#.....#.#.#.#.........#.#.#.#.#.#.........#.#.#...#.#.#.#.......#.#.#.....#.#.#.#.........#.#.#.#.#...#.#.#.#.#.#.#.#.#.#.....#.#.#.#.....#.#.#.#.....#.#.#.#.........#.#.#.#...........#.#.#...#.....#.#.#.#...#.#.#.#.#.#.#.....................[ N P T T T Q Q Q Q ! T T P D qX~.#.! T P s.dXh.#.Q ! I |.1X5...#...#.#.#.#.#.#.#.#.#.#.[ Q Y J D D D S x Q.pX8XE.[ *.-.5.=.#.#.#.#.#.#.#.#.#.#.#.#.#.#.#.#.#.#.#.#.#.#.#.#.",
": 5.#.#.#.#.#.#.#.#.#.#.#.#.#.#.#.#.#.#.#.#.#.#.#.#.#.#.#.*.*.Q T T T T T T Q [ ..#.#.#.#.#.#.#.#.#.#.Y M P Q Q P N Y T Q Q C J U T Q Q ! ! ! ! T T Y D f.x.......................#.#...#.............#.............#.#.#.#.#.#.....#.#.......#.#.....#.#.#.#.#.#...#.#.....#.......#.#.#.#.#.#.#.#.#.#...#.....#.#.#.#.#.#.#.#.....#.#.#.#.#.#.#.#.........#.#...O.#...#.#.....#.#.#.#.....#.#.........#.#.#.#...#.#.#.........#.#.#.#.......................T x P T T T ! Q Q Q Q Q T U G qX1.Q Q T D }.Q.#.Q ! I ^.}.2.#.#.#.#.#.#.#.#.#.#.#.#.#.#.#.#.#.#.#.#.Y J H.T.6.5...#.#.#.#.#.#.#.#.#.#.#.#.#.#.#.#.#.#.#.[ C P T Q T Z U ! Q ! C P T ! Q Q Q Q Q ! T T U q.>X).....................#...#.#.#.......#.#.#...#.#.#.#.......#.#.#.#...#.#.#.#...#.....#.#.....#.#.#.#.#.#.#.#.....#.............#.#.#.....#.#.#.#.#.#.#.....#.#.#.#.#.#.#.........#.#.#.........#.#.#.#...#.#.#.#.#.#...#.#.#.....#.....#...#.#.#.#.#.....#.#.................#.#.....#...............) N I T T T Q Q Q Q ! T T P D qX~.#.Q ! P s.dXh.#.Q ! I .X[.5.......#.#.#.#.#.#.#.#.#.#.[ Q Y J D D D A x F.dXuXE.[ *.-.5.=.#.#.#.#.#.#.#.#.#.#.#.#.#.#.#.#.#.#.#.#.#.#.#.#.",
": 5.#.#.#.#.#.#.#.#.#.#.#.#.#.#.#.#.#.#.#.#.#.#.#.#.#.#.#.*.*.Q T T T T T T Q Q ..#.#.#.#.#.#.#.#.#.#.Y N P Q Q P N Y T Q Q C J U T Q Q Q ! ! ! T T Y D x.x.........................#.#.#.#.#.......#.#...............#.#.#.#.#.....#.#.......#.......#.#.#.#.#.....#.#.#.#.#.#.#.#.#.#.#.#.....#.#.#.#...#.....#.#.#.#.#.#.#.#...#.#.#.#.#.#.#.#.#.#.#.......#.#...#.#.#.#.....#.#.........#.#.........#.#.#.#.#.#.#.#.#.......#.#.#.#...#...................T x P U T T ! Q Q Q Q ! T T G qX1.Q Q T J }.Q.#.Q ! I ^.}.2.#.#.#.#.#.#.#.#.#.#.#.#.#.#.#.#.#.#.#.#.Y J Y.+X6.5...#.#.#.#.#.#.#.#.#.#.#.#.#.#.#.#.#.#.#.[ C P T Q T Z U ! Q ! C P T ! ! ! Q Q Q ! T T U q.>X).......................#.#.#...#.#...#.#.....#.#.#.#.......#.#.#.#.#.#...#.#.....#.#.#.#...#.#.#.........#.#.#...#.#...........#.#.#.....#.#.#.#.#.#.#.#...#.#.#.#...#...#...........#.........#.#.#.#...#.#.#.#.#.#.....#.#...#.#.....#...#.#.#.#.#.......#.................#.#...#.................) N I T T ! Q Q Q Q ! T T P D qXQ.#.Q ! P s.dXh.#.Q ! I ^.,X5.......#.#.#.#.#.#.#.#.#.#.[ Q Y J H D D A x Q.5X8XE.#.*.-.5.=.#.#.#.#.#.#.#.#.#.#.#.#.#.#.#.#.#.#.#.#.#.#.#.#.",
": 5.#.#.#.#.#.#.#.#.#.#.#.#.#.#.#.#.#.#.#.#.#.#.#.#.#.#.#.*.*.Q T T T T T T Q [ [ #.#.#.#.#.#.#...#.#.Y N Y Q Q P N Y T Q Q C J U T ! Q Q Q Q Q T T Y D x.j...........#.......#.......#.#.#.....#.........#.#.#.#.#.#.#.....#.#.....#.....#.#.#.#.#.#.#.....#.#.........#.#.#.#.#.#.#.#.........#.#...#.#.#.....#.#.#.#.#.......#.#.#.#...#.#.#.#.#.........#.#.#.#.#.#.#.......#.......#.#.#.#...#.#.#.....#.#.#.#.....#.#.#.#...#.#.#.#.#...................T x P T T T Q T Q Q Q T U U G qX2.Q Q T J }.Q.#.Q ! I ^.}.2.#.#.#.#.#.#.#.#.#.#.#.#.#.#.#.#.#.#.#.#.Y J F.2X6.5...#.#.#.#.#.#.#.#.#.#.#.#.#.#.#.#.#.#.#.[ C P T Q U Z Y ! Q ! C P T ! Q Q Q ! ! ! T T ~ q.>X).......................#.#.#.#.#.....#.#.#.#.#.......#.#.#.#.#...#.#.#...#.#.#.#.#.#.#.#.#.#...........#.#.#.#.#.#.#.....#.#.........#.#.#.#...#.#.#.#.#.............#.#.#.#.....#.#...............#.#.#.#.#.....#.#...........#.#.#.#.#.#.#.....#.#...........#.#.#.#.#...............................N I T T ! ! Q Q Q Q T T P D qXQ.#.Q ! Y s.dXh.#.Q T I ^.2X5.#.#.#.#.#.#.#.#.#.#.#.#.#.[ Q Y J H D D S x Q.uXpXE.[ *.-.5.=.#.#.#.#.#.#.#.#.#.#.#.#.#.#.#.#.#.#.#.#.#.#.#.#.",
": 5.O.#.#.#.#.#.#.#.#.#.#.#.#.#.#.#.#.#.#.#.#.#.#.#.#.#.#.*.*.Q T T T T T T Q [ [ ..#.#.#.#.#.#.#.#...Y N T ! Q P N Y T Q Q C J U T ! Q Q Q Q Q T T Y D x.x...........#.#.#.............#.....#.#.........#.#.#.#.#.#.#...#.#.#...........#.#.#.#.#.#.#...#.#.#.........#.#.#.#.#.#.#.#.........#.#.....#.#.#.#...#.#.#.........#.#.#.#.#.#.#.#.#.#.........#.#.#.#.#.#.#.#.............#.#.#.#.#.#.#.#.....#.#.#.......#.#.#.#.........#...#.................T x P Y T T Q Q Q Q ! T T Y G qX4.Q Q T J }.Q.#.Q ! P ^.}.2.#.#.#.#.#.#.#.#.#.#.#.#.#.#.#.#.#.#.#.#.Y J H.:X6.5...O.#.O.#.#.#.#.#.#.#.#.#.#.#.#.#.#.#.#.[ C P T Q U Z Y ! Q ! C P T T Q Q ! Q ! ! ! T ~ q.>X).......................#.#...#.#.......#.#.#.........#.#.#.#.#.....#.#.#...#.#.#.#.#.#.#.#.#...#.............#.#.#.#.....#.#...#.....#.#.#.#...#.#.#.#.#.#.#.....#.#.#.#.#.#.......#.............#.#.#.#.#.#...#.#.#...........#.#.#.#.#.#.#.....#.#...........#.#.#.#.#...............................C I T T ! Q Q Q Q Q T T P D qXQ.#.Q Q Y =.dXh.#.Q ! I ^.eX5.#.#.#.#.#.#.#.#.#.#.#.#.#.[ Q Y P J D D S x Q.sXuXE.[ *.-.5.=.#.#.#.#.#.#.#.#.#.#.#.#.#.#.#.#.#.#.#.#.#.#.#.#.",
": 5.#.#.#.#.#.#.#.#.#.#.#.#.#.#.#.#.#.#.#.#.#.#.#.#.#.#.#.*.*.Q ! T T T T T Q [ [ #.#.#.#.#.#.#.#.#...Y N T Q Q P N Y T Q Q C J U T ! Q Q Q Q Q T T Y D x.j...........#...#.#...#...#.#.#.#...#.#.#.....#.#.#.#.#.#.........#.#.#.#.....#.#.#.#.#.#.O.......#.#.#.#.#.#.#.#.........#.#.#...#.#.........#.#.#.#.....#.#.#.#.....#.#...#.#...#.#.#.#.#...#.#.#.#.....#.#.#.#.#.#.#.#.............#.#.#.#.......#.#.#.......#.#.#.#.......#...#.....#.#.........T x P Y T T Q Q Q Q ! ! T Y G qX5.Q Q T J }.Q.#.Q ! P ^.}.2.#.#.#.#.#.#.#.#.#.#.#.#.#.#.#.#.#.#.#.#.Y J J.`.6.5.......O.#.#.#.#.#.#.#.#.#.#.#.#.#.#.#.#.[ C P T Q T A Y ! Q ! C P T ! ! Q ! ! ! ! T T ~ q.>X)...............................#.#.........#.#.#.....#.#.........#.#.......#.#.#.#.......#.#.#.#.#.#.#.#.....#.#.........#.#.#.#.#.#.#.#.........#.#...#.#.#.#.#.#.#.#.#.#.#.....#.#.....#.#.#.#.#.#.#.#.#.......#.#.#.#.....#.#.#.#.#.#.........#.#.#.#.....#.#.#.#.#.#.#.#.........#.................C I U T ! Q Q Q Q ! T Y P D qXQ.#.Q Q Y =.dXh.#.Q ! I ^.:X5.#.#.#.#.#.#.#.#.#.#.#.#.#.[ Q Y P J D D S N x.dX8XE.[ *.-.5.=.#.#.#.#.#.#.#.#.#.#.#.#.#.#.#.#.#.#.#.#.#.#.#.#.",
": 5.#.#.#.#.#.#.#.#.#.#.#.#.#.#.#.#.#.#.#.#.#.#.#.#.#.#.#.*.*.Q T T T T T T Q Q ..#.#.#.#.#.#.#.#.#.#.Y N T Q Q P N Y T Q Q C J U T ! Q Q Q Q Q T T Y D x.x...........#...#.#.....#.#...#.#.#.#.#.#...#.#...#.#.#.#.........#.#.#.#...#.#.#.#.#.#.#.#.......#.#.#.#.#.#.#.........#.#.#.#.#.#.#.........#.#.#.#.....#.#.#.#.#...............#.#.#.#.....#.#.#.#...#.#.#.#.#.#.#.#.#.............#.#.#.#.........#.#.......#.#.#.........#.#.....#.#.#.........Q x P U T T Q Q Q Q ! ! T Y G qX5.Q Q T J }.Q.#.! T P M.}.2.#.#.#.#.#.#.#.#.#.#.#.#.#.#.#.#.#.#.#.#.Y J n.2X6.5...O...O.#.#.#.#.#.#.#.#.#.#.#.#.#.#.#.#.[ C P T Q T A Y ! Q ! C I T ! Q Q ! ! ! T T T ~ q.=X).............................#.#.#.#.....#.#.#.#.....#.#.#.......#.#.........#.#.#.........#.#.#...#.#.#.#.#.....#.......#.#.#.#.#.#.#...........#.#.#.#.#.#.#.#.#.#.#.#.#.#.....#.#.#...#.#.#.#.#.#.#.#.#.......#.#.#.#...#.#.#.#.#.#.#.#.......#.#.#.#...#.#.#.#.#.#.#...#.#.#.#.#.#.................C I T T ! Q Q Q Q ! T Y P D qXQ.#.Q Q Y =.dXh.#.Q ! I ^.2X5...#.#.#.#.#.#.#.#.#.#.#.#.[ Q Y P J D D S N M.uXpXE.#.*.-.5.=.#.#.#.#.#.#.#.#.#.#.#.#.#.#.#.#.#.#.#.#.#.#.#.#.",
": 5.#.#.#.#.#.#.#.#.#.#.#.#.#.#.#.#.#.#.#.#.#.#.#.#.#.#.#.*.*.Q T T T T T T Q [ [ #.#.#.#.#.#.#.......Y N T Q Q P N Y T Q Q C J U T Q Q Q Q Q ! T T Y D m.x...........#...#.....#.#...#.#.#.....#.#.#.#.#.#.............#.#.#.#.#.#.#.#.#.#.#.....#.O...#.#.#.#.#.#.#...#.#.#.#.....#.#.#...#.#.........#.#.#.#.....#.#.#.#.O...#.#.#.#.#...#.#.........#.#.#.#.....#.#.#.#.#.#.......#.#.#.....#.#.#.#.........#.#.......#.#.#.#...#.....#.......#...........Q x P T T T ! Q Q Q ! ! T Y D qX4.Q Q T P }.Q.#.! T P M.}.2.#.#.#.#.#.#.#.#.#.#.#.#.#.#.#.#.#.#.#.#.Y J H.=X6.5...#.#.#.#.#.#.#.#.#.#.#.#.#.#.#.#.#.#.#.[ C P T Q U A Y ! Q ! C I T ! Q Q ! ! ! ! T T ~ q.>X[.......................#.....#.#.#.#.....#.#.#.#.#...#.#.#.......#.#.........#.#.#.#.....#.#.#.#.#.....#.#.#.#.#.O.....#.#.#.#.#.#.#.#.#.#.#...#.#.#.#.#.#.#.....O.#.#...O.#.#.#.#.#.#.#.#.#.#.#.#...#.#.....#.#.#.#.#.#.#.#.#.#.#...........#.#.#.#.#.#.#.#...............#.#.#.#.#...................C I T T ! Q Q Q Q ! T T P D qXQ.#.Q Q Y =.dXh.#.Q ! I ^.eX5.....#.#.#.#.#.#.#.#.#.#.#.[ Q Y J G D D S N M.sXuXE.#.*.-.5.=.#.#.#.#.#.#.#.#.#.#.#.#.#.#.#.#.#.#.#.#.#.#.#.#.",
": 5.O.#.#.#.#.#.#.#.#.#.#.#.#.#.#.#.#.#.#.#.#.#.#.#.#.#.#.*.*.Q T T T T T T Q [ [ ..#.#.#.#.#.#...#.#.Y N T ! Q P N Y T Q Q C J U T Q Q Q Q Q ! T T Y D x.j...........#.........#.....#.#.#.....#.#.#.#.#.#.........#.......#.#.#.#.#.#.#.#.#.#.....#.......#.#.#.#.#...#.#.#.#.#.#.........#.#.........#.#.#.#.#...#.#.........#.#.#.#.#...#.#.#.......#.#.#.#.....#.#.#.#...........#.#.#...#.#.#.#.#.......#.#.#.......#.#.#.....#.#...#.#.....#...........Q x P T T T ! Q Q Q ! ! ! P D qX4.Q Q T P }.Q.#.Q ! P M.}.2.#.#.#.#.#.#.#.#.#.#.#.#.#.#.#.#.#.#.#.#.Y J J._.6.5...O.O.#.#.#.#.#.#.#.#.#.#.#.#.#.#.#.#.#.[ C P T Q U A Y ! Q ! C I T T Q Q ! ! ! ! T T ~ q.>X[...................#.#.#.......#.#.#...#.#.#.........#.#.........#.#.........#.#.#.#.....#.#.#.#.#.......#.#.#.#.........#.#.#.#.#.#.#.#.......#.#.#.#.#...#.#.#.#.#.#...#.....#.#.#.#.#.#.#.#.#.#...#.#.........#.#.#.#.#.#.#.#.#...........#...#.#.#.#.#.#.#.#...........#.#.#.#.#...................C I T T ! ! Q Q Q ! T T P D qXQ.#.Q Q Y =.dXh.#.Q ! I ^.=X5...#.#.#.#.#.#.#.#.#.#.#.#.[ T Y J J D D D N x.dX8X_.[ *.-.5.=.#.#.#.#.#.#.#.#.#.#.#.#.#.#.#.#.#.#.#.#.#.#.#.#.",
": 5.#.#.#.#.#.#.#.#.#.#.#.#.#.#.#.#.#.#.#.#.#.#.#.#.#.#.#.*.*.Q T T T T T T Q [ [ #.#.#.#.#.#.#.#.#...Y N T ! Q P N Y T Q Q C J U T Q Q Q Q Q ! T T Y D x.j.{ ........#.......#.........#.#.............#.#.#.#.#.#.#.#.............#.#.#.#.#.#.#.#.#.#.........#.O.........#.#.#.#.#.#...#.#.#.#.#.....#.#.#.#.#.#.#.#.#.#.....#.#.#.#.#.......#.#.....#.#.#.#...#.#.#.............#.#.#.#.#.#.#.#.#.#.....#.#.#.......#.#.#.#.........#.#.......#...........Q x P T T T Q Q Q Q ! ! T P D qX4.Q Q T J }.Q.#.Q ! I M.}.2.#.#.#.#.#.#.#.#.#.#.#.#.#.#.#.#.#.#.#.#.Y J n.:X6.5.......O.#.#.#.#.#.#.#.#.#.#.#.#.#.#.#.#.[ C P ! ] T A Y ! Q ! C I T ! Q Q ! Q ! ! T T T q.=X[...................#.#.........#.#.#...#.#.#.#.......#.#.#.#.....#.#...#.....#.#...#...#.#.#...#.#.........O.#.#.#.#.#.#.#.#.#.#.....#.........#.#.#.........#.#.#.#.#.#.#.#...#.......#.#.#.#.#.#.#.#.#.................#.#.#.#.#.#.#.#...#.............#.#.#.#.#.#...#...#.#.#.......................C I T T ! Q Q Q Q ! T T P D qXQ.#.Q Q Y =.dXh.#.Q ! I ^.2X5.#.#.#.#.#.#.#.#.#.#.#.#.#.[ Q T P J D D S N M.8XpX-X#.*.-.5.-.#.#.#.#.#.#.#.#.#.#.#.#.#.#.#.#.#.#.#.#.#.#.#.#.",
": 5.#.#.#.#.#.#.#.#.#.#.#.#.#.#.#.#.#.#.#.#.#.#.#.#.#.#.#.*.*.Q T T T T T T Q Q ..#.#.#.#.#.#.#.#.....Y N U ! Q P N Y T Q Q C J U T ! Q Q Q Q ! T T Y D x.j.{ ........#...#.#.#.......#.................#.#.#.#.#.#.#.#...............#.#.#.#.#.#.#.#.#.......#.#.#.......#.#.#.#.#.#.#...#.#.#.#.#...#.#.#.....#.#.#.#.#.#.....#.#.#.#.#.......#.#.....#.#...#.....#.#...............#.#.#.#.#...#.#.#.....#.#.#.#.....#.#.#.#.........#.#.......#...........Q x P T T T Q Q Q Q Q Q T Y D qX4.Q Q T J }.Q.#.Q ! I V.}.2.#.#.#.#.#.#.#.#.#.#.#.#.#.#.#.#.#.#.#.#.Y J F.=X6.5.#.....O.#.#.#.#.#.#.#.#.#.#.#.#.#.#.#.#.[ C P T ] T A Y ! Q ! C I T ! Q Q Q Q ! T T T T q.+X[.....................#.....#.#.#.......#.#.#.#.......#.#.#.#.....#.#.#.#.#.#.#.#.....#.#.#.#.................#.#.#.#.#.#.#.#.........#.........#.#.#...#.#...#.#.#.#.#.#.#.#...#.....#.#.#.#.#.#.#.#.#.#.#.................#.#.#.#.#.#.#.#.#...............#.#.#.#.....#.#.#.#.#.....#.................C I T T ! Q Q Q Q ! T T P D qXQ.#.Q Q Y =.dXh.#.Q ! I ^.1X5.#.#.#.#.#.#.#.#.#.#.#.#.#.[ Q T P J D D S N M.pXuX`.#.*.-.5.-.#.#.#.#.#.#.#.#.#.#.#.#.#.#.#.#.#.#.#.#.#.#.#.#.",
": 5.#.#.#.#.#.#.#.#.#.#.#.#.#.#.#.#.#.#.#.#.#.#.#.#.#.#.#.*.*.Q T T T T T T Q [ [ #.#.#.#.#.#.#.#.#...Y C U ! Q P N Y T Q Q C J U T ! Q Q Q ! ! T T Y D m.x.{ ..........#.#.#.#.#.#.#.#.#.#.........#.#.#.#.#.#.#.#.....#.#.#.......#.#.#.#.....#.#.......#.#.#.#.....#...#.#.....#.#.#.#.#...#.#.#.#.#.........#.#.....#.#.#.#.#.#.....#.#.#.#.#.#.#.#.........#.......#.#.#.#.#.#.#.#.....#.#.........#.#.#.#.#.#.#.#.#.......#.#.#.....#.#.#...#.#.........Q x P T T T ! Q Q Q Q Q ! T G qX2.Q Q T J }.Q.*.Q ! P M.}.2.#.#.#.#.#.#.#.#.#.#.#.#.#.#.#.#.#.#.#.#.T J J.E.6.5...#.#.#.#.#.#.#.#.#.#.#.#.#.#.#.#.#.#.#.[ C P T Q T A Y ! Q ! C I T ! ! ! Q Q Q ! T T T q.2X[.......................#.............#.#.....#.#.#.#.......#.#.#.....#.#.#.#.........#.......#.#.#.#.#.#.#.#.......#.#.#.#.#.#.#.....#.#.........#.#.....#.#.#...#.#.#.#.....#.#.#...#.O.#.#.#.#.....#.#.......#.#.......#.#.#.#...#.#.....#.#.#.........#.#...#.#.#.#.....#.#.#.....#.................C P U T T Q Q Q Q ! T U I D qXQ.#.Q Q Y =.dXh.#.Q ! I ^.wX5.#.#...#.#.#.#.#.#.#.#.#.#.[ Q T P J D D D N x.dXpX`.#.*.-.5.-.#.#.#.#.#.#.#.#.#.#.#.#.#.#.#.#.#.#.#.#.#.#.#.#.",
": 5.O.#.#.#.#.#.#.#.#.#.#.#.#.#.#.#.#.#.#.#.#.#.#.#.#.#.#.*.*.Q T T T T T T Q [ [ ..#.#.#.#.#.#.#.#...Y C I ! Q P N Y T Q Q C G U T Q Q Q Q ! ! T T Y D m.x.{ ..............#...........#.#.....#...#.#.....#...#.#.....#.#.#.#.....#.#.#.#.....#.#.....#.#.#.#.#.....#...#.#.......#.#.#.#.#.#.#.#.#.#.........#.#.....#.#.#.#.#.#.....#.#.#...#.#.#.#...#.....#.......#.#.#.#.#.#.#.#...#.#.#.........#.#.#.#...#.#.#.........#.#.#.#...#...................Q x J T T T ! Q Q Q Q ! ! Y G qX2.Q Q T J }.Q.*.Q ! P M.}.2.#.#.#.#.#.#.#.#.#.#.#.#.#.#.#.#.#.#.#.#.T J P.=X6.5...#.#.#.#.#.#.#.#.#.#.#.#.#.#.#.#.#.#.#.[ C P T Q T C Y ! Q ! C I T T Q Q Q Q Q ! T T T q.2X[.......................#...#.........#.#.....#.#.#.#.......#.#.#.#...#.#.#.#.........#.....#.#.#.#.#.#.#.#.#.......#.....#...#.#.....#.#.........#.#.#.#.#.#.....#.#.#.#.....#.#.#.#.#.#.#.#.#.#.....#.#.....#.#.#.#.O.#.#.#.#.#.....#.........#.#.#.....#...#.#...#.#.....#.#.#.......................C P U T T Q Q Q Q ! T T P D qXQ.#.Q Q Y =.dXh.#.Q ! I ^.6X5...#...#.#.#.#.#.#.#.#.#.#.[ Q T P J D D D N M.7XpX:X[ *.-.5.-.#.#.#.#.#.#.#.#.#.#.#.#.#.#.#.#.#.#.#.#.#.#.#.#.",
": 5.#.#.#.#.#.#.#.#.#.#.#.#.#.#.#.#.#.#.#.#.#.#.#.#.#.#.#.*.*.Q T T T T ! T Q [ [ #.#.#.#.#.#.#.#.#.#.Y C I ! Q P b Y T Q Q C G U T Q Q Q ! ! ! T T Y D m.x.{ ..............#...........#.#.#.#.#.#.#.#.........#.......#.#.#.#...#.#.#.#.......#.......#.#.#.#.......#.#.#.#.#.O.....#.#.#.#.#.#...#.#.#...#.#.#.#.......#.#.#.#.#.#.#.#.#.........#.#.#.#.#.#.#.#.....#.#.#.#.#.#.........#.#.#.#.....#.#.......#.#.#.#.#.....#.#.#.#.#.......#.............Q x J U T T Q Q Q Q Q ! ! P G qX2.Q Q T J Q.Q.*.Q ! P V..X2.#.#.#.#.#.#.#.#.#.#.#.#.#.#.#.#.#.#.#.#.T J F.2X6.5...#.#.#.#.#.#.#.#.#.#.#.#.#.#.#.#.#.#.#.[ C P T Q T C Y ! Q ! C I T Q Q Q Q Q Q ! T T T #.>X[.............................#...#.#.#.#.........#.#.......#.#.#.........#.#.#.#.#.#.#.#...#.#.#.#.#.#.#.#.#.....#.#.........#.#.#.#.#.#.#.#...#.#.#.#.#.#.#.......#.O.......#.#.#.#...#.#...#.#.....#.#.#...#.#.#.#.#.#.#.#.........#.#.....#.#.#.#...#.#.#.#.....#.......#.#.#.......................C P U T ! Q Q Q Q Q T U P D qXQ.#.Q Q Y =.dXM.#.Q ! I ^.yX5.#.#.#.#.#.#.#.#.#.#.#.#.#.[ Q T P J D D D N M.pXsX`.#.*.-.5.-.#.#.#.#.#.#.#.#.#.#.#.#.#.#.#.#.#.#.#.#.#.#.#.#.",
": 5.#.#.#.#.#.#.#.#.#.#.#.#.#.#.#.#.#.#.#.#.#.#.#.#.#.#.#.*.*.Q T T T T T T Q ) ..#.#.#.#.#.#.#.......Y C U ! Q Y b Y T Q Q C G U T Q Q Q ! ! ! T T Y D m.x.{ ..........#.#.#.#.#.....#.#.#.#.....#.#.#.................#.#.#.#...#.#.#.........#.......#.#.#.#.....#.#.#.#.#.#.......#.#.#...#.#.....#.#.#.#.#.#.#.......#.#.#.O...#.#.#.#.............#.#.#.#.#.#.......#.#.#.#.#.........#.#.#.#.#.#...........O.#.#.#.#.......#.#.#.....#.#.#.............Q x J T T T Q Q Q Q Q ! ! P G qXh.Q Q T P Q.Q.*.Q ! P M..X2.#.#.#.#.#.#.#.#.#.#.#.#.#.#.#.#.#.#.#.#.T J J.U.6.5...#.#.#.#.#.#.#.#.#.#.#.#.#.#.#.#.#.#.#.[ C P T Q T C Y ! Q ! C I T ! Q Q Q ! ! T T T ~ #.2X[...........................#.#.#.#.#.#.#.......#.#.#.#.#...#.#.#.........#.#.#.#.#.#.#.#...#.#.#.#.#.#.#.#.......#.#...#.....#.#.#.#.#.#.#.#.#...#.#.#.#.#.#.......#.........#.#.#.#...#.#.#.#.#.....#.#.#...#.#.#.#...#.#.#.........#.#.....#.#.#.#...#.#.#...............#.#.#.......................C P U T ! Q Q Q Q ! T U P D qX}.#.Q Q Y =.dXM.#.Q ! I ^.iX5.#.#.#.#.#.#.#.#.#.#.#.#.#.[ Q T P J D D S N x.dXpX[.#.*.-.5.-.#.#.#.#.#.#.#.#.#.#.#.#.#.#.#.#.#.#.#.#.#.#.#.#.",
": 5.#.#.#.#.#.#.#.#.#.#.#.#.#.#.#.#.#.#.#.#.#.#.#.#.#.#.#.*.*.Q T T T T T T Q [ [ #.#.#.#.#.#.#.....#.Y C U ! Q Y N Y T Q Q C J U T ! Q Q ! ! ! T T Y D m.j.............#.......#.......#.#.#.#.........#.#.#.#.#.#.#.#.........#.#.....#.#.#.#...#.#.#.........#.#.............#.#.#.#.#.#.#.#.#.#.#.#.#.#.#.......#.#.#.#.#.#.#.#.#.#.#.#.#.#.#.#.#.#.#.....#.....#.#.#.#.#.#.......#.#.#...................#.#.#.............#.#.......#.#.#.#.#...........Q x J T T T Q Q Q Q Q ! ! P G qXh.Q Q T P Q.Q.=.Q ! P M..X2.#.#.#.#.#.#.#.#.#.#.#.#.#.#.#.#.#.#.#.#.T J P.[.6.5...#.#.#.#.#.#.#.#.#.#.#.#.#.#.#.#.#.#.#.[ C P T Q T A Y ! Q ! C I T ! Q Q Q Q Q ! T ~ T #.2X[.............#.......#.....#.#.#.#.......#...#.#.#.#.#.#...#.#.#.......#.#.#.#.#.#.#.#.#.......#.#.#.............#.#.#.#.#.#.......#.#.......#.#.#.#.#.......#.#.#.#.#.#.#.#...#.#.#...#.#.#.#.......#.#.#...#.#.#.#.........#.#.#...#.#.#.#.....#.#.......#.#.......#.#.#.#.........#.................C P T T ! Q Q Q Q Q T T P D }.}.*.Q Q Y =.dXM.#.Q ! Y ^.aX5.O.#.#.#.#.#.#.#.#.#.#.#.#.[ Q T P J D D D N v.dXuX=X#.*.-.5.-.#.#.#.#.#.#.#.#.#.#.#.#.#.#.#.#.#.#.#.#.#.#.#.#.",
": 5.O.#.#.#.#.#.#.#.#.#.#.#.#.#.#.#.#.#.#.#.#.#.#.#.#.#.#.*.*.Q T T T T T T Q [ [ ..#.#.#.#.#.#...#.#.Y C U ! Q Y N Y T Q Q C J U T ! Q Q Q Q ! T T Y D m.x.....................#.......#.#.#.#.........#.#.#.#.#.#.#.#.........#.#.....#.#.#.#...#.#.#.#.......#.#.#.#.........#.#.#.#.........#.#.#.#.#.#.#.#.....#.#.#.#.#.#.#.#.#.#.....#.#.#.#.#.#.#.#.#.#.....#.#.#.#...#.........#.#.#.#.............#.#.#.#.........#...#.#.......#.#.#.#.#.#.........Q x J T T T ! Q Q Q Q Q ! P G qXh.Q Q T P Q.Q.=.Q ! P M..X2.#.#.#.#.#.#.#.#.#.#.#.#.#.#.#.#.#.#.#.#.T J F.6X6.5.......#.#.#.#.#.#.#.#.#.#.#.#.#.#.#.#.#.[ C P T Q T A Y ! Q ! C I T ! Q Q Q Q Q ! T T T #.2X[.............#.........#.....#.#.#.#.#...#.#.#.#.#.#.#.#...#.#.#...#.....#.#.#.#.#.#.#.#.....#.#.#.#.#.#.........#.#.#.#.#.#.......#.#.#.....#.#.#.#.#.......#.#.#.#.#.#.#.....#.#.#...#.#.#.#.......#.#.#.....#.#.#.......#.#.#.#...#.#.#.#.......#.......#.#.#.#.......#...........#.................C P T T ! Q Q Q Q Q T T P D }.}.*.Q T T =.dXM.#.Q ! Y ^.yX5.#.#.#.#.#.#.#.#.#.#.#.#.#.[ Q T P J D D D N M.uXsX[.#.*.-.5.-.#.#.#.#.#.#.#.#.#.#.#.#.#.#.#.#.#.#.#.#.#.#.#.#.",
": 5.#.#.#.#.#.#.#.#.#.#.#.#.#.#.#.#.#.#.#.#.#.#.#.#.#.#.#.*.*.Q T T T T T T Q [ [ #.#.#.#.#.#.#...#.#.Y C U ! Q Y N Y T Q Q C J U T ! Q Q Q Q Q Q T Y D m.j...............................#.#.#.#.#.....#.#.#.#.#...#.#.....#...#.#.....#.#.#.#.....#.#.#.#.....#.#.#.#.#.#...#.#.#...............#.#.#.#.#.#.#.....#.#.........#.#.................#.#.#.#.#.#.....#.#.............#.#.#.#.#.#.#.#...#.......#.#.#.#.#.#.#.#.#.#.........#...................Q x J T T T ! Q Q Q Q ! ! P G qXh.Q Q T J Q.Q.*.Q ! I M..X2.#.#.#.#.#.#.#.#.#.#.#.#.#.#.#.#.#.#.#.#.T J J.,X6.5.......O.#.#.#.#.#.#.#.#.#.#.#.#.#.#.#.#.[ C P T ] T A Y ! Q ! C I T ! Q Q Q ! ! ! T ~ ~ #.>X[.............#...#.#.#.#.#.#.#.#.#.#.......#.....#.#.........#.....#.#.#.#.#...#.....#.......#.#.#.#.#.#.#.#...#.#.#.....#.#...#.#...#.#.O.#.#.#.#...#.#.....#.#.#.#.#.#.........#.#.#...#.#.#.#.....#.#.........#.#.....#.#.#.#.....#.#.#.#.....#.#.....#.#.#.#.....#...........#.O.#.................C P T T ! Q Q Q Q Q T T P D }.}.*.Q T Y -.dXM.#.Q ! Y ^.iX5.#.#.#.#.#.#.#.#.#.#.#.#.#.[ Q T P J D D D N M.sXuX[.@.*.-.5.-.#.#.#.#.#.#.#.#.#.#.#.#.#.#.#.#.#.#.#.#.#.#.#.#.",
": 5.#.#.#.#.#.#.#.#.#.#.#.#.#.#.#.#.#.#.#.#.#.#.#.#.#.#.#.*.*.Q T T T T T T Q Q ..#.#.#.#.#.#.#.....#.Y C U ! Q Y b Y ! Q Q C J U T Q Q Q ! ! ! Q T Y D m.j...............................#.#.#.#.#...#.#.#.........#.#.#...#.#.#.#.........#.#.....#.#.#.#.....#.#.#.#.#.#.#.#.#.#.#...#.........#.#.#.#.#.#.#.......#...#.....#.#.#...............O.#.#.#.#.......#.#.............#.#.#.#.#.#.#.#.#.#.......#.#.#.#.#.#.#.#.#.#...#.....#...................Q x J T T T Q Q Q Q Q ! ! Y G qXs.Q Q T J Q.Q.*.Q ! I V..X2.#.#.#.#.#.#.#.#.#.#.#.#.#.#.#.#.#.#.#.#.T J P.=X6.5.......O.#.#.#.#.#.#.#.#.#.#.#.#.#.#.#.#.[ C P T ] T A Y ! Q ! C I T Q Q Q Q ! ! T ! ~ ~ #.>X[.............#.....#.#.#.#.#.#.....#.........................#.#.....#.#.#.#.........#.......#.#.#.#.#.#.#.#.#.#.#.#.....#.#.#.#.#.#.#...#.#.#.#.....#.#...#.#.#.....#.#.........#.#.#.#.#.#.#.#.....#.#.........#.#.....#.#.#.#.....#.#.........#.#.....#.#.#.#.....#.#.....#...#.#.#.................C P U T ! Q Q Q Q Q T T P D }.}.*.Q Q T -.dXM.#.Q ! Y ^.aX5.#.#.#.#.#.#.#.#.#.#.#.#.#...Q T P J D D D N x.dXuX=X*.*.-.5.-.#.#.#.#.#.#.#.#.#.#.#.#.#.#.#.#.#.#.#.#.#.#.#.#.",
": 5.#.#.#.#.#.#.#.#.#.#.#.#.#.#.#.#.#.#.#.#.#.#.#.#.#.#.#.*.*.Q T T T T T T Q [ [ #.#.#.#.#.#.#...#.#.Y C U ! Q Y N Y Q Q Q C J U T Q Q Q Q ! Q Q T Y D m.j.{ ......................#.#.........#.#.#.#.................#.#.#.#.#.#.#.#.......#.......#.#.#.#.#.#.#.#.#.#.#.#.#.......#.#...........#.#.#.#...............#.#.#.........#.#.........#.#.#.#...........#...#.#.#.#.#.#.#...#.#.#.#.#.........#.#.#.#.#.#.#.....#.........#.....................Q x J T T T Q Q Q Q Q ! ! T G qXh.Q Q T J Q.Q.*.Q ! P M..X2.#.#.#.#.#.#.#.#.#.#.#.#.#.#.#.#.#.#.#.#.T J F.6X6.5...#.#.#.#.#.#.#.#.#.#.#.#.#.#.#.#.#.#.#.[ C P T Q T A Y ! Q Q C I T Q Q Q Q Q ! ! ! T T #.>X[.............#.....#...#.....#.....................#.#.#.#...........#.#.#.#.#.#.......#.#.#...........#.#...#.#.#.#.......#.#.#.#.#.#.#.#.#.#.#.#...#.#.#.#.#.......#.#.......#.#.#.#...#.#.#.#.#...#.#.#.......#.#.#.#.#.#.#.......#.......#.#.#.#...#.#.#.#.#.#.#.#.#.#...#.#.#.#.#.................C P T T ! Q Q Q Q ! T T P D }.}.*.Q Q T =.dXM.#.Q ! I N.yX5.#.#.#.#.#.#.#.#.#.#.#.#.#.[ Q T P J D D D N M.8XsX9X*.*.-.5.-.#.#.#.#.#.#.#.#.#.#.#.#.#.#.#.#.#.#.#.#.#.#.#.#.",
": 5...#.#.#.#.#.#.#.#.#.#.#.#.#.#.#.#.#.#.#.#.#.#.#.#.#.#.*.*.Q T T T T T T Q [ [ ..#.#.#.#.#.#.....#.Y C U ! Q Y b Y T Q Q C J U ! Q Q Q Q Q Q Q T Y D m.j.) ..................#.#.............#.#.#.#.................#.#.#.#.#.#...#.............#.#.#.#.#.#.#.#.#.#.#.#.#.#.......O.#.#.........#.#.#.#.....#.......#.#.#.#.........#...........#.#.#.#.#.#...........#.#.#.#.#.#.#...#.#.#.#.#.....#...#.#.#.#.#.#.#.#.............#.....................Q x J T T T ! Q Q Q Q Q T Y G qXh.Q Q T J Q.Q.*.Q ! P M..X2.#.#.#.#.#.#.#.#.#.#.#.#.#.#.#.#.#.#.#.#.T J J.,X6.5...#.#.#.#.#.#.#.#.#.#.#.#.#.#.#.#.#.#.#.[ C P T Q T A Y ! Q Q C I T ! Q Q Q Q ! ! ! T T #.>X[...................#.#.......#...................#.#.#.#.................#...#.#.......#.#.#.............#.#.#.#.#.#.....#.#.#.#.#.#.#.#.#.#.#.#.....#.#.#.#.#.#.....#.#.........#.#.....#.#.#.#.#.#.#.#.........#.#.#.#.#.#.#.#.............#.#.#.#.#.#.#.#.#.....#.#.#.....#.#.#.#.#.................C P T T T Q Q Q Q ! T T P D }.}.*.Q Q U =.dXM.#.Q ! Y N.iX5.#.#.#.#.#.#.#.#.#.#.#.#.#.[ Q T P J D D D N 9.sXuX*X*.*.,.5.-.#.#.#.#.#.#.#.#.#.#.#.#.#.#.#.#.#.#.#.#.#.#.#.#.",
": 5.#.#.#.#.#.#.#.#.#.#.#.#.#.#.#.#.#.#.#.#.#.#.#.#.#.#.#.*.*.Q T T T T T T Q [ [ #.#.#.#.#.#.#.#.#.#.Y C U ! Q Y N Y T Q Q C J U ! Q Q Q Q Q Q ! T Y D m.b.[ ..................#.#.....#.....#.....#.#.#...#.#.#.#.#.#.#.#.................#.#.#.#.#.#.#.#.#.#.#.#...#.........#.#.#.#.#.#.........#.#.#.......#.#.....#.#.#.#.#.#.#.#.#.#.......#.#.#.......#.#.#.....#.#.#.#.#.#.........#.#.#.#.....#.#.#.#.#.#.#.#.........#.#.#.#.#.#...................Q x J Y T T ! Q Q Q Q Q U P G qXh.Q Q T J Q.Q.*.Q ! Y M..X5.#.#.#.#.#.#.#.#.#.#.#.#.#.#.#.#.#.#.#.#.T J Y.OX6.5...#.#.#.#.#.#.#.#.#.#.#.#.#.#.#.#.#.#.#.[ C P T Q T A Y ! Q Q C I T T ! ! Q Q Q ! T T T #.>X[.............................#.#.#.#.....#.#.#.#.#.#.#.#.#.#.....#...........#.#.#.#.....#.#.#.#.....#.#...#.#.#...#.#.#.#.#.#.#.........#.#.#.#.#.#.....#...#.#.#.#.#.#.............#.#.#.#.#.#.#.#.............#.#.#.#.#.#.#.#.#.#.#.#.............#.#.....#.#.#.#.........#.........................C P T T T Q Q Q Q ! T T P D }.}.=.Q Q U D dXM.#.Q ! Y N.aX5.......#.#.#.#.#.#.#.#.#.#.[ Q T P P D D D N 8.dXsX=X*.*.-.5.-.#.#.#.#.#.#.#.#.#.#.#.#.#.#.#.#.#.#.#.#.#.#.#.#.",
": 5.#.#.#.#.#.#.#.#.#.#.#.#.#.#.#.#.#.#.#.#.#.#.#.#.#.#.#.*.*.Q T T T T T T Q Q ..#.#.#.#.#.#.#.#.#.#.Y C U ! Q Y N Y T Q Q C J U T Q Q Q Q Q Q T T Y D m.b.[ ....................#.#.#.#.#.#.#.........#.#.#.#.#.#.#.#.#.#.................#.#.#.#.#.#.#.#.#...#.#.............#.#.#.#.#.#...#.....#.#.#.#.....#.#.....#.#.#.#.#.#.#.#.#.#.....#.#.#.#.#.#.....#.#...#.#.#.#.#.#...........#.#.#.#.....#.#.#.#.....#.#.#.......#...#.#...#...................Q x J T T T ! Q Q Q Q ! U P G qXh.Q Q T J Q.'.*.Q Q Y M..X5.#.#.#.#.#.#.#.#.#.#.#.#.#.#.#.#.#.#.#.#.T J F.5X6.5...#.#.#.#.#.#.#.#.#.#.#.#.#.#.#.#.#.#.#.[ C P T Q T C Y ! Q Q C I T T ! ! Q Q ! T T T T #.>X[...............#.............#.....#.#...#.#.#.#.#.#.#.#.#.#.#.#.#.#.........#.#.#.#.....#.#.#.#.#...#.#...#.#.#.....#.#.#.#.#.#.............#.#.#.#.........#.#.#.#.#...#...........#.#.#.#.#.#.#.#...............#.#.#.#.#.#.#.#.#.#.#.............#.#.....#.#.#...........#.............[ ..........C P T T T ! Q Q Q ! T T P D }.}.*.Q Q T D dXM.#.Q ! Y N.aX5.......#.#.#.#.#.#.#.#.#.#...Q T P J D D D N 9.7XpX5X-.*.-.5.-.#.#.#.#.#.#.#.#.#.#.#.#.#.#.#.#.#.#.#.#.#.#.#.#.",
": 5.#.#.#.#.#.#.#.#.#.#.#.#.#.#.#.#.#.#.#.#.#.#.#.#.#.#.#.*.*.Q T T T T T ! Q [ [ #.#.#.#.#.#.#.#.#.#.T C U ! Q Y N Y T Q Q C J U T ! Q Q Q Q Q T T Y D m.b.[ ..................#.#.#.......#.#.....#...#.#.....#.#.#.#.#.#.........#.#.#.......#.#.#.#.#.#.....#.#...........#.#.#.#.#.#.#.#.#.#.#.#.#.........#.#.#.................#.#.#.....#.#.#.#.#.#.....#.#.#.#.#.#.#.#...........#.#.#.........#.#.#.#.....#.#.#.#.....#...#.........................Q x J T T T ! Q ! Q Q ! T Y G }.h.Q Q T J Q.}.=.Q Q Y M..X5.#.#.#.#.#.#.#.#.#.#.#.#.#.#.#.#.#.#.#.#.T J H.yX6.5...#.#.#.#.#.#.#.#.#.#.#.#.#.#.#.#.#.#.#.[ C P T Q T C Y ! Q Q C I T T Q Q ! ! ! ! T ~ ~ &.>X[...............#...#.#.#.#.#.......#.#.#.........................#.#.#.#.#...#.#.#.#.......#.#.#.#.#.#.#.#.#.........#.#...#.#.#.#.#.#.#.#.#.#.#.#.#.....#.#.#...........#.....#.#.#.#.#.#.#.#.#.#.#.............#.#.#...#.#.#.#.#.#.......#.#.#.........#.#.#.......#.......................#.........C J T T T T Q Q Q ! T T P D }.}.*.Q Q T D dXM.#.Q ! Y N.iX5...#.#.#.#.#.#.#.#.#.#.#.#.[ Q T P J D D D N 9.pXuX=X-.*.-.4.-.#.#.#.#.#.#.#.#.#.#.#.#.#.#.#.#.#.#.#.#.#.#.#.#.",
": 5.O.#.#.#.#.#.#.#.#.#.#.#.#.#.#.#.#.#.#.#.#.#.#.#.#.#.#.*.*.Q T T T T T T Q [ [ ..#.#.#.#.#.#.....#.T C T Q Q Y N Y T Q Q C J U T ! Q Q Q ! ! T T Y D y.b.[ ................#.#...........#.#.....#.#.#.#.........#.#.#.#.....#.#.#.#.........#.#.#.#.#.#.....#.............#.#.#.#.#.#.#.#.#.#.#.#.#.......#.#.#.#.#.....#.#.........#.#.#.#.#.#.#.#.......#.#.#.#.#.#.#.#.#.....#.O.....#.#.#.......#.#.#.#.......#.#.#.....#.#.#.........................Q x J T T T ! ! ! ! ! ! T U G }.s.Q Q T J Q.}.=.Q ! Y M..X5.#.#.#.#.#.#.#.#.#.#.#.#.#.#.#.#.#.#.#.#.T J Y.`.5.5...#.#.#.#.#.#.#.#.#.#.#.#.#.#.#.#.#.#.#.[ A P T Q T C Y ! Q Q C I T T Q Q ! T ! ! T ~ T ;.>X[...............#.#.#.#.#.#.........#.#.#...#...........#.........#.#.#.#.#.....#.#.#.....#.#.#...#.#.#.#.#.#.#.#.....#.#...#.#.#.#.#.#.#.#.#.#.#.........#.#.#.#.........#...#.#.#.#.....#...#.#.#.#...#.........#.#.#...#.#.#.#.#.#.......#.#.#...#.........#.#.....#.................................C J T T T T Q Q Q ! T T P D }.}.*.Q Q T D dXM.#.Q ! Y N.aX5...#...#.#.#.#.#.#.#.#.#.#.[ Q T P J D D D N 3.dXpX=X=.*.,.4.-.#.#.#.#.#.#.#.#.#.#.#.#.#.#.#.#.#.#.#.#.#.#.#.#.",
": 5.#.#.#.#.#.#.#.#.#.#.#.#.#.#.#.#.#.#.#.#.#.#.#.#.#.#.#.*.*.Q T T T T T T Q [ [ #.#.#.#.#.#.#.......T C Y ! Q Y N Y T Q Q C J U T Q Q Q ! ! ! Q T Y D y.b.[ ..................#...#.#.....#.#...#.#.#.#.#.............#.#.#...#.#.#.#.#.#.......#.....#.......#.#.........#.#.#...#.#.#.#.#...#.#.#.#.....#.#.#.#.#.O.#.#.#.#.....#.#.#.#.#.#.#.#.#.#.....#.#.....#.#.#.#.#.#.#.#.#.#.........#.#.....#.#.#.#.......#...#.....#.............................Q x J T T T ! Q Q ! Q ! T T G }.s.Q Q T J Q.}.=.Q ! P V..X5.#.#.#.#.#.#.#.#.#.#.#.#.#.#.#.#.#.#.#.#.T J Q.,X5.5...#.#.#.#.#.#.#.#.#.#.#.#.#.#.#.#.#.#.#.O.A P T Q T C Y ! Q Q C I T ! Q Q Q Q ! ! T T T &.>X[...............#.#.#.#.#.#.........#.#.#.#.#.#.#.#.#.#.#.#.#.#.#.#.#.#.#.........#.#.#.#.#.#.................#.#.#.#.........#.#.#.#...#.....#.......#.#.#.#.#.......#...#.#.#.#.#.#.............#.#.#.#.#.#.#.#.#.#.............#.#.....#.#.#.#.#.#.#.#.#.#...#.........#.#.#.....#...................C P T T T T Q Q Q Q T T P D }.}.*.Q Q T D dXM.#.Q ! Y N.aX5.......#.#.#.#.#.#.#.#.#.#...Q T P J H D D N 9.dXpX5X-.*.-.5.2.#.#.#.#.#.#.#.#.#.#.#.#.#.#.#.#.#.#.#.#.#.#.#.#.",
": 5.#.#.#.#.#.#.#.#.#.#.#.#.#.#.#.#.#.#.#.#.#.#.#.#.#.#.#.*.*.Q T T T T T T Q Q ..#.#.#.#.#.#.#.......T C P ! Q Y N Y T Q Q C J U T ! Q Q ! ! ! ! T Y D y.b.[ ..................#.#.#.#.......#.#.#.#.#.#...............#.#.....#.#.#.#.#.#.............#.......#.......#.#.#.#...#.#.#.#.#.#...#.#.#.#...#.#.#.#.#.#...#.#.#.#.....#.#.#.#.#.#.#.#.#.......#.#.......#.#.#.#.#.#.#.#.#.........#.#.....#.#.#.......#.#.#.......#.............................Q x J T T T Q Q Q ! Q ! T T G }.s.Q Q T J Q.'.*.Q ! P M..X5.#.#.#.#.#.#.#.#.#.#.#.#.#.#.#.#.#.#.#.#.T J x.yX5.5...#.#.#.#.#.#.#.#.#.#.#.#.#.#.#.#.#.#.#.O.A P T Q T C Y ! Q Q C I T ! Q Q Q Q Q T ! T T &.>X[.................................#.#.#.#.#.#.#.#.#.#.#.#.#.#.#.#.#.#.#.#.........#.#.#.#.#.#...............#.#.#.#.#...........#.#.#.........#.......#.#.#.#.#.#.#.#.#.#.#.#.#.#.#.#.............#.#.#.#.#.#.#.#.#.#...............#.......#.#.#.#.#.#.#.#.#...#.#.#.#.#.#.#.#.........................C P T T T T Q Q Q ! T T P D }.}.*.Q T T D dXM.#.Q ! I N.aX5.......#.#.#.#.#.#.#.#.#.#...Q T P J J D D N 9.uXsX=X<.*.-.5.2.#.#.#.#.#.#.#.#.#.#.#.#.#.#.#.#.#.#.#.#.#.#.#.#.",
"; 5.#.#.#.#.#.#.#.#.#.#.#.#.#.#.#.#.#.#.#.#.#.#.#.#.#.#.#.*.*.Q T T T T T T Q [ [ #.#.#.#.#.#.#.#.#.#.T C Y ! Q Y N Y T Q Q C J U T ! ! Q Q Q ! T T Y D y.b.[ ..................#.............#.#.#.....#.#.#.#.#.#.#...........#.#.#...#.#.#.#.#.#.............#.#.........#.#.....#.#.#.#.........#...#.#.#.#.#.#.#.#.#.#.#...#.#.#.#...#.#.#.........#.#.#.#.....#.#.#.#.....#.#.......#.#.#.#.#.#.#.........#.#.....#.#.#.#.#.............................Q x J T T T Q Q Q ! Q ! T T G }.s.Q Q T J Q.'.*.Q ! P M..X5.#.#.#.#.#.#.#.#.#.#.#.#.#.#.#.#.#.#.#.#.T J x.).5.5.........#.#.#.#.#.#.#.#.#.#.#.#.#.#.#.#.O.A P T Q T C Y ! Q Q C I T ! Q Q Q Q ! ! ! T T &.>X[.............................#.#.#.#.#.#.#.#.#.#.#.#...#.#.#.#.#.#.#.#.#.#.......#.#.#.#...#.#.#.........#.#.#.#.#.#.#...#.#.........#.#.............#.#.#.#.#.#.#.#.#.#.#.#.#.#.#.#...............#.#.#.#.#.#.#.#.#.................#.#.#.#.....#.#.#.#.#.#.#.#.#.#.......#.#.................[ ..[ [ A P T T T ! Q Q Q Q T T P D }.}.*.Q T T D dXM.=.Q ! Y N.iX5.#.#.#.#.#.#.#.#.#.#.#.#.#...Q T P J D D D N 9.dXpX=X,.*.-.5.2.#.#.#.#.#.#.#.#.#.#.#.#.#.#.#.#.#.#.#.#.#.#.#.#.",
"; 5...#.#.#.#.#.#.#.#.#.#.#.#.#.#.#.#.#.#.#.#.#.#.#.#.#.#.*.*.Q T T T T T T Q [ [ ..#.#.#.#.#.#.#.#.#.T C T ! Q Y N Y T Q Q C J U T ! Q Q ! Q ! T T Y D y.b.[ ..................#.#...........#.#.#.#...#.#.#.#.#.#.#.#.......#.#.#.#...#.#.#.#.#.#...........#.#.#.........#.#.....#.#.#.#.......#.....#.#.#.#.#.#.#.#.#.#.....#.#.#.#...#.#.#.........#.#.#.#.....#.#.#.#.....#.#.....#.#.#.#.#.#.#.#.........#.#.#...#.#.#.#.#.............................Q x J T T T ! Q Q ! Q ! ! U G }.s.Q Q T J Q.'.*.Q ! P M..X5.#.#.#.#.#.#.#.#.#.#.#.#.#.#.#.#.#.#.#.#.T J v.-X5.5...#.#...#.#.#.#.#.#.#.#.#.#.#.#.#.#.#.#.O.A P T Q T C Y ! Q Q C I T T Q Q Q ! Q ! ! T T &.>X[.............................#...#.#.#.#.#.#.#.#...#.....#.#.#.#.#.#.#.#.........#.#.#.#.....#.#.#.#.#...#.#.....#.#.#.#.#.#.........#.#.............#.#.#...#.#.#.#.#.#.#.#.#.#.#.#.#.....#.....#.#.....#.#.#.#.#.#.......#.....#.#.#.#.#.#...#.#.#.#.....#.#.#.#.#.......#.#.#.#.#.#.........[ ..[ [ A P T ! ! Q Q Q Q Q T T P D }.}.*.Q Q T D dXM.=.Q ! Y N.aX5.#.#.#.#.#.#.#.#.#.#.#.#.#.[ Q T P J D D D N 9.dXpX5X-.*.-.5.2.#.#.#.#.#.#.#.#.#.#.#.#.#.#.#.#.#.#.#.#.#.#.#.#.",
"; 5.#.#.#.#.#.#.#.#.#.#.#.#.#.#.#.#.#.#.#.#.#.#.#.#.#.#.#.*.*.Q ! T T T T T Q [ [ #.#.#.#.#.#.#.#.O.#.T C U ! Q Y N Y T Q Q C J U T ! Q Q Q Q ! T T Y D y.b.[ ....................#.....#.#.#.#.#.#.........#.#.#.#.#.#.....#.#.#.#.........#.#.#.#.#.#...#...#.#.#.#.#...#.#.#.....#.#.#.......#.#.....#.......#.#.#.#.........#.#.........#.#.#.#.....#.#.......#.#.#.#.......#.......#.#.#.#.....#.#.....#.#.#.#.........#.#.#.............................Q x J T T T ! Q Q ! Q ! ! P G }.s.Q Q T J Q.'.=.) ! P M..X5.#.#.#.#.#.#.#.#.#.#.#.#.#.#.#.#.#.#.#.#.T J x.6X5.5...#...#.#.#.#.#.#.#.#.#.#.#.#.#.#.#.#.#.O.A P T Q T C Y ! Q Q C I T T ! Q Q ! ! ! ! ~ T ;.>X[.5...................................#.#.#.#.................#.#.#.#.........................#.#.#.#.#.#.#.#...#...O.#...#.#.#.#.....#.#.#.#...#.#.#.#.#.......#.#.O.........#...#.#.....#.#.#.#.#.#.........#.#.#.#.....#.#.#.#.#.#.#.#.........#.#.#.#.....#...#.........#.#.#...............[ ..[ [ A P T ! ! Q Q Q Q Q T T P D }.}.*.Q ! T D dXM.=.Q ! Y N.dX5.#.#.#.#.#.#.#.#.#.#.#.#.#...Q T P J D D D N 9.uXsX-X1.*.-.5.2.#.#.#.#.#.#.#.#.#.#.#.#.#.#.#.#.#.#.#.#.#.#.#.#.",
"; 5.#.#.#.#.#.#.#.#.#.#.#.#.#.#.#.#.#.#.#.#.#.#.#.#.#.#.#.*.*.Q T T T T T T Q Q ..#.#.#.#.#.#.#.....#.T C P ! Q Y x Y T Q Q C J U T ! Q Q Q Q Q T T Y D y.b.[ ............................#.#.#...#.........#.#.#.#.#.#.....#.#.#.#...........#.#.#.#.#.#.#...#.#.#.#.#.....#.#.....#.#.#.#.....#.#.....#...........#.#.#.......#...........#.#.#.#.#.............#.#.#.........#.......#.#.#.#.........#.#.#.#.#.#.........#.#.#.............................Q x J T T T ! Q Q Q Q ! ! U G }.d.Q Q T J Q.}.=.) Q Y M..X5.#.#.#.#.#.#.#.#.#.#.#.#.#.#.#.#.#.#.#.#.T J x.,X5.5...#.#.#.#.#.#.#.#.#.#.#.#.#.#.#.#.#.#.#.O.A P T Q T C Y ! Q Q C I T ! ! Q Q ! ! ! T ~ T ;.>X[.5.............................................................#.#.#...............#.........#.#.#.#.#.#.#.#.............#.#.#.#.#.#.#.#.#.#.#.#.#.#.#.#.......#.#...............#.#.....#.#.#.#.#.#...........#.#.#.....#.#.#.#.#.#.#.#.........#.#.#.#...................#.#.#.....................[ A P T T ! Q Q Q Q Q T T P D }.}.*.Q T T D dXM.=.Q ! Y N.sX5.#.#.#.#.#.#.#.#.#.#.#.#.#...Q T P J J D D C 9.sXuX-X1.*.-.5.2.#.#.#.#.#.#.#.#.#.#.#.#.#.#.#.#.#.#.#.#.#.#.#.#.",
"; -.#.#.#.#.#.#.#.#.#.#.#.#.#.#.#.#.#.#.#.#.#.#.#.#.#.#.#.*.-.Q T T T T T T Q [ [ #.#.#.#.#.#.#.....#.T C P ! Q Y x Y T Q Q C J U T Q Q Q Q Q ! T T T D y.b.[ ..........................#.#.#.#...#.#.#.....#.#.#.#.............#.#.#.#.#.#.#.#.#.#.#.#.#.#.#.#.....#.#.#.#.....#.#.#.#...#.#.#.#.#.#.#.#.#.#.......#.#.#.#.#.#.#.#.#.......#.#.#.#.#.#.#...........#.#.#.#.....#.#.#.#...#.#.#.....#.#.#.#.....#.#.#.#.#.#.#.#.#.#...........................Q x J T T T ! Q Q Q Q ! T T G }.d.Q Q T J Q.}.=.Q ! P s..X5.#.#.#.#.#.#.#.#.#.#.#.#.#.#.#.#.#.#.#.#.T J v.=X5.5...#.#.#.#.#.#.#.#.#.#.#.#.#.#.#.#.#.#.O.O.A P T Q T C Y ! Q Q C I T T Q Q Q T ! ! T ~ ~ &.>X[.5.......#.................#.#.#.........#.#.#.#.#...#.#.#.#.#.#.#.#.#.#.#.#.#.#.#.#.#.#.#.#.........#.#.....#.#.#.#.........#...#.#.#.#.......#.#.#.............#.#.#.............#.#.#.#.#.#.#.#.#.#.#.......#.#.#.....#.#.#.#.............#.#.#.#.#.......................#.....................[ [ A P T T ! ! Q Q Q Q T T P D }..X*.) Q T D dXQ.*.Q ! Y N.dX5.#.....#.#.#.#.#.#.#.#.#.#...Q T P J D D D C 9.dXsX,X1.*.-.5.2.#.#.#.#.#.#.#.#.#.#.#.#.#.#.#.#.#.#.#.#.#.#.#.#.",
"; -...#.#.#.#.#.#.#.#.#.#.#.#.#.#.#.#.#.#.#.#.#.#.#.#.#.#.*.-.Q T T T T T T Q [ [ ..#.#.#.#.#.#.....#.T C P ! Q Y x Y T Q Q C G U T Q Q ! Q Q ! T T T D y.b.[ ......................#.#.#.#.....#.#.........#.#.#.#.........#.#.#.#.#.#.....#...#.#.#.#.#.#.#.#.....#.#.#.......#.#.#.....#.#.#.#.#.#.#.#.#.#.#.....#.#.#.#.#.#.#.#.........#.#.#.#...#.#.#.........#.#.#.......#.#.#.....#.#.#.....#.#.#.#.....#.#.#.#...#.....#.#...........................Q x J T T T Q Q Q Q Q ! T T G }.d.Q Q T J Q.'.=.Q ! P s..X5.#.#.#.#.#.#.#.#.#.#.#.#.#.#.#.#.#.#.#.#.T J x.6X5.5...#.#.#.#.#.#.#.#.#.#.#.#.#.#.#.#.#.#.O.O.A P T Q T C Y ! Q Q C I T T ! Q Q ! ! ! T ~ ~ &.>X[.4.............................#.#.......#.#.#.#.....#.#.#.#...#.....#.#.#.#.#.#.#.#...#.#.#.........#.#.....#.#.#.#.....#.#.....#.#.#.#.......#.#.#...#.....#...#.#.#.............#.#.#.#.#.#.#.#.#.#.#.....#.#.#.#.....#.#.#.#.........#.#.....#.#.#.#.#...........#.............................[ [ A P T T ! ! Q Q Q ! T T P D Q..X*.) ) T D dXQ.*.Q ! Y N.dX5.#.#.#.#.#.#.#.#.#.#.#.#.#...Q T P J D D D C 9.7XsXuX1.*.-.5.2.#.#.#.#.#.#.#.#.#.#.#.#.#.#.#.#.#.#.#.#.#.#.#.#.",
"; -.#.#.#.#.#.#.#.#.#.#.#.#.#.#.#.#.#.#.#.#.#.#.#.#.#.#.#.*.-.Q T T T T T T Q [ [ #.#.#.#.#.#.#.......T C P ! Q Y x Y T Q Q C G U T Q Q Q Q Q ! T T T D y.b.[ ....................#.#.#...#.....#.#.............#.#.#...#.#.#.#.#.#.................#.#.#.#.#.......#.#.#.#.....#.#.........#.#.....#.#.#.#.#.#.......#.....#...#.#.#.#.....#.#.........#.#.#.#.....#.#.#.#.....#.#.........#.#...#.#.#.........#.#.............#.#...........................Q x J T T T Q Q Q Q Q ! T Y ^ }.h.Q Q T J Q.'.=.Q ! Y s..X5.#.#.#.#.#.#.#.#.#.#.#.#.#.#.#.#.#.#.#.#.T J x.-X5.5...#.#.#.#.#.#.#.#.#.#.#.#.#.#.#.#.#.#.#.O.A P T Q T C Y ! Q Q C I T T ! Q Q ! Q ! T T T &.>X[.5.............................#.#.#.....#.#.........#.#.................#.#.#.#.#.......#.#.#.#.....#.#.....#...#.#.#.#.#.#.......#.#.#.#...#.#.#.#.#.#.#.#.#.#.#.#.#.#.........#.#.#.#.#.#.#.#.....#.#.....#.#.#.#.........#.#.#...#.#.#.#.........#.......#.#.#.#.#.#.#.#.#.#.#.#...............[ [ A D T T T ! Q Q Q ! T T P D Q..X:.Q Q T D dXQ.=.Q ! Y N.dX5.#.#.#.#.#.#.#.#.#.#.#.#.#...Q T P J D D D C 9.pXuX-X2.*.-.5.2.#.#.#.#.#.#.#.#.#.#.#.#.#.#.#.#.#.#.#.#.#.#.#.#.",
"; ,.#.#.#.#.#.#.#.#.#.#.#.#.#.#.#.#.#.#.#.#.#.#.#.#.#.#.#.*.-.Q T T T T T T Q Q ..#.#.#.#.#.#.#.......T C U ! Q Y x Y T Q Q C G U T Q Q Q Q Q ! T T T D y.b.) ..................#.#.#.#.........#.............#.#.#.#.#.#.#.#.#.#.#.#...............#.#.#.#.#.......#.#.#.#.....#.#.........#.#.......#.#.#.#.#.......#.........#.#.#.#.....#.#.........#.#.#.#.....#.#.#.#.....#.#.........#.#.#.#.#.#.#.......#.#.............#.#.#.........................[ x J Y T T Q Q Q Q Q ! ! Y G }.h.Q Q T J Q.}.=.Q ! Y h..X5.#.#.#.#.#.#.#.#.#.#.#.#.#.#.#.#.#.#.#.#.T J v.OX5.5...#.#.#.#.#.#.#.#.#.#.#.#.#.#.#.#.#.#.#.O.A P T Q ! C Y ! Q Q C I T ! Q ! Q ! Q Q ! T T &.<X[.5.........................#.#.#.#.....#.#.#.........#.#...............#.#.#.#.#.#.......#.#.#.#...#.#.#.........#.#.#.#.#.#.....#.#.#.#.#...#.#.#.#.#.#.#.#.#.#.#.#.#.......#.#.#.#...#.#.#.#.#.....#.#.....#.#.#.#.......#.#.#.#.#.#.#.#.#.........#.......#.#.#.#.#.#.#.#.#...#.#...............[ ..A D T T T T Q Q Q ! T T P D Q..X2.Q Q T D dXQ.=.Q ! Y N.dX5.#.#.#.#.#.#.#.#.#.#.#.#.#...Q T P P J D D C 9.dXsX,X4.*.-.5.2.#.#.#.#.#.#.#.#.#.#.#.#.#.#.#.#.#.#.#.#.#.#.#.#.",
"; -.#.#.#.#.#.#.#.#.#.#.#.#.#.#.#.#.#.#.#.#.#.#.#.#.#.#.#.*.-.Q T T T T T T Q [ [ #.#.#.#.#.#.#.#.#.#.T C P ! Q Y x Y T Q Q C G U T Q Q Q Q ! ! T T T D y.b.) ..........................#.#.....#.........#.#.#.#.#.#.#.#.#.#...........#.#.......#.#.#.#.#.......#.#.#.#.#.#...#.#.......#.#.#.....#.#.#.#.................#.#.......#.#.#.#.#.....#.#.#...#.#...#.#.#.#.#.#...#.#.......#.#.#.#.#.....#.#.#.#.........#.......#.#.#.........................[ x J T T T Q Q ! Q Q ! ! U G }.h.Q Q T J Q.'.=.Q ! P h..X5.#.#.#.#.#.#.#.#.#.#.#.#.#.#.#.#.#.#.#.#.T J M.5X5.5.#.#.#.#.#.#.#.#.#.#.#.#.#.#.#.#.#.#.#.#.O.A P T Q ! C I ! Q Q C I T T ! ! Q ! ! ! ! T T &.<X[.4.........................#.#.#.#...#.......#...#.#.........#...........#.#.#.#.............#.#.#.#.#.#.#.#.......#.#.#...#.#.#.#.#.#.#.....#.....#.#.#.#.#.#.#.#.#.#.#.........#.#.....#.#.#.#.......#.#.#.........#.#.#.#.....#.#.#.#.....#.#.#...#.#.........#.#.#.#.#.#.....#.#.#.................A D T T T T Q Q Q ! T T P D Q..X2.Q Q T D dXQ.=.Q ! Y h.dX5.#.#.#.#.#.#.#.#.#.#.#.#.#...Q T P J D D D C 9.5XsX8X4.*.-.5.2.#.#.#.#.#.#.#.#.#.#.#.#.#.#.#.#.#.#.#.#.#.#.#.#.",
"; -.O.#.#.#.#.#.#.#.#.#.#.#.#.#.#.#.#.#.#.#.#.#.#.#.#.#.#.*.-.Q T T T T T T Q [ [ ..#.#.#.#.#.#.#.#.#.T C P ! Q Y x Y T Q Q C G U T Q Q Q Q ! ! T T T D y.b.) ..........................#.#.#.#.#.#.....#...#.#.#.#.#.#.#.#.............#.........#.#.#.#.#.........#.#.#.#.#...#.#.........#.#.....#.#.#.#.................#.#.......#.#.#.#.#.#.#.#.#.....#.#.....#.#.#.#.#...#.#.........#.#.#.......#...#.#...#.....#.......#.#.#.........................[ x J T T T ! Q ! Q Q ! T T J }.h.Q Q T J Q.'.=.Q ! P h..X5.#.#.#.#.#.#.#.#.#.#.#.#.#.#.#.#.#.#.#.#.T J x.yX5.5.#.O.#...#.#.#.#.#.#.#.#.#.#.#.#.#.#.#.#.O.A P T Q ! C I ! Q Q C I T T ! ! Q ! ! ! ! T T Z <X[.5.....................#.#.#.#.#.....#.......#.#.#.#...#.....#...........#.#.#.#.........#.#.#.#.#.#.#.#...#.......#.#.#...#.#.#.#.#.#.#.#.#.....#.#.....#.#.#.#.#.#.#.#.........#.#.....#.#.#.#.......#.#.#.........#.#.#.#.......#.#.#.....#.#.#.#.#.#...#.......#...#.......#.....#.................A D T T T T Q Q Q ! T T P D Q..X2.Q Q T D dXQ.=.Q T Y h.dX5.#.#.#.#.#.#.#.#.#.#.#.#.#...Q T P J D D D C 9.pXdX,X4.*.,.5.2.#.#.#.#.#.#.#.#.#.#.#.#.#.#.#.#.#.#.#.#.#.#.#.#.",
"; -.#.#.#.#.#.#.#.#.#.#.#.#.#.#.#.#.#.#.#.#.#.#.#.#.#.#.#.*.-.Q T T T T ! T Q [ [ #.#.#.#.#.#.#.#.#.#.T C P T Q Y x Y T Q Q C G U T Q Q Q ! ! ! T T T D i.b.) ..........................#.#.#.....#.#.#.#...#.#.#.#.#.#.........#.#.#.#.#.#.........#.#.#.......#.#.#.#.#.#.#.#...................#.#.#.#...........#...#.#.#.#.....#.#.#.#.....#.#.#.#.........#.#.#.#.#.#.#.#.................#.#.......#.#.#.#.#.#.#.#.#.......#.#.........................[ x J T T T Q Q Q Q Q ! U T J }.h.Q Q T J Q.'.-.Q ! P h..X5.#.#.#.#.#.#.#.#.#.#.#.#.#.#.#.#.#.#.#.#.T J v.`.5.5.#.......#.#.#.#.#.#.#.#.#.#.#.#.#.#.#.#.O.A P T Q ! C I ! Q Q C I T ! Q Q Q Q T ! ! ~ T Z <X[.5.............................#...#.#.#.....#.#.#.#.#.#.#.#.#.#.........#.#.#.......#.#.#.#.#.#.#...............#.#.#.....#.#.#.#.#.#...#.#.#.#.#.O.........#.#.#.#.#.#.#.#...#.#.#.......#.#.#.#.......#.#.#.#.....#.#.#.......#.#.#.......#.#.#.#.#.#.#.#.......#...#.............#.................S D T T T T Q Q Q Q T T P D Q..X2.Q Q T D dXQ.*.Q T Y h.dX5.#.#.#.#.#.#.#.#.#.#.#.#.#...Q T P P D D D C | dXpX,X4.*.-.5.2.#.#.#.#.#.#.#.#.#.#.#.#.#.#.#.#.#.#.#.#.#.#.#.#.",
"; -.#.#.#.#.#.#.#.#.#.#.#.#.#.#.#.#.#.#.#.#.#.#.#.#.#.#.#.*.-.Q T T T T T T Q ) ..#.#.#.#.#.#.#.#.#.#.T C P ! Q Y x Y T Q Q C G U T ! Q Q ! ! ! T T T D i.b.) ..........................#.#.#.....#.#.#.#...#.#...#.#...........#.#.#.#.#.#.........#.#.#.#.....#.#.#.#.#.#.#.#.#.................#.#.#.........#.#.#.#.#.#.#.#.......#.#.#.....#.#.#.#.........#.#.#.#.#.#.#.#.#...............#.#.......#.#.#.#.#.#.#.#.#.........#.#.......................[ x J T T T Q Q Q Q ! ! T Y G }.h.Q Q T P Q.'.-.Q ! P h.rX5.#.#.#.#.#.#.#.#.#.#.#.#.#.#.#.#.#.#.#.#.T J M.,X5.5.#.......#.#.#.#.#.#.#.#.#.#.#.#.#.#.#.#.O.A P T Q ! C I ! Q Q C I T ! ! Q Q Q ! T ! T T Z <X[.2.................................#.#.#.......#.#.#.#.#.#.#.#.#.........#.#.#.#.....#.#.#.#.#.#.#.................#.........#.#.#.#.#...#.#.#...........#.....#.#.#.#.#.#.#.....#.#.......#.#.#.........#.#.#.#.#...#.#.#.......#.#.........#.#.#.#.#.#.#.#.....#.#.....#.#.#...#...#.................D D T T T T Q Q Q ! T T P D Q..X2.Q Q T D aXQ.*.Q ! Y h.dX5.#.#.#.#.#.#.#.#.#.#.#.#.#...Q T P P J D D C ..dXpX8X3.*.-.5.2.#.#.#.#.#.#.#.#.#.#.#.#.#.#.#.#.#.#.#.#.#.#.#.#.",
"; -.#.#.#.#.#.#.#.#.#.#.#.#.#.#.#.#.#.#.#.#.#.#.#.#.#.#.#.*.-.Q T T T T T T Q [ [ #.#.#.#.#.#.#.#.#.#.T C P ! Q Y x Y T Q Q A G U T ! Q ! ! ! ! T T T D y.b.) ....................................#.#...#...#.#.....#...#.#.#.#.......#.#.#.....#.#.#.#.......#.#.#.#.#.#.#.#.#...........#.#.#.#.#.#.#.....#.#.#.#.............#.#.#.#.#.#.....#.#.#.#.........#.#.#.#.#.#.#.#...........#.#.#.#.#.#.#...........#.#.#.#.#.#.......#...#.....................[ x J T T T Q Q Q Q ! Q ! Y G }.h.Q Q T P Q.'.-.Q ! P h.rX5.#.#.#.#.#.#.#.#.#.#.#.#.#.#.#.#.#.#.#.#.T J x.6X5.5.#.O.#.#.#.#.#.#.#.#.#.#.#.#.#.#.#.#.#.#.O.A P T Q ! C I ! Q Q C I T ! ! ! ! ! ! ! ! T T Z <X[.5.........................#.......#.#.#...........#.......#...#.#...#.#.#.#.........#.#.....#.#.#.#.............#.#.........#.#.#.#.....#.#.#.......#.#.#.#.#.#...........#.#.......#.#.....#.#.#.#.....#.#.#.#.....#.#.#.......#.#.#.......#.#.#.#.#.#.#.#.....#.#...#.#.#...........................D D T T T T Q Q Q Q T T P D Q..X2.Q T T D aXQ.*.Q ! Y h.dX5.#.#.#.#.#.#.#.#.#.#.#.#.#...Q T P P H D D C ..uXdX4X4.*.-.4.2.#.#.#.#.#.#.#.#.#.#.#.#.#.#.#.#.#.#.#.#.#.#.#.#.",
"; -...#.#.#.#.#.#.#.#.#.#.#.#.#.#.#.#.#.#.#.#.#.#.#.#.#.#.*.-.Q T T T T T T Q [ [ ..#.#.#.#.#.#.#...#.T C Y ! Q Y N Y T Q Q A G U T Q Q Q ! ! ! T T T D y.b.) ..........................#.......#.#.#...#...#.#.......#.#.#.#.#.........#.#.#.#.#.#.#.#.......#.....#...#.#.#.#.........#.#.#.#.#.#.#.#.#...#.#.#.#.#.#.....#.#.....#.#.#.#.......#.#.#.............#...#.#.#.#.........#.#.#.#.#.#.#.#.............#.#.#.#.#.#.#.......#.....................[ x J T T T Q Q Q Q ! ! ! U G }.M.Q Q T P M.'.-.Q ! P h.rX5.#.#.#.#.#.#.#.#.#.#.#.#.#.#.#.#.#.#.#.#.T J v.E.5.5.#.O.O.#.#.#.#.#.#.#.#.#.#.#.#.#.#.#.#.#.O.A P T Q ! C I ! Q Q C I T ! ! ! Q Q ! ! T T T Z <X[.5.........................#.......#.#.#...........#...........#.#.#.#.#.#.#.........#.#.....#.#.#.#...#.........#.#.........#.#.#.#.....#.#.#.#.#.#.#.#.#.#.#.#...........#.#.#.#...#.......#.#.#.#.....#.#.#.#.....#.#.........#.#.#.......#.#.#.#.#.#.#.#.......#.#.#.#.#...........................D D T T T Q Q Q Q Q T T P D Q..X2.Q T T D aXQ.*.Q ! Y h.dX5.#.#.#.#.#.#.#.#.#.#.#.#.#...Q T P P D D D C ..dXpX5X4.*.,.5.2.#.#.#.#.#.#.#.#.#.#.#.#.#.#.#.#.#.#.#.#.#.#.#.#.",
"; -.#.#.#.#.#.#.#.#.#.#.#.#.#.#.#.#.#.#.#.#.#.#.#.#.#.#.#.*.-.Q T T T T T T Q [ [ #.#.#.#.#.#.#.......T C Y T Q Y N Y T Q Q A G U T Q Q Q ! ! ! T T T D y.b.) ..........................#.#.....#.#.....#.#.#.#.......#...#.#.......#.#.#.#.#.#.#.#.#.#.....#.#.............#.#.....#.#.#.#.#.#.#.#...#.#...#.#.#.#.#.#.#.#.#.#.........#.#.#.......#.#.#.#.................#.#.....#.#.#.#.#.#.........#.#.#.#.#.#.#.#.#.#.#.#.#.#.....#.#...................[ b J T T T Q Q Q Q Q ! ! U G }.M.Q Q T I M.'.-.Q ! Y h.rX5.#.#.#.#.#.#.#.#.#.#.#.#.#.#.#.#.#.#.#.#.Q J M.5X5.5.#.O.O.O.#.#.#.#.#.#.#.#.#.#.#.#.#.#.#.#.O.A P T Q ! C I ! Q Q Z I T ! ! ! Q Q Q ! T T T Z <X[.5.....................#.#.#.#.#.#.#.#.#.#.....#...#.....#.#.#.#.#.#.#...#.#.....#...#.......#.#.#.#.#.#.#.#.#.#.#.#.#.#.....#.#.#.#.#.....#.......#.#.#.....#...........#.#.#.#.....#.#.....#.#.#.#...#.#.#.........#.#.#.#.....#.#.#.#.....#.#.#.#.#...#.#.......#...#...#.#.........................D D T ! ! Q Q Q Q Q T T P D Q..X2.Q Q T D aXQ.*.Q ! Y h.dX5.#.#.#.#.#.#.#.#.#.#.#.#.#...Q T P P J D D C [ dXpX8X8.*.,.5.4.#.#.#.#.#.#.#.#.#.#.#.#.#.#.#.#.#.#.#.#.#.#.#.#.",
"; -.#.#.#.#.#.#.#.#.#.#.#.#.#.#.#.#.#.#.#.#.#.#.#.#.#.#.#.*.-.Q T T T T T T Q Q ..#.#.#.#.#.#.#.......T C Y T Q Y b Y T Q Q A G U T Q Q Q Q ! ! T T T D y.b.) ..................................#.#.......#...#.......#.............#.#.#.#.#.#.#.#.#.......#.#.............#.#.#.#.#.#.#.#.#.#.#.#.........#.#.#.#.#.#.#.#.#.#.........#.#.........#.#.#.#...#.............#.#.#.#.#.#...#.#.#.........#.#.#.#.....#.#.#.#.#...#.#.#.....#...................[ b J T T T Q Q Q Q Q ! ! U G }.M.Q Q T P M.'.-.Q ! Y h.rX5.#.#.#.#.#.#.#.#.#.#.#.#.#.#.#.#.#.#.#.#.Q J x.uX5.5.#.O.O.O.#.#.#.#.#.#.#.#.#.#.#.#.#.#.#.#.O.A P T Q ! C P ! Q Q Z I T ! ! ! Q Q Q T T T T Z <X[.2...............................#.#.#.#.....#.#.#.#.....#.#.#.#.#.#.....#.#.#.#.#.#...........#.#.#.#.#.#.#.#.#.#.#.#.#...#.#.#.....#.#.#.#.#.....#.#...................#.#.#.#...#.#.#.........#.#.#.#.#.#.#.......#.#.#.#.....#.#.#.#.......#.#.#.....#.#.#.....#...#.#.#...........................D D T T ! ! Q Q Q Q T T P D Q..X2.Q ! T D aXQ.*.Q ! Y h.dX5.#.#.#.#.#.#.#.#.#.#.#.#.#...Q T P P J D D C ..8XdXpX8.*.-.4.5.#.#.#.#.#.#.#.#.#.#.#.#.#.#.#.#.#.#.#.#.#.#.#.#.",
": -.#.#.#.#.#.#.#.#.#.#.#.#.#.#.#.#.#.#.#.#.#.#.#.#.#.#.#.*.-.Q T T T T T T Q [ [ #.#.#.#.#.#.#.#.#...T C P ! Q Y b P T Q ) A G U T Q Q Q Q Q ! T T T D m.b.) ..........................#.#.#...#.#.#...#.#.................#.#.#.#.#.#...#.#.#.........#.#.#.#.......#.........#.#.#.#.#.#.#.#.#.......#.#.#.#.#.#.#.#.#.#.....#.#.#...................#.#.#.#.....#.#.........#.#.#.#...#.#.#.....#.#.#.#.#.#.#.#.#.#.#.......#.#...........................[ b J T T T Q Q Q Q Q ! ! T P }.M.Q Q T P M.'.-.Q ! Y h.rX5.#.#.#.#.#.#.#.#.#.#.#.#.#.#.#.#.#.#.#.#.Q J x.6X5.5.#.#.#.#.#.#.#.#.#.#.#.#.#.#.#.#.#.#.#.#.O.S P T Q ! C P ! Q Q Z P T ! Q ! ! ! Q ! T T ~ F <X[.5.......................#.#.#.#.#.#.#.#.#.#.#.#.....#.#.#.#.#...#.#.........#.#.#.#.....#.#.........#.#.#.#.#.#.#.#.#.#.#.#.........#.#.....#.#.#.#...................#.#.#.#.#.#.#.#.#.#.#.........#.#.....#.#.#.#.......#.#.#.#.#.#.#.#.#.................#.#.#.#.#.#.#.#.........#.................D D T T ! ! Q Q Q Q T T P D Q..X2.Q T T D aXQ.=.Q ! Y h.dX5.#.#.#.#.#.#.#.#.#.#.#.#.#...Q T P P J D D C #.sXuX5X8.*.,.5.5.#.#.#.#.#.#.#.#.#.#.#.#.#.#.#.#.#.#.#.#.#.#.#.#.",
": -...#.#.#.#.#.#.#.#.#.#.#.#.#.#.#.#.#.#.#.#.#.#.#.#.#.#.*.-.Q T T T T T T Q [ [ ..#.#.#.#.#.#.#.#...T N P ! Q Y b P T Q Q A D U T Q Q Q Q Q Q T T T D m.m.) ..........................#.#.#.#.#.#.....#.#.................#.#.#.#.#.#...#.#.#.........#.#.#.#.......#.....#...#.#.#.#.#.#.#.#.#.......#...#.#.#.#.#.#.#.#.....#.#.#.#.......#.....#.#.#.#.#.#.....#.#.....#...#.#.#.#.#.#.#.#.#.............#.....#.#.........#.#...........................[ N J T T T Q Q Q Q Q ! T T P }.M.Q Q T P M.'.-.Q ! Y h.rX5.#.#.#.#.#.#.#.#.#.#.#.#.#.#.#.#.#.#.#.#.Q J M.3X5.5.#.#.#.#.#.#.#.#.#.#.#.#.#.#.#.#.#.#.#.#.O.A P T Q ! C P ! Q Q Z P T ! Q ! ! ! ! ! ! T ~ F <X[.4.......................#.#.#.#.....#.#.#.#.#.#.#...#.#.#.#.#...#.#.........#.#.#.#...#.#.#.............#.#.#.#.#.#.#.#.#.#.........#.#.....#.#.#.#.#.#.....#.......#.#.#.#.#.#.#.#.#.#.#.#.........#.......#.#.#.#.......#.#.#.#.#.#.#.#.#.................#.#.#.#...#.#.#.........#.................D D T T ! ! Q Q Q Q T T P D Q..X2.Q T T D aXQ.-.Q ! Y h.dX5.*.#.#.O.#.#.#.#.#.#.#.#.#...Q T P P D D D C [ dXsX7X3.*.,.5.5.#.#.#.#.#.#.#.#.#.#.#.#.#.#.#.#.#.#.#.#.#.#.#.#.",
"; 1.#.#.#.#.#.#.#.#.#.#.#.#.#.#.#.#.#.#.#.#.#.#.#.#.#.#.#.*.-.Q T T T T T T Q [ [ #.#.#.#.#.#.#.#.#.#.T N Y ! Q Y N P T Q Q A D U T Q Q Q Q Q Q T T T D m.m.) ............................#.#.#.............#.#...#.#...#.#.#.#.#.#.........#.#.#.#.......#.........#.#.#.#.#.#...#.......#.#.#.#.#.............#.#.#.#.........#.#.#.#.....#.#.#.#.#.#.#.#.#.......#.#.#.#.#.#.........#.#.#.#.#.#.#.#.......#.......#.........#.#.#.........................[ N J Y T T Q Q Q Q Q ! T T P }.M.Q Q T P M.'.-.Q ! Y h.rX5.#.#.#.#.#.#.#.#.#.#.#.#.#.#.#.#.#.#.#.#.Q J x.uX5.5.#.#.#.#.#.#.#.#.#.#.#.#.#.#.#.#.#.#.#.#.O.A P T Q ! C P ! Q Q Z P T ! Q Q ! ! ! ! ! T T F <X[.2.....................#.#.#.............#.#.#.#.....#.#.....#...#.#.#...#.#.#.#.........#.#.#.#.............#.#.#.#.....#.#.#...#.#.#.#.........#.#.#.#.#.#.#.#.....#.#.#.#.#.#.#...........#.#.#.#.#.#.......#.#.#.....#.#.#.#.........#.......#.#.#.#...#...........#.#.....#.....#.................D D T T ! ! Q Q Q ! T T P D Q..X2.Q T T D aXQ.-.Q ! Y h.dXh.*.....O.#.#.#.#.#.#.#.#.#...Q T P P J D D C #.6XsXpX8.*.-.4.5.#.#.#.#.#.#.#.#.#.#.#.#.#.#.#.#.#.#.#.#.#.#.#.#.",
"; 2.#.#.#.#.#.#.#.#.#.#.#.#.#.#.#.#.#.#.#.#.#.#.#.#.#.#.#.*.-.Q T T T T T T Q Q ..#.#.#.#.#.#.#.#.#.#.T N Y ! Q Y N P T Q Q A D U T ! Q Q Q Q ! T T T D m.m.) ............................#.#.#...........#.#...#.#...#.#.#.#.#.#...........#.#.#.#.#...............#.#.#.#.#.#.............#.#.#...................#.#.#.......#.#.#.#.....#.#.#.#.#.#.#.#.#.......#.#.#.#.#.#...........#.#.#.#.#.#.#.....#.#.......#...#.....#.#...........................[ N J T T T Q Q Q Q Q ! T U J }.M.Q Q T P M.'.-.Q ! Y h.rX5.#.#.#.#.#.#.#.#.#.#.#.#.#.#.#.#.#.#.#.#.Q J x.5X5.5.#.#.#.#.#.#.#.#.#.#.#.#.#.#.#.#.#.#.#.#.O.A P T Q ! C P ! Q Q Z P T ! Q Q ! ! ! T ! T T F <X[.4.....................#.#...............#.#.........#...........#.#.#.....#.#.#.........#.#.#.#.#.#...........#.#.#.......#.#.#.#.#.#.#.......#.#.#.#.#.#.#.#.#.....#.#.#.#.#.#.#...........#.#.#.#.#.#.......#.#.#.......#.#.#...............#.#.#.#.#.#.#.........#.#.#.....#.#...#.................D D T T ! ! Q Q Q ! T T P D Q..X2.Q T T D aXQ.-.Q ! Y h.dXh.*.....O.#.#.#.#.#.#.#.#.#.O.Q T P P J D D C #.pXdX5X9.*.-.5.5.#.#.#.#.#.#.#.#.#.#.#.#.#.#.#.#.#.#.#.#.#.#.#.#.",
"; 1.O.#.#.#.#.#.#.#.#.#.#.#.#.#.#.#.#.#.#.#.#.#.#.#.#.#.#.*.-.Q T T T ! T T Q [ ..#.#.#.#.#.#.#.#.#.#.T b Y T Q Y N P T Q Q Z D U T ! Q Q Q Q ! ! T T D m.m.) ..........................#.#.#.#.#.#.#.......#...#.#...#.#...........#.#.#.#...........#.#.#.......#.#.#.#.#.#.#.#.#...#.#.#.#.#.......#.#.#.................#.#.#.#.#.#.#.#.#.......#.#...#.#.#.............#.#.#.......................#.#.#.#.#...#.#.#.#.........#.........................[ N J T T T Q Q Q Q Q ! ! Y G }.M.Q Q T P M.'.-.Q ! Y s.rX5.#.#.#.#.#.#.#.#.#.#.#.#.#.#.#.#.#.#.#.#.Q J M.-X5.5.#.#.#.#.#.#.#.#.#.#.#.#.#.#.#.#.#.#.#.O.O.S P T Q ! C I ! Q Q Z P T ! ! ! Q Q Q T ! T T F <X[.4.......................#.....#.#.#.......#.........#.#...#...........#.#.#.....................#.#.#.#.................#.#.#.#.#.........#.#.#.................#.#.#.#.........................#.#.#.............#.#.#...............#.#.......#.#...#.#.#.#.#.#.....#.#.....#.#...#.................D D T T ! ! Q Q Q Q T T P D Q..X2.Q ! U D aX'.-.Q ! Y h.dXh.*.#.#.#.#.#.#.#.#.#.#.#.#...Q T P P J H D C [ dXsX7X8.*.-.5.5.#.#.#.#.#.#.#.#.#.#.#.#.#.#.#.#.#.#.#.#.#.#.#.#.",
"; ,...#.#.#.#.#.#.#.#.#.#.#.#.#.#.#.#.#.#.#.#.#.#.#.#.#.#.*.-.Q T T T T T T Q [ ....#.#.#.#.#.#.#.#.#.T b P T Q Y N P T Q Q Z D U T Q Q Q Q ! ! Q T T D m.b.) ............................#.#.#.#.#.#.#.....#...#.#...#...#.........#.#.#.#.........#.#.#.#.....#.#.#.#.#.#.#.#.#.#.....#.#.#.#.........#.#.#.#...#.#.......#.#.#.#.#.#.#.#.#.#.....#.#...#.#.#.........#.#.#.#.................#.......#.#.#...#.#.#.#.#...........#.........................[ N J T T T Q Q Q Q Q ! T Y G Q.M.Q Q T P M./.-.Q ! Y s.rX5.#.#.#.#.#.#.#.#.#.#.#.#.#.#.#.#.#.#.#.#.Q J M.8X5.5.#.#...#.#.#.#.#.#.#.#.#.#.#.#.#.#.#.#.O.O.S P T Q ! C I ! Q Q A P T ! ! ! Q Q Q T ! T T F <X[.2.............................#.#.#.......#...#.....#.....#...#.....#.#.#.#.................#.#.#.#...#.................#.#.#.#...........#.#.#...#.............#.#.#.#.........#.#.#.......#.#.#.#.............#.#.#.#.........#.....#.#.#.....#...........#.#.......#.#...#.#.#.....................D D T T ! ! Q ! Q Q T T P D Q.rX1.Q Q U D aX'.-.Q ! Y h.dXh.*.#.O.#.#.#.#.#.#.#.#.#.#...Q T P P D D D C #.dXsXpX8.*.,.5.5.#.#.#.#.#.#.#.#.#.#.#.#.#.#.#.#.#.#.#.#.#.#.#.#.",
"; 1.O.#.#.#.#.#.#.#.#.#.#.#.#.#.#.#.#.#.#.#.#.#.#.#.#.#.#.*.-.Q T T T T T T Q [ [ #.#.#.#.#.#.#.#.#.#.T N P ! Q Y N P T Q Q Z D U T ! Q Q ! ! ! ! T T D m.b.) ............................#.#.#.#.#.#.#.......#.....#.#.#.#.#.#...#.#.#...............#.#.#.#.#.#.#.#.#.#.#...............#.#.#.....#.#.#.#.#.#.#.#.#...............#.#.#.#.#.#.......#.#...#...#...#.#.#.#.#.#.#.#.........#.#.#...#.#...#.....#.#.#...........#.#.#.........................[ N J T T T Q Q Q Q Q ! T Y G Q.M.Q Q T P M..X-.Q ! Y h.rX5.#.#.#.#.#.#.#.#.#.#.#.#.#.#.#.#.#.#.#.#.Q J x.pX5.5.#.......#.#.#.#.#.#.#.#.#.#.#.#.#.#.#.#.#.S P T Q ! C I ! Q Q A P T ! ! ! Q Q ! ! ! T T D <X[.2...[ ..........................#.#.#.#.....#.#...#.#.....#.#.#.#.#.#.#.#.#.#.#.....#...#.#.#.#.#.#.#.#.........#.#...#.#.#.............#.#.#.#.#.#.#.#.#.#.........#.#.#...#.#.#.#.#.#.#.#.#.#.#.#.#.#.........#.#.#.#.#.#.#.#.#.#.#.#.#.#...#.#.#.#.........................#.....#.................D D T T ! ! Q Q Q Q T T P D M.rX2.Q Q T D aX}.-.Q ! Y h.dXh.*.....O.#.#.#.#.#.#.#.#.#...Q T P P J D D C #.uXdX9X9.*.-.5.2.#.#.#.#.#.#.#.#.#.#.#.#.#.#.#.#.#.#.#.#.#.#.#.#.",
"; 2.#.#.#.#.#.#.#.#.#.#.#.#.#.#.#.#.#.#.#.#.#.#.#.#.#.#.#.#.-.Q T T T T T T Q Q ..#.#.#.#.#.#.#.#.#.#.T N Y ! Q Y N P T Q Q Z D U T Q Q Q Q ! ! T T T D m.b.) ..............................#.....#.#.........#.#.#.....#.#.#.#.#.#.#.#.#.............#.#.#.#.#.#.#.#.#.#.................#.#.#.....#.#.#.#.#.#.#.#.#.#.......#.......#.#.#.#.#.......#.#.......#.#.#.#.#.#.#.#.#.#.......#.#.#.#.....#.#.#.....#.#...#.........#.#.#.........................) N J T T T Q Q Q Q Q Q ! U ^ Q.M.Q Q T P M..X-.Q ! Y s.rX5.#.#.#.#.#.#.#.#.#.#.#.#.#.#.#.#.#.#.#.#.Q J 9.=X5.5.#.......#.#.#.#.#.#.#.#.#.#.#.#.#.#.#.#.#.S P T Q ! C I ! Q Q A P T ! ! Q Q Q ! T ! T T D <X[.2...[ ..........................#.#.........#.#...#.#.....#.....#.#.#.#.#.#.#.#.#...#.#.#.#.#.#.#.#.#.........#.#.#...#.#.#...............#.#.#.#.#.#.#.#.#.......#.#.#.#.#.#.#.#.#.#.#.#.#.#.#.#.#.#.#.......#.#.#.#.#.#.#.#.#.#.#.#.#.#.#...#.#.#.#.#.......#.....#...............#.................D D T T ! Q Q Q Q Q T T P D M.rX5.Q Q T D aX}.-.Q ! U h.dXh.*.....O.#.#.#.#.#.#.#.#.#.#.Q T P P J D D C #.dXpX7Xr.*.-.5.2.#.#.#.#.#.#.#.#.#.#.#.#.#.#.#.#.#.#.#.#.#.#.#.#.",
"; 1.O.#.#.#.#.#.#.#.#.#.#.#.#.#.#.#.#.#.#.#.#.#.#.#.#.#.#.#.=.! T T T T T T Q [ [ #.#.#.#.#.#.#.#.#.#.T N Y ! Q Y N I T Q Q Z D U T ! Q Q Q Q Q T T T D m.b.) ..........................................#.#...#.....#...#...#.#.#.#.....#.#.#.#.#.#.#.#.....#.#.....#.#.#.#.........#.#.........#.#.#.#...#.#.#.#.#.........#.#.....#.#.#.#.............#.....#.#.#.#.#.#.#.#.#.#.#.........#.#.#.....#.#...............#.#.....O.#.......#...................) N J Y T T ! Q Q ! Q ! ! T P Q.M.Q Q ! P M..X-.Q ! Y h.rX5.#.#.#.#.#.#.#.#.#.#.#.#.#.#.#.#.#.#.#.#.Q J 9.7X5.5.#.#.#.#.#.#.#.#.#.#.#.#.#.#.#.#.#.#.#.#.#.S P T Q ! C I ! Q Q Z P T ! Q ! Q ! ! ! T T T D <X[.t.................................#.......#.#.#.#.#...#.....#...#.#.#.#.#.#.#.#.#.#.#.#.#.#.#.#.#.#.#.#.........#.#.#.......#.#.#.#.#.#.#.#.#.#.#.#.#.#.........#.#.#.#.#.#.#.#.#...#.#.#.#.#.#.#.#.#.#.........#.#.#.#.#.#.#.#.#.#.........#.#...............#.....#...#.#.#.......#.................D D U T ! Q ! Q Q Q T T P D M.rX5.Q Q T D aX}.-.Q ! U h.dXh.*.#.#.#.#.#.#.#.#.#.#.#.#...Q T P P J D D C #.dXsXuXe.*.-.5.2.#.#.#.#.#.#.#.#.#.#.#.#.#.#.#.#.#.#.#.#.#.#.#.#.",
"; ,...#.#.#.#.#.#.#.#.#.#.#.#.#.#.#.#.#.#.#.#.#.#.#.#.#.#.#.-.Q T T T T T T Q [ [ ..#.#.#.#.#.#.#.#.#.T N Y ! Q Y N I T Q Q Z D U T ! Q Q Q Q Q ! T T D m.m.) ..............................#...........#.#.....#.#.#.#.....#.#.#.......#.#.#.#.#.#.#.#.....#.#.....#.#.#.#...........#.........#.#.#.#...#.#.#.#.#.....#.#.#.#.....#.#.#.#.....#.......#...#.#.#.#.#.#.#.#.#.#.#.#.........#.#.#.#.#.#...#.............#.#.....O.#...........................) N J Y T T ! Q Q ! Q ! ! T P Q.M.Q Q T P M..X-.Q ! Y h.rX5.#.#.#.#.#.#.#.#.#.#.#.#.#.#.#.#.#.#.#.#.Q J 9.uX5.5.#.#.#.#.#.#.#.#.#.#.#.#.#.#.#.#.#.#.#.#.#.S P T Q ! C P ! Q Q Z P T ! ! Q Q ! ! ! T U T D <X[.y.......................#.#.......#.....#.#.....#.#.#.#...#.....#.#.#.#.#...#.#.#.#.#.#.#.#.#.#.#.#.#.#.........#.#.#.......#.#.#.#.#.#.#.#...#.#.#.#.#.....#.#.#.#.#.#.#.#.#.#.......#.#.#.#.#.#.#.#.#.........#.#.#.#.#.#.#.#.............#.#.....#.........#.#...#.....#.#.........................D D Y T ! Q Q Q Q Q T T P H M.rX5.Q Q T D aX}.-.Q ! U :.dXh.*.#.#.#.#.#.#.#.#.#.#.#.#...Q T P P D D D C #.uXdXsXe.*.,.5.2.#.#.#.#.#.#.#.#.#.#.#.#.#.#.#.#.#.#.#.#.#.#.#.#.",
"; 1.O.#.#.#.#.#.#.#.#.#.#.#.#.#.#.#.#.#.#.#.#.#.#.#.#.#.#.#.-.Q T T T T T T Q [ [ #.#.#.#.#.#.#.#.#.#.T N P ! Q Y N I T Q Q Z D U T ! ! Q Q ! ! Q T T D m.m.) ............................#...#.....#.#.#.#.....#.#.#.#.........#.#.......#.#.#.#.#.........#.#.......#.#.#.#.......#.#.#.#...#.#.#.........#.#.#.......#.#.#.#...#.#.#.#.......#.#.#.#...#.#.#.............#.#.#.#.#.....#.#.#...#.#.#.#.#.#.#.#.#...#.#.#.#.#.#.............................[ N J Y T T ! Q Q ! ! Q ! T P Q.M.Q Q T P M..X-.Q T Y h.rX5.#.#.#.#.#.#.#.#.#.#.#.#.#.#.#.#.#.#.#.#.Q J 9.5X5.5.#.#.#.#.#.#.#.#.#.#.#.#.#.#.#.#.#.#.#.#.#.S P T Q ! C P ! Q Q Z P T ! ! ! ! ! Q ! T T Y S <X[.y.......................#.......#.#.#...#.#.........#...#.#.#.....#.#.#.........#.#.........#...#.#.#.#.#.#...#.#.#.#.#.....#.#.#.#.#.#.........#.#.#.......#.#.#.#.#.#.#.#.................#.#.#.#.#.#.#.....#.#.#.#.#.#.#.............#.#.#.#...........#.#.#.#.#.#.#...#.#...#.#...................D D Y T ! Q Q Q Q Q T T P H M.rX5.Q Q T D aX}.-.Q ! U :.dXh.*.#.#.#.#.#.#.#.#.#.#.#.#.O.Q T P P J D D C #.sXpX7Xr.*.-.5.2.#.#.#.#.#.#.#.#.#.#.#.#.#.#.#.#.#.#.#.#.#.#.#.#.",
"; 2.#.#.#.#.#.#.#.#.#.#.#.#.#.#.#.#.#.#.#.#.#.#.#.#.#.#.#.#.-.Q T T T T T T Q Q ..#.#.#.#.#.#.#.#.#.#.T N P ! Q Y N I T Q Q A D U T ! Q Q Q ! ! ! T U D m.m.) ....................................#.#.#.#.#.....#.#...#.....#...#.#.......#.#.#.#.#.#.......#.#.........#.#.#.......#.#.#.#.#.#.#...........#.#.#.#.....#.#.#.#...#.#.#.........#.#.#.#...#.#.#.............#.#.#.#.#.#...#.#.#.......#.#.#.#.#.#.......#.#.#.#.#...#.........................[ N J Y T T ! Q Q ! ! Q ! T P Q.M.Q Q T P M..X-.Q ! Y h.rX5.#.#.#.#.#.#.#.#.#.#.#.#.#.#.#.#.#.#.#.#.Q J 9.5X5.5.#.#.#.#.#.#.#.#.#.#.#.#.#.#.#.#.#.#.#.#.#.S P T Q ! C P ! Q Q Z P T ! ! ! ! Q ! T T T P Z <X[.y...............................#.#.#.#.#.#.............#.#.#.#...#.............................#.#.#.#.#.....#.#.#.#.#.......#.#.#.#.#.........#.#.#.#.....#.#.#.#...#.#.#...................#.#...#.#.#.#...#.#.#.#.#.#...........#.#...#.#.#.....#.....#.#.#...#...............................[ [ D D U U ! Q Q Q Q Q T T P H M.rX5.Q Q T D qX}.-.Q ! U :.dXh.*.#.#.#.#.#.#.#.#.#.#.#.#.#.Q T P P J D D C N dXsXuXt.*.-.5.2.#.#.#.#.#.#.#.#.#.#.#.#.#.#.#.#.#.#.#.#.#.#.#.#.",
"; ,.O.#.#.#.#.#.#.#.#.#.#.#.#.#.#.#.#.#.#.#.#.#.#.#.#.#.#.#.-.Q T T T T T T Q [ [ #.#.#.#.#.#.#...#...T N P ! Q Y N I T Q ) A G U T ! Q Q Q Q ! ! T U D m.m.) ..................................#.....#.#.......#.#.....#.#.#.#.#.#.#.#...............#.#.#.#.#.#.......#.#.#.#.....#.#.#.......#.#.#.#.....#.#.........#.#.#.#.#.#.#.#.....#.#.#.#...#.......#.#.#.#.#.#.#.#.#.......#.#.#.........#.#.#.....#.#.#.#.#...#.#.................................[ N J T T T ! Q Q Q Q ! ! T P Q.M.Q Q ! P M..X-.Q ! Y s.rX5.#.#.#.#.#.#.#.#.#.#.#.#.#.#.#.#.#.#.#.#.Q J 8.uX2.5.#.#.#.#.#.#.#.#.#.#.#.#.#.#.#.#.#.#.#.O.O.S J T Q ! C P ! Q Q Z P T ! ! ! ! ! ! ! T Y Y S <X[.t.........................#.#.....#.#...#.#.......#.........#.#.#.#...#.#.#.#.#...#.#.#.#.#.#.#.#.#.........#.#.#...#.#.#.#.#.#.#...............#.#.....#.#.#.#.........#.#.#.#.#.#.#.#.#.#.#.#.......#.#.#.........................#.#...#.#.#.#...#.....#.#.#...#...............................[ [ D D T T ! Q Q Q Q Q T T P H M.rX4.Q Q T D qX}.-.Q ! U :.dXh.=.#.#.#.#.#.#.#.#.#.#.#.#.O.Q T P P J D D C N 7XdXsXr.*.-.5.2.#.#.#.#.#.#.#.#.#.#.#.#.#.#.#.#.#.#.#.#.#.#.#.#.",
"; -...#.#.#.#.#.#.#.#.#.#.#.#.#.#.#.#.#.#.#.#.#.#.#.#.#.#.#.-.Q T T T T T T Q [ [ ..#.#.#.#.#.#.......T C P ! Q Y N P T Q Q A D U T Q Q Q Q Q ! T T U D m.m.) ..............................#.........#.#.#.....#.......#.#.#.#.#...#.#.#.#.........#.#.#...#.#.#.......#.#.#.#.#.#.#.#.........#.#.#.#.....#.#.........#.#.#.#.#.#.#.#.....#.#.#.#.........#.#.#.#.#.#.....#.........#.#.#.#...#.#.#.#.........#.#.#.....#.#.................................[ N J T T T ! Q Q Q Q ! ! T J Q.M.Q Q ! P M..X-.Q ! Y s.rX5.#.#.#.#.#.#.#.#.#.#.#.#.#.#.#.#.#.#.#.#.Q J 9.5X2.5.#.#.#.#.#.#.#.#.#.#.#.#.#.#.#.#.#.#.#.O.O.S J T Q ! C P ! Q Q Z P T ! ! ! ! ! Q ! T Y Y S qX[.y.........................#.#.#...#.....#.#.....#.#.........#.#.#.#...#.#.#.#.....#.#.#.#.#...#...........#.#.#.#...#.#.#.#.#.#.................#.#.......#.#.#.........#.#.#.#.#.#.....#.#.#.#.......#.#.#...........................#.#.#.#.#.........#.#.#.#.#.#.................................[ D D T T ! ! Q ! Q Q T T P J M.rX4.Q T U H qX}.-.Q ! U :.dXh.=.#.#.#.#.#.#.#.#.#.#.#.#...Q T P P H D D C N sXuX7Xr.*.,.5.2.#.#.#.#.#.#.#.#.#.#.#.#.#.#.#.#.#.#.#.#.#.#.#.#.",
"; ,.O.#.#.#.#.#.#.#.#.#.#.#.#.#.#.#.#.#.#.#.#.#.#.#.#.#.#.#.-.Q T T T T T T Q [ [ #.#.#.#.#.#.#.#.#...T C Y T Q Y N P ! Q Q A D U T ! ! ! Q ! ! T T U D m.m.) ............................#.#.#.#.#.#.#.#.#.#.#.#.......#...#.#.........#.#.#.#.#.#.#.#.........#.#.....#.#.#.#.#.#.#.#.#.#.....#.#.#.#.......#...#.....#.#...#.#.#...#.....#.#.#.#.#...#.#.#.#.#.#...............#.#.#.#.#...#.#.#.#.#.............#.............#.#.........................[ x J T T T ! Q Q Q Q ! ! Y H Q.M.Q Q T I M..X-.Q ! Y -.rX5.#.#.#.#.#.#.#.#.#.#.#.#.#.#.#.#.#.#.#.#.Q J 9.,X2.5.#.#.#.#.#.#.#.#.#.#.#.#.#.#.#.#.#.#.#.#.#.S J T Q Q C P ! Q Q Z P T ! Q Q ! Q Q ! T Y Y S qX[.t.............................#.#.#...#.#.#.....#.#.#.#.....#.#.#.#.................#.#.................#.#.#.#.........#...#.#.#.#.#.#.#.#.............#.#.#.#...........#.....#...........#...#.#.#...#.#.#.#...#.#.#.........#.#.#...#.#.#.#.#.#.#.#.#.#...................................[ [ [ [ D D T U ! ! Q ! Q Q T T P G M.rX4.Q T U D qX}.-.Q ! U :.dXh.*.#.#.#.#.#.#.#.#.#.#.#.#.#.Q T P P J D D C N dXsXuXt.*.-.5.7.#.#.#.#.#.#.#.#.#.#.#.#.#.#.#.#.#.#.#.#.#.#.#.#.",
": 2.#.#.#.#.#.#.#.#.#.#.#.#.#.#.#.#.#.#.#.#.#.#.#.#.#.#.#.#.-.Q T T T T T T Q Q ..#.#.#.#.#.#.#.#.#...T C P ! Q Y N I T Q Q A D U T ! ! ! Q Q ! T T T D m.m.) ............................#.#.#...#.......#.#...#.#.........#.#.........#.#.#.#.#.#.#.#.........#.#.......#.#.#.#.#.#.#.#.#.....#.#.#...........#.#.#.#.#.#.....#.#.........#.#.#.#.#...#.#.#.#.#.#.#...........#.#.#.#.............#.#.#.#.........#.............#.#.........................[ x J T T T ! Q Q Q Q ! T Y H Q.M.Q Q T P M..X-.Q ! Y -.rX5.#.#.#.#.#.#.#.#.#.#.#.#.#.#.#.#.#.#.#.#.Q J 9.uX5.5.*.#.#.#.#.#.#.#.#.#.#.#.#.#.#.#.#.#.#.#.#.S J T Q Q C P ! Q Q Z P T ! Q Q ! ! Q T T Y Y S  X[.t.....[ ..........................#...#.........#.#...#.....#.#.#.........#.........#.#.................#.#.#.#.............#.#.#.#.#.#.#.#.......#.....#.#.#.#...........#.......................#.#...#.#.#.#.#.#.#.#.#.......#.#.#.....#.#.#.#.#...#.#.#.........#.........................[ [ [ [ D D T U ! ! ! ! Q Q T T Y G M.rX5.Q T U D qX}.-.Q ! U :.dXh.*.#.#.#.#.#.#.#.#.#.#.#.#.#.Q T P P J D D C N 5XdXpXy.@.-.5.7.#.#.#.#.#.#.#.#.#.#.#.#.#.#.#.#.#.#.#.#.#.#.#.#.",
": ,.O.#.#.#.#.#.#.#.#.#.#.#.#.#.#.#.#.#.#.#.#.#.#.#.#.#.#.#.=.! T T T T T T Q [ [ #.#.#.#.#.#.#.#.#...T C P T Q T N I T Q Q Z D U T ! Q Q Q ! ! T T T D m.b.) ....................................#.......#.#...#.#.#.#.......#...#.#.#.....#.#.#.#...#.#.#.....#.#.#...........#.#.#...#.#.#.#.........#.#.....#.#.#.#.........#.......#.#.#.#.#.#.#.#.#.#.............#.#.......#.#.#.........#.#...#.#.#.#.......#.......#.#.#.#.#.........................[ x J T T T ! Q Q Q Q ! U Y D Q.M.Q Q T P M..X-.Q ! Y -.rX5.#.#.#.#.#.#.#.#.#.#.#.#.#.#.#.#.#.#.#.#.Q J 9.3X2.5.*.O.#.O.#.#.#.#.#.#.#.#.#.#.#.#.#.#.#.#.#.S J T Q Q C I ! Q Q Z P ~ ! ! Q Q Q ! ! ! T T S  X[.y.....[ [ ................................#...#.#.#...#.#.#.........#.......#.#.#.#.........#.......#.#.#.#.#...........#.#.#.#.#.#.#.#.........#.#...#.#.#.#.#.#...............#.#.#.#.#...........O.......#.#.#.#.#.#.........#.#.....#.#.#.#...#.....#.#.......#.#...........................[ [ [ D D U U ! Q ! Q Q Q T T P G M.rX4.Q Q T H qX}.-.Q ! U :.dXh.*.#.#.#.#.#.#.#.#.#.#.#.#.#.Q T P P J D D C N pXdX7Xy.@.-.5.7.#.#.#.#.#.#.#.#.#.#.#.#.#.#.#.#.#.#.#.#.#.#.#.#.",
": -...#.#.#.#.#.#.#.#.#.#.#.#.#.#.#.#.#.#.#.#.#.#.#.#.#.#.#.-.! T T T T T T Q [ [ ..#.#.#.#.#.#.#.#...T C P T Q T N I T Q Q Z D U T Q Q Q Q ! ! T T T D m.b.) ..................................#.#.#.#.#.#.#.#.#.#...#.........#.#.#.#.....#...#.#.....#.#.#.#.#.#.#.#.........#.#.#...#.#.#.#.........#.#.#...#.#.#.#.........#.......#...#.#.#.#.#.#.#.#.............#.........#.#.#.#.#.#...#...#...#.#.#.#.....#...#.#.#.#.#...#.........................[ x J T T T ! Q Q Q ! ! U U D Q.M.Q Q T P M..X-.Q ! Y -.rX5.#.#.#.#.#.#.#.#.#.#.#.#.#.#.#.#.#.#.#.#.Q J 9.-X2.5.*.#.#.O.#.#.#.#.#.#.#.#.#.#.#.#.#.#.#.#.#.S J T Q Q C I ! Q Q A P ~ ! ! ! Q Q Q ! ! T T D  X[.y.................................#.......#.......#...#.#.#.........#.#.#...#.#.#.#...#.....#.......#.#.#.#.#.#.........#.#...#.....#.#.....#.#.#.#...#.#.#.#.#.................#.#.#.#.#.#.......#.....#.#.#.#.#.#.#.#.........#.#.....#.#.#...........#.....#.....#...........................[ [ [ D D U U ! Q Q Q Q Q T T P G M.rX2.Q Q T H qX}.-.Q ! U :.dXh.*.#.#.#.#.#.#.#.#.#.#.#.#...Q T Y P J D D C C dXsX8Xy.@.,.5.5.#.#.#.#.#.#.#.#.#.#.#.#.#.#.#.#.#.#.#.#.#.#.#.#.",
"; ,...#.#.#.#.#.#.#.#.#.#.#.#.#.#.#.#.#.#.#.#.#.#.#.#.#.#.#.-.Q T T T T T T Q [ [ #.#.#.#.#.#.#.#.#.#.T C P ! Q T N I T Q Q Z D U T Q Q Q ! ! ! T T T D m.m.) ..........................#.................#.#.#...............#.#...#.#.......#.........#.#.#.#.....#.......#.#.#.#.........#.#.....#.#.#.#.........#.#.#.#.#.#.#.#.............#.#.#.#.........#.#.#.#.#.#.........#.#.#.#.#.#.#...........#.#.........#.#.O.#.....#.........................[ x J T T T ! Q Q Q ! ! T T H Q.M.Q Q T P M..X-.Q ! Y -.rX5.#.#.#.#.#.#.#.#.#.#.#.#.#.#.#.#.#.#.#.#.Q J 9.8X2.5.*.#.O.O.#.#.#.#.#.#.#.#.#.#.#.#.#.#.#.#.#.S J T Q Q C I ! Q Q A P ~ ! ! ! Q Q ! ! ! T T D  X[.t...............................#.#.#.#...#.........#...#.#.....#.#.#.#.......#.#.#.#.#.#.#.#.#.....#.#.#.#.#.#.#.#.#.#.#.#.........#.......#.#.#.#.#.#.#.#.#.#.#.#.....#...#.#.#.#.#.#.#.#.....#.#.#.#.#.#.#.#.....#.#.#.....#.#.#.#.....#.................#.#.#.#.#...........................[ [ [ D D U T ! ! Q Q Q Q T T P G M.rX4.Q Q T D qX}.-.Q ! U :.dXh.*.#.#.#.#.#.#.#.#.#.#.#.#.#.Q T P P J D D C C dXsXpXy.@.-.2.7.#.#.#.#.#.#.#.#.#.#.#.#.#.#.#.#.#.#.#.#.#.#.#.#.",
"; 2.#.#.#.#.#.#.#.#.#.#.#.#.#.#.#.#.#.#.#.#.#.#.#.#.#.#.#.#.-.Q T T T T T T Q Q ..#.#.#.#.#.#.#.#.#...T C Y ! Q T N I T Q Q Z D U T Q Q Q ! ! ! T T T D m.m.*...........................#.#.#.#.#.....#...#...............#.#.#.#...#.#.................#.#.#.#...........#.#.#.#.#...........#.#.#.#.#.#.#.........#.#.#.#.#.#.#...................#.#.#.......#.#.#.#.#.#...#...#.#.#.#.#...#.#.#.........#.#.........#...O.O.....#...........................x J T T T ! Q Q Q Q ! T T H Q.M.Q Q ! P M..X-.Q Q Y -.rX5.#.#.#.#.#.#.#.#.#.#.#.#.#.#.#.#.#.#.#.#.Q J 9.uX:.5.*.#.#.#.#.#.#.#.#.#.#.#.#.#.#.#.#.#.#.#.#.S J T Q Q C I ! Q Q A P ~ ! ! Q Q Q ! T ! T T D  X[.y...............................#.#...#...#...#.....#...#.#.#.#.#.#.#.#.......#.#...#.#.#.#.#.#.......#.#.#.#.#.#.#.#.#.#.#.........#.#.....#.#.#.#.#.#.#.#.#.#.#.#.#.#.#.#.#.#.#.#.#.#.#.#.....#.#.#.#.#.#.#.#.#...#.#.#...#.#.#.#.....#.#.#...............#.#.#...#...........................[ [ [ D D T T ! Q Q Q Q Q T T Y J M.rX4.Q Q T D qX}.-.Q ! U :.dXM.=.#.#.#.#.#.#.#.#.#.#.#.#.#.] T P P J D D C C uXdX7Xu.@.=.2.7.#.#.#.#.#.#.#.#.#.#.#.#.#.#.#.#.#.#.#.#.#.#.#.#.",
"; ,...#.#.#.#.#.#.#.#.#.#.#.#.#.#.#.#.#.#.#.#.#.#.#.#.#.#.#.-.Q T T T T T T Q [ ..#.#.#.#.#.#.#.#.#.#.T C P T Q T N J T Q Q Z D U T Q Q Q ! ! ! T T T D m.m.*...............................................#.#.#.#.#...#.#.#.#.........#.#.#.#.#.#.#.#.............#.#.#.......#.#.#.#.....#.#.#.#.............#.#.#.......#.#.#.#.............#.#.#.#.#...#...#.#...........#.#.#.#.#.#.....#.#.#.#.........#...#.....#.#.#.......................[ ....[ ....x J T T T ! Q Q Q Q ! T U H Q.M.Q Q T P M..X-.Q Q Y -.rX5.#.#.#.#.#.#.#.#.#.#.#.#.#.#.#.#.#.#.#.#.Q J 9.=X:.5.*.#.#.#.#.#.#.#.#.#.#.#.#.#.#.#.#.#.#.#.#.S J T Q Q C I ! Q Q A P ~ ! ! ! Q ! ! ! T T T D  X[.y.......[ ............................#.....#.#.#.......#.#.#.#.#.#.......#.#.#.........#.#.#.#.#.#.#.#.#.#.#...#.#.#.#.#.#...#.#.#.......#.#.......#...............#.#.#.......................#.#.#.......#.#.....#.#.#.#.....#.#.........#.#.........#.#.....#...#...........................[ [ [ D D T T ! Q Q Q Q Q T T P J M.rX4.Q Q T D qX}.-.Q ! U :.dXM.=.#.#.#.#.#.#.#.#.#.#.#.#.#.Q T P P J D D A C dXpX7Xi.@.-.2.7.#.#.#.#.#.#.#.#.#.#.#.#.#.#.#.#.#.#.#.#.#.#.#.#.",
"; -...#.#.#.#.#.#.#.#.#.#.#.#.#.#.#.#.#.#.#.#.#.#.#.#.#.#.#.-.Q T T T T T T Q [ ....#.#.#.#.#.#.#.#.#.T C P T Q T N J T Q Q Z D U T Q Q ! ! ! ! T T T D m.m.*.....................................#.......#.#.#.#.#.....#.#...#.#.......#.#.#.#...#.#.#.........#.#.#.#.........#.#.#.#.....#...#.#.........#.#.#.#.#.......#.#.#.#.........#.#.#.#.#.#.....#.#.#.#.........#.#.....#.#.#.......#.#...#.......#...#.#.#.#.#.#.......................[ ....[ [ ..x J T T T ! Q Q Q ! ! T Y H Q.M.Q Q T P M..X-.Q Q Y -.rX5.#.#.#.#.#.#.#.#.#.#.#.#.#.#.#.#.#.#.#.#.Q J 9.7X:.5.*.#.#.#.#.#.#.#.#.#.#.#.#.#.#.#.#.#.#.#.#.S J T Q Q A I ! Q Q D P ~ ! ! ! ! ! ! ! T U T D  X[.y.......[ [ ........................#.#.....#.#.#.#.....#.#.#.#.#.#.....#.#.#.#.........#.#.#.#.....#.#.#.#.....#.#.#.#.#.....#.#.#...#.#.#.#.......................#.#.#.#.................#...#.#.#.......#.......#.#.#.#...#.#.#.......#.#.#.#.......#.....#.#.#.#...............................[ D D T T ! ! Q Q Q Q T T P J M.rX2.Q Q T D qX}.-.Q ! U :.dXM.=.#.#.#.#.#.#.#.#.#.#.#.#.O.Q T Y P J D D A C dXsXuXi.@.,.2.5.#.#.#.#.#.#.#.#.#.#.#.#.#.#.#.#.#.#.#.#.#.#.#.#.",
"; ,...#.#.#.#.#.#.#.#.#.#.#.#.#.#.#.#.#.#.#.#.#.#.#.#.#.#.#.-.Q T T T T T T Q [ ..#.#.#.#.#.#.#.#.#.#.T C P T Q T N J T ! Q Z D U T Q Q ! ! ! ! T T T D r.m.=.....................................#.#.#...#.#.........#.#.#.....#.#.....#.#...#.....#.#.#.#.....#.#.#.#.#.#.....#.#.#.#.........#.#.#...#.#.#.#.#.#.#.#.......#.#.#.#...#.#.#.#.#.#.#...........#.#.#...#.#.#.#.........#.#.#.....#.........#.#.#.....#.#...#...............................[ ..x J Y T T T ! Q Q ! ! T Y H Q.M.Q Q T P q..X-.Q Q Y -.aX5.#.#.#.#.#.#.#.#.#.#.#.#.#.#.#.#.#.#.#.#.Q J 9.uXy.5.*.#.#.#.#.#.#.#.#.#.#.#.#.#.#.#.#.#.#.#.#.S J T Q Q A I ! Q Q D P ~ ! ! T Q Q ! ! T T ~ D XX[.y...............................#...#.........#.#.#.......#...............#.#.#.#.#...#.#.#.......#.#.#.#...........#.#.........#.#.....#.#.#.#.....#.#.........#.#.#.#.#.#.#.#.....#.#.#.#.#.#.#.#.#.#.....#...#.#...#.........#.#.....#.#.#.#.................#.#.#...............................[ D D T T ! ! Q Q Q Q T T P J M.aX4.Q Q T D qX.X-.Q ! U :.dXM.=.#.#.#.#.#.#.#.#.#.#.#.#.#.Q T Y P J D D A C 8XdXsXu.*.-.2.7.#.#.#.#.#.#.#.#.#.#.#.#.#.#.#.#.#.#.#.#.#.#.#.#.",
"; 2.#.#.#.#.#.#.#.#.#.#.#.#.#.#.#.#.#.#.#.#.#.#.#.#.#.#.#.#.-.Q T T T T T T Q Q ..#.#.#.#.#.#.#.#.#.#.T C P ! Q T N J T Q ) Z D U T Q Q Q Q ! ! T T T D r.m.*.....................................#.#.#...#...........#.........#.#.....#.#.........#.#.#.#...#.#.#.#.#.#.#.....#.#.#...........#.#.#.#.#.#.#.#.#.#.#.#.....#.#.#.#.#.#.#.#.#.#.#.#.#...........#.#.#...#.#.#.#.........#.................#.#.#...................................[ ......[ [ ..x J T T T T Q Q Q ! ! T U H Q.M.Q Q T P q..X-.Q Q Y -.aX5.#.#.#.#.#.#.#.#.#.#.#.#.#.#.#.#.#.#.#.#.Q J 9.5Xs.5.*.#.#.#.#.#.#.#.#.#.#.#.#.#.#.#.#.#.#.#.#.S J T Q Q A I ! Q Q D P ~ ! ! ! Q Q ! T T T ~ D XX[.y...............................#.#.............#.#.....#.#...............#.#.#.#.#.....#.#.......#.#.#.#...........#.#.........#.#.....#.#.#.#.....#.#.......#.#.#.#.#.#.#.#.#.#.#.#.#.#.#.#.#.#.#.#.......#...#.#...#.........#.#.....#.#.#.#.......#.........#.#.#.........................[ [ ..[ D D U T T ! Q Q Q Q T T P J 9.aX4.Q Q T D qX.X-.Q ! U :.dXM.=.#.#.#.#.#.#.#.#.#.#.#.#.#.[ T P P J D D A C sXuX7Xf.*.=.2.7.#.#.#.#.#.#.#.#.#.#.#.#.#.#.#.#.#.#.#.#.#.#.#.#.",
"; ,...#.#.#.#.#.#.#.#.#.#.#.#.#.#.#.#.#.#.#.#.#.#.#.#.#.#.#.=.! T T T T T T Q [ ..#.#.#.#.#.#.#.#.#...T C Y ! Q T N J T Q Q Z D U T ! Q Q Q Q Q T T T D r.m.*.....................................#.#.#.......#.....#.#...#.....#.#.#...................#.#.#.#.#.#.#...#.#.#.#.........#.#.....#.#.#.#.#.#.#.........#.#.#.#.#.#.#.#.#.#.#.#...........#.#.....#.#.#.#.#.......#.#.#.#...........#.....#...#.............#.#.....................[ ......[ [ ..x J T T T ! Q Q Q ! ! ! U H Q.Q.Q Q T I q..X-.Q Q Y -.aX5.#.#.#.#.#.#.#.#.#.#.#.#.#.#.#.#.#.#.#.#.Q J 9.5Xs.5.*.O.O.O.#.#.#.#.#.#.#.#.#.#.#.#.#.#.#.#.#.D D T Q Q A I ! Q Q D P T ! Q ! ! ! ! ! T T T D XX[.t.......................................#...#.....#...........#.....#.#.#.#.....#.#...........#...#.........#.#.....#.#.......#.#.#...#.#.#.#.#.#...#.#.........#.#.#.#.#.#.#.#.#.#.#.#.#.#.#.#.#.#.#.#.........#.#.........#.#.#.#.#.#.#.#.#.......#.#.#...#...#.#.#.................................G D Y T T T Q Q Q Q T T Y J 9.aX6.Q Q T D qX.X-.Q ! U :.dXM.=.#.#.#.#.#.#.#.#.#.#.#.#.#.Q T Y P J D D A C dXsXuXu.*.-.2.7.#.#.#.#.#.#.#.#.#.#.#.#.#.#.#.#.#.#.#.#.#.#.#.#.",
"; -...#.#.#.#.#.#.#.#.#.#.#.#.#.#.#.#.#.#.#.#.#.#.#.#.#.#.#.-.Q T T T T T T Q [ [ ..#.#.#.#.#.#.O.....T C P T Q T N J T Q Q Z D U T Q Q Q Q Q ! T T T D r.b.=.......................................#.#.....#.#.#...#.#.#.#.....#.#.#.#.................#.#.#.#.#...#...#.#.#.#.........#.#.....#.#...#.#.#.............#.#.#...#.#.#.#.#.#...............#.....#.#.#.#...#.....#.#.#.........#.#.#.#.......#.#.............#.................[ ..[ ......[ ....M J T T T ! ! Q Q ! T T Y D Q.Q.Q Q T I q..X-.Q Q Y -.aX5.#.#.#.#.#.#.#.#.#.#.#.#.#.#.#.#.#.#.#.#.Q J 9.uXt.5.*.O.O.O.#.#.#.#.#.#.#.#.#.#.#.#.#.#.#.#.#.D D T Q Q A I ! Q Q S P T ! Q Q ! ! ! ! T T T D XX[.t.......................................#...#.....#.......#.......#.#.#.#.#.......#.#.........#...#.........#.#.....#.#.........#.#...#.#.#.#.#.#.#.#.#.........#.#.#.#.#.#.#.#.#.#.....#.#.#.#.#...#.#.........#...#.#.........#.#.#.#.#.#.#.#.....#.#.#.#.....#.#.#.................................G Z Y T T T Q Q Q Q T T Y J 9.aX6.Q Q T D qX.X-.Q ! U :.dXM.=...#...#.#.#.#.#.#.#.#.#.#.Q T Y P J D D A N 5XdXsXu.*.-.2.7.#.#.#.#.#.#.#.#.#.#.#.#.#.#.#.#.#.#.#.#.#.#.#.#.",
"; ,...#.#.#.#.#.#.#.#.#.#.#.#.#.#.#.#.#.#.#.#.#.#.#.#.#.#.#.-.Q T T T T T T Q [ ..#.#.#.#.#.#.#.#.O...T C P T Q T N J T Q Q Z D U T ! Q Q Q Q Q T T T D r.b.*...............................................#.#.....O...#.#.#.......#.#.#.#.#.#.#.#.....#.#.#...#...........#.#.....#.#.#.#.....#.#.................#.#.#.#.....#.#.#.#.........#...#.#.#.#.........#.#...#.....#.#.#.#.....#.#.#.#.#.....#.#.#.#.............................[ ................N J Y T T ! ! ! Q ! T T Y H Q.Q.Q Q T P q..X-.Q Q Y -.aX5.#.#.#.#.#.#.#.#.#.#.#.#.#.#.#.#.#.#.#.#.Q J 9.3Xs.5.*.#.O.O.#.#.#.#.#.#.#.#.#.#.#.#.#.#.#.#.#.D D T Q Q A I T Q Q D P T ! Q Q ! ! ! ! T T T D ].[.t.....................................#.....#...#.#.....#...#.#.#.#.#...........#.#.#.#.....#.#.#.#.#...#.#.#.#.....................#.#.#.#.#.#.#.#.#.#.#.....#.#.#.#...........#.............#.....#.#.#.#...#.#...#.#...#.........#.#.#.#.#.#.#.#.....#.#.........O.................................J Z Y T T T Q Q Q Q T T Y J 9.aX6.Q Q T D qX.X-.Q Q U I dXM.=.......#.#.#.#.#.#.#.#.#.#.Q T Y P J D D A C yXdX7Xu.@.-.2.7.#.#.#.#.#.#.#.#.#.#.#.#.#.#.#.#.#.#.#.#.#.#.#.#.",
"; 2.#.#.#.#.#.#.#.#.#.#.#.#.#.#.#.#.#.#.#.#.#.#.#.#.#.#.#.#.-.Q T T T T T T Q Q ..#.#.#.#.#.#.#.#.O.O.T C P T Q T N J T Q Q S D U T ! Q Q Q Q Q T T T D r.m.*.....................................#.........#.#.........#.#.#...........#.#.#.#.#.#.#.#.#.#.#...#.#...........#.#.#.#.#.#.#.....#.#.#...............#.#.#.#.......#.#.#.........#.#.#.#.#.#.........#.#.#.......#.#.......#.#.#.#.............#.#.....................................[ [ [ [ ..N D Y T T ! Q Q T T T T Y H Q.Q.Q Q T P q..X-.Q Q Y -.aX5.#.#.#.#.#.#.#.#.#.#.#.#.#.#.#.#.#.#.#.#.Q J 9.,Xs.5.*.#.O.O.#.#.#.#.#.#.#.#.#.#.#.#.#.#.#.#.#.D D T Q Q A P T Q Q D P T ! Q Q ! ! ! T T T T D ].[.t.............................................#.#...#...#.#.#.#.#.#.#.#.#.......#.#.#.#...#.#.#.#.#.#.#.#.#.#.#.....#.............#...#.#.#.#.#.#.#.#.#.#.#...#.#.#.#...................#.#...#.....#.#.#.#.....#...#.#.#.#...........#.#.#.#.#.#.#.....#.#...#.......................................J Z Y T T T Q Q Q Q T T Y J 9.aX6.Q Q T D qX.X-.Q Q U I dXM.=.#.....#.#.#.#.#.#.#.#.#.#.[ T P P J D D A C aXsXuXf.@.=.2.7.#.#.#.#.#.#.#.#.#.#.#.#.#.#.#.#.#.#.#.#.#.#.#.#.",
"; ,...#.#.#.#.#.#.#.#.#.#.#.#.#.#.#.#.#.#.#.#.#.#.#.#.#.#.#.-.Q T T T T T T Q [ ..#.#.#.#.#.#.#.#.#...T C P T Q T N J T Q Q S D U T Q Q Q Q Q ! T T T H r.b.*.....................................#...#.#.....#.........#...#.#.....#.#.#.........#.#.#.#.#.....#.#.#...#.#.#.#.#...........#...#...........#.#.#.#.#.#...........................#.#.#...#.#.#.........#.#.#...#.#.....#.#.#.#.#.............#.......................................[ [ [ [ ..C D Y T T Q Q Q Q T T T T H Q.Q.Q Q T P q..X-.Q Q Y -.aX5.#.#.#.#.#.#.#.#.#.#.#.#.#.#.#.#.#.#.#.#.Q J 9.uXt.5.*.O.#.#.#.#.#.#.#.#.#.#.#.#.#.#.#.#.#.#.#.D D T Q Q A I ! Q Q D P ~ ! ! ! Q Q ! ! T T T D ].[.t.............................................#.#...#.#.#.#.#.#.#.#.#.#...#.#.#.#.#.#.#.#.#.........#.#.#.#.#.#.#...#.#...............#.#.#.#.#.........#.#.#.#.....#.#.#.#.#.#.#.#...#.#.#.#.#.....#.#.#...........#.#.......#.#.#.....#.#.#.#...#.....#.#...#.#.....................................J Z T T T T Q Q Q Q T T Y J 9.aX6.) Q T D qX.X-.Q Q U I dXM.=.#.#.#.#.#.#.#.#.#.#.#.#.#.Q T Y P J H D A C aXdXpXl.@.-.2.5.#.#.#.#.#.#.#.#.#.#.#.#.#.#.#.#.#.#.#.#.#.#.#.#.",
"; -...#.#.#.#.#.#.#.#.#.#.#.#.#.#.#.#.#.#.#.#.#.#.#.#.#.#.#.-.Q T T T T T T Q [ [ ..#.#.#.#.#.#.#.#.O.T C P T Q T N J T Q Q S D U T Q Q Q Q ! ! T T T H 0.b.*.....................................#...#.#.....#.........#...#...#...#.#...........#.#.#.#.#.....#.#.....#.#.#.#.#.#.....#.#.#.#...#.........#.#.#.#.#.#.#.#.......................#.#.#...#.#.#.....#...#.#.#.#.#.#.....#.#.#.....................#...................................[ [ [ [ ..C D Y T T Q Q Q Q T T T T H Q.Q.Q Q T P q..X-.Q Q Y -.aX5.#.#.#.#.#.#.#.#.#.#.#.#.#.#.#.#.#.#.#.#.Q J 9.,Xt.5.*.O...#.#.#.#.#.#.#.#.#.#.#.#.#.#.#.#.#.#.D D T Q Q A I ! Q Q D P ~ ! Q ! Q ! ! ! T U T D ].[.t.....................................#.#...#.#.....#.#...#.....#.#...........#.#.#.#.#.#.......#.#.#.#.#.#.#.#.........#.#...#.....#...#.#...#...........#.#.........#.#.#...#.#.#.....#.#.#.#.....#.#.#.#.........#.#.......#.#.#.#.....#.....#.......#.............................................P Z T T T T Q Q Q Q T T P J 9.aX6.) Q T D }..X-.Q ! U I dXM.=.#...#.#.#.#.#.#.#.#.#.#.#.Q T Y P J D D A C 6XdX8Xf.*.-.2.5.#.#.#.#.#.#.#.#.#.#.#.#.#.#.#.#.#.#.#.#.#.#.#.#.",
"; ,...#.#.#.#.#.#.#.#.#.#.#.#.#.#.#.#.#.#.#.#.#.#.#.#.#.#.#.-.Q T T T T T T Q [ ..#.#.#.#.#.#.#.#.#.#.T C P ! Q T N J T Q Q S D U T Q Q Q ! ! ! T T T D r.b.*...................................#.#...#.#.....#.........#.#...#.#.#.#.#.#.#.............#.........#.....#.#.....#.......#.#.#.#.#.#.....#...........#.#.#.#.#.#.#.#.....#...#.#.#.#.#...#.#.#.#.#.#.#.#.#.#...#...................................#.................................[ [ [ [ [ ..C D Y T T ! Q Q Q T T T T H Q.Q.Q Q T Y q..X-.Q Q U -.aX8.#.#.#.#.#.#.#.#.#.#.#.#.#.#.#.#.#.#.#.#.Q J 9.-Xs.5.*.......#.#.#.#.#.#.#.#.#.#.#.#.#.#.#.#.#.D D T Q Q A J T Q Q D P ~ ! Q Q Q Q ! ! T T T D ].[.t.......[ [ ..........................................#.......#.#.#.#.#.................#.......#.#.....#.#.#.#...#.#.#.#.#.#.#...#...#.#.#.............#.#.#.#...#.......#.....#.#.......#.#.#.#...#...#.#.........#.......#.#.#.#.#.#.......#...................#...................................P A T T T T Q Q Q Q T T Y J 9.aX6.Q Q T J }..X-.Q ! Y I dXM.=.......#.#.#.#.#.#.#.#.#.#.] T Y P J D D A C aXsXuXx.*.-.2.8.#.#.#.#.#.#.#.#.#.#.#.#.#.#.#.#.#.#.#.#.#.#.#.#.",
"; 2.#.#.#.#.#.#.#.#.#.#.#.#.#.#.#.#.#.#.#.#.#.#.#.#.#.#.#.#.-.Q T T T T T T Q Q ..#.#.#.#.#.#.#.#.#.#.T C P T Q T x J T Q Q S D U T ! Q Q ! ! ! T T T D q.b.*.................................................#...........#.....#...#.#.#.........#.....#.#.......#.....#.#.....#.......#.#.....#.......................#.#.#.#.#.#.#.#.#.#.#.#.#.#.#...#.#.#...#...#.#...........................................#.#...............................[ [ [ [ [ ..C D Y T T T Q Q Q T T T T H Q.Q.Q Q T Y q.rX-.Q Q U -.aX8.#.#.#.#.#.#.#.#.#.#.#.#.#.#.#.#.#.#.#.#.Q J 9.8Xt.5.*.......#.#.#.#.#.#.#.#.#.#.#.#.#.#.#.#.#.D D T Q Q A J T Q Q D P ~ ! Q Q Q Q ! T T T Y D ].[.x.....[ [ [ ....................................#.#...#.......#.....#.........................#.#.#.....#.#.#.#.#.#.#.#.#.#.#.#...........#.#.#.........#.#...#.......................#.....#.#.#.......#.#.#.#.#.#.#.......#.....#.#.#.#.....#...............#.#.#.#.........................[ [ [ ..P A Y T T T Q Q Q Q T T Y J 9.aX6.Q Q T J }..X-.Q ! Y I dXM.=.......#.#.#.#.#.#.#.#.#.#.[ T P P J D D A C aXdXpXx.*.=.2.8.#.#.#.#.#.#.#.#.#.#.#.#.#.#.#.#.#.#.#.#.#.#.#.#.",
"; ,...#.#.#.#.#.#.#.#.#.#.#.#.#.#.#.#.#.#.#.#.#.#.#.#.#.#.#.=.! T T T T T T Q [ ..#.#.#.#.#.#.#.#.#.#.T C P T Q T x P T Q Q S D U T ! Q Q ! Q ! T T T D 0.m.*.......................................#.........#.............#...#.......#.....#.#.#.#...............#.#.#.#.....#.......#.#...#.#.#.......#.#.#.........#.#.#.............#.#.#.#...#.#.#.#.....#...#.#.#.........#.#.#.........#.#.................#.........................[ ............[ ..C D Y T T T ! ! Q T T T U H M.Q.Q Q T Y q.rX-.Q Q U -.aX8.#.#.#.#.#.#.#.#.#.#.#.#.#.#.#.#.#.#.#.#.Q J ..uXt.6.*.#.#.#.#.#.#.#.#.#.#.#.#.#.#.#.#.#.#.#.#.D D T Q Q A J T Q Q D P ~ ! Q Q Q Q ! ! ! T Y D ].[.x.....[ [ [ ....................................#...........................#.#.........#.#.......#.....#.#.#.#...#.#.#.#.#.#.#.#.#.#.#...............#.#.#...#.#.....#...........#.#.#.#.....#.#.#.......#.#.#.#.#.......#.........#.#.#.....................#.#.............................[ [ [ ..P A Y T T T Q Q Q Q T T Y J 9.aX5.Q Q T J }..X-.Q ! Y I dXM.=.#.#.#.#.#.#.#.#.#.#.#.#.#.] T Y P J D D A C 6XdXdXx.*.-.2.8.#.#.#.#.#.#.#.#.#.#.#.#.#.#.#.#.#.#.#.#.#.#.#.#.",
"; -...#.#.#.#.#.#.#.#.#.#.#.#.#.#.#.#.#.#.#.#.#.#.#.#.#.#.#.-.Q T T T T T T Q [ [ ..#.#.#.#.#.#.#.#.#.T C P T Q T x I T Q Q S D U T ! Q ! ! Q ! T T T D 0.m.*...[ ..[ [ [ [ [ [ ..........................................#.#...#.......#.#.#.#...#...................#.#.#.........#...#.#...#...#.....#.#.#.#.....#.#.#.#.#.#...........#...#.....#...#.#.....#.....#.#.......#.#...........................................................[ ....[ [ [ [ [ [ C D Y T T T ! ! Q Q ! T Y H M.Q.Q Q T P q.rX-.Q Q U -.aX8.#.#.#.#.#.#.#.#.#.#.#.#.#.#.#.#.#.#.#.#.Q J ..=Xs.5.*.#.#.#.#.#.#.#.#.#.#.#.#.#.#.#.#.#.#.#.#.H D T Q Q A J T Q Q D P T ! Q Q Q Q ! ! T T Y D ].[.x.....[ [ [ ..............................................#.................#.#.#...#.#.#.........#.....#.#.#.#.....#.#.#.#.#.#.#.#.#.#...............#.#.#.#.#.#.#.............#.#.#.#.#.#.....#.#.........#.#.#.#.....#.#...........#.#.....................#.#.............................[ [ ....P A Y T T T Q Q Q Q T T Y J 9.aX5.Q Q T J }..X-.Q ! Y I dXM.=.#.#.#.#.#.#.#.#.#.#.#.#.#.Q T Y P J D D A C aXpX8Xx.&.-.2.8.#.#.#.#.#.#.#.#.#.#.#.#.#.#.#.#.#.#.#.#.#.#.#.#.",
"; ,...#.#.#.#.#.#.#.#.#.#.#.#.#.#.#.#.#.#.#.#.#.#.#.#.#.#.#.-.Q T T T T T T Q [ ..#.#.#.#.#.#.#.#.#.#.T C U T Q T x I T Q Q S D Y T ! ! Q ! Q ! T T T D 0.m.*...[ ..[ [ [ [ [ [ ..........................................#.#.#.#...........#.#...#.#.#.......#.#.....#.#.#.#.....#.#.#.......#...#.#.#.#...#.#...#.#.#.......#...............#...#.#...#.....#.#.......#.#.#...#.#.................................................................[ [ [ [ [ [ C D Y T T T Q Q ! Q ! T Y D M.Q.Q Q T P q.rX-.Q Q U -.aX8.#.#.#.#.#.#.#.#.#.#.#.#.#.#.#.#.#.#.#.#.Q J ..7Xs.5.*.#.#.#.#.#.#.#.#.#.#.#.#.#.#.#.#.#.#.#.#.H D T Q Q A H T Q Q D P T ! Q Q Q Q ! ! T T Y D ].[.x.....[ [ [ [ ............................................#.#.....#.........#.#.#.#.#.#.#.....#.#.#.....#.#.........#.#.........#...#.......#.#.....#.#.#.#.#.#.#.#.....#.#.#.#.#.....#.#.......#...#.#.#...#.#.........#.#.#.#...........#...................#.#...........[ ................[ [ [ [ P A Y T T T Q Q Q Q T T T J 9.aX5.Q Q T J }..X-.Q ! Y I dXM.=.#.#.#.#.#.#.#.#.#.#.#.#.#.[ T Y P J D D A C aXdXpXx.*.-.2.8.#.#.#.#.#.#.#.#.#.#.#.#.#.#.#.#.#.#.#.#.#.#.#.#.",
"; 2.#.#.#.#.#.#.#.#.#.#.#.#.#.#.#.#.#.#.#.#.#.#.#.#.#.#.#.#.-.Q T T T T T T Q Q ..#.#.#.#.#.#.#.#.#.#.T C U T Q T x I T Q Q S D Y T ! ! Q ! Q ! T T T D 0.m.*...[ ......................................................#.#...#.#...........#.#.#.#.#.#.#...#.#.#.....#.#.#.....#.#.#.#...........#.#.#.#...#.#.#.#.#.#.........#.#.........#.#.....#.#.......#.#.......#.#.#...#.#.............................................................[ ..[ [ [ [ [ [ C D Y T T T ! ! ! Q ! T Y H M.Q.Q Q T Y q.rX-.Q Q U -.aX8.#.#.#.#.#.#.#.#.#.#.#.#.#.#.#.#.#.#.#.#.Q J ..uXt.5.*.#.#.#.#.#.#.#.#.#.#.#.#.#.#.#.#.#.#.#.#.H D T Q Q A H T Q Q D P T ! ! Q Q Q ! T T T Y D  X[.x.....[ [ [ ............................................#.#.#...#.#.#.......#.#.#.#.#.#.#.......#.#.....#.#.........................#.#.....#.#.....#.#.#.#.#.....#.....#.#.#.#.#.......#.#.#...#...#.#.#...#.#.........#.#...#...........#.#.#.#...........................[ ................[ [ [ [ P A Y T T T Q Q Q Q T T T J 9.aX5.Q Q T J }..X2.Q ! Y I dXM.-.#.#.#.#.#.#.#.#.#.#.#.#.#.[ T Y P J D D A C 5XdXsXm.*.=.2.8.#.#.#.#.#.#.#.#.#.#.#.#.#.#.#.#.#.#.#.#.#.#.#.#.",
"; ,...#.#.#.#.#.#.#.#.#.#.#.#.#.#.#.#.#.#.#.#.#.#.#.#.#.#.#.-.Q T T T T T T Q [ ..#.#.#.#.#.#.#.#.#.#.T C Y T Q T x I T Q Q S D Y T ! ! Q Q Q ! T T T D 0.m.*...[ [ [ [ ..................................................#...#.#...#.....#.#.#.#.....#.#.#.#.#.#.#.....#.#.#.#.......#...#.......#.#.#.......#.#.#.#.#.#...#.#.#.#.#.......#.......#.#.....#...#.#.....#.#.#...#.#.............................................................[ ..[ [ [ [ [ [ C D Y T T T ! Q ! Q Q T Y H M.Q.Q Q T Y q.rX-.Q Q U -.aX8.#.#.#.#.#.#.#.#.#.#.#.#.#.#.#.#.#.#.#.#.Q J ..5Xt.5.*.O.O.O.#.#.#.#.#.#.#.#.#.#.#.#.#.#.#.#.#.H D T Q Q A J T Q Q D P ~ ! ! Q Q Q ! ! T T T D .X[.x.......[ [ ..................................#.........#.#.#.#.#.#.#.........#.#.#.#.#.....#.#.#.#.#.#.....#.#.#.#.........#.#.#.#.#.#.....#.#.....#.#...#.......#.....#.#.#.....#.......#.#.#.#.#.............#.#.#...#.......#.....#.#.#.#.#.#.....................[ ....[ ................[ [ [ [ P A Y T T T Q Q Q Q T T T J 9.aX5.Q ! T J }..X2.Q ! U I dXQ.-.#.#.#.#.#.#.#.#.#.#.#.#.#.[ T Y P J D D S C iXpX7Xx.*.-.2.8.#.#.#.#.#.#.#.#.#.#.#.#.#.#.#.#.#.#.#.#.#.#.#.#.",
"; -...#.#.#.#.#.#.#.#.#.#.#.#.#.#.#.#.#.#.#.#.#.#.#.#.#.#.#.-.Q T T T T T T Q [ [ ..#.#.#.#.#.#.#.#.#.T C Y T Q T x I T Q Q S D Y T ! ! ! ! Q Q T T T D 0.b.=...[ [ [ [ ..................................................#.....#.#.#.......#.#.#.......#.#.#.#.#.#.....#.#.#.#.......#.#.#.#.....#.#.#.........#.#.#.#.#.#.....#.#.#.#.....#...#.#.#.#.#...#...#.#.....#.#.#.#.#.#...................................................................[ [ [ [ [ C D Y T T T ! Q ! Q Q T Y H M.Q.Q Q T P q.rX-.Q Q U -.aX8.#.#.#.#.#.#.#.#.#.#.#.#.#.#.#.#.#.#.#.#.Q J ..5Xs.5.*.O.O.#.#.#.#.#.#.#.#.#.#.#.#.#.#.#.#.#.#.H D T Q Q A P T Q Q D P ~ ! ! ! ! ! Q ! T T T D /.[.x...............................................................#.#.#...........#.#...#.#.....#.#.#.#.#.......#.#.#.........#...#.#...#.....#.#.....#.#.#.#.......#...#...#.....#...........#.#.#...#.#.........#...#...#.......#.....................................[ ....[ ................[ [ [ [ P A Y T T T Q Q Q Q T T T P 9.aX5.Q T T J }..X2.Q Q U I dXQ.-.#.#.#.#.#.#.#.#.#.#.#.#.#.Q T Y P J D D S C aXdXpXx.*.-.2.7.#.#.#.#.#.#.#.#.#.#.#.#.#.#.#.#.#.#.#.#.#.#.#.#.",
"; ,...#.#.#.#.#.#.#.#.#.#.#.#.#.#.#.#.#.#.#.#.#.#.#.#.#.#.#.-.Q T T T T T T Q [ ..#.#.#.#.#.#.#.#.#.#.T C Y T Q U x I T Q Q S D Y T ! ! ! ! ! Q T T T D 0.m.*...[ [ [ [ [ [ ..............................................#.....#.#.#.................#.#.#...#.#.#...........#.....#.#...#.#.....#...#.......#...#...#.#...#.#.#.#.#.#.....#.......#.#.....#...#...........#...#.#...........................................................[ ....[ [ [ [ [ [ C D Y T T T ! Q ! Q ! T Y H M.Q.Q Q T P q.rX-.Q Q U -.aX8.#.#.#.#.#.#.#.#.#.#.#.#.#.#.#.#.#.#.#.#.Q J ..uXt.5.*.O.O.O.#.#.#.#.#.#.#.#.#.#.#.#.#.#.#.#.#.H D T Q Q C I ! Q Q D P ~ T T ! ! ! ! ! T T T D /.[.x...............................................................#.#.#...........#.#...............#.#.#...........#.......#.....#.....#.....#.#.#...#.#.#.#.......#.#.#.........#.....#.........#...#.#.#.#.....#.......#.#.#...............................................................[ [ [ [ [ I Z Y T T T ! Q Q Q T T T P 9.aX5.Q T T J }.rX2.Q Q U I dXQ.-.O...#.#.#.#.#.#.#.#.#.#.#.[ T Y P J D D S C -XdXsXm.*.-.2.8.#.#.#.#.#.#.#.#.#.#.#.#.#.#.#.#.#.#.#.#.#.#.#.#.",
"; 2.#.#.#.#.#.#.#.#.#.#.#.#.#.#.#.#.#.#.#.#.#.#.#.#.#.#.#.#.-.Q T T T T T T Q ] ..#.#.#.#.#.#.#.#.#.#.T C Y T Q T x I T Q Q D D Y ~ ! Q ! ! ! ! T T T D q.m.*...[ ....[ [ [ ............................................................................#.......#.#...#.............#...#...#.#.#.#...#.....#.#.............#.#...#.#...............#.....#.#.#.#.................#...........................................................[ ....[ [ [ [ [ [ C D Y T T T ! Q ! Q ! ! Y H M.Q.Q Q T P q.rX-.Q Q U -.aX8.#.#.#.#.#.#.#.#.#.#.#.#.#.#.#.#.#.#.#.#.Q J ..,Xt.5.*.O.O.O.#.#.#.#.#.#.#.#.#.#.#.#.#.#.#.#.#.H D T Q Q C I T Q Q D P ~ T ! ! ! ! ! ! T T T D /.[.x...............................................................................#.#.#.............#.#.#.#...........#.#.#.#.#...............#.#.#.#.#...#.........#.#.#.#.......................#.#.#.#.#...#.#.........#.#.#.#.#.......................................................[ [ [ [ [ [ [ I Z Y T T T ! Q Q Q T T T P 9.aX5.Q T T J }.rX2.Q Q U I dXQ.-.#.#.#.#.#.#.#.#.#.#.#.#.#.[ T Y P J D D S C yXdX7Xm.*.*.2.8.#.#.#.#.#.#.#.#.#.#.#.#.#.#.#.#.#.#.#.#.#.#.#.#.",
"; ,...#.#.#.#.#.#.#.#.#.#.#.#.#.#.#.#.#.#.#.#.#.#.#.#.#.#.#.-.Q T T T T T T Q [ ..#.#.#.#.#.#.#.O.O.O.T C P T Q T x I T Q Q D D Y ~ ! Q Q Q Q ! T T T H t.b.*...[ [ [ ......[ [ ......................................................................................#.............#...#...#...........#...............#.....#...........................................#...............................................................[ [ [ ..[ [ [ [ [ [ [ C D Y T T T ! ! Q Q ! ! Y H M.Q.#.Q T P q.tX-.Q Q U J aX8.#.#.#.#.#.#.#.#.#.#.#.#.#.#.#.#.#.#.#.#.Q P ..,Xs.5.*.#.#.#.#.#.#.#.#.#.#.#.#.#.#.#.#.#.#.#.O.J D T Q Q C I T Q Q D J T T ! Q Q Q ! ! T T T D /.[.x...................................................................#...............#.........#...#.#.#.#...........#.#.#...#.#...#.#...#.#...#.#.......#.....#.........#.#.#.......#.#.................#.#.#.#.........#.#.#.#.........................................................[ [ [ [ [ [ [ P Z Y T T T ! Q Q ! T T T P #.dX5.Q ! T J }.rX2.Q Q U I dXQ.-.....#.#.#.#.#.#.#.#.#.#.#.[ T Y P J D D S N aXsXuXm.*.-.2.8.#.#.#.#.#.#.#.#.#.#.#.#.#.#.#.#.#.#.#.#.#.#.#.#.",
"; -...#.#.#.#.#.#.#.#.#.#.#.#.#.#.#.#.#.#.#.#.#.#.#.#.#.#.#.-.Q T T T T T T Q [ [ ..#.#.#.#.#.#.#.#.O.T C P T Q T N I T Q Q D D Y T ! Q Q Q Q ! T T T D q.b.*...[ [ [ [ ..[ [ [ ............................................................#.........................#.#...........#.......#...#.......#...............#.....#.....................................#.....#...............................................................[ [ [ [ [ [ [ [ [ [ [ C D Y T T T ! ! Q Q ! T Y H M.Q.#.Q T P q.tX-.Q Q U J aX8.#.#.#.#.#.#.#.#.#.#.#.#.#.#.#.#.#.#.#.#.) P ..8Xq.5.*.#.#.#.#.#.#.#.#.#.#.#.#.#.#.#.#.#.#.#.O.J D T Q Q A I T Q Q D J T T Q Q ! Q ! ! T T T D ^.[.x...................................................................#...............#.#...#...#...#.#.#.......#.#.....#.#.....#.....#.#.#.#...#.#.......#...#.#...................#.#.#.................#.#.#.#.#...#...#.#.#.........................................................[ [ [ [ [ [ [ [ P Z Y T T T ! Q Q ! T T U P #.dX8.Q Q T J }.rX2.Q Q U I dXQ.-.#...#.#.#.#.#.#.#.#.#.#.#.] T Y P J D D S N aXdXpXm.*.-.2.7.#.#.#.#.#.#.#.#.#.#.#.#.#.#.#.#.#.#.#.#.#.#.#.#.",
"; ,...#.#.#.#.#.#.#.#.#.#.#.#.#.#.#.#.#.#.#.#.#.#.#.#.#.#.#.-.Q T T T T T T Q [ ..#.#.#.#.#.#.#.#.O.#.T C P T Q T N I T Q Q D D Y T ! Q ! ! ! ! T T T D k.m.*...[ [ [ [ ..[ [ [ ..........................................................#.#...........................#.........#.#.#.....#...#.............................#.#.........................................#...................................................................[ [ [ [ [ [ [ [ [ C D Y T T T ! ! Q Q ! T Y H M.Q.#.Q ! P q.rX-.Q Q U J aX8.#.#.#.#.#.#.#.#.#.#.#.#.#.#.#.#.#.#.#.#.Q J ..uXt.5.*.#.#.#.#.#.#.#.#.#.#.#.#.#.#.#.#.#.#.#.O.J D T Q Q A I T Q Q D J T T Q ! ! ! ! ! ! T T D ^.[.x...................................................................................#.#.......#...............#.......#.......#.#.#.#.#...#.#...............#...............#...#.#.#...................#.#.............#...#.........................................................[ [ [ [ [ [ [ ..P C Y T T T Q Q ! ! T T T P #.dX8.Q Q T J }.rX2.Q Q U I dXQ.-.#.#.#.#.#.#.#.#.#.#.#.#.#.[ T Y P J D D S C 2XdXdXm.*.-.2.7.#.#.#.#.#.#.#.#.#.#.#.#.#.#.#.#.#.#.#.#.#.#.#.#.",
"; *.#.#.#.#.#.#.#.#.#.#.#.#.#.#.#.#.#.#.#.#.#.#.#.#.#.#.#.#.-.Q T T T T T T Q ] ..#.#.#.#.#.#.#.#.#.#.T C I T Q T b I T Q Q D D Y T ! ! ! ! ! ! T T T D j.m.*...[ [ [ [ [ [ [ [ ............................................................#.#.........................#.............#.....#...#...................#.....................................................#...........................................................[ ......[ [ [ [ [ [ [ [ [ C D Y T T T Q ! ! Q ! T Y H M.Q.#.Q ! P q.rX-.Q Q U J aX8.#.#.#.#.#.#.#.#.#.#.#.#.#.#.#.#.#.#.#.#.Q P ..-Xt.5.*.#.#.#.#.#.#.#.#.#.#.#.#.#.#.#.#.#.#.#.O.H D T Q Q Z I T Q Q D J T T Q Q Q ! ! ! ! ! T D ^.[.x.......[ [ [ [ ..[ [ ..........[ [ ............................................................................................#.#.#...#.................#.#.....#.#.#.....#.#.#.#.......#.....#.#.....#.#...........................................................................[ [ ..[ [ [ [ [ P C Y T T T Q ! Q ! T T T P #.dX8.Q T T J }.rX2.Q Q U I aXQ.-.#.#.#.#.#.#.#.#.#.#.#.#.#.[ T Y P J D D S C qXpXuXm.@.=.2.8.#.#.#.#.#.#.#.#.#.#.#.#.#.#.#.#.#.#.#.#.#.#.#.#.",
"; #...#.#.#.#.#.#.#.#.#.#.#.#.#.#.#.#.#.#.#.#.#.#.#.#.#.#.#.-.Q T T T T T T Q [ ..#.#.#.#.#.#.#.#.#.#.T C P T Q T N I T Q Q D D Y T ! ! ! ! ! ! ! T T D f.m.*...[ [ [ [ [ [ [ [ ..........................................................#.#.#...................#.....#.............#.....#.......#.#.............#.....................................................#...........................................................[ ........[ [ [ [ [ [ [ [ C D Y T T T Q ! Q Q ! ! Y H M.Q.#.Q ! Y q.rX-.Q Q U J aX8.#.#.#.#.#.#.#.#.#.#.#.#.#.#.#.#.#.#.#.#.Q J ..8Xq.6.=.#.#.#.#.#.#.#.#.#.#.#.#.#.#.#.#.#.#.#.#.J D T Q Q Z I T Q Q D P T T ! ! Q Q ! ! ! T T D ^.[.x.....[ [ [ [ [ [ [ [ ..........[ [ ....................................................................................................#.................#.......#.#.#.#...................................#...............................................................[ [ ....[ [ [ ..[ [ [ [ [ P C Y T T T ! ! Q ! T T T P #.dX8.Q Q T J }.rX2.Q ! U I aXQ.-.#.#.#.#.#.#.#.#.#.#.#.#.#.[ T Y P J D D S C qXdXpXm.*.-.2.7.#.#.#.#.#.#.#.#.#.#.#.#.#.#.#.#.#.#.#.#.#.#.#.#.",
"; #...#.#.#.#.#.#.#.#.#.#.#.#.#.#.#.#.#.#.#.#.#.#.#.#.#.#.#.-.Q T T T T T T Q [ [ ..#.#.#.#.#.#.#.#.#.T C P T Q T N I T Q Q D D Y T ! ! Q ! ! ! T T T D f.m.*...[ [ [ [ [ [ [ [ ..................................................................................#.....#.............#.#...#.#...#.#.#.............#...............................................#.#...#...........................................................[ ..[ [ [ [ [ [ [ [ [ [ [ C D Y T T T ! ! Q Q ! ! U H M.Q.#.Q ! P q.rX-.Q ! U J aX8.#.#.#.#.#.#.#.#.#.#.#.#.#.#.#.#.#.#.#.#.Q J ..uXt.6.=.#.#.#.#.#.#.#.#.#.#.#.#.#.#.#.#.#.#.#.#.J D T Q Q Z I T Q Q D G T T ! ! ! Q Q ! ! T T D /.[.j.....[ [ [ [ [ [ [ [ ..........[ [ ..........................................................................................................................#...#...#...............................................................................................[ [ ..[ [ [ [ [ [ [ [ [ [ ......P C Y T T T Q Q Q Q T T T P #.dX8.Q Q T J Q.rX2.Q Q U I aXQ.-.#.#.#.#.#.#.#.#.#.#.#.#.#.[ T Y P J D D S N =XdXsXm.@.-.2.7.#.#.#.#.#.#.#.#.#.#.#.#.#.#.#.#.#.#.#.#.#.#.#.#.",
"; #...#.#.#.#.#.#.#.#.#.#.#.#.#.#.#.#.#.#.#.#.#.#.#.#.#.#.#.-.Q T T T T T T Q [ ..#.#.#.#.#.#.#.#.#.#.T C P ! Q T N I T Q Q D D Y T ! Q Q ! ! ! T T U D f.m.@.[ [ [ [ [ [ [ [ ..[ [ [ [ [ [ [ ....[ ................[ ..................................................................................................................................................................................[ ..............[ ............[ [ [ [ [ [ [ [ [ [ [ [ [ Z D Y T T T ! ! ! Q ! T Y H M.Q.#.Q ! P q.tX2.Q T U J aX8.#.#.#.#.#.#.#.#.#.#.#.#.#.#.#.#.#.#.#.#.] J ..=XM.5.*.#.#.#.#.#.#.#.#.#.#.#.#.#.#.#.#.#.#.#.#.H A T Q Q S I T Q Q D G T T T ! ! ! ! ! T T T D ^.[.j.....[ [ [ [ [ [ ............[ [ ..........................................................................................................................#.#.#.#...................................................................................................[ [ ..[ [ [ [ [ [ [ [ [ ........I C Y T T T Q Q Q Q T T T P #.dX8.Q Q T J Q.rX2.Q Q T I aXQ.-.#.#.#.#.#.#.#.#.#.#.#.#.#.[ T Y P J D D S C <XpX8Xm.*.-.2.7.#.#.#.#.#.#.#.#.#.#.#.#.#.#.#.#.#.#.#.#.#.#.#.#.",
"; *.O.#.#.#.#.#.#.#.#.#.#.#.#.#.#.#.#.#.#.#.#.#.#.#.#.#.#.#.-.Q T T T T T T Q ] ..#.#.#.#.#.#.#.#.#.#.T C P T Q T N I T Q Q D D Y T ! Q Q ! ! T T T U D g.m.@.[ [ [ [ [ ........[ [ [ [ [ [ [ ....[ ................[ ................................................................................................................................................................................[ [ ..............[ ..............[ [ ....[ [ [ [ [ [ [ [ S D Y T T T ! ! ! Q ! T Y H M.Q.#.Q ! P q.rX:.Q ! U J aX8.#.#.#.#.#.#.#.#.#.#.#.#.#.#.#.#.#.#.#.#.[ J #.7XM.5.*.#.#.#.#.#.#.#.#.#.#.#.#.#.#.#.#.#.#.#.#.H A T Q Q S I T Q Q D J T T T ! ! ! ! ! T T T D ^.[.j.....[ [ ..[ [ [ [ [ ........[ ..................................................................................................#.........................#.....#.....#.............................................................................................[ [ ..[ [ [ [ [ [ [ [ [ [ ......Y C Y T T T Q Q Q Q T T T P #.dX8.Q Q T J Q.rX2.Q Q U I aXQ.-.#.#.#.#.#.#.#.#.#.#.#.#.#.[ T Y P J D D S C qXsXpXn.@.=.2.8.#.#.#.#.#.#.#.#.#.#.#.#.#.#.#.#.#.#.#.#.#.#.#.#.",
"; #...#.#.#.#.#.#.#.#.#.#.#.#.#.#.#.#.#.#.#.#.#.#.#.#.#.#.#.-.Q T T T T T T Q [ ..#.#.#.#.#.#.#.#.#.#.T C P T Q T N I T Q Q D D Y T ! ! Q ! ! ! ! T U D g.v.@.[ [ [ [ [ ........[ [ [ ..[ [ [ [ ..[ ................[ ..................................................................................................................................................................................[ ............[ [ ..[ [ [ [ [ ..[ [ [ [ [ [ [ [ [ [ [ [ Z D Y T T T Q ! ! ! ! T Y H M.Q.#.Q ! P q.tX:.Q Q U J dX8.#.#.#.#.#.#.#.#.#.#.#.#.#.#.#.#.#.#.#.#.[ J #.uXx.5.*.O.O.#.#.#.#.#.#.#.#.#.#.#.#.#.#.#.#.#.O.H A T Q Q S I T Q Q D J T T T Q ! ! ! ! T T T D ^.[.j.....[ ....[ [ [ [ ..........[ ....[ ......................................................................................................................#...........#.........................................................................................................[ [ [ [ [ [ [ ......Y C Y T T T Q ! Q Q T T T P #.dX8.Q Q T J Q.rX2.Q Q U I aXQ.-.O.O.O.#.#.#.#.#.#.#.#.#.#.[ T Y P J D D S C [.dXsXm.@.-.2.8.#.#.#.#.#.#.#.#.#.#.#.#.#.#.#.#.#.#.#.#.#.#.#.#.",
"; #...#.#.#.#.#.#.#.#.#.#.#.#.#.#.#.#.#.#.#.#.#.#.#.#.#.#.#.-.Q T T T T T T Q [ [ ..#.#.#.#.#.#.#.#...T C P T Q T N I T Q Q D D Y T ! ! Q Q Q ! T T U D g.m.@.[ [ [ [ [ ........[ [ [ [ ..[ [ [ [ [ [ [ ..........[ [ ................................................................................................................................................................................................[ [ ..[ [ [ [ [ [ [ [ [ [ [ [ [ [ [ [ [ [ S D Y T T ! ! Q Q Q ! T Y J M.Q.#.Q ! P #.rX2.Q Q U J dX8.#.#.#.#.#.#.#.#.#.#.#.#.#.#.#.#.#.#.#.#.[ J #.,Xv.5.*.O.O.#.#.#.#.#.#.#.#.#.#.#.#.#.#.#.#.#.O.H A T Q Q S P T Q Q G J T T T Q ! ! ! ! T T T D ^.[.j.....[ ......[ ..[ [ ........[ ....[ ....................................................................................................................#.#.............................................................................................................[ ......[ [ [ [ [ [ [ ......Y C Y T T T ! ! Q T T T T P #.dX8.Q ! T J Q.rX2.Q Q T I aXQ.-.O.O...#.#.#.#.#.#.#.#.#.#.[ ! Y P J D D S N <XdX7Xm.@.-.2.8.#.#.#.#.#.#.#.#.#.#.#.#.#.#.#.#.#.#.#.#.#.#.#.#.",
"; #...#.#.#.#.#.#.#.#.#.#.#.#.#.#.#.#.#.#.#.#.#.#.#.#.#.#.#.-.Q T T T T T T Q [ ..#.#.#.#.#.#.#.O.....T C P T Q T N I T ! Q D D Y T ! ! Q Q Q ! T T U D g.m.#.[ [ [ [ [ ......[ [ [ [ [ ....[ [ [ ..[ [ ..........[ [ ..............................................................................................................................................................................[ [ [ [ [ ........[ [ ..[ [ ..[ [ [ [ [ [ [ [ [ [ [ [ [ [ [ S D P T T Q Q Q Q Q ! T U J M.'...Q ! P #.rX2.Q Q U J dX8.#.#.#.#.#.#.#.#.#.#.#.#.#.#.#.#.#.#.#.#.[ J #.5XM.5.*.O.O.O.#.#.#.#.#.#.#.#.#.#.#.#.#.#.#.#.#.J S T Q Q Z J T Q Q G J U T T ! ! ! ! ! T T Y D /.[.j.....................................................................................................................................................................................................................................................................................................U C Y T T T T ! ! ! T T T P #.dX8.Q ! T P Q.rX2.Q Q T I aXQ.-.#.#...#.#.#.#.#.#.#.#.#.#.[ ! Y P J D D S C qXsXpXn.@.=.2.8.#.#.#.#.#.#.#.#.#.#.#.#.#.#.#.#.#.#.#.#.#.#.#.#.",
"; *.O.#.#.#.#.#.#.#.#.#.#.#.#.#.#.#.#.#.#.#.#.#.#.#.#.#.#.#.-.Q T T T T T T Q ] ..#.#.#.#.#.#.#.O.O.O.T C P T Q T b I T Q Q D D Y T ! ! ! Q Q ! T T U D g.m.#.[ [ [ [ [ ......[ [ [ [ [ [ ..[ [ [ [ [ [ ..........[ [ [ ..............................................................................................................................................................................[ [ [ [ ........[ [ [ [ [ ..[ [ [ [ [ [ [ [ [ [ [ [ [ [ [ S D P T T ! ! Q Q Q Q T Y J M.'...! ! P #.rX2.Q Q U J dX8.#.#.#.#.#.#.#.#.#.#.#.#.#.#.#.#.#.#.#.#.[ J #.uXx.5.*.O.O.O.#.#.#.#.#.#.#.#.#.#.#.#.#.#.#.#.#.J S T Q Q Z H T Q Q G J U T T ! ! ! ! ! T T Y D ^.[.j.....................................................................................................................................................................................................................................................................................................U C Y T T T T ! ! ! T T T P #.dX6.Q Q T P Q.rX2.Q Q T I aXQ.-.#.....#.#.#.#.#.#.#.#.#.#.[ ! Y P J D D S C qXdXpXn.#.*.2.8.#.#.#.#.#.#.#.#.#.#.#.#.#.#.#.#.#.#.#.#.#.#.#.#.",
"; #...#.#.#.#.#.#.#.#.#.#.#.#.#.#.#.#.#.#.#.#.#.#.#.#.#.#.#.-.Q T T T T T T Q [ ..#.#.#.#.#.#.#.O.#.#.! C P T Q U b I T Q Q D D Y T ! ! ! ! Q ! T T T D g.m.#.[ ..................................[ ..........................................................................[ [ ..........[ [ ......................................................................................................[ [ ..[ ........[ ..[ ..[ ..[ [ [ [ [ [ [ [ [ [ [ [ [ [ [ S D P T T T T T Q Q ! T Y H M.'...! ! P #.tX:.Q ! U G dX8.#.#.#.#.#.#.#.#.#.#.#.#.#.#.#.#.#.#.#.#.[ P #.,Xv.5.*.#.#.#.#.#.#.#.#.#.#.#.#.#.#.#.#.#.#.#.O.P S T Q Q Z H T Q Q G J U T T ! ! Q ! ! T T Y D ^.[.j.....................................................................................................................................................................................................................................................................................................U C Y T T T T Q Q ! T T U P #.dX6.Q Q ! J Q.rX5.Q Q T I aX}.2.O.#.#.#.#.#.#.#.#.#.#.#.#.[ ! Y P J H D S C 2XdX7Xn.#.=.2.8.#.#.#.#.#.#.#.#.#.#.#.#.#.#.#.#.#.#.#.#.#.#.#.#.",
"; #...#.#.#.#.#.#.#.#.#.#.#.#.#.#.#.#.#.#.#.#.#.#.#.#.#.#.#.-.Q T T T T T T Q [ [ ..#.#.#.#.#.#.#.#.#.! C P T Q U b I T ! Q D D Y T ! ! Q ! ! ! ! T T H g.v.#...................................................................................................................................................................................................................................................................................................A D P T T T T Q Q ! T T Y H M.'...Q ! P =.tX:.Q ! U J dX8.#.#.#.#.#.#.#.#.#.#.#.#.#.#.#.#.#.#.#.#.[ P #.,Xv.5.*.#.#.#.#.#.#.#.#.#.#.#.#.#.#.#.#.#.#.#.O.P S T Q Q Z H T Q Q G J U T T Q ! Q Q ! T T Y D ^.[.n.....................................................................................................................................................................................................................................................................................................U C Y T T T T Q Q ! T T Y P #.dX5.Q Q ! P Q.rX5.Q Q T I aX}.2.....#.#.#.#.#.#.#.#.#.#.#.[ Q Y P J D D S N qXpXuXn.#.-.2.8.#.#.#.#.#.#.#.#.#.#.#.#.#.#.#.#.#.#.#.#.#.#.#.#.",
"; #...#.#.#.#.#.#.#.#.#.#.#.#.#.#.#.#.#.#.#.#.#.#.#.#.#.#.#.-.Q T T T T T T Q [ ..#.#.#.#.#.#.#.O.#.#.! C P T Q U b I T ! Q D D Y T ! ! Q ! ! ! Q T T H g.v.T J J J J J J J J J J I I Y Y Y Y Y Y Y Y Y Y Y Y Y Y Y Y Y Y Y Y Y Y Y Y Y Y Y Y T T T T T T T T T T T T T T ! ! ! ! ! ! ! ! ! ! ! ! ! ! ! Q Q Q Q Q Q Q Q Q Q Q Q Q Q Q Q ) ) ) ) ) ) ) ) ) ) ) ) ) ) ) ) ) ) ) ) ) ) ) ) ) ) ) ) ) ) ) ) ) ) ) ) ) ) ) ) ) ) ) ) ) ) ) ) ) ) ) ) ) ) ) [ ) [ [ [ C A Y T ! Q ! Q Q T T T Y D M.}.#.) ! P =.rX2.Q Q U J dX8.#.#.#.#.#.#.#.#.#.#.#.#.#.#.#.#.#.#.#.#.[ P #.8Xj.5.=.#.#.#.#.#.#.#.#.#.#.#.#.#.#.#.#.#.#.#.#.P S T Q Q Z H T Q Q G J U T T Q Q Q Q ! T T Y D ^.[.n.....................................................................................................................................................................................................................................................................................................U C Y T T T T ! Q Q T T T P #.dX6.Q Q ! P Q.rX5.Q Q U I aX}.:.......#.#.#.#.#.#.#.#.#.#.[ Q Y P J D D S C qXdXpXn.#.=.2.8.#.#.#.#.#.#.#.#.#.#.#.#.#.#.#.#.#.#.#.#.#.#.#.#.",
"; @...#.#.#.#.#.#.#.#.#.#.#.#.#.#.#.#.#.#.#.#.#.#.#.#.#.#.#.-.Q T T T T T T Q ] ..#.#.#.#.#.#.#.O.#.#.! C P T Q U N I ~ ! Q D D Y T T ! Q ! ! ! Q T T P 5.J s s s s s s s g g g g g g g g g g g g g g g g g g p p p p p p p s s s s s s s s s s s s s s s g g g g g g g g g g g g g g g g g g g g g g g g g g g g g g g g g g g g g g g g g g g g g g g g g g g g x x x x x x x x x x x x x x x x x x x x x x x x x x x x x x x N N N N C C C C C C C C C C C C x A Y T ! Q ! ! Q T T T Y D M.}.#.) ! P =.rX2.Q Q U J dX8.#.#.#.#.#.#.#.#.#.#.#.#.#.#.#.#.#.#.#.#.[ P #.uXx.5.=.#.#.#.#.#.#.#.#.#.#.#.#.#.#.#.#.#.#.#.#.P S T Q Q Z H Y Q Q D H U T T ! Q Q Q ! ! T Y D ^.[.x.P P P P P P P P P P P P P P P P P P P P P P P P P P P P P Y U U U U U U U U U U U U U U U U U U U U U U T T T T T T T ! ! ! ! ! ! ! ! ! ! ! ! ! ! ! ! ! ! ! ! ! ! ! Q Q Q Q Q Q Q Q Q ! ! ! ! Q Q Q Q ! ! ! ! Q Q Q Q Q Q Q Q Q Q Q Q Q Q Q Q Q Q Q Q Q Q Q Q Q Q Q Q ) Q Q Q Q Q ) Q Q Q Q Q Q Q Q P C Y T T T T ! Q Q T T T P #.dX6.Q Q T P Q.aX5.Q ! U I aX}.-.......#.#.#.#.#.#.#.#.#.#.[ Q Y P J D D S C :XdXsXF.#.*.2.8.#.#.#.#.#.#.#.#.#.#.#.#.#.#.#.#.#.#.#.#.#.#.#.#.",
"; #...#.#.#.#.#.#.#.#.#.#.#.#.#.#.#.#.#.#.#.#.#.#.#.#.#.#...-.Q T T T T T T Q [ ..#.#.#.#.#.#.#.O.O.@.! C P T Q U N I T ! Q D D Y ~ T ! Q Q ! ! Q T T Q P D D D D D D D D D D D D D D D D D D D D D D D D D D D D D D D D D D D D D D D D D D D D D D D D D D D D D D D A A A A A A A A A A A A A A A A A A A A A A A A A A A A A A A C C C C C C C C C C C / b b b C C N b b b N N b b b b N N x x x x x x x x x x x x x x x x x x x x x x x x x x x x x x k h x S T ! ! Q Q Q Q T T T Y D M.}.#.Q ! P =.tX2.Q Q U J dX8.*.#.#.#.#.#.#.#.#.#.#.#.#.#.#.#.#.#.#.#.[ J #.-Xv.5.=.......#.#.#.#.#.#.#.#.#.#.#.#.#.#.#.#.#.P S T Q Q Z H T Q Q G J U T T Q Q Q Q Q Q T T D Q.} k k k k k k h h h h k k k g g g g g g g g g g g g g g g g g g g g g g g g g h g g g g g g g g g g g g g g g g g g g g g g g g g g g g g g g g g g g g g g g h g g g g g g g g g g x x x x x x x x x x x x x x x x x x x x x x x x x x x x x x x x x x x x x x x x x b b x x x x x x b b N N M N N N N x C T T T T T ! Q Q T T T J #.dXh.Q T T P Q.aX5.Q Q U I aX'.-.#.#.#.#.#.#.#.#.#.#.#.#.#.) Q Y P J D D S N qXpXuXF.#.=.2.8.#.#.#.#.#.#.#.#.#.#.#.#.#.#.#.#.#.#.#.#.#.#.#.#.",
"; #.#.#.#.#.#.#.#.#.#.#.#.#.#.#.#.#.#.#.#.#.#.#.#.#.#.#.#...-.Q T T T T T T Q [ [ ..#.#.#.#.#.#.O.O.#.! C J T Q U N I ~ ! Q D D Y U T ! Q ! Q ! Q T ! Q T Y Y P P P P P P P I I I I I Y Y Y Y Y Y Y Y Y I I I I I I I I I I I I I I I I I I I I I I I I I I I I I I I I I I I I I I I I I I I I I I I I I I I I I I I I I I I I I I P P P P P P P P P P P P P P P P P P P P P P P P P P P P P P P P P P P P J J J J P P J J G G P J G G G G G G G G G G G G G G J P ! ! ! Q Q Q Q T T T Y D M.}.#.Q ! P =.tX2.Q Q T J dX8.*.#.#.#.#.#.#.#.#.#.#.#.#.#.#.#.#.#.#.#.[ J C 7Xf.5.*.......#.#.#.#.#.#.#.#.#.#.#.#.#.#.#.#.#.P S U ! Q Z H P ! ! D G U T T Q Q Q Q Q Q ! ! P J D D D D D D D D D D D D D D D D D D D D D D D D D D D D D D D D D D D D D D D D D D D S Z Z Z Z A A A A A A A A A A A A A A A A A A A A A A A A A C C C C C C C C C C C C C C C C C C C C C C C C C C C C C C N N N N b b b b b b b b N N N N b b b b b b b b N N N N b b x x x x x x x x x b x x x x x x C T T ! ! ! Q Q Q T T Y J #.dXh.Q ! T J Q.aX5.Q ! T I aX'.-.#.#.#.#.#.#.#.#.#.#.#.#.#.) ! Y P J D D S N qXdXpXC.#.-.2.8.#.#.#.#.#.#.#.#.#.#.#.#.#.#.#.#.#.#.#.#.#.#.#.#.",
"; #.#.#.#.#.#.#.#.#.#.#.#.#.#.#.#.#.#.#.#.#.#.#.#.#.#.#.#...-.Q T T T T T T Q [ ..#.#.#.#.#.#.#.O.O.O.T C J T Q U N I T ! Q D D Y U T T ! ! ! ! Q Q Q ! T T T T T T T T T T T T T T ~ ~ T T T T T T ~ T T T T ~ T T T T T T T T T T T T T T T T T T T T T T T T T T T T ~ T T T T T ~ T T T T T T T ~ T T T T T T T T T T T T T T T T T T T T ~ ~ T T ~ T T T T T T T T T T T ~ T T T T ~ ~ T ~ T T ~ T T T T T T T T T T T ~ ~ T T T T T T ~ U T T T T T T T T ! Q Q ! ! Q Q Q Q T T T P D 9.'.#.Q ! P =.aX2.Q Q T J dX8.*.#.#.#.#.#.#.#.#.#.#.#.#.#.#.#.#.#.#.#.[ J C uXx.5.*.#.#...#.#.#.#.#.#.#.#.#.#.#.#.#.#.#.#.#.P S U ! Q Z H P ! ! H G U T T ! ! Q Q Q Q Q ! ! T T T T T T T T U U U U T T T T T T T T U U U U T T T T U U U T T T T T Y I I I I Y Y Y Y Y Y Y Y Y Y Y Y Y Y Y Y P J J J P Y Y Y Y P P P P P P Y Y P P P P P P P P P P P P P P P P P P J P G I P P P P I I I J J J J P P P P P P P P P J G J P P P P P P P P P P P P P P P P P P P P J J J P P J J J J J J J T ! ! ! ! Q Q ! T T Y J C dXf.Q ! T J Q.aX5.Q Q U J aX}.,.#.#.#.#.#.#.#.#.#.#.#.#.#.[ ! Y P J D D S N =XdXsXF.#.=.2.8.#.#.#.#.#.#.#.#.#.#.#.#.#.#.#.#.#.#.#.#.#.#.#.#.",
"; @.#.#.#.#.#.#.#.#.#.#.#.#.#.#.#.#.#.#.#.#.#.#.#.#.#.#.#.O.-.Q T T T T T T Q ] ..#.#.#.#.#.#.#.O.O.O.T C P T Q U b I T ! Q D D I U T T ! ! T T Q Q Q ! ! T ! ! ! ! ! ! ! ! ! ! ! ! T ~ T T ! ! ! T T T T T T T ! ! ! ! ! ! ! ! ! ! ! ! ! ! ! ! ! ! ! ! ! ! ! ! ! ! ! ! T T ! ! ! T T ! ! T T T T T T T T ! ! T T T T T T T T T T T T Q ! T T T T ! ! T T T T T T T T T T T T T T T T ~ T T T T T T ~ T ~ T T T T T T T T T T T T T T T T T T T T T T T T T T T ! Q Q Q Q Q Q Q Q T T Y P D 9.'.#.Q T P =.aX2.Q Q T J dX8.*.#.#.#.#.#.#.#.#.#.#.#.#.#.#.#.#.#.#.#.[ J C ,Xv.5.*.#.#...#.#.#.#.#.#.#.#.#.#.#.#.#.#.#.#.#.P S U ! Q Z H P ! ! H G U T T T T Q ! ! Q ! ! ! T T T T T T T T T ~ ~ ~ T T T T T T T T T T T T T T T T T T T T T T T T T T T T T T T T T T T T T T T T T T T T T T T T T T T T T T T T T T T T T T T T T T T U U T T T T T T T T T T T T T Y T T T T T T T T U U U U T T T T T T T T T U U Y T T T T T T T T T T T T T T T T T T T T T T T T T T T T T T T T T T ! ! Q ! Q T Y T Y J C dXf.Q ! T J Q.aX5.Q Q U G qX}.,.#.#.#.#.#.#.#.#.#.#.#.#.#.[ ! Y P J D D S C ].dX8XH.#.*.2.8.#.#.#.#.#.#.#.#.#.#.#.#.#.#.#.#.#.#.#.#.#.#.#.#.",
"; #.#.#.#.#.#.#.#.#.#.#.#.#.#.#.#.#.#.#.#.#.#.#.#.#.#.#.#...-.Q T T T T T T Q [ ..#.#.#.#.#.#.#.#.....T A P T Q U N I U ! Q D D I P Y U U U T T T ! Q Q Q Q T Q ! ! ! ! ! ! ! ! T Q T T T T ! ! ! ! ! ! ! ! T ! Q Q ! ! Q ! ! ! ! ! ! ! ! ! ! ! ! ! ! ! ! ! ! ! ! ! ! ! T T ! ! ! ! ! ! ! ! ! ! ! T T ! ! ! ! ! Q ! T T Q Q Q Q Q ! ! Q ! ! ! ! ! ! ! ! ! ! ! ! ! ! ! ! T T ! ! T T ! T ! ! ! ! ! ! T ! ! T ! ! ! ! ! ! ! ! ! ! ! ! ! ! T T T ! ! ! ! ! ! ! ! ! ! Q Q Q Q Q ! ! T T T Y P D 9.'...Q T Y =.aX2.Q Q T G dX8.*.#.#.#.#.#.#.#.#.#.#.#.#.#.#.#.#.#.#.#.[ J C 7Xv.5.*...#.#.#.#.#.#.#.#.#.#.#.#.#.#.#.#.#.#.#.P A U ! Q Z H P ! ! H G U T T T T T ! T ! ! ! ! T T T T T T T T T T T T T T T T T T T T T T T T T T T T T T T T T T T T T Q Q Q Q T T T T T T T T T T T T T T T T T ! ! ! ! T T T T T T T T T T T T T T T T Q T ! Q ! T T T T T T T T ! ! ! T T T T T T T T T Q ! ! ! ! T T T T T T T ! ! ! U Q T T T T T T T T T T T T T T T T T ~ ~ ~ T T ~ ~ T T T T T T T T T ! Q Q Q T T Y Y P J C dXf.Q ! T J Q.aX5.Q Q U J qX}.,.#.#.#.#.#.#.#.#.#.#.#.#.#.[ ! Y I J D D S N }.sXpXH.#.=.2.8.#.#.#.#.#.#.#.#.#.#.#.#.#.#.#.#.#.#.#.#.#.#.#.#.",
"; #.#.#.#.#.#.#.#.#.#.#.#.#.#.#.#.#.#.#.#.#.#.#.#.#.#.#.#...-.Q T T T T T T Q [ [ ..#.#.#.#.#.#.#.....T A P T Q T N I U ! ! S D P P P U Y P U T T T Q Q Q Q T Q ! ! ! ! ! ! ! ! ! Q Q T T T ! ! ! ! ! ! Q Q Q Q Q Q Q Q Q Q Q ! Q Q Q Q ! ! Q Q Q ! ! Q ! ! Q Q Q ! Q ! ! ! ! Q ! ! Q Q Q Q Q Q ! ! ! ! Q Q ! ! Q ! ! T Q Q Q Q Q ! ! ! ! Q Q Q ! ! ! Q Q ! ! ! ! ! Q ! ! ! ! Q Q ! Q ! ! ! Q Q ! ! ! Q Q Q ! Q Q ! ! ! ! ! ! Q Q ! ! ! T T T ! ! ! ! ! ! Q ! ! T T ! Q Q Q ! ! T P Y Y P D 9.'...! T Y =.aX2.Q Q T G dX8.*.#.#.#.#.#.#.#.#.#.#.#.#.#.#.#.#.#.#.#.[ J C uXx.5.*.....#.#.#.#.#.#.#.#.#.#.#.#.#.#.#.#.#.#.P A U ! Q D D P ! ! H G Y Y T T T T T ! T T Q Q Q ! T T T T T T T T T T T T T T Q ! T T T T T T T T T T T ! Q Q T ! Q T Q Q Q Q Q T ! T T T T T Q Q ! T T T ! Q ! T ! ! Q Q Q Q T Q ! ! ! Q Q Q T Q T T ! T Q T ! Q ! T ! ! T T ! T ! Q T Q ! ! ! T Q ! ! ! T Q Q Q Q Q T T T T T T ! ! ! ! T Q T ! T ! T T T T T T T T T T T T T T T T T T T T T T T T T T T ! ! ! Q Q Q T U Y Y P H C dXh.! ! T J Q.aX5.Q Q U J qX'.-.....#.#.#.#.#.#.#.#.#.#.#.) ! Y I G D D S N L.dXsXF.#.-.2.8.#.#.#.#.#.#.#.#.#.#.#.#.#.#.#.#.#.#.#.#.#.#.#.#.",
"; #.#.#.#.#.#.#.#.#.#.#.#.#.#.#.#.#.#.#.#.#.#.#.#.#.#.#.#...-.Q T T T T T T Q [ ..#.#.#.#.#.#.#.#.#...T C P T Q T N I U ! ! Z Z G P I I I I Y P T T T T T ! ! Q Q Q ! Q Q Q ! ! ! Q Q Q Q Q Q Q ! Q Q Q Q Q Q Q Q Q Q Q Q Q Q Q Q ! Q Q Q ! Q Q Q Q Q Q Q Q Q Q Q ! Q Q ! ! Q Q Q Q Q Q Q Q Q Q Q ! Q Q Q Q ! Q Q Q Q ! ! Q Q Q Q ! ! ! Q Q Q Q Q ! Q Q Q Q ! ! Q Q Q Q ! ! Q Q ! ! Q ! Q Q Q Q Q Q ! ! Q Q Q Q Q ! Q ! ! Q ! Q Q ! ! ! Q Q ! ! ! Q Q ! ! ! ! ! Q Q ! ! Q T T T Y P P P J D 9./...! ~ Y =.aX2.Q T U G dX8.*.#.#.#.#.#.#.#.#.#.#.#.#.#.#.#.#.#.#.#.[ J C ,Xx.5.*.......#.#.#.#.#.#.#.#.#.#.#.#.#.#.#.#.#.P A U ! Q D D P ! ! D D I P P Y U U U T T T T ! Q Q ! ! ! ! Q ! Q Q ! ! ! ! ! Q Q Q ! Q ! Q Q Q Q Q Q Q Q Q Q Q ! ! Q Q Q Q Q ! Q ! ! ! Q Q ! ! Q Q Q Q ! ! Q Q Q ! ! ! Q Q Q Q Q Q Q Q Q Q Q Q ! Q Q ! Q Q Q Q Q Q ! ! Q Q ! Q ! ! Q ! Q Q Q Q Q ! Q Q Q ! Q Q Q Q Q Q ! ! ! Q Q Q ! ! ! ! ! ! ! Q ! Q ! ! ! ! ! ! ! ! ! ! ! ! ! ! ! ! ! ! ! ! ! ! ! ! Q ! ! Q Q ! Q ! T T Y P P P D C dXh.T T T J M.aX5.Q Q U J qX}.,.#.#.#.#.#.#.#.#.#.#.#.#.#.[ Q Y P J D D S N ].dX7XH.#.=.2.8.#.#.#.#.#.#.#.#.#.#.#.#.#.#.#.#.#.#.#.#.#.#.#.#.",
"; @.#.#.#.#.#.#.#.#.#.#.#.#.#.#.#.#.#.#.#.#.#.#.#.#.#.#.#.O.-.Q T T T T T T Q ] ..#.#.#.#.#.#.#.#.#...T C J T Q T N I U Q ! A A D J P J P P P J P P P P T T T T Q Q ! Q Q Q ! Q ! Q Q Q Q Q Q T T Q ! T ! Q ! ! ! Q Q Q Q Q Q Q ! T ! T Q Q Q Q Q Q Q Q Q Q Q Q Q Q Q ! Q Q Q Q Q Q Q ! Q ! Q Q Q Q Q Q Q Q ! Q Q Q Q T T Q Q Q Q Q Q ! Q Q Q Q Q Q Q ! Q Q Q Q Q Q Q Q Q Q Q Q ! Q Q ! Q Q Q Q Q Q ! T T T Q Q Q Q Q Q ! Q Q Q Q T ! Q Q Q Q ! ! Q Q ! ! ! ! ! Q Q ! T T T P P P P P J D S 9.^.) T U P =.aX2.Q T U G dX8.*.#.#.#.#.#.#.#.#.#.#.#.#.#.#.#.#.#.#.#.[ J C 5Xv.5.*.......#.#.#.#.#.#.#.#.#.#.#.#.#.#.#.#.#.P A U ! Q D D P ! ! D S J P P P P Y Y Y U T T T T Q ! ! ! ! Q ! Q Q ! ! ! Q ! ! Q Q Q Q Q Q Q Q ! ! Q Q Q Q Q ! ! ! Q Q Q Q Q ! Q ! Q Q Q ! ! Q Q Q Q Q Q Q Q Q Q Q ! ! Q Q Q Q ! Q Q Q Q Q Q Q Q Q ! Q Q Q Q Q ! ! ! Q Q Q Q Q ! ! ! ! Q Q Q Q Q Q Q Q ! Q ! ! Q Q Q Q Q ! Q Q Q Q ! ! ! Q ! Q Q Q Q Q ! ! ! Q ! Q Q Q ! ! Q ! ! ! Q Q ! ! ! ! Q ! Q Q Q ! Q Q Q ! ! T U U P P P P D N dXh.T T T J M.aX5.Q Q T P qX'.,.#...#.#.#.#.#.#.#.#.#.#.#.[ Q Y P J D D S C }.pXpXH.#.*.2.8.*.#.#.#.#.#.#.#.#.#.#.#.#.#.#.#.#.#.#.#.#.#.#.#.",
"; #.#.#.#.#.#.#.#.#.#.#.#.#.#.#.#.#.#.#.#.#.#.#.#.#.#.#.#...-.Q T T T T T T Q [ ..#.#.#.#.#.#.#.#.#.#.T C J T Q T N I U ! T A A D D G J J J J J K P P P P Y T T T T T Q Q Q Q Q ! T ! ! T T ! T T T T T T T T T ! ! ! ! ! ! ! ! T T T T ! ! ! ! ! ! ! Q ! ! ! ! ! ! ! ! ! ! ! Q T T T T T ! ! ! ! ! ! Q ! ! ! Q ! T T T T T T T T ! ! ! ! ! Q ! ! ! ! Q ! ! ! ! ! ! ! ! ! ! ! ! ! ! ! Q Q ! T T T T T T T T T ! T T Q Q Q Q ! T T T T ! ! ! ! ! ! Q Q Q Q Q ! T T T T T T P P P J J J J D A 9.^.) U U P =.aX:.Q T T J dX8.*.#.#.#.#.#.#.#.#.#.#.#.#.#.#.#.#.#.#.#.[ J C 8Xf.6.-.#.#.#.#.#.#.#.#.#.#.#.#.#.#.#.#.#.#.#.#.P A U ! Q D D P T T D S D J P P P P I P P Y U T T T T ! ! ! ! ! Q Q Q Q Q Q Q ! ! ! Q Q Q Q Q Q Q Q ! Q ! Q Q Q Q Q Q Q ! ! ! ! Q Q Q Q ! ! ! ! ! ! Q Q Q Q Q Q Q Q ! ! Q Q ! ! ! Q Q Q Q Q Q Q Q Q ! ! Q Q ! ! ! ! Q Q Q Q ! ! ! Q Q Q ! ! Q Q Q Q Q Q Q Q Q ! ! Q ! ! Q Q Q Q Q Q Q ! ! ! Q ! Q Q Q Q ! Q Q Q Q Q Q Q Q ! Q Q ! Q Q Q Q ! ! Q Q ! Q Q Q Q Q Q T T T U Y P P P J H D N dXs.U T T J M.aX5.Q Q U P qX'.,.#.#.#.#.#.#.#.#.#.#.#.#.#.[ Q Y P J D D S N }.dXpXH.#.=.2.8.*.#.#.#.#.#.#.#.#.#.#.#.#.#.#.#.#.#.#.#.#.#.#.#.",
"> #.#.#.#.#.#.#.#.#.#.#.#.#.#.#.#.#.#.#.#.#.#.#.#.#.#.#.#...-.Q T T T T T T Q [ [ ..#.#.#.#.#.#.#.#.#.T C J T Q T b P U T U C C D S D J H D H J J H K P P P P T T Y T Q ! ! ! Q T T T T T T T T T T T T T Y T T T U ! ! ! T ! ! T Y T T ! T ! ! ! ~ ! ! ! T ! ! ! ~ ! ! ! T ! ! T T T T T T ! ! ! T ! ! ! T ! ! ! T T T T T T T T T ! ! ! T ! ! ! T ! ! ! T ! ! ! T ! ! ! T ! ! ! T ! ! ! T T T T T T T T T T T T T T Q ! ! T T T T T ! T T ! ! ! T ! Q Q ! ! T T P P Y P K K J J D D J D C 9.^.! U Y P =.aX:.Q T T J dX8.*.#.#.#.#.#.#.#.#.#.#.#.#.#.#.#.#.#.#.#.[ J C -Xx.5.-.#.#.#.#.#.#.#.#.#.#.#.#.#.#.#.#.#.#.#.#.P A Y ! Q D D P T Y D A D D J P J J P I P P P U Y Y Y T T T ! ! ! T Q Q Q ! ! ! ! ! ! Q ! T T ! T T T ! T T T ! T T T ! T T T ! T T T ! T T T ! ! T T ! T T T Q ! T ! ! ! T ! ! ! T ! Q ! T ! ! ! T T ! ! T T ! ! T T ! T T ! ! ! T ! Q ! T T ! T T ! ! ! T T ! ! T T ! ! T ! Q T T ! ! ! T T ! ! T ! ! ! T ! ! ! T ! Q Q T ! Q Q ! Q Q Q Q Q Q Q ! ! Q Q T T T U Y Y Y I J J J J D S x dXt.Y Y Y J M.aX5.Q ! U I qX'.,.......#.#.#.#.#.#.#.#.#.#.[ Q T P J D D S N _.dXsXH.#.-.2.7.*.#.#.#.#.#.#.#.#.#.#.#.#.#.#.#.#.#.#.#.#.#.#.#.",
"> #.#.#.#.#.#.#.#.#.#.#.#.#.#.#.#.#.#.#.#.#.#.#.#.#.#.#.#...-.Q T T T T T T Q [ ..#.#.#.#.#.#.#.#...#.T C J T Q T b G U U U C C A A D D D D D D D D H H H H J P P P P U U U U Y Y P P P P P P P P P P P P P P P U Y U U U Y U U P P P P U U U U U U U U U U U U U U U U U U U U Y P P P Y U U U U U U T U U U T U P P P P P P Y Y U U U T U U ~ U U T T U U U ~ ~ U T ~ ~ T ~ ~ ~ ~ T T T T Y T P Y Y T Y Y Y T P P T T T T U Y Y Y T T T T T T T T T ! ! ! ! Y P P P P P J J H D D D D D C 8.U.[ Y P P =.aX2.Q T T J aX8.*.#.#.#.#.#.#.#.#.#.#.#.#.#.#.#.#.#.#.#.[ P C ,XM.5.-.#.#.#.#.#.#.#.#.#.#.#.#.#.#.#.#.#.#.#.#.P A Y ! Q D D P T Y D C D D J J J J J J P P P P P P Y U T T T T T T T ! T T T T T T T T T T T T T T T T T T T T T T T T T T T T U T T T T T T T T T T T T T T T T T T T T T T T T T T T T T T T T T T T T T T T T T T T T T T T T T T T T T T T T T T T T T T T T T T T T T T T T T T T T T T T T T T T T T T T T T T T T T T T ! ! T ! Q ! Q ! ! ! T T T T U U P P I I P J G D D D A x sXt.P P P J M.aX5.Q ! U I qX'.,.......#.#.#.#.#.#.#.#.#.#.[ Q Y P J D D S N }.pXuXH.#.=.2.8.*.#.#.#.#.#.#.#.#.#.#.#.#.#.#.#.#.#.#.#.#.#.#.#.",
"> #.#.#.#.#.#.#.#.#.#.#.#.#.#.#.#.#.#.#.#.#.#.#.#.#.#.#.#.O.-.Q T T T T T T Q ] ..#.#.#.#.#.#.#.#.....T C J T Q T x G U U U C b N A A C A A A C A S S S S D D D D H D G J P J G J J J H H J H D H H H D H H H D D G G D G J G D H H H D J J J G G G G G J J J J J G G G J J J J J J H H J J J G J P J J J P J J J J H D H J H H H P J G J P P J P P P J P P P J P P P J P P P J P P P P P P J H J J J J J J H H J J P P P I P P P P J J K K P P P P P P P P I J J J D D D D D S S S S Z A C 8.L.) I I P =.aX:.Q T T J aX8.*.#.#.#.#.#.#.#.#.#.#.#.#.#.#.#.#.#.#.#.[ J C 8Xf.5.-.#.#.#.#.#.#.#.#.#.#.#.#.#.#.#.#.#.#.#.#.P A Y ! Q D D P T Y D C D D D D D D D D G P J J P P P P Y T U Y Y Y Y Y Y U Y Y Y Y Y I Y Y P P P Y P P P Y P P P Y P I P Y Y I Y Y Y I Y Y Y P Y Y Y P Y Y Y P Y U Y P Y Y Y P Y Y U Y Y Y Y P Y U Y P Y Y Y P Y U Y P Y T Y P Y U Y Y Y U Y U T U Y Y Y U Y Y Y U Y Y Y U Y Y Y T Y Y T T Y Y U U Y Y Y U U Y U T T U U T T T T T T T T T T T T T T U T U Y P P P P J J D D D D D C x sXt.P P P J M.aX5.Q ! U I qX'.-.....#.#.#.#.#.#.#.#.#.#.#.[ Q Y P J D D S N }.sXpXK.#.*.2.8.*.#.#.#.#.#.#.#.#.#.#.#.#.#.#.#.#.#.#.#.#.#.#.#.",
"> #.#.#.#.#.#.#.#.#.#.#.#.#.#.#.#.#.#.#.#.#.#.#.#.#.#.#.#...-.Q T T T T T T Q [ ..#.#.#.#.#.#.#.#.#.#.T C J T Q T x J U Y U C x c x x x x x x x M M M N N N C C C C C A A A A S F F F F Z Z Z Z S Z S S S Z Z A A A A A A A A A S A S S A A A A A A A A A A A A A A A A A A A A S S S S S A S S S A S S S S S S S D S S S S D S S S S S S S S S S S S S S S S D S S S D D S D D D D D D D D D D D D D D D D D D D D D D D D D D D D D D D D D D D D D D D D D D D D D A A C C C C C C C N N 8.K.) P P P =.aX:.Q ! T G aX8.*.#.#.#.#.#.#.#.#.#.#.#.#.#.#.#.#.#.#.#.[ J C uXx.5.-.O.O.O.#.#.#.#.#.#.#.#.#.#.#.#.#.#.#.#.#.P A Y ! Q D D P T P S C S A A A Z Z S D D D G G G ^ P I P P Y Y P P P P P P P P P J J G G G J J J J J J J J J J G G J J J J J J J J J J J J J J J J P J P P P P P P J P J J J P P P P P P P P P P P P P P P P P P P P P P P P P P P P P P P P P P P P P P P P P P P P P P P P P P P P P P P P P P P P P P P P P P P P I I I I I P P I P P P P P P P I P P P P G G J D D D S S S S A C x sXq.I P P H M.aX5...! U I qX'.2.#.#.#.#.#.#.#.#.#.#.#.#.#.[ Q Y P J D D S N E.dXsXH.#.*.2.8.*.#.#.#.#.#.#.#.#.#.#.#.#.#.#.#.#.#.#.#.#.#.#.#.",
"> #.#.#.#.#.#.#.#.#.#.#.#.#.#.#.#.#.#.#.#.#.#.#.#.#.#.#.#...-.Q T T T T T T Q [ [ ..#.#.#.#.#.#.#.#.#.! C J T Q T x J Y Y I C T Y P Y T Y P Y Q #.-.4.t.8.r.u.m.n.H.J.Y.J.P.P.].).).).].).).).).).).).).).(.).).N.n.N.S.N.n.n.N.N.n.H.P.S.N.S.S.S.N.N.S.S.N.S.S.S.N.N.S.f.u.f.f.f.f.f.f.f.u.g.z.g.f.g.x.g.f.g.x.g.g.g.x.g.g.z.x.8.6.8.8.8.4.8.8.8.9.9.9.9.8.9.9.9.9.9.9.9.9.9.9.9.9.9.9.O.[ #.#.#...#.#.......%.#.#.#.O.......#.#.#.#.#.O.O...#.C C C C N b N C C C C x x x x x x k x k g g 8.K.Q J P J =.aX:.Q Q T J aX8.*.#.#.#.#.#.#.#.#.#.#.#.#.#.#.#.#.#.#.#.[ J C -Xv.5.-.O.O.#.#.#.#.#.#.#.#.#.#.#.#.#.#.#.#.#.#.P A Y ! Q D D P Y P S N x x N N N b N C C C C A A C Z D D S D D D D D D D D D D D D D D D F D D D S D D D D D D D F D D D D D D D D D D D D D D D D D D D D D D D D D D D D D D D D D D D D D D D D D D D D D D D D D D D D D D D D D D D D D D D D D D D D D D D D D D D D D D D D D D D D D D D D D D D D D D D D D D D D D G D D D G G D G G G D D D D D D D D D A D A C C C C N N x sX9.P P P D M.aX5...Q U I qX.X2.#.#.#.#.#.#.#.#.#.#.#.#.#.[ Q T P J D D S N }.uXuXH.#.-.2.8.*.#.#.#.#.#.#.#.#.#.#.#.#.#.#.#.#.#.#.#.#.#.#.#.",
"; #.#.#.#.#.#.#.#.#.#.#.#.#.#.#.#.#.#.#.#.#.#.#.#.#.#.#.#...-.Q T T T T T T Q [ ..#.#.#.#.#.#.#.#.#.#.Q C J T Q T x J P I I ! ] Q ! ! ! ! ! ! Q Q ) ) ......#.&.&.*.=.=.=.-.-.-.=.=.;.;.=.&.&.&.&.&.&.&.#.#.#.#.#.#.#.*.&.&.&.&.*.*.*.9.9.9.9.9.9.8.9.9.8.8.8.9.8.8.8.8.8.8.8.9.9.9.9.9.9.9.9.j.j.f.f.j.f.f.f.f.f.f.f.f.f.f.f.f.f.f.x.x.x.x.x.x.x.x.x.H.H.n.Z.H.b.b.n.N.H.n.n.n.n.n.n.n.n.n.n.S.S.n.n.N.N.Z.b.H.J.Y.U.Y.J.J.Y.U.U.K.Y.Y.U.U.U.U.H.J.U.U.U.H.H.Y.Y.Y.E.U.U.U.E.K.H.H.H.U.U.H.Y.r.Q P J J =.aX:.Q ! Y J aX8.*.#.#.#.#.#.#.#.#.#.#.#.#.#.#.#.#.#.#.#.[ J C 7Xf.5.-.O.O.O.#.#.#.#.#.#.#.#.#.#.#.#.#.#.#.#.#.P C Y ! Q D D P Y P S H.K.K.n.n.n.H.J.H.K.J.J.Y.U.U.(.(.Z.Z.H.H.H.H.H.H.H.I.I.I.I.I.I.I.P.P.I.I.I.I.P.I.I.I.I.x.j.j.j.x.j.j.x.j.j.v.v.v.v.v.v.v.v.v.v.v.v.v.v.v.v.v.v.9.9.9.9.9.9.9.9.9.9.q.q.q.q.q.q.q.q.q.q.q.q.q.q.q.q.q.q.#.#.#.#.#.#.#.#.#.#.#.#.#.#.#.#.&.&.#.&.&.&.&.&.&.&.&.;.Z Z Z Z Z Z Z Z Z Z Z Z Z Z Z Z Z Z Z F F Z Z F D D D D D D D F Z Z Z A C C C C C b x x x x x k k sX9.P P J D M.aX5...Q U I qX.X2.#.#.#.#.#.#.#.#.#.#.#.#.#.[ Q T P J D D S N }.sXpXK.#.*.2.8.*.#.#.#.#.#.#.#.#.#.#.#.#.#.#.#.#.#.#.#.#.#.#.#.",
"; #.#.#.#.#.#.#.#.#.#.#.#.#.#.#.#.#.#.#.#.#.#.#.#.#.#.#.#.O.-.Q T T T T T T Q ] ..#.#.#.#.#.#.#.#.#.#.Q C J T Q T x J P I I I J J H H D H H H G P I I I I U Y Y U T T U T ! T T ~ T ~ U T T U U U T U U U U U U U U U Y U U U Y U U U Y U U U Y U U U Y U U U Y U U U Y U U U Y U U U Y U U U Y U U U Y U U U Y U T U Y U U U Y U U U Y U U U Y U U Y Y U U U Y U U U Y Y U U Y U U U Y U ! T T ! ! ! T ! ! ! T ! ! ! ! ! ! ! T ! Q ! ! Q Q ! ! Q Q ........) ) ) ) Q ! ! ! T U P P P P P P P P P P J D &.aX:.Q T P J aX8.*.#.#.#.#.#.#.#.#.#.#.#.#.#.#.#.#.#.#.#.[ J C uXH.5.-.O.O.O.#.#.#.#.#.#.#.#.#.#.#.#.#.#.#.#.#.P C Y T Q D D P Y P U ......[ Q ..%.........{ ) ..%.....#.*.-.=.-.5.:.:.:.5.t.q.q.9.9.9.q.q.q.8.8.q.q.q.9.9.9.9.q.q.q.9.q.y.y.9.q.q.x.x.v.f.f.j.v.m.f.f.j.v.x.x.j.j.j.j.x.b.x.j.v.v.m.x.v.v.H.H.H.H.H.Z.H.H.H.Z.H.H.H.H.H.H.H.H.H.H.H.Z.Z.H.H.Z.Z.P.(.(.(.(.(.^.(.(.(.U.(.(.(.U.(.(.^.U.^.(.^.U.^.(.^.U.^.(.[.].[.[.[.[.[. X[.[.[. X X[. X X X^.^.^.U.U.U.Y.Y.J.H.J.U.U.U.U.K.K.K.L.K.H._.8.J J J D M.aX5.[ ! T J qX.X2.#.#.#.#.#.#.#.#.#.#.#.#.#.[ Q Y P J D D S N E.dXpXK.#.*.2.8.*.#.#.#.#.#.#.#.#.#.#.#.#.#.#.#.#.#.#.#.#.#.#.#.",
"; #.#.#.#.#.#.#.#.#.#.#.#.#.#.#.#.#.#.#.#.#.#.#.#.#.#.#.#...-.Q T T T T T T Q [ ..#.#.#.#.#.#.#.#.O.#.Q C J T Q T x D J D P P J J H H H H H H P I I I I Y Y U U ~ T T T T ! ! ! ! T T T T T T T T U U U U U U T U U U U ~ U ~ U U U U U U U U U U U U U U U U U U U U U U U U U U U U U U U U U U U U U U U U U U U U U U U U U U Y U U U U U U U Y U U U U U U U U U U U U U U U U U U U U U U U U U U U U U U U U U U U U U U T T T T T ~ ~ T T T T T T T U U U Y Y P I P P J D D D D D D D D J G J D &.aX:.Q ! P J aX8.*.#.#.#.#.#.#.#.#.#.#.#.#.#.#.#.#.#.#.#...J C ,XP.5.-.#.#.#.#.#.#.#.#.#.#.#.#.#.#.#.#.#.#.#.#.P C Y T Q D D P Y P P J P P J J P P P P P P P I I P Y Y T T T T T ! Q Q ! ! ! ! ! ! ! ! T T T T T T T T T T T T T T T T T T T T T T T T T T T T T T T T T T T T T T T T T T T T T T T T T T T T T T T T T T T T T T T T T T T T Q Q Q Q Q Q Q Q Q Q Q Q Q Q Q Q Q Q Q Q Q Q Q Q Q Q Q Q Q #.#.#.......................................#.#.#.#.#.*.&.&.&.#.#.........Q T T T T T T T T T T Y J P J S M.aX5.) T T J qX.X2.......#.#.#.#.#.#.#.#.#.#.[ Q T P J D D S N ].dX8XK.#.*.2.8.*.#.#.#.#.#.#.#.#.#.#.#.#.#.#.#.#.#.#.#.#.#.#.#.",
"> O.#.#.#.#.#.#.#.#.#.#.#.#.#.#.#.#.#.#.#.#.#.#.#.#.#.#.#...-.Q T T T T T T Q [ [ ..#.#.#.#.#.#.#.O.#.! C J T Q T x A D D D D H D D D D D D D G G G G I P P I Y Y Y Y U U Y U U U Y Y Y Y P Y Y Y P Y Y P P P Y P I P Y Y I Y Y P I P Y P I I Y I I I Y I I I Y I I I Y I I I Y I I I Y I I P Y P I P Y P I P Y P I P Y P I P Y I P I Y P P P Y P I P Y P I P Y P P Y Y Y P Y Y Y I Y Y Y P Y Y Y P Y Y Y I Y Y Y P Y U Y Y Y U U Y U U U Y U ~ U U U U U Y Y Y P I I I P G G G D D D D D D D D D D J D #.aX-.Q ! P G aXf.*.#.#.#.#.#.#.#.#.#.#.#.#.#.#.#.#.#.#.#...J A 5XP.5.-.#.#.#.#.#.#.#.#.#.#.#.#.#.#.#.#.#.#.#.#.P C Y T Q D D P P K J J P G J P G G J P J J P P P P Y T T T T ! T T T Q T T T ! T T T T T T T T T T T T T T T ! T T T ! T T T Q T T T Q T T T ! T T T Q T T T T T T T Q T T T Q T T T Q T T T Q T T T Q T T T T T T T Q T T T ! T T T ! T T T Q T T T Q T T T Q T T T ! T T T Q T T T Q T T T Q T T T Q T T T Q T T ! Q ! T Q Q Q T Q Q Q ! Q Q Q T ! ! T U T T Y P I P J D G J G D G G G G J P J S M.dX:.) T T J qX.X2.......#.#.#.#.#.#.#.#.#.#.[ Q T P D D D S N }.pXpXU.#.=.2.7.*.#.#.#.#.#.#.#.#.#.#.#.#.#.#.#.#.#.#.#.#.#.#.#.",
"; #.#.#.#.#.#.#.#.#.#.#.#.#.#.#.#.#.#.#.#.#.#.#.#.#.#.#.#...-.Q T T T T T T Q ] [ #.#.#.#.#.#.#.#.O.O.! C J T ! U x k A A C A A A A A A A A A S D D D D D D D D G J J J G G G G J J J J J J J J J G G G J J J J J J J J P J G G J J J J J G G G G G G G J J J J G J J J J J J J J J J J G J J J J J J J J J J J J J J J J J J J J J P P P P P P P P P P P P P P P P P P P P P P P P P P P P P P P P P P I I I I I I I I P P I I I I P P Y Y P P P P P P P P I I P P J G G D D D D S S S S S S S S D D S ..aX-.Q T I G aXf.*.#.#.#.#.#.#.#.#.#.#.#.#.#.#.#.#.#.#.#...J A 8Xn.5.-.#.#.#.#.#.#.#.#.#.#.#.#.#.#.#.#.#.#.#.#.P C Y T Q D D J H D D D D D D D D D D D D H J J J P P P P Y Y T U T T T T T Y Y T T T T T T T T T T T T T T T T T T U U U U T U U T U T Y U T T T T T T T T T T T T T T T T T T T T T T T T T T T T T T T T T T T T T T T T T T T T T T T T T T T T T T T T T T T T T T T T T T T T T T T T T T T T T T T T T T T T T T T T T T T T T T T T T T T T T U U U Y Y P P P P G G D D D D D D G G G D G S M.dX:.) T T J qX.X2.#.#...#.#.#.#.#.#.#.#.#.#.[ Q Y P H D D S N }.dXpXK.#.*.2.8.*.#.#.#.#.#.#.#.#.#.#.#.#.#.#.#.#.#.#.#.#.#.#.#.",
"; #.#.#.#.#.#.#.#.#.#.#.#.#.#.#.#.#.#.#.#.#.#.#.#.#.#.#.#...-.! T T T T T T Q Q [ #.#.#.#.#.#.#.#.O.O.! C J T T U D ......[ ) Q Q ] Q Q Q ] Q ] [ O.Q Q [ *.1.4.9.y.f.H.K.U.(.).).).).).).).).).'.'.'.'.'.H.H.H.H.S.H.H.H.H.P.P.Y.Y.Y.P.Y.Y.P.P.P.P.P.P.P.P.P.P.P.b.v.v.v.m.m.x.x.V.V.N.N.V.N.N.N.N.N.V.N.N.N.V.V.N.N.N.y.y.y.y.y.y.y.y.y.g.g.g.g.g.g.g.g.k.g.g.g.g.g.g.g.g.g.6.8.8.6.6.8.8.8.8.s.s.s.t.s.s.s.s.s.s.s.s.s.s.s.s.s.s.s.*.=.=.=.=.=.=.=.=.=.=.=.*.*.=.&.#.#.#.#.#.#.#.#.[ #.#.C N N C C N Q aX=.Q T I G aXf.*.#.#.#.#.#.#.#.#.#.#.#.#.#.#.#.#.#.#.#...J A -XH.5.-.#.#.#.#.#.#.#.#.#.#.#.#.#.#.#.#.#.#.#.#.P C Y T Q D A C A A C C A A A C A A A C A S S S D D D D D J J J G J J G D D D D H H H H H J J J P J J J J J J J J J J J P P P P P P P P P P P P P P P P P P P P P P P P P P P P P P P P P P P P P I I P I I P P P P P I P P P P P P P I P P P P P P P P P P P P P P P P P P P P P P P P P P P P P P P P Y P P P P P P P P P P P P P Y Y Y Y P P P P P I P P P J J J D D D D D D D D D D D D D D D S M.dX:.) T T J qX.X2.#.#...#.#.#.#.#.#.#.#.#.#.[ T Y P J D D S N J.dXsXL.#.*.2.8.*.#.#.#.#.#.#.#.#.#.#.#.#.#.#.#.#.#.#.#.#.#.#.#.",
"> ....#.#.#.#.#.#.#.#.#.#.#.#.#.#.#.#.#.#.#.#.#.#.#.#.#.#.[ -.T T T T T T T Q Q [ ....#.#.#.#.#.#.#.#.Q C J U T U #.#.#.#.#.#.#.#.#.#.#.#.#.#.#.&.;.=.=.=.=.=.=.=.=.=.:.-.-.-.-.*.*.*.*.-.-.-.-.-.-.e.e.w.e.8.8.t.q.9.t.t.9.8.8.9.q.0.8.8.q.t.8.q.9.e.e.e.8.f.f.f.f.f.f.d.f.f.f.f.f.f.f.f.u.u.f.f.f.d.y.d.d.d.d.d.v.m.m.m.b.b.x.v.m.n.n.x.v.m.m.x.x.x.j.v.j.v.m.b.b.m.m.v.b.n.n.Z.Z.v.b.n.Z.Z.v.b.b.N.m.b.b.n.N.b.b.n.n.b.b.b.K.K.K.K.K.U.K.H.U.U.n.N.N.b.m.l.x.x.v.f.f.f.f.f.f.f.u.u.m.m.m.m.m.b.b.b.n.Z.^.=.Q T I G aXf.&.#.#.#.#.#.#.#.#.#.#.#.#.#.#.#.#.#.#.#...J A 5XP.5.-.#.#.#.#.#.#.#.#.#.#.#.#.#.#.#.#.#.#.#.#.Y C P T ! D x.H.J.b.n.f.j.j.j.j.x.m.n.F.x.u.f.x.m.m.b.m.N.Z.H.I.P.P.I.I.P.H.P.P.P.P.P.P.P.P.P.P.v.v.v.v.v.v.v.v.V.N.N.N.V.V.V.N.N.N.N.V.V.N.N.N.N.V.N.d.d.d.d.d.d.d.d.g.g.g.g.g.g.g.g.g.g.g.g.g.g.k.k.k.k.k.8.8.8.8.8.8.8.8.s.s.s.s.s.s.s.s.s.s.s.s.s.s.s.s.s.s.s.s.=.=.=.=.=.=.=.=.=.=.=.=.=.=.=.=.=.=.=.*.*.*.*.*.=.=.*.S S S S D D D D D S S S S S S S S S S A A C C C C C C C C C C C C C C C x M.dX:.) T Y J qX.X2...#.#.#.#.#.#.#.#.#.#.#.#.Q T Y P D D D S N Q.uXuXL.#.*.2.7.*.#.#.#.#.#.#.#.#.#.#.#.#.#.#.#.#.#.#.#.#.#.#.#.",
"> [ [ [ #.#.#.#.#.#.#.#.#.#.#.#.#.#.#.#.#.#.#.#.#.#.#.#.#.[ -.T T Y T T T U T Q Q [ ..#.#.#.#.#.#.#.#.Q C D Y U T T T T Y P Y T T T T ! ! T ! ! ! ! Q Q Q Q Q Q Q Q Q Q ! ! ! ! [ [ ..[ ] ] ] ] ] ] ] ] ] ] ] ] [ ....{ ....{ { ......{ ..........[ [ [ [ [ [ [ [ ..........[ [ [ [ [ [ [ [ [ ......#.#.#.%.#.#.#.#.O.O.O.[ ......[ O.O.O.[ O.....[ ..&.&.&.&.*.&.&.&.#.@.O.@.&.&.&.&.&.&.&.&.&.&.&.&.#.#.#.#.#.#.#.#.#.*.*.#.#.*.*.*.*.*.*.O.@.#.#.#.#.&.&.&.&.#.&.&.&.%.........) ) ) ) Q ) ) Q ! Q Q Q ) #.T T I G aXh.&.#.#.#.#.#.#.#.#.#.#.#.#.#.#.#.#.#.#.#...J A 8Xb.5.-.#.#.#.#.#.#.#.#.#.#.#.#.#.#.#.#.#.#.#.O.Y C P T T P *.=.*.#.*.*.&.#.&.*.*.2.2.5.5.5.5.8.8.8.8.8.8.8.8.8.8.8.8.8.8.8.9.9.9.9.9.9.9.f.f.f.f.f.f.f.f.f.f.y.y.d.f.f.f.y.d.d.f.f.y.h.d.f.f.f.v.m.m.b.b.m.m.m.b.b.b.b.b.b.b.b.b.b.b.b.b.b.b.b.b.b.m.I.Y.K.Y.Y.H.K.K.K.K.H.H.K.K.K.K.H.J.K.K.K.Z.H.J.K.K.K.U.T.).).).U.U.(.(.(.(.(.).).).).(.(.(.(.).).(.(.(.).).{.].{.{.{.{.{.{.{.].[.[. X X X[.[.].].].].].].].].].].'.].].].K.J.K.Y.Y.J.J.Y.J.Y. X<X-.Q T P J |..X2.....#.#.#.#.#.#.#.#.#.#...Q T Y J D D D S x Q.sXuXL.O.*.1.5.*.#.#.#.#.#.#.#.#.#.#.#.#.#.#.#.#.#.#.#.#.#.#.#.",
"> ] [ [ #.#.#.#.#.#.#.#.#.#.#.#.#.#.#.#.#.#.#.#.#.#.#.#.#.[ =.T T Y Y Y Y Y T T Q [ [ ..#.#.#.#.#...#.Q C D P Y T T T T T Y T T ! ! ! ! ! ! ! Q Q Q Q Q Q Q Q Q Q Q Q Q ! ! ! ! Q Q Q Q ! ! ! ! ! ! T T ! ! ! ! Q Q Q Q Q Q Q Q Q Q ) Q ) Q Q Q Q ! ! ! ! T T T T Q Q Q Q Q T T T T T T T T ! T T ! Q Q Q Q Q Q Q Q ! ! ! ! T T T T ! ! ! ! ! T T T ! Q Q Q Q Q Q Q Q ! ! ! ! Q Q Q Q Q Q Q Q Q Q Q Q ! T T T T T T T T ! ! ! ! ! ! ! ! ! ! ! ! T T T T Q Q Q Q Q Q Q ! ! ! ! ~ T T U U Y Y U Y P P P P P I Y Y U I G iXf.&.#.#.#.#.#.#.#.#.#.#.#.#.#.#.#.#.#.#.#...J A -XZ.5.-.#.#.#.#.#.#.#.#.#.#.#.#.#.#.#.#.#.#.#.#.Y C P T T T Q Q Q Q Q Q Q Q Q Q Q Q Q Q [ [ [ [ [ [ [ [ [ [ [ [ [ [ #.#.#.#.#.#.#.#.#.#.#.#.#.#.#.#.#.#.#.#.#.#.#.#.#.#.#.*.*.*.&.&.*.*.&.*.*.*.*.*.#.&.*.*.&.*.*.*.*.*.*.*.&.&.*.=.=.=.=.=.=.=.=.=.=.=.=.=.=.=.=.=.=.=.=.=.=.=.=.=.=.-.-.-.-.-.-.-.-.-.-.-.-.-.-.-.-.-.-.-.-.-.-.-.-.-.-.-.-.-.-.:.-.-.-.-.-.-.-.-.-.-.-.-.-.-.-.-.-.-.-.-.-.-.-.-.2.2.2.,.,.,.-.-.-.-.=.=.*.*.#.#.#.#.#.#.#.#.%.%.#.&.#.Q T P G |..X2.......#.#.#.#.#.#.#.#.#.[ Q T P J D D D A x H.dXpXK.[ *.,.5.-.#.#.#.#.#.#.#.#.#.#.#.#.#.#.#.#.#.#.#.#.#.#.#.",
"> [ [ [ #.#.#.#.#.#.#.#.#.#.#.#.#.#.#.#.#.#.#.#.#.#.#.#.#.[ *.T Y P P P Y Y T T Q [ [ [ #.#.#.#.#...#.Q C A D P P P P P P P P Y U U U U U U ~ U U U T T T T U T T T T T T T T T T T T T T T T T T T T T T T T T T T T T T T T T T T ! ! ! ! ! ! ! T T T T T T T T T ! ! ! T T T T T T T T T T T T T ! ! ! ! ! ! ! ! T T T T T T T T T ! T T T T T T ! ! ! ! Q Q Q Q Q T T T ! Q Q Q Q Q Q Q Q Q Q Q Q ! T T T T T T T T ! ! ! ! ! ! ! ! ! ! ! ! T T T T Q Q Q Q Q Q Q Q Q Q ! T ! ! T U U U U I Y P P J P Y Y I Y P D iXf.&.#.#.#.#.#.#.#.#.#.#.#.#.#.#.#.#.#.#.#.O.J A ,XA.5.-.O.#.#.#.#.#.#.#.#.#.#.#.#.#.#.#.#.#.#.#.Y C J Y T T T T T T T Y T T T T T ! T T Q Q Q Q Q Q Q Q Q Q ! ! ! Q Q Q Q T T Q Q Q Q T Q Q Q Q Q Q Q Q ! ! ! ! Q Q Q Q Q Q Q ! ! ! Q Q Q Q Q Q Q Q Q Q Q Q Q Q Q Q Q Q Q Q Q Q Q Q Q Q Q Q Q Q Q Q Q Q Q Q Q Q Q Q Q Q Q Q Q Q Q Q Q Q Q Q Q Q Q Q Q Q Q Q Q Q Q Q Q Q Q Q Q Q Q Q Q Q Q Q Q Q Q Q Q Q Q Q Q Q Q Q Q Q Q Q Q Q Q Q Q Q Q Q Q Q Q Q Q Q Q Q Q Q Q Q Q Q Q Q T T T T T P Y Y Y Y I Y Y Y Y T T P G |..X2.......#.#.#.#.#.#.#.#.#.[ Q T P J D D S A x Q.8XuXL.[ @.-.5.=.#.#.#.#.#.#.#.#.#.#.#.#.#.#.#.#.#.#.#.#.#.#.#.",
"> Q ] [ #.#.#.#.#.#.#.#.#.#.#.#.#.#.#.#.#.#.#.#.#.#.#.#...Q *.Y P P P P P P P T T Q Q Q [ ..#.#.#.....T C A D D D D D D D D D G G G G G G G G G G G J J J J J J J J J J J J J J P J J J J J J J J J J J J J J J J P P P P P P P J J P P P P P P P J J J J J P P P P P P P P J J P P P P J P P P P P P I I P P I I I P P P P P P P P P P P P P P P P P P P P P P P P P P P P P P P P Y Y Y Y I P P P P P P P P P P P P P P P P P P P P P P P P P I I I I Y Y Y Y Y Y Y Y Y Y Y Y P P I P P P G G J J H H G J G J P D S iXf.#.#.#.#.#.#.#.#.#.#.#.#.#.#.#.#.#.#.#.#.O.J A 7Xb.6.-.O.O.#.#.#.#.#.#.#.#.#.#.#.#.#.#.#.#.#.#.Y N H J P P P P P P P P P Y Y U U U U U U U U U U U T T T U U U U U T T T T T T T ~ ~ ~ ~ ~ U U U U T T T T T T T T T T T T T T T T T T T T T T T T T T T T T T T T T T T T T T T T T T T T T T T T T T T T T T T T T T T T T T ! Q Q Q ! T T T T T T T T T T T T T T T T T T T T T T T T T T T T T T T T T T T T T T T T T ! T T T T T T T T T T T ! ! ! Q ! ! ! ! ! ! ! ! T T T U Y Y P P P P I I I Y T T Y P D |..X2.#.#.#.#.#.#.#.#.#.#.#.#.Q T Y P D D D S A x Q.pXpXK.[ *.-.2.-.#.#.#.#.#.#.#.#.#.#.#.#.#.#.#.#.#.#.#.#.#.#.#.",
"> T Q Q ..#.#.#.#.#.#.#.#.#.#.#.#.#.#.#.#.#.#.#.#.#.#.#.[ Q #.P P J P P P P I Y T T Q Q Q Q [ #.....#.! Y -.-.-.-.-.-.-.-.-.=.=.=.=.=.=.=.=.=.=.=.=.=.=.=.=.=.=.=.=.-.5.9.f.m.N.K.H.Y.U.).).).).).].].].].].].].].].].].].].].(.).'.].).H.H.H.Y.H.H.H.Y.!.!.!.!.Y.!.!.!.!.!.!.!.!.!.!.!.!.!.Y.v.v.v.b.m.m.m.N.N.N.N.N.N.N.N.N.N.N.N.N.N.N.N.N.N.N.f.f.f.f.f.f.f.f.x.x.x.x.x.x.k.x.x.x.x.x.x.g.g.x.x.x.x.8.8.9.9.8.8.8.8.s.t.s.s.t.t.t.t.t.t.t.t.t.t.t.t.t.t.t.-.-.-.-.-.-.-.-.-.-.-.=.=.*.*.*.*.*.*.*.*.*.*.} *.*.A A iXf.*.#.#.#.#.#.#.#.#.#.#.#.#.#.#.#.#.#.#.#.O.J A 5XZ.6.-.O.O.#.#.#.#.#.#.#.#.#.#.#.#.#.#.#.#.#.#.Y C D D D J J J J H J P J I I I I I I I I I I I I I I I I I I I I I I I I I I I I I I I I I I I I I I I I I I I I I I I I I I I I I I I I I I I I I I I I I P P P P P P P P P P P P P P P P I I I I I I Y Y I I I I Y Y P Y P P Y Y Y Y Y I Y Y Y Y Y Y Y Y Y Y Y Y Y Y Y Y Y Y Y Y Y Y Y P P Y Y Y Y Y Y Y Y Y Y Y Y Y Y Y U Y Y Y Y Y Y Y Y Y Y Y Y Y Y Y Y Y Y Y Y U U U U U Y I P P J H J P G D G P P J J P D }..X2.#.#.#.#.#.#.#.#.#.#.#...Q T P P D S D D C x C.dXpXH.[ *.-.2.-.#.#.#.#.#.#.#.#.#.#.#.#.#.#.#.#.#.#.#.#.#.#.#.",
"> Q Q Q ..#.#.#.#.#.#.#.#.#.#.#.#.#.#.#.#.#.#.#.#.#.#.#.[ Q #.P J J J J J J P P P T T T Q Q [ [ [ #.#.[ 5.5.5.5.5.5.5.5.5.5.5.5.5.5.5.5.5.5.5.5.5.5.5.5.5.5.5.5.5.5.5.5.5.5.5.5.5.5.5.5.5.5.2.2.2.2.5.5.5.5.5.2.,.2.,.,.2.,.2.t.w.t.w.w.w.t.t.t.t.w.t.t.t.t.w.t.t.t.t.t.w.t.t.t.t.t.t.v.v.x.l.f.f.f.f.f.f.f.f.f.f.f.f.f.f.f.f.l.f.f.x.x.x.Z.N.N.N.N.N.N.S.H.S.N.N.N.S.H.S.N.b.b.b.b.b.b.b.m.b.b.J.Y.H.J.Y.Y.Y.K.Y.Y.Y.Y.K.Y.Y.U.Y.K.K.Y.Y.Y.Y.Y.K.K._._._.).(.U.U.U.U.U.U.T.T.).).U.U.U.U.U.U.U.U.U.U.U.U._.].{.].].].2Xf.=.#.#.#.#.#.#.#.#.#.#.#.#.#.#.#.#.#.#.#.O.J A `.A.6.-.O.O.O.#.#.#.#.#.#.#.#.#.#.#.#.#.#.#.#.#.Y U *.-.2.8.t.u.x.m.n.J.Y.U.U.U.U.U.^.^.^.^.^.^.^.^.^.^.).H.H.S.N.S.S.H.H.Y.Y.Y.Y.Y.Y.Y.Y.Y.P.Y.Y.Y.Y.Y.Y.Y.Y.Y.Y.v.x.x.x.x.v.m.N.N.N.N.N.N.N.N.N.N.N.N.N.N.n.n.N.n.n.u.u.u.u.u.u.u.u.x.x.x.x.x.x.x.x.j.x.x.x.x.x.x.x.x.x.x.8.8.8.8.8.8.8.8.y.y.y.y.y.y.y.y.y.y.y.y.y.y.y.y.y.y.y.:.:.:.:.:.:.:.:.:.:.:.:.:.:.:.:.:.:.:.:.:.:.:.-.:.-.I I I I I I I I I I I I I I I I I I I I I I I I J H H H H D D D D D D D D D }..X2.#.#.#.#.#.#.#.#.#.#.#.[ Q T P J D S S S C x Y.dX7XK.[ @.=.2.-.#.#.#.#.#.#.#.#.#.#.#.#.#.#.#.#.#.#.#.#.#.#.#.",
"> Q Q Q [ #.#.#.#.#.#.#.#.#.#.#.#.#.#.#.#.#.#.#.#.#.#.#.] Q #.J J H D D D H J J P Y Y Y T Q Q Q [ #.#.#.#.#.#.#.#.#.#...#.#.#...#.#.#.#.....#.#.#.#.#.#.#.#.#.#.#...#.#.#.#.#.#.#.#.#.#.....[ [ [ [ O.#.#.#.#.O.[ [ [ #.#.#.#.#.#.#.#.#.#.#.#.#.#.#.#.#.#.#.#.#.#.#.#.#.#.#.*.*.*.*.*.*.*.*.*.*.*.*.*.*.*.*.*.*.*.*.*.*.*.*.*.*.=.=.-.-.-.-.-.=.=.=.=.=.=.=.=.=.=.=.=.=.=.=.-.-.=.=.=.-.-.-.-.-.-.-.-.-.-.-.-.-.-.:.:.:.:.:.:.:.:.:.:.:.:.5.5.5.5.5.5.5.5.5.5.5.5.5.5.5.5.5.5.:.5.5.:.-.:.:.:.-.:.5.:.-.:.:.:.-.:.:.5.5.5.#.#.#.#.#.#.#.#.#.#.#.#.#.#.#.#.#.#.#.#.O.J A ;XA.6.-.#.O.O.#.#.#.#.#.#.#.#.#.#.#.#.#.#.#.#.#.[ 8.8.8.8.8.8.8.8.8.8.8.8.8.8.8.8.8.8.8.8.8.8.8.8.f.f.f.f.f.d.f.f.f.f.h.f.f.f.f.f.f.f.f.f.f.f.f.f.f.f.f.N.N.N.V.V.N.N.b.b.b.b.b.b.b.b.b.b.b.b.b.N.N.b.N.b.V.N.P.Y.Y.P.P.P.P.P.Y.Y.P.P.Y.Y.Y.H.H.H.H.H.H.H.H.H.H.Z.H.).).^.).U.).).).^.^.).).).).Y.Y.Y.Y.Y.Y.Y.K.Y.Y.Y.Y._._._.).)._._._._.).).).).{.`.].].].{.{.U.T.)._.{.).U.{.[.[.>X{.{.{.[.[.$X{.{.]. X>X[. X X X[.#X X X X X X X<X2X2X2X_._.].{._.)._._.].].].2X.X2.#.#.#.#.#.#.#.#.#.#...Q T T P D D S A A C x Q.8XuXE.[ #.=.2.=.#.#.#.#.#.#.#.#.#.#.#.#.#.#.#.#.#.#.#.#.#.#.#.",
"> T T T ] #.#.#.#.#.#.#.#.#.#.#.#.#.#.#.#.#.#.#.#.#.#...Q T [ J D D D D D D D D J P P P T T T Q Q [ ..#.#.#.#.#.#.#.#.#.#.#.#.#.#.#.#.#.#.#.#.#.#.#.#.#.#.#.#.#.#.#.#.#.#.#.#.#.#.#.#.#.#.#.#.#.#.#.#.#.#.#.#.#.#.#.#.#.#.#.#.#.#.#.#.#.#.#.#.#.#.#.#.#.#.#.#.#.#.#.#.#.#.#.#.#.#.#.#.#.#.#.#.#.#.#.#.#.#.#.#.#.#.#.#.#.#.#.#.#.#.#.#.#.#.#.#.#.#.#.#.#.#.#.#.#.#.#.#.#.#.#.#.#.#.#.#.#.#.#.#.#.#.#.#.#.#.#.#.#.#.#.#.#.#.#.#.#.#.#.#.#.#.#.#.#.#.#.#.#.#.#.#.#.#.#.#.#.#.#.#.#.#.#.#.#.#.................[ ..........#.#.#.#.#.#.#.#.#.#.#.#.#.#.#.#.#.#.#.#.#.#.O.J A 5Xn.6.-.#.#.#.#.#.#.#.#.#.#.#.#.#.#.#.#.#.#.#.#.#.#.#.#.O.O.O.O.O.O.#.#.#.#.#.O.#.O...#.#.#.#.#.#.#.#.#.#.*.*.*.*.#.#.#.#.#.#.#.#.#.#.#.#.#.*.*.*.*.*.*.*.*.*.*.*.*.*.*.*.*.*.*.*.*.*.*.*.*.*.*.*.-.-.-.-.-.-.-.-.-.-.-.-.-.-.-.-.-.-.-.-.-.-.-.-.-.-.-.-.-.-.-.-.-.-.-.-.-.-.-.-.-.-.-.-.-.-.-.-.-.-.-.-.-.2.2.2.2.2.2.2.2.2.2.2.2.2.2.2.2.2.2.2.2.2.2.2.2.2.2.:.5.5.5.5.5.5.5.5.5.5.5.5.5.5.5.5.5.5.5.5.5.5.5.5.5.5.5.5.5.5.5.5.5.5.5.5.5.5.5.5.5.5.5.5.5.5.5.5.5.5.2.#.O.O.#.#.#.#.#.#...[ Q T P J D D A A A C x F.pX8XJ.| #.=.2.*.#.#.#.#.#.#.#.#.#.#.#.#.#.#.#.#.#.#.#.#.#.#.#.",
"= P T T Q [ #.#.#.#.#.#.#.#.#.#.#.#.#.#.#.#.#.#.#.#.#.[ Q Y [ D D D D D D D D D D J P P P P T Q Q ! [ #.#.#.#.#.#.#.#.#.#.#.#.#.#.#.#.#.#.#.#.#.#.#.#.#.#.#.#.#.#.#.#.#.#.#.#.#.#.#.#.#.#.#.#.#.#.#.#.#.#.#.#.#.#.#.#.#.#.#.#.#.#.#.#.#.#.#.#.#.#.#.#.#.#.#.#.#.#.#.#.#.#.#.#.#.#.#.#.#.#.#.#.#.#.#.#.#.#.#.#.#.#.#.#.#.#.#.#.#.#.#.#.#.#.#.#.#.#.#.#.#.#.#.#.#.#.#.#.#.#.#.#.#.#.#.#.#.#.#.#.#.#.#.#.#.#.#.#.#.#.#.#.#.#.#.#.#.#.#.#.#.#.#.#.#.#.#.#.#.#.#.#.#.#.#.#.#.#.#.#.#.#.#.#.#.#.#.#.#.#...#.#.#.[ #.#.#.[ #.#.#.#.#.#.#.#.#.#.#.#.#.#.#.#.#.#.#.#.#.#.#.Q J A `.N.5.-...[ #.#.#.#.#.#.#.#.#.#.#.#.#.#.#.#.#.#.#.#.#.#.#.#.O.O.O.O.#.#.#.#.O.O.#.#.......#...#.#.#.#.#.O.O.O.O.#.#.#.#.........O.#.........#.#.#.#.....#.#.#.......#.#.#.#.....#.#.....#.#.#.#.#.#.#.#.#.#.O.#.#.#.#.#.#.#.#.#.#.#.........#.#.#.#.....O.O.#...#...#.#.#...#.#.#.#.#.O...#.#.#.O.#.#.#.#.#.#.#...#.#.#...#.O...#.#.........#.#.#.#...O...O.O...#...#.#.........O.#.....#.#.#.#.......#.#.#.#.#.......#.#.#.#.#.#.#.........O.#...[ [ ..[ [ [ ....O.#.#.O.#.#.#.#.#.#.#.O.Q Q T Y J D D S C C A C k H.dX5XF.] @.=.,.*.#.#.#.#.#.#.#.#.#.#.#.#.#.#.#.#.#.#.#.#.#.#.#.",
"= P T T Q [ #.#.#.#.#.#.#.#.#.#.#.#.#.#.#.#.#.#.#.#.#.[ T Y [ D D D D D D D D D D H J J P P Y T T Q Q [ ..#.#.#.#.#.#.#.#.#.#.#.#.#.#.#.#.#.#.#.#.#.#.#.#.#.#.#.#.#.#.#.#.#.#.#.#.#.#.#.#.#.#.#.#.#.#.#.#.#.#.#.#.#.#.#.#.#.#.#.#.#.#.#.#.#.#.#.#.#.#.#.#.#.#.#.#.#.#.#.#.#.#.#.#.#.#.#.#.#.#.#.#.#.#.#.#.#.#.#.#.#.#.#.#.#.#.#.#.#.#.#.#.#.#.#.#.#.#.#.#.#.#.#.#.#.#.#.#.#.#.#.#.#.#.#.#.#.#.#.#.#.#.#.#.#.#.#.#.#.#.#.#.#.#.#.#.#.#.#.#.#.#.#.#.#.#.#.#.#.#.#.#.#.#.#.#.#.#.#.#.#.#.#.#.#.#.#.#.#.#.#.#.#.#.#.#.#.#.#.#.#.#.#.#.#.#.#.#.#.#.#.#.#.#.#.#.#.#.#.#.Q D C *XN.2.*.[ [ #.#.#.#.#.#.#.#.#.#.#.#.#.#.#.#.#.#.O.O.#.O.#.#.#.#.O.O.#.#.O.O.O.O.#.#.#.#.....#.#.#.#.O.O.#.@.O.O.#.#.#.#.#.#.....#.#.#.#.O.#.#.#.#.#.#.#.#.#.#.#...#.#.#.#.#.#.#.#.#.#.#.#.#...#.#.#.#.#.#.#...#.#.#.#.#.#.#.#.#.#.#.#.#...#.#.#.#.#.....#.#.#.#.#.#.#.#.#.#.#.#.#.#.#.#.....#.#.#.#.#.#.#.#...#...#.#.#.#.#.O.O.#.#.#.#...O.#.#.#.#.....#.O.#.#.#.#.#.#.#.#.....#.#.#.#.#.#.#.#.....#.#.#.#.#.#.....#.#.#.#.#.#.#.#.#.#.O.#.#.#.#.#.O.O.#...#.#.#.#.#.#.O.O.#.#.#.#.#.O.[ Q T Y P J D D A C C C C k P.5X8XL.Q #.*.,.*.#.#.#.#.#.#.#.#.#.#.#.#.#.#.#.#.#.#.#.#.#.#.#.",
"= Y Y P Q [ O.#.#.#.#.#.#.#.#.#.#.#.#.#.#.#.#.#.#.#.#.Q T T [ D D D S A S S S S D D D D J P P P T Q Q Q [ #.#.#.#.#.#.#.#.#.#.#.#.#.#.#.#.#.#.#.#.#.#.#.#.#.#.#.#.#.#.#.#.#.#.#.#.#.#.#.#.#.#.#.#.#.#.#.#.#.#.#.#.#.#.#.#.#.#.#.#.#.#.#.#.#.#.#.#.#.#.#.#.#.#.#.#.#.#.#.#.#.#.#.#.#.#.#.#.#.#.#.#.#.#.#.#.#.#.#.#.#.#.#.#.#.#.#.#.#.#.#.#.#.#.#.#.#.#.#.#.#.#.#.#.#.#.#.#.#.#.#.#.#.#.#.#.#.#.#.#.#.#.#.#.#.#.#.#.#.#.#.#.#.#.#.#.#.#.#.#.#.#.#.#.#.#.#.#.#.#.#.#.#.#.#.#.#.#.#.#.#.#.#.#.#.#.#.#.#.#.#.#.#.#.#.#.#.#.#.#.#.#.#.#.#.#.#.#.#.#.#.#.#.#.#.#.#.#.#...Q D C =Xx.2.#.Q [ [ #.#.#.#.#.#.#.#.#.#.#.#.#.#.#.#.#...O.O.O.#.#.#.#.O.O.#.#.O.O...O.#.#.#.#.#.#.#.O.O.#.#.#.#.@.O.O.O.O.#.#.#.O.O.O.#.#.#.#.O.#.#.#.#.#.#.#.#.#.#.#.#.#.#.#.#.#.#.#.#.#.#.#.#.#.........#.#.#.#.........#.#.#.#.#.#.#.#.#.#...O.#.#.#.#.O.O.#.#.#.#.#.#.#.#.#.#.#.#.#.#.#.#.#.#.#.#.O.#.#.#.#.#.........#.#.#.O.O.O.#.#.#.#...O.#.#.#.#.O.O.O.#.#.#.#.#.#.#.#.#.#.#.#.#.#.#.#.#.........#.#.#.#.........#.#.#.#.#.#.#.#.#...#.#.#.#.#.#.#.#.O.#.#.#.#.#.#.#.#.O.#.#.#.#.O.Q Q Q T P P J D A A C C N C k Q.8X7XL.Q [ =.2.*.#.#.#.#.#.#.#.#.#.#.#.#.#.#.#.#.#.#.#.#.#.#.#.",
"= P P Y T Q [ #.#.#.#.#.#.#.#.#.#.#.#.#.#.#.#.#.#.#.[ Q T P [ D D S S S S S S S D D D D J J P P Y T ! Q [ [ ..#.#.#.#.#.#.#.#.#.#.#.#.#.#.#.#.#.#.#.#.#.#.#.#.#.#.#.#.#.#.#.#.#.#.#.#.#.#.#.#.#.#.#.#.#.#.#.#.#.#.#.#.#.#.#.#.#.#.#.#.#.#.#.#.#.#.#.#.#.#.#.#.#.#.#.#.#.#.#.#.#.#.#.#.#.#.#.#.#.#.#.#.#.#.#.#.#.#.#.#.#.#.#.#.#.#.#.#.#.#.#.#.#.#.#.#.#.#.#.#.#.#.#.#.#.#.#.#.#.#.#.#.#.#.#.#.#.#.#.#.#.#.#.#.#.#.#.#.#.#.#.#.#.#.#.#.#.#.#.#.#.#.#.#.#.#.#.#.#.#.#.#.#.#.#.#.#.#.#.#.#.#.#.#.#.#.#.#.#.#.#.#.#.#.#.#.#.#.#.#.#.#.#.#.#.#.#.#.#.#.#.#.#.#.#.#.#.[ T D C L.b.-.#.Q ! Q ..#.#.#.#.#.#.#.#.#.#.#.#.#.#.#.#.#.#.#.#.#.#.#.#.#.#.#.#.#.#.#.#.#.#.#.#.#.#.#.#.#.#.#.#.#.@.#.#.#.#.#.#.#.#.#.#.#.#.#.#.#.#.#.#.#.#.#.#.#.#.#.#.#.#.#.#.#.#.#.#.#.#.#.#.#.#.#.#.#.#.#.#.#.#.#.#.#.#.#.#.#.#.#.#.#.#.#.#.#.#.#.#.#.#.#.#.#.#.#.#.#.#.#.#.#.#.#.#.#.#.O.O.#.#.#.#.#.#.#.#.#.#.#.#.#.#.#.#.#.#...O.#.#.#.#.#.#.#.#.#.#.#.#.#.#.#.#.#.#.#.#.#.#...O.#.#.#.#.#.......#.#.#.#.#.......#.#.#.#.#.#.....#.#.#.#.#.#.#.#.#.#.#.#.#.#.#.#.#.#.#.#.#.#.#.#.#...[ Q Q T Y P J D D S C C C C N j C.pXuXH.Q [ @.,.#.#.#.#.#.#.#.#.#.#.#.#.#.#.#.#.#.#.#.#.#.#.#.#.",
"= J P Y T T [ #.#.#.#.#.#.#.#.#.#.#.#.#.#.#.#.#.#...[ Q T P ] D D A S D S A S D D S D J D D P Y P P T Q Q Q [ #...[ #.#.#.[ #.#.#.[ #.#.#.[ #.#.#.[ #.#.#.[ #.#.#.[ #.#.#.[ #.#.#.[ #.#.#.[ #.#.#.[ #.#.#.[ #.#.#.[ #.#.#.[ #.#.#.[ #.#.#.[ #.#.#.[ #.#.#.[ #.#.#.[ #.#.#.[ #.#.#.[ #.#.#.[ #.#.#.[ #.#.#...#.#.#...#.#.#...#.#.#...#.#.#...#.#.#...#.#.#...#.#.#...#.#.#...#.#.#...#.#.#...#.#.#...#.#.#...#.#.#...#.#.#...#.#.#...#.#.#...#.#.#...#.#.#...#.#.#...#.#.#...#.#.#...#.#.#...#.#.#...#.#.#...#.#.#...#.#.#...#.#.#...#.#.#...#.#.#.O.#.#.#.[ [ ..Q Y S N W.x.-.#.T Y Q ....[ #.#.#.#.#.#.#.#.#.#.#.#.#.#.#...#.#.#.O.#.#.#.O.#.#.#.O.#.#.#.#.#.#.#.#.#.#.#.#.#.#.#.#.#.#.#.#.#.#.#.#.#.#.#.#.#.#.#.#.#.#.#.#.#.#.#.#.#.#.#.#.#.#.#.#.#.#.#.#.#.#.#.#.#.#.#.#.#.#.#.#.#.#.#.#.#.#.#.#.#.#.#.#.#.#.#.#.#.#.#.#.#.#.#.#.#.#.#.#.#.#.#.#.#.#.#.#.#.#.#.#.#.#.#.#.#.#.#.#.#.#.#.#.#.#.#.#.#.#.#.#.#.#.#.#.#.#.#.#.#.#.#.#.#.#.#.#.#.#.#.#.#.#.#.#.#.#.#.#.#.#.#.#.#.#.#.#.#.#.#.#.#.#.#.#.#.#.#.#.#.#.#.#.#.#.#.#.#.#.#.#.#.#.#.#.#.#.#.#.#.#...Q Q Q T P P P D D S S C N C C N g H.;X5XH.Q [ @.=.#.#.#.#.#.#.#.#.#.#.#.#.#.#.#.#.#.#.#.#.#.#.#.#.",
"= J P P Y T Q [ ..#.#.#.#.#.#.#.#.#.#.#.#.#.#.#.#...Q T Y P Q D S A A A A A A A S S D D D D D J J P P T T T Q Q Q Q Q Q Q Q Q Q Q Q Q Q Q Q Q Q Q Q Q Q Q Q Q Q Q Q Q ] Q Q Q ] Q Q Q ] Q Q Q [ Q Q Q [ Q Q Q [ Q Q Q [ Q Q Q [ ] Q ] [ ] Q ] [ ] Q [ [ [ Q [ [ [ Q [ [ [ Q [ [ [ Q [ [ [ ] [ [ [ [ [ [ [ [ [ [ [ [ [ [ [ [ [ [ [ [ [ [ [ [ [ [ [ [ [ [ [ [ [ [ [ [ [ [ [ [ [ [ [ [ [ [ [ [ [ [ [ [ [ [ [ [ [ ..[ [ [ ..[ [ ......[ ......[ ..................#.......#.......#.O...O.#.#...#.#.#...#.#.#.O.#.#.#.#.#.#.#.#.#.#.#.#.#.#.#.#.#.#.#.#.#.#...[ [ ] Q T S x W.y.*...T T T Q [ [ ..#.#.#.#.#.#.#.#.#.#.#.#.#.#.#.#.#.#.#.#.#.#.#.#.#.#.#.#.#.#.#.#.#.#.#.#.#.#.#.#.#.#.#.#.#.#.#.#.#.#.#.#.#.#.#.#.#.#.#.#.#.#.#.#.#.#.#.#.#.#.#.#.#.#.#.#.#.#.#.#.#.#.#.#.#.#.#.#.#.#.#.#.#.#.#.#.#.#.#.#.#.#.#.#.#.#.#.#.#.#.#.#.#.#.#.#.#.#.#.#.#.#.#.#.#.#.#.#.#.#.#.#.#.#.#.#.#.#.#.#.#.#.#.#.#.#.#.#.#.#.#.#.#.#.#.#.#.#.#.#.#.#.#.#.#.#.#.#.#.#.#.#.#.#.#.#.#.#.#.#.#.#.#.#.#.#.#.#.#.#.#.#.#.#.#.#.#.#.#.#.#.#.#.#.#.#.#.#.#.#.#.#.#.#.#.#.#.#.#.#.[ [ Q Q T T P P J D D S A C C C C N g P.8XuXH.Q [ @.=.#...#.#.#.#.#.#.#.#.#.#.#.#.#.#.#.#.#.#.#.#.#.#.",
"= P P J Y T Q Q [ #...[ #.#.#.[ #.#.#.[ #.#.#.[ ....Q T Y P Q S A C C C C C C C C S A A S D D D D P P P P T T T T T T T T T T T T T T T T T T T T ! T T T ! T T T Q T T T Q T T T Q T T T Q T T T Q T T T Q T T T Q T T T Q T T T Q T T T Q T T T Q T T T Q T T T Q T T T Q T T T Q T T T Q ! T ! Q Q T Q Q Q T Q Q Q T Q Q Q T Q Q Q T Q Q Q T Q Q Q T Q Q Q T Q Q Q Q Q Q Q Q Q Q Q Q Q Q Q Q Q [ Q Q Q [ Q Q Q [ Q Q Q [ Q Q Q [ ] Q [ [ ) Q [ [ [ Q [ ..[ Q [ ..[ Q [ ..[ [ [ ..[ [ [ O.[ [ [ #.[ [ [ #.[ [ ..#...[ ..#...[ ..#...[ ..#...[ ..#...[ [ ..Q Q T T A x `.j.&.Q Y T T T ] ..[ [ O.#.#.[ #.#.#.[ #.#.#.[ #.#.#.[ #.#.#.[ #.#.#.[ #.#.#.[ #.#.#.[ #.#.#...#.#.#...#.#.#...#.#.#...#.#.#...#.#.#...#.#.#...#.#.O...#.#.#...#.#.#...#.#.O...#.#.#...#.#.#...#.#.#...#.#.#...#.#.#...#.#.#...#.#.#...#.#.#...#.#.#...#.#.#...#.#.#...#.#.#...#.#.#...#.#.#...#.#.#...#.#.#...#.#.#...#.#.#...#.#.#...#.#.#...#.#.#...#.#.#...#.#.#...#.#.#...#.#.#...#.#.#...#.#.#...#.#.#...#.#.#...#.#.#...#.#.#...#.#.#...#.#.#...#.#.#...#.#.#...#.#.[ Q Q Q T Y Y Y J D D D S C C C C N N k r.uX8XL.Q [ @.-...[ #.#.#.#.#.#.#.#.#.#.#.#.#.#.#.#.#.#.#.#.#.#.",
"= D J J P T T Q Q ] [ [ [ [ [ [ [ [ [ [ [ [ [ [ [ Q Q T P P Q D A A C C C C C C A A A S S S D D D D J P P P Y T Y Y Y T Y Y Y T Y Y Y T Y Y Y T Y Y T T T T T T T Y T T T Y T T T T T T T T T T T T T T T T T T T T T T T T T T T T T T T T T T T T T T T T T T T T T T T T T T T T T T T T T T T T T T T T T T T T T T T T T T T T T T T T T T T T T T T T T T T T T T T T T T T T T T T T T T T T T T T T T T T T T T T T T Q ! ! Q Q Q Q ! T Q Q Q Q ! ! Q Q Q Q Q Q Q Q Q Q Q Q Q Q Q Q Q Q Q Q Q Q Q Q Q Q Q Q Q Q Q Q Q Q Q Q Q Q Q Q Q Q Q Q Q Q Q Q T T T P C x F.x...Q P P Y T T Q Q Q Q Q Q Q Q Q Q Q Q Q Q Q Q Q Q Q Q Q Q Q Q ] Q Q Q ] Q Q Q [ Q Q ] [ ] Q ] [ ] Q ] [ ] Q ] [ ] Q ] [ ] Q ] Q Q Q ] [ ] Q [ [ [ Q [ [ [ Q [ [ [ Q [ [ [ Q [ [ [ Q [ [ [ Q [ [ [ Q [ [ [ ] [ [ [ ] [ [ [ ] [ [ [ [ [ [ [ ] [ [ [ ] [ [ [ ] [ [ [ ] [ [ [ ] [ [ [ ] [ [ [ ] [ [ [ Q [ [ [ ] [ [ ) ] [ [ [ [ [ [ [ [ [ [ [ [ [ [ Q ) [ [ [ [ [ [ Q ) [ [ [ [ [ [ [ [ [ [ [ [ [ [ ) ) [ [ [ [ [ [ [ [ [ [ [ [ [ [ [ [ [ [ [ [ [ [ [ [ [ [ [ [ [ [ [ Q Q Q Q T T T P P P J D D D S C C N x N N x g u.*X5XF.T [ #.=.[ [ ..#.#.#.#.#.#.#.#.#.#.#.#.#.#.#.#.#.#.#.#.#.",
"= D D J P I T T T T Q Q Q T Q Q Q Q Q Q Q Q Q [ Q T T T P J Q D S C A A C C A A A C A D A A D D D D D P J P P Y P P P Y P P P Y P P P Y P P P Y P P P Y P P Y T P P P Y P P P Y P P P Y P P P Y P P P Y P P P T P P P Y P P P Y P P P Y P P P Y P P P Y P P P Y P P P Y P P P Y P P P Y P P P Y P P P Y P P Y T P P P Y P P P T Y P P T P P P T Y P Y T Y P Y T Y P Y T Y P Y T Y P Y T Y P Y T Y P Y T Y P Y T Y P Y T T P T T T Y T T T Y U T T Y T T T P T T T Y T T T Y T T T Y T T T T T T T T T T T T T T T T T T T T T ! T T T Q T T T Q T T T T T Y Y T P D N x G.4.[ T J H P Y Y Y T Q T T T Q T T T Q T T T Q T T T Q T T T Q T T T Q T T T Q T T T Q T T T Q T T T Q T T T Q T T T Q T T T Q T T T T T T T Q T T T Q T T T Q T T T Q T T T Q T T T Q T T T Q T T T Q T T T Q T T T Q T T T Q Q T Q Q T T T Q T T T Q ! T T Q T T T Q T T T Q T T T Q T T T Q T T T Q T T T Q T T T Q T T T Q T T T Q T T T Q T T T Q T T T Q T T T Q T T T Q T T T Q T T T Q T T T Q T T T Q T T T Q T T T Q T T T Q T T T Q T T T Q T T T Q T T T Q T Y T T P P P J D D D D A C C C M x x N x g f.5X8XF.T [ #.*.Q [ [ ..#.#.#.#.#.#.#.#.#.#.#.#.#.#.#.#.#.#.#...",
"= D D D J P P U T T T T T T T T T T T T T T ! ! T T T Y P J ! S A C C C C C C C C C C C C A A S S S D D D D D D D D D H D D D H H H D H D D D H D D D J D D H J H D H J H D H J H H J J H D H J H D H J H D H J H D H J D D J J J D J J J D J J J D J J J D J J J H J J G H J J J J J J J J J J J J J J J J J J J J J J J J J J J J J P J J J J J J J J P J J J J J J J J J J P P J P P P P P P P P P P P P P P P P P P P P P P P P P P P P P P P P P P P P P P P P P Y Y P Y Y Y Y Y Y Y Y Y Y Y Y Y Y Y Y Y Y Y Y Y Y Y T T T T T Y Y T T T T T T T T Y Y P P P D M g L.0.Q Y D H P P P Y T T T T T T T T T T T T T T T T T T T T T T T T T T T T T T T T T T T T T T T T T T T T T T T T T T T T T T T T T T T T T T T T T T T T T T T T T T T T T T T T T T T T T T T T T T T T T T T T T T T T T T T T T T T T T T T T T T T T T T T T T T T T T T T T T T T T T T T T T T T T T T T T T T T T T T T T T T T T T T T T T T T T T T T T T T T T T T T T T T T T T T T T T T T T T T T T T T T T U T T T T T Y T T T U T T T T T T T T T T T Y Y P P P J J D D D S S A C C C N x x N x g 3.uX5XF.T Q [ *.Q Q [ ....#.#.#.#.#.#.#.#.#.#.#.#.#.#.#.#.#.#...",
"= D D D D P P P P T Y P Y T Y P T T T Y T T T Y T T Y P J J S g g g g s s g s s s g g s g g g g g g k g k x x k x x x k x x x k x x x x x x x k x x x x x x x x x x x x x x x x x M x x x x x x x x x x x N N N N N N N N N N N N C N N N N N N N N N N N N C C C C C C C C C C C A C C C C C C C C C C C C C C A A A A A S A A S S S A A S A A A S A A A S S A S D D D D D D D D D D D D D D D D D D D D D D D D D H D J J J D H J J J J P J H J P P J P P P J P P P J P P P P P P P P P P P P P P P P P Y P P P Y P P P Y P P P Y P P Y T Y P Y T Y P P Y P J J G b g c.c.Q P D J J J P Y P P Y T Y P Y T Y P Y T Y P Y T Y P Y T Y P Y T Y P Y T Y P Y T Y P Y T Y P Y T Y P Y T Y P Y T Y P Y T Y P Y T Y P Y T Y P Y T Y P Y T Y P Y T Y P Y T Y P Y T Y P Y T Y P Y T Y P T T U P Y T Y P Y T Y P Y T Y P Y T Y P Y T Y P Y T Y P Y T Y P Y U Y P Y T Y P Y T Y P Y T Y P Y T Y P Y T Y P Y U Y P Y T Y P Y T Y P Y T Y P Y T Y P Y T Y P Y U Y P Y T Y P Y T Y P Y T Y P P T P P P Y P P P Y P P P Y P P P Y P P P Y P P P Y P P P Y P P P P P J J J D D D D S A A C C N N N M x x g u.pX-XH.T Q [ *.Q T Q [ [ [ ..#...[ ..#...[ ..#...[ ..#...[ ....",
"= D D D D D J P P P P P P P P P P P P P P P P P Y Y P P J D g g g s u u u u u s s s s s s s g g g g g g g g g g g g g g g g g g g g g g g g g g g g g g g g g g g g g g g g g g g g g g g g g g g g g g g g g g g g g g g g g g g g g g g g g g g g g g g g g g g g g g g g g g g g g g g g g g g g g g g g g g g g g g g g g g g g g g g g g g g g g g g g g g g g g g g g j k k k k k k k k k k k k k k k k k k k k k k k k k k k k k k k k x x x x x x x x x x x x x x x x x x x x x x x x x x x x x x x x x x x x x x x N N N C C N C C C N C C C N N N N x x x x h F.p.T S M N N C C C C C C C C C C C C C C C C C C C C C C S S S S S S S S S S S S S S S S S S S S S S S S D D D D D D D D D D D D D D D D D D D D D D D D D D D D D D D D D D D D D D D D D D D D D D D D D D D D D D D D D D D D D D D D D D D D D D D D D D D D D J J J J J J J J J J J J J J J J J J J J J J J J J J J J J J J J J J J J J J J J J J J J J J J J J J J J J J D J J G J J J J J J J J J J J J J J J J J J J G J J J J J J J J J J J G J J J J H H D D D D D D D D D S A A C C C N N N x x x x x g f.:X9XL.T Q [ #.Q T T Q Q Q Q Q Q Q Q Q Q Q Q Q Q Q Q Q Q Q Q Q "
};
